ncols         155
nrows         97
xllcorner     94.930236673671
yllcorner     29.772976001777
cellsize      0.00032152028027047
NODATA_value  -9999
0.0001 0.0001 0.0001 0.0001 0.0001 0.0001 0.0001 0.0001 0.08133333 0.2538875 0.2607324 0.006873611 0.0001583333 0.00015 0.00015 0.0001 0.0001 0.0026 0.0083 0.0251 0.185275 0.071 0.1881 0.4738 1.1564 2.0091 4.3981 0.5575 0.5173 0.0131 6.346275 7.511867 7.16065 5.9826 5.03545 4.1278 2.3451 1.22045 0.1284 8.022992 9.185766 6.008872 3.511144 1.520378 0.6787889 0.5037166 0.5201833 0.5276833 0.5273 0.5273 0.60235 0.8895348 1.0424 1.0201 1.0201 1.0201 1.0201 1.0201 1.0201 1.047675 1.019275 0.9413 0.4099762 0.1011197 0.07258527 0.06511719 0.0585 0.8265101 1.062936 0.964532 0.9228655 0.9065989 0.8995959 0.8977672 0.896 0.4769234 0.0574 0.4525549 0.6468498 0.644746 0.6442334 0.6437 0.2149265 0.0005118977 0.0005013591 0.0005000863 0.0005 0.0005 0.0003895605 0.0003097933 0.0003011118 0.0003001397 0.0003000093 0.0003 0.0003 0.0005500029 0.0008 0.0006670329 0.0006003662 0.0006 0.4743653 0.7069552 0.7048848 0.7044634 0.7044044 0.7044 0.7044 0.7044 0.7044 0.2378525 0.002184104 0.0007611157 0.0002883897 0.0001498098 0.0001131065 0.0001037446 0.0001011849 0.0001004158 0.0001001351 0.0001000671 0.0001 0.0008508538 0.001212345 0.001204234 0.001201533 0.001200505 0.001200252 0.0012 0.000540616 0.0002046748 0.0002013767 0.0002004304 0.0002001501 0.000200049 0.0002000244 0.0002 0.0003698338 0.0004265007 0.0004095376 0.0004034408 0.0004012539 0.0004004622 0.0004001694 0.0004000639 0.0004000214 0.0004000107 0.0004 0.003493266 0.002841689 0.001303686 0.000601814 0.0002978286 0.0001736279 0.0001268874 0.0001136775 
0.0001012346 0.0001 0.0001 0.0001 0.0001 0.0001 0.0001 0.0001 0.0001 0.2438 0.5177625 0.2744937 0.01358889 0.0001666667 0.00015 0.0002 0.0006 0.02558571 0.0576 0.1697 0.2775167 0.4753 1.2552 2.9802 4.7477 6.0158 5.799833 9.01 9.637 9.3251 8.2143 7.8326 6.4887 14.42055 5.4765 4.5944 2.3125 0.1284 10.85647 12.56025 8.54685 6.4502 3.029567 1.053667 0.4779 0.5048 0.52845 0.5273 0.5273 0.6774 0.8486891 1.087 1.0201 1.0201 1.0201 1.0201 1.0201 1.0201 1.13205 1.09725 0.9413 0.4669799 0.1441034 0.08752143 0.07173438 0.0585 1.007066 1.212221 1.028253 0.948334 0.9170092 0.9032533 0.8995344 0.896 0.4773701 0.0574 0.4570371 0.6500115 0.6457711 0.6447668 0.6437 0.2149707 0.0005316161 0.000503818 0.0005002591 0.0005 0.0005 0.0004292534 0.0003260724 0.0003029162 0.0003003912 0.000300028 0.0003 0.0003 0.0005500087 0.0008 0.0006673993 0.0006007324 0.0006 0.4805728 0.7106245 0.705664 0.7045772 0.7044131 0.7044 0.7044 0.7044 0.7044 0.2409814 0.004481517 0.001547106 0.0005236898 0.0002125514 0.000128928 0.00010795 0.0001024416 0.0001008421 0.0001002709 0.0001001343 0.0001 0.0008694652 0.001225344 0.001208607 0.001203085 0.001201011 0.001200504 0.0012 0.0005493294 0.0002101976 0.0002029368 0.00020089 0.0002003032 0.0002000981 0.0002000488 0.0002 0.0004067321 0.0004533919 0.0004192113 0.0004068989 0.0004025027 0.000400921 0.0004003379 0.0004001277 0.0004000427 0.0004000214 0.0004 0.006113261 0.00510507 0.002354733 0.001065264 0.0004910627 0.0002491157 0.0001533074 0.0001184607 0.0001088943 
0.0001 0.0001037037 0.0001 0.0001 0.0001 0.0001 0.0001 0.0001 0.0001 0.2820046 0.4875 0.548025 0.3231963 0.04045 0.0002 0.004366667 0.01344 0.0265 0.0834 1.33076 0.2421 0.6819 1.8282 3.5209 5.3067 7.5023 8.8956 9.7043 12.268 15.1132 18.4448 21.143 22.6624 14.93212 23.0546 22.6751 22.0834 18.0065 14.4345 15.97315 10.686 6.4077 2.2569 0.4241 0.48 0.5296 1.63545 0.5273 0.8275 1.036156 1.1539 2.047252 1.0201 1.0201 1.0201 1.0201 1.0201 1.313602 1.2532 0.9413 0.5792783 0.2282458 0.1190955 0.08496875 0.0585 1.330143 1.489173 1.150448 0.997043 0.9372678 0.910691 0.9030687 0.896 0.4787103 0.0574 0.4665475 0.6564211 0.6477799 0.6458336 0.6437 0.2150887 0.0005833943 0.0005106767 0.0005007773 0.0005 0.0005 0.0005398864 0.0003695524 0.0003075751 0.0003010898 0.0003000838 0.0003 0.0003 0.0005500262 0.0008 0.0006681323 0.0006014648 0.0006 0.4947101 0.7193208 0.7076604 0.7048922 0.7044393 0.7044 0.7044 0.7044 0.7044 0.2471317 0.009159169 0.003234896 0.001050484 0.0003559373 0.0001646476 0.0001170695 0.0001050669 0.0001017137 0.0001005442 0.0001002686 0.0001 0.0009080526 0.001252237 0.001217571 0.001206223 0.001202026 0.001201007 0.0012 0.0005685833 0.0002223972 0.0002063373 0.0002018582 0.000200615 0.0002001968 0.0002000977 0.0002 0.000480615 0.0005075416 0.0004387718 0.0004138623 0.0004049998 0.0004018347 0.0004006735 0.0004002549 0.0004000854 0.0004000427 0.0004 0.01067051 0.009114446 0.004268087 0.001932678 0.0008634344 0.0003996781 0.0002100756 0.0001375934 0.0001122532 0.0001055353 
0.0001203125 0.0001 0.0001111111 0.0001 0.0001 0.0001 0.0001 0.0001 0.09935834 0.30985 0.5132146 0.4875 0.60855 0.479315 0.121 0.2261 0.0123 0.0276 1.1443 5.32854 6.101 7.9337 9.0874 9.4457 9.6117 9.785 10.83032 11.3562 13.2675 14.7966 15.0346 14.4049 16.91592 15.4284 16.4821 16.9882 17.4842 20.4437 19.9801 15.33195 18.792 17.5444 15.8399 12.6872 8.4275 5.01505 4.3572 1.1277 1.635925 1.1539 3.190475 2.8437 2.028088 1.0201 1.0201 1.0201 1.727906 1.5651 0.9413 0.8025132 0.3859509 0.1873491 0.1114375 0.0585 1.884016 1.991908 1.386149 1.089463 0.9757305 0.9259355 0.9101375 0.896 0.4827309 0.0574 0.487494 0.6696235 0.6516724 0.6479672 0.6437 0.2154071 0.0007181527 0.0005296982 0.0005023319 0.0005 0.0005 0.000853906 0.0004861835 0.0003194559 0.0003030178 0.0003002515 0.0003 0.0003 0.0005500788 0.0008 0.0006695996 0.0006029297 0.0006 0.5260367 0.7394993 0.7127044 0.7057589 0.7045179 0.7044 0.7044 0.7044 0.7044 0.2588699 0.01845729 0.006799477 0.002220745 0.0006844656 0.0002462426 0.0001371034 0.0001105966 0.0001035085 0.0001010955 0.0001005371 0.0001 0.0009880908 0.00130806 0.00123606 0.001212591 0.001204063 0.001202014 0.0012 0.0006110661 0.0002494344 0.0002138325 0.0002039248 0.0002012547 0.0002003951 0.0002001953 0.0002 0.0006277638 0.0006163135 0.0004783828 0.0004279284 0.0004100041 0.0004036543 0.0004013411 0.0004005087 0.0004001706 0.0004000854 0.0004 0.0184717 0.01610963 0.007700725 0.003532984 0.001570554 0.0006944966 0.0003252531 0.0001792847 0.000125689 0.0001078065 0.0001032642 
0.000125 0.0001359375 0.0001 0.0001333333 0.0001 0.0001 0.0001 0.001433333 0.08605 0.30985 0.53365 0.7218583 0.4875 0.7296 1.058275 0.121 0.545 1.9023 3.6817 9.94175 16.5345 18.686 18.7133 16.8172 14.1221 13.2549 16.4475 13.3792 15.0949 15.5798 15.1739 14.2345 15.30983 13.6223 13.4763 14.2473 14.1633 14.0923 14.0827 16.66615 14.0164 13.8199 13.4571 11.9177 9.4627 9.7783 6.8333 3.7348 1.1539 5.16685 4.1507 2.29045 2.08995 2.71185 1.0201 2.761325 2.1889 0.9413 1.275275 0.6543056 0.3391722 0.164375 0.0585 2.767313 2.862661 1.847591 1.265472 1.045385 0.9575315 0.924275 0.896 0.4947926 0.0574 0.5359399 0.6975532 0.6590829 0.6522344 0.6437 0.2162811 0.001065364 0.0005820988 0.0005069959 0.0005 0.0005 0.001765372 0.0008009374 0.0003493141 0.000308299 0.0003007544 0.0003 0.0003 0.0005502363 0.0008 0.0006725391 0.0006058594 0.0006 0.5931718 0.7851384 0.7252365 0.7081229 0.7047536 0.7044 0.7044 0.7044 0.7044 0.2804985 0.03641044 0.01417085 0.004790572 0.001437008 0.0004346566 0.0001817328 0.0001223386 0.000107239 0.0001022122 0.0001010742 0.0001 0.00115377 0.001424159 0.001274434 0.001225586 0.001208159 0.001204028 0.0012 0.0007043619 0.0003093845 0.0002305178 0.0002084009 0.0002025788 0.0002007947 0.0002003906 0.0002 0.0009185557 0.0008338559 0.0005586437 0.000456441 0.0004200638 0.0004072806 0.0004026679 0.0004010144 0.0004003409 0.0004001709 0.0004 0.0316 0.0281204 0.0137664 0.006442086 0.002893686 0.001263178 0.0005547964 0.0002655157 0.0001554471 0.0001168913 0.0001047286 0.0001017997 
0.0001 0.00015 0.00019375 0.0001 0.0002 0.0001 0.0006333333 0.0025 0.0025 0.25315 0.6739 0.6739 1.052133 0.4875 0.9717 2.6529 5.6487 9.2088 13.4498 12.88232 19.48846 21.0148 24.8515 27.4686 28.3799 28.28263 26.9157 23.994 20.8522 20.0057 19.9658 17.9257 19.48562 16.2432 16.064 16.7806 16.5769 16.4214 16.53775 16.5141 16.6116 16.5167 16.1673 15.6931 15.0926 13.66297 14.4965 13.7679 11.2121 5.9505 2.3509 8.27295 2.23 1.9499 5.6474 3.4365 0.9413 2.467133 1.0039 0.6887667 0.27025 0.0585 4.035579 4.204772 2.7704 1.612811 1.159561 1.024044 0.95255 0.896 0.5309778 0.0574 0.6544687 0.7591106 0.6727801 0.6607687 0.6437 0.2187492 0.001949794 0.0007253087 0.0005209877 0.0005 0.0005 0.004481311 0.001657133 0.0004230453 0.0003226337 0.0003022634 0.0003 0.0003 0.0005507087 0.0008 0.0006784378 0.0006117187 0.0006 0.7311801 0.8851665 0.7557409 0.7145077 0.705461 0.7044 0.7044 0.7044 0.7044 0.3187061 0.06987325 0.02901469 0.01034336 0.0031545 0.0008738517 0.0002826707 0.0001474472 0.0001150803 0.0001044882 0.0001021484 0.0001 0.001494879 0.001665597 0.001354602 0.00125228 0.001216421 0.001208057 0.0012 0.000907542 0.0004419523 0.0002679534 0.0002182478 0.0002053523 0.0002016028 0.0002007812 0.0002 0.001487089 0.001266007 0.000721127 0.0005144339 0.00044037 0.0004145191 0.0004053022 0.0004020204 0.000400681 0.0004003418 0.0004 0.05328926 0.0483943 0.02431645 0.01165044 0.005332318 0.0023435 0.001005241 0.0004407926 0.0002183559 0.0001373987 0.0001105866 0.0001026885 0.0001009108 
0.000125 0.0001 0.0002 0.000375 0.0001 0.0004 0.00278 0.0014 0.0036 0.14246 0.5027 0.8451 0.81224 1.8238 3.3802 5.8588 8.2915 10.8663 13.6153 15.10764 17.1303 24.0767 30.2271 36.3702 41.7388 37.51713 45.2844 45.8867 42.2011 36.7359 30.3932 28.5701 28.67358 26.3179 22.5685 19.4971 19.4572 18.9883 18.92658 19.1277 19.5122 19.7803 19.5115 18.9354 18.3493 17.58308 17.7434 17.5044 17.5962 17.9958 16.1977 9.497983 12.3132 8.5447 7.415675 6.8167 4.9343 7.42724 1.5258 0.482 0.0585 5.83835 5.605667 4.6398 2.36885 1.30255 1.167033 1.0091 0.896 0.6395333 0.0574 0.9609802 0.9026917 0.6968028 0.6778375 0.6437 0.2260105 0.004173457 0.001112963 0.000562963 0.0005 0.0005 0.01281496 0.004009054 0.0006012346 0.0003611111 0.0003067901 0.0003 0.0003 0.0005521262 0.0008 0.0006903137 0.0006234375 0.0006 1.000161 1.09586 0.8280994 0.7315403 0.707583 0.7044 0.7044 0.7044 0.7044 0.3828862 0.129619 0.05791931 0.02208142 0.007043344 0.001905319 0.0005148386 0.0002013975 0.0001317763 0.0001091678 0.0001042969 0.0001 0.002190301 0.002166138 0.001523079 0.001307574 0.001233151 0.001216113 0.0012 0.00134456 0.000733245 0.0003523628 0.0002402489 0.0002112486 0.0002032458 0.0002015625 0.0002 0.002583056 0.00211621 0.001049089 0.0006327209 0.0004815709 0.0004290099 0.0004105291 0.0004040183 0.0004013593 0.0004006836 0.0004 0.08840371 0.08199141 0.04236192 0.02082956 0.009757871 0.004363893 0.00187519 0.0007914166 0.0003491153 0.000181846 0.0001241063 0.0001062438 0.0001014097 0.0001004119 
0.0001388889 0.00015 0.0001 0.0003 0.001 0.001933333 0.0031 0.0089 0.0177 0.0553 0.133 0.2946 0.8382167 0.6102 1.4342 2.6477 5.5262 8.8003 13.0832 14.59165 18.2596 21.09452 25.7684 31.9646 38.9102 38.16993 43.8738 47.0546 48.6795 47.9133 46.6111 41.47273 43.4496 39.535 35.6485 26.2535 22.7851 21.3568 23.56057 21.1512 21.7543 22.9394 22.8345 21.9442 22.34977 20.8353 18.9814 17.2636 15.6144 14.1267 12.9271 14.46902 10.969 9.5886 8.3645 14.9771 14.7187 12.53063 15.0161 12.7625 9.7327 7.5374 6.0248 3.2548 6.52295 1.4829 1.1222 0.896 0.9652 0.0574 1.790421 1.261367 0.7347333 0.711975 0.6437 0.2485106 0.009681482 0.00215 0.0006888889 0.0005 0.0005 0.03919563 0.01054383 0.00102037 0.000462963 0.0003203704 0.0003 0.0003 0.0005563786 0.0008 0.0007143799 0.000646875 0.0006 1.488739 1.517229 0.9940775 0.776272 0.7139488 0.7044 0.7044 0.7044 0.7044 0.4844611 0.2308307 0.1118529 0.04617347 0.01573153 0.004339267 0.001059233 0.0003174573 0.0001678253 0.0001189098 0.0001085937 0.0001 0.003586058 0.003196402 0.001878743 0.001423268 0.001267227 0.001232227 0.0012 0.002268631 0.001366655 0.000542954 0.000290126 0.0002240083 0.0002066124 0.000203125 0.0002 0.004657945 0.003767023 0.001707258 0.0008743496 0.0005656601 0.0004581531 0.0004208995 0.000407977 0.0004027107 0.0004013672 0.0004 0.1439836 0.1365516 0.07267965 0.03674302 0.01766309 0.008082577 0.003527946 0.001481156 0.0006164691 0.0002766242 0.0001542525 0.0001146612 0.0001034054 0.0001006648 0.0001001591 
0.0001611111 0.0001666667 0.0002 0.0005 0.0017 0.00275 0.0053 0.0131 0.0425 0.1076 0.2536 0.5468 0.6093333 0.9088 1.7189 2.9879 4.3484 6.999 8.578317 10.5342 14.9273 20.0614 18.3054 22.8141 27.157 31.04447 32.0554 37.1017 42.2029 47.2155 50.1887 46.10615 49.6237 47.2206 43.0061 41.2118 35.1804 31.5125 30.90212 29.2269 28.4352 25.6679 27.1246 27.5812 26.87037 26.4532 25.1353 23.3134 21.5033 19.6185 17.9057 17.89957 16.5014 15.6771 15.2022 17.47489 20.3974 18.1624 18.5915 16.1014 15.4956 14.6977 13.206 11.7827 8.651783 9.5714 5.6304 1.9422 0.0574 4.100433 2.2236 0.78025 0.78025 0.6437 0.3223646 0.02309444 0.004883333 0.001066667 0.0005 0.0005 0.1253788 0.02893148 0.001972222 0.0007277778 0.0003611111 0.0003 0.0003 0.0005691358 0.0008 0.0007637696 0.00069375 0.0006 2.294036 2.302502 1.357816 0.8913698 0.7330463 0.7044 0.7044 0.7044 0.7044 0.634643 0.3916761 0.2071252 0.09369069 0.03474287 0.01008685 0.002364869 0.0005660837 0.0002467464 0.0001395419 0.0001171875 0.0001 0.006323151 0.005290205 0.002630877 0.001668124 0.001337228 0.001264453 0.0012 0.004179161 0.002723292 0.0009720711 0.000404603 0.0002521878 0.0002135872 0.00020625 0.0002 0.008498283 0.006917613 0.003015884 0.00136757 0.0007383199 0.0005171584 0.0004415019 0.0004157991 0.0004053976 0.0004027344 0.0004 0.2297353 0.2231718 0.1226274 0.06385554 0.03155605 0.01481747 0.006615752 0.002814512 0.001153573 0.000475384 0.00022045 0.0001340387 0.0001082688 0.000101676 0.0001002712 0.000100047 
0.0001555556 0.0001666667 0.0002 0.0005 0.0015 0.00265 0.0039 0.0129 0.0329 0.079 0.1767 0.3759 0.5438 0.9197 1.4595 2.027 2.9718 4.7857 6.3469 7.2675 10.4054 14.1242 16.48423 16.657 20.4244 20.2485 24.0219 28.02 32.35 37.0533 41.6221 42.14747 45.1417 46.9918 48.603 50.1029 48.9169 41.88637 43.9505 38.2148 29.4806 29.6148 29.547 31.6034 29.89385 32.8049 32.2727 30.8726 29.1527 27.0315 24.3781 25.1006 23.9936 22.839 22.6194 22.8181 20.7017 19.19638 19.549 18.5576 17.0775 14.9218 13.0755 13.15942 13.0521 12.7668 13.1323 11.4769 8.7135 3.5304 5.746675 0.9168 0.6437 0.578675 0.05513333 0.01195 0.0022 0.0005 0.0005 0.4156208 0.08136111 0.004033333 0.0014 0.0004833333 0.0003 0.0003 0.0006074074 0.0008 0.0008675781 0.0007875 0.0006 3.44741 3.624395 2.10374 1.17937 0.7903389 0.7044 0.7044 0.7044 0.7044 0.8415676 0.6287129 0.3638912 0.1824241 0.07506046 0.02358755 0.005580607 0.001092387 0.0004216135 0.0001842507 0.000134375 0.0001 0.01151468 0.009460764 0.004217164 0.002192688 0.001482778 0.001328906 0.0012 0.008016514 0.005569464 0.001930666 0.0006697454 0.0003158017 0.0002282617 0.0002125 0.0002 0.01541062 0.01279988 0.005582635 0.002370329 0.001094689 0.0006376936 0.000482577 0.0004312045 0.0004107241 0.0004054687 0.0004 0.3582127 0.3571952 0.2031332 0.1091869 0.05556201 0.02681774 0.01228839 0.005346272 0.002212597 0.000884667 0.0003634558 0.0001780293 0.0001198649 0.0001042219 0.0001007197 0.0001000864 0.0001000076 
0.0001333333 0.0001333333 0.0001 0.0003 0.0008 0.001833333 0.0027 0.0074 0.0191 0.046 0.0914 0.1675333 0.1912 0.3204 0.6362 1.1826 2.058 3.3557 4.4781 5.1393 7.4219 10.1599 13.2676 13.12158 15.3504 15.2454 18.0183 20.9088 24.0137 27.4481 31.2003 34.27935 35.1083 38.9036 42.3905 44.534 45.3672 45.03411 46.3907 43.8411 44.3085 38.6424 33.2351 30.336 31.44055 30.5844 31.2452 30.2425 29.6815 28.8714 26.12042 27.7409 26.2318 24.576 22.9322 20.7501 19.73134 17.58776 16.7423 17.0893 16.5264 15.7649 14.7048 14.59987 13.1354 12.7649 12.7124 12.6036 12.1264 11.0691 10.09358 7.4704 1.5095 0.1415 0.02 0.0039 3.0258 0.0005 1.42095 0.2328333 0.0082 0.00305 0.00085 0.0003 0.0003 0.0007222222 0.0008 0.001095313 0.000975 0.0006 4.787348 5.524181 3.477509 1.871494 0.9622167 0.7044 0.7044 0.7044 0.7044 1.111571 0.9510648 0.5992343 0.3358395 0.1565998 0.05483292 0.01374866 0.00218107 0.0008120885 0.000284002 0.00016875 0.0001 0.02090614 0.01752132 0.007531242 0.003329728 0.001790522 0.001457812 0.0012 0.0154445 0.01137901 0.004042547 0.001286831 0.00046262 0.0002597851 0.000225 0.0002 0.02743484 0.02348415 0.0105235 0.004391973 0.001832428 0.0008865846 0.0005650549 0.0004614412 0.0004212348 0.0004109375 0.0004 0.5442768 0.5584866 0.3296874 0.1834117 0.09630063 0.04784824 0.02253715 0.01006783 0.004260184 0.001710806 0.0006668013 0.0002763933 0.0001471727 0.0001105218 0.0001019001 0.0001002439 0.0001000152 0.0001 
0.0001111111 0.0001 0.0001 0.0002 0.0005 0.001166667 0.0016 0.0044 0.0114 0.0246 0.0604 0.09586667 0.1096 0.2329 0.4642 0.8672 1.5174 2.4884 3.303417 3.832 5.5601 7.6394 10.0008 12.5609 12.45295 12.0402 14.1564 16.3414 18.6834 21.3212 23.27198 24.4366 28.1671 32.7086 37.6895 41.8919 41.2918 40.75535 44.2876 47.5921 47.3932 45.4839 41.6536 35.9722 35.2091 28.1055 27.8236 27.8542 25.5765 24.4481 24.05945 23.53 21.6402 20.2311 18.9667 17.6185 16.7683 15.43898 14.1775 14.5574 15.1138 15.7706 16.4747 13.32928 17.1567 17.0432 16.0604 16.917 17.7996 13.89827 18.5745 19.0003 19.3927 15.2707 10.1575 7.1093 6.14905 4.9895 0.6753 0.0185 0.0047 0.0014 0.18815 0.0003 0.001066667 0.0008 0.00163125 0.00135 0.0006 6.008482 7.617867 5.522444 3.432233 1.47785 0.7044 0.7044 0.7044 0.7044 1.461627 1.365136 0.9151216 0.5729364 0.3096451 0.124937 0.03521729 0.004344444 0.001684259 0.0005145062 0.0002375 0.0001 0.0367782 0.03242618 0.01432016 0.005817618 0.002455941 0.001715625 0.0012 0.02916358 0.0228179 0.008596502 0.002722634 0.0008085048 0.0003293553 0.00025 0.0002 0.04749823 0.0422401 0.01980101 0.008411352 0.00335815 0.001406419 0.0007327161 0.000520619 0.0004418296 0.000421875 0.0004 0.8033312 0.8504748 0.5229012 0.3020838 0.1640772 0.08407404 0.04075064 0.01872006 0.008140763 0.003342654 0.001297135 0.0004926307 0.0002106386 0.0001259107 0.0001049688 0.0001006859 0.0001000457 0.0001 0.0001 
0.0001 0.0001 0.000125 0.0001 0.0002666667 0.0004 0.001 0.0028 0.0061 0.0156 0.0376 0.0647 0.085 0.181 0.3619 0.6787 1.193 1.6207 1.9656 3.0395 4.4237 6.0855 7.9589 9.9653 10.63644 11.77356 11.8951 13.5413 15.1331 16.7349 18.5646 18.4908 20.6874 23.8903 28.5393 40.0385 32.3406 35.08463 34.8542 36.902 38.1207 38.4663 38.249 38.88573 37.1504 38.4805 35.2063 31.2418 26.1932 21.4627 22.2613 18.3036 16.6757 16.0258 15.5452 14.2384 13.74853 14.0678 11.63842 8.6521 8.6649 8.828 9.0906 10.90282 9.4135 9.4711 9.7759 10.4123 11.5348 12.85073 12.2852 13.1905 14.2637 15.5645 15.8329 13.8563 9.965333 10.9348 10.3993 6.7371 3.206 0.7488 2.56315 0.0021 0.0008 0.003025 0.0021 0.0006 7.747279 9.311017 6.975033 6.56755 3.02475 0.7044 0.7044 0.7044 0.7044 1.930261 1.912524 1.299324 0.8835611 0.5624796 0.2727685 0.09368704 0.008355555 0.003609259 0.001068518 0.000375 0.0001 0.0610193 0.05825463 0.02773889 0.01128503 0.003936574 0.00223125 0.0012 0.053043 0.04430165 0.01810967 0.006042387 0.001637449 0.0004880659 0.0003 0.0002 0.07931227 0.07380885 0.03667181 0.01623964 0.006491564 0.002502846 0.001080041 0.0006363683 0.0004817387 0.00044375 0.0004 1.148105 1.257045 0.8077753 0.4866043 0.2743239 0.1453233 0.07258441 0.03431436 0.01535316 0.006492661 0.002576475 0.0009588249 0.0003561043 0.000162963 0.0001128487 0.0001019204 0.0001001372 0.0001 0.0001 0.0001 
0.0001 0.00010625 0.0001 0.0001 0.0001833333 0.0003 0.0007 0.0018 0.0048 0.0121 0.0292 0.04803333 0.0664 0.1423 0.2865 0.5417 0.9609 1.288333 1.5989 2.4977 3.6714 5.0957 6.7102 8.4333 8.97312 10.1825 10.5936 12.1334 13.5325 14.7362 15.91522 15.6679 16.2027 16.1143 36.4761 25.1356 27.5537 28.93402 30.1799 32.7614 35.198 36.9274 38.9919 36.60042 42.0604 40.6774 37.3793 34.3659 31.3001 25.9855 22.7478 19.8379 15.4566 12.7203 11.4392 10.3142 11.10415 9.484 8.8917 7.578443 6.6023 6.5345 7.036133 6.5739 6.7075 6.9482 7.3091 7.9787 8.0938 9.024933 8.8165 9.3977 9.9148 10.3818 10.8102 12.102 11.2302 11.6719 12.1245 12.102 11.3227 9.3443 7.60465 5.282 0.0071 0.0036 0.0006 10.84547 12.35305 7.79 7.79 5.3451 5.573272 0.7044 0.7044 0.7044 2.500767 2.723622 1.792256 1.221694 0.8840222 0.5449666 0.25845 0.01488889 0.007722222 0.002455556 0.00065 0.0001 0.09245868 0.09889445 0.05262407 0.02324537 0.007347222 0.0032625 0.0012 0.09168186 0.08222407 0.03706605 0.01361481 0.003648148 0.0008641976 0.0004 0.0002 0.1266853 0.1242412 0.06612264 0.03106276 0.01283004 0.004826132 0.001818519 0.0008638889 0.0005577161 0.0004875 0.0004 1.584969 1.796798 1.210252 0.7640846 0.448989 0.2467392 0.1272435 0.06198731 0.02852243 0.01243333 0.005103704 0.001940946 0.0006847737 0.0002507545 0.0001327846 0.0001053498 0.0001004115 0.0001 0.0001 0.0001 0.0001 
0.0001015625 0.0001 0.0001 0.0001 0.00014 0.0001 0.0004 0.0012 0.0034 0.0087 0.01508333 0.0212 0.0488 0.1058 0.2158 0.4142 0.7468 1.006417 1.2648 2.0129 3.0161 4.2672 5.7241 6.5103 7.3177 8.9668 9.939887 11.024 12.6213 14.1755 14.46405 15.686 17.156 18.4353 19.9393 21.5586 22.96193 23.3509 25.3248 27.3361 30.6693 31.2992 30.9725 33.53117 32.1783 32.5744 31.6195 30.0391 28.3641 28.08948 26.5238 24.3733 20.8525 15.9071 11.5289 9.8651 9.804083 8.6554 7.5223 6.8673 5.8485 5.65 5.825217 5.5398 5.4253 5.3667 5.4287 4.9491 6.0018 6.635317 7.4175 8.125 8.8553 9.5287 10.1459 9.675217 10.7365 11.3329 11.9375 12.5719 13.3223 14.4296 13.98063 15.8211 31.9366 21.1387 18.0646 14.4712 11.01305 10.2349 5.3451 9.293025 8.2079 4.315933 0.7044 2.877567 3.833967 2.587133 1.749767 1.039867 0.87545 0.73675 0.0227 0.0159 0.006066666 0.0012 0.0001 0.1219458 0.1543278 0.09346111 0.04889444 0.01551667 0.005325 0.0012 0.1493552 0.1440259 0.0721463 0.0305 0.008551852 0.001792593 0.0006 0.0002 0.1919547 0.1996858 0.1149006 0.05813704 0.02533025 0.009720988 0.003438889 0.001318519 0.0006981482 0.000575 0.0004 2.113544 2.476723 1.749208 1.164461 0.7170874 0.4107054 0.2191743 0.1103381 0.05221811 0.02340576 0.009943415 0.003950823 0.001416872 0.000455144 0.0001823045 0.0001148148 0.0001012346 0.0001 0.0001 0.0001 0.0001 0.0001 
0.0001 0.0001 0.0001 0.0001 0.0001 0.0001 0.0003 0.0008 0.0021 0.0056 0.01 0.0137 0.0321 0.071 0.1478 0.2902 0.5359 0.7413167 0.9312 1.5224 2.345 3.4113 4.7029 5.412433 6.1736 7.7589 9.393 9.4669 11.0105 12.522 13.28203 13.9967 15.397 16.7477 18.0746 19.4074 20.34302 20.7654 22.2033 23.6474 26.7411 31.4832 28.124 29.04135 28.8599 29.549 29.9226 29.7328 28.9397 28.5694 27.4237 25.0938 22.3555 19.4699 14.6063 10.9065 11.58635 9.5993 7.6593 6.3964 6.000712 5.1314 5.509666 5.5217 5.4714 5.1213 4.8976 5.0478 4.856367 4.8654 4.6169 5.4935 6.2378 6.7458 7.3244 7.836817 7.8041 8.2939 8.7809 9.2046 9.5093 14.48935 10.0967 28.9101 8.2533 8.5355 8.9654 9.427 10.34703 9.9191 10.5292 12.3803 8.9175 3.3259 5.1816 5.1092 2.8191 3.5736 1.3687 0.307 1.4439 1.398575 0.0296 0.0158 0.0023 0.0001 0.1260333 0.2185 0.14315 0.1013333 0.0359 0.00945 0.0012 0.2309875 0.2361167 0.1291167 0.06684444 0.02047778 0.004177778 0.001 0.0002 0.2740931 0.3034444 0.1900815 0.1055315 0.04908889 0.01979074 0.007111111 0.002261111 0.0009444444 0.00075 0.0004 2.735649 3.294951 2.423177 1.712042 1.112406 0.6689346 0.3699216 0.1932599 0.09434136 0.04341296 0.0189 0.007904321 0.003025926 0.0009222222 0.0003024691 0.0001407407 0.0001037037 0.0001 0.0001 0.0001 0.0001 0.0001 0.0001 
0.0001 0.0001 0.0001 0.0001 0.0001 0.00015 0.0001 0.0004 0.0012 0.0031 0.00585 0.0077 0.0185 0.0418 0.0896 0.1814 0.2734333 0.3463 0.6229 1.0556 1.6866 2.5449 3.6319 4.287533 4.9244 6.3706 7.9055 8.652925 9.43 10.1116 10.9322 12.3798 13.8183 15.1913 16.5145 17.8273 18.46388 19.1485 20.4744 21.7 22.4807 29.9469 27.40647 26.4842 27.6292 28.8018 29.7763 30.358 30.408 29.66302 29.7571 28.0827 25.7842 23.8317 21.5872 18.15765 17.9475 12.5443 9.4833 6.8507 5.3229 5.9385 5.96822 5.2766 5.2537 5.0541 4.7618 4.2887 4.40625 3.9854 3.7095 3.4667 3.6114 4.3133 5.264 5.451 5.746 6.2483 6.8361 7.3923 29.3792 11.41083 10.199 6.8157 7.2652 7.7031 8.1565 8.6872 8.825983 9.3428 10.1672 11.2273 13.3549 11.5869 9.92042 10.26734 11.6572 1.8484 0.6965 1.2933 2.1106 2.49605 2.0102 1.9527 4.2871 0.1385 0.2395 0.472875 0.1975 0.0888 0.0177 0.0012 0.3553 0.3701 0.19735 0.1409 0.0491 0.01053333 0.0018 0.0002 0.3708167 0.4323333 0.2930222 0.1849778 0.09224445 0.03937222 0.01565 0.00435 0.001333333 0.0011 0.0004 3.466299 4.277448 3.19845 2.408954 1.662128 1.065044 0.6100463 0.331713 0.1680056 0.08006111 0.03495741 0.01522037 0.006522222 0.00197037 0.0005851852 0.0002111111 0.0001111111 0.0001 0.0001 0.0001 0.0001 0.0001 0.0001 0.0001 
0.0001 0.0001 0.0001 0.0001 0.0001125 0.0001 0.0001 0.0002 0.0005 0.0014 0.002966667 0.0036 0.0088 0.0204 0.0451 0.0955 0.1538667 0.1913 0.3621 0.6461 1.0857 1.7344 2.5995 3.159983 3.6929 4.9819 6.4141 7.9221 7.6813 8.87218 9.0936 10.5673 12.064 13.4922 14.8066 16.1283 16.70948 17.5064 18.9686 20.5282 21.9925 23.485 24.88347 24.9155 26.2751 27.7223 29.0958 30.1896 30.7897 30.61027 30.6599 29.3837 27.2792 25.4641 23.2543 22.56687 20.6441 17.6414 14.1726 10.6831 7.6504 8.96888 8.23924 7.9729 4.887 4.396 4.2452 4.2316 4.0553 4.0186 3.8302 3.6599 3.4985 3.3053 3.302767 3.0469 3.5206 3.8341 4.6732 11.4984 4.3488 9.098267 4.932 5.5446 6.05 6.5269 6.9687 7.4783 7.7434 8.1015 8.8429 9.8145 12.3224 14.0542 13.7934 15.5259 16.2253 1.6004 0.8787 3.3456 3.271567 4.8788 4.5032 4.3015 9.9539 0.3498 0.6856 0.63585 0.7689 0.743 0.6899 0.6033 0.4614 0.74145 0.2788 0.1159 0.028 0.0034 0.0002 0.4999667 0.586 0.3971 0.3139 0.1680667 0.07296667 0.0357 0.00945 0.0018 0.0018 0.0004 4.257296 5.582867 4.024633 3.224844 2.345872 1.656144 0.9843667 0.5546222 0.29115 0.1493667 0.0635 0.02731667 0.01405556 0.004288889 0.001222222 0.0004 0.0001333333 0.0001 0.0001 0.0001 0.0001 0.0001 0.0001 0.0001 0.0001 
0.0001 0.0001 0.0001 0.000103125 0.0001 0.0001 0.0001333333 0.0001 0.0002 0.0005166667 0.0006 0.0014 0.0034 0.0074 0.0149 0.0341 0.07906666 0.0746 0.1563 0.3121 0.5436 1.005 1.6263 2.106467 2.4849 3.5551 4.8298 6.2895 6.54424 7.5043 7.2238 8.5259 10.0798 11.725 12.9775 13.60792 14.1921 15.4543 16.8129 18.2706 19.7838 21.4244 22.09842 23.0448 24.5817 26.2325 27.9482 29.5881 29.80482 30.825 31.2219 31.279 29.8179 28.59 26.9731 25.28747 24.995 22.7827 20.4272 18.0371 14.8908 12.9478 11.0418 10.9664 8.247 6.5915 5.2175 4.2274 5.577533 3.5801 3.2254 2.8788 2.5165 2.1376 3.058317 1.7495 1.3688 9.7834 2.597 2.1699 2.5547 3.4018 3.1759 4.1119 4.6403 5.2638 5.7062 5.8621 6.1699 6.6807 7.3498 8.4597 10.7855 12.3935 12.70227 15.4065 10.41127 4.827 1.3279 2.6254 4.148667 5.3757 6.6086 7.0077 10.8581 20.9613 0.7753 1.9565 1.1483 1.2425 1.2487 1.2137 1.1513 3.540533 1.0743 1.0114 0.965 0.9109 0.8209 0.6788 3.2317 0.4932 0.301 0.1475 0.0557 0.0157 1.7879 0.0032 0.0004 4.494133 7.65225 4.8824 4.21395 2.97755 2.483033 1.577033 0.9083667 0.4677 0.2878 0.11795 0.04235 0.0302 0.0094 0.002566667 0.0009 0.0002 0.0001 0.0001 0.0001 0.0001 0.0001 0.0001 0.0001 0.0001 0.0001 
0.0001 0.0001 0.0001007813 0.0001 0.0001 0.0001083333 0.0001 0.00014 0.0001 0.0003333333 0.0003 0.0008 0.0023 0.0061 0.015 0.0284 0.05838333 0.0505 0.085 0.1384 0.2731 0.4161 0.9915166 0.7914 1.4438 2.1926 3.0833 4.8098 6.0185 5.9626 7.42086 6.1614 7.3083 10.0303 11.227 11.82975 12.316 13.4543 14.6777 16.0078 17.4532 19.0324 19.7992 20.6884 22.3666 24.0865 25.9395 27.8568 28.46492 29.5797 30.7178 31.0112 30.8876 30.1489 28.856 28.81078 27.0023 24.6551 22.12 19.5381 16.93 16.43792 14.226 14.55196 15.4045 13.7615 12.3821 10.0819 8.683583 7.3256 4.99 4.2298 4.0085 4.0133 3.451667 4.0973 4.1801 4.4219 3.0053 2.8652 2.7687 3.017983 2.6307 2.421 3.0257 3.9918 4.271 4.452867 4.5785 4.9373 5.4599 6.1855 7.6877 9.1024 10.99998 9.7311 7.2375 12.7365 6.0794 3.0166 3.953283 5.6499 7.513 9.0038 13.3682 29.9481 16.8702 3.142 5.2189 6.2262 7.029 7.8267 8.7412 5.829167 9.5362 9.4221 8.8623 7.8958 6.6483 6.179917 5.9869 5.7679 5.107 4.5615 4.114 3.7362 4.934134 3.3965 3.0599 10.4221 7.17478 4.8824 4.524275 3.5455 2.4096 1.494 0.8275 0.4036 0.172 0.090825 0.0639 0.0208 0.0059 0.0015 0.0003 0.0001666667 0.0001 0.0001 0.0001 0.0001 0.0001 0.0001 0.0001 0.0001 0.0001 
0.0001 0.0001001953 0.0001 0.0001 0.0001020833 0.0001 0.0001 0.0001 0.0002 0.00025 0.0006 0.0017 0.0043 0.0106 0.0245 0.0533 0.0514 0.1094 0.2095 0.3382 0.5628 0.869 0.8344333 1.2413 1.6612 2.4417 3.5756 3.6869 4.8832 5.63324 5.7249 9.4683 10.1313 8.9015 9.6606 10.24983 10.6053 11.5753 12.6281 13.8082 15.104 15.89148 16.526 18.0792 19.8021 21.5636 23.3997 25.4011 26.24818 27.5388 29.5183 31.0851 32.2978 32.9099 32.16298 32.8859 32.1524 30.5806 28.4298 25.8093 22.5096 21.50783 19.0293 16.2509 21.2498 19.0605 16.8021 14.66388 14.7121 12.1744 9.7806 7.3297 4.6917 4.4555 5.16755 4.2568 4.0896 3.8874 3.5783 3.5257 3.033467 3.4949 3.483 3.5054 3.5882 2.6093 2.8649 3.06755 3.1267 3.3206 3.7571 4.324 5.1755 6.066467 5.3582 14.0082 9.6749 6.613712 6.5233 3.0484 3.446567 4.0037 5.1063 6.3513 9.4495 17.3901 19.97505 29.0044 4.7998 5.4434 6.1414 6.6727 7.0312 6.830467 7.4408 8.6697 10.162 8.8451 10.9696 8.968066 11.975 12.2325 12.4113 12.2059 11.9867 11.6973 9.474334 10.7559 9.9027 8.4284 6.4649 5.6761 4.04528 3.9931 2.5212 1.3996 0.6719 0.2761 0.0975 0.0652 0.0299 0.008 0.0019 0.0004 0.0001 0.0001666667 0.0001 0.0001 0.0001 0.0001 0.0001 0.0001 0.0001 0.0001 0.0001010315 
0.0001000488 0.0001 0.0001 0.0001005208 0.0001 0.0001 0.0001 0.0001333333 0.0001 0.000275 0.0002 0.0005 0.0014 0.0037 0.0091 0.01948333 0.021 0.0458 0.0947 0.2206 0.3953 0.6603 0.7867333 1.0285 1.4961 2.0246 2.1822 3.3589 4.065117 4.6859 6.8537 6.779737 6.5025 7.5121 8.4236 8.879467 9.2665 10.0782 10.8964 11.8055 12.9315 13.3745 14.3018 15.7847 17.3157 18.855 20.4724 22.4374 23.3566 24.6753 26.912 29.2652 31.545 33.4771 33.34982 34.7001 35.4054 35.0547 32.8249 31.0366 30.7816 25.53422 25.5705 23.5707 21.82271 21.447 18.2819 18.16387 15.7232 13.6017 11.1008 11.0075 25.9744 9.2468 8.459084 4.9356 3.7324 3.4558 3.1827 2.9269 2.94175 2.6194 2.2384 1.7596 1.1731 1.3379 1.5398 2.038167 2.0244 1.9997 2.6571 3.4264 3.8646 4.278367 5.2104 3.2767 3.3874 5.8727 1.398 3.08648 1.8568 3.104 3.9353 4.8943 6.8623 11.8031 18.3772 28.5626 2.4986 3.2299 3.7477 4.0447 4.278567 4.1263 4.1071 4.1534 4.4963 8.0843 8.6303 7.748983 9.5983 10.7243 12.1717 13.5636 14.4013 14.6974 9.108 12.5627 10.2489 8.9908 7.3987 5.5905 3.81645 2.1293 1.1395 0.5241 0.2074 0.0721 0.08063333 0.022 0.0059 0.0014 0.0003 0.0001 0.0002 0.0001 0.0001166667 0.0001 0.0001 0.0001 0.0001 0.0001 0.0001 0.0001017823 0.0001023438 
0.0001 0.0001 0.0001001302 0.0001 0.0001 0.0001 0.0001111111 0.0001 0.0001 0.00015 0.0002666667 0.0001 0.0003 0.0009 0.0025 0.0067 0.0065 0.0164 0.0385 0.0845 0.1732 0.3311 0.47895 0.5902 0.9782 1.4427 2.5332 3.4301 3.248733 4.3457 4.7063 5.4902 5.3607 6.3775 6.87225 7.2769 8.0439 8.6774 9.1939 9.706 10.2652 11.73675 11.1185 12.5474 14.2021 15.5833 17.1022 18.36413 18.9588 21.1282 23.478 25.9956 28.8778 31.8103 30.77852 34.3156 36.6765 38.1299 32.4926 38.4514 28.1964 27.01233 27.1179 26.5604 24.6197 21.25559 21.8758 18.75912 21.5881 21.6665 52.6494 22.5559 16.1195 15.30558 14.4314 13.4284 10.837 7.3039 3.5033 2.6824 3.437417 2.4012 2.1302 1.8929 1.7221 1.6451 1.672667 1.4893 1.1839 1.563 1.8456 3.1159 4.0103 3.022967 2.0512 1.276 0.6605 1.5173 2.20168 1.882675 2.6059 3.5333 4.2178 4.9918 5.9799 8.1272 13.4819 15.3758 23.9219 1.1534 2.0124 1.9552 2.95395 1.8413 1.7198 1.8662 2.2429 2.4836 2.6254 4.46955 2.6953 2.7022 2.6354 2.4718 1.9938 5.87905 1.5346 3.4001 4.9475 5.4575 4.9455 3.4673 1.567025 0.76258 0.2091 0.1001 0.0389 0.0127 0.02206 0.0034 0.0008 0.0002 0.0005 0.0002 0.0001 0.0001333333 0.0001 0.0001041667 0.0001 0.0001 0.0001 0.0001 0.0001042238 0.0001046875 0.0001 
0.0001 0.000100026 0.0001 0.0001 0.0001 0.0001037037 0.0001 0.0001 0.0001166667 0.0001541667 0.0001 0.0002 0.00035 0.0001 0.0003 0.00204 0.0008 0.0024 0.0064 0.0164 0.0391 0.1140333 0.0866 0.177 0.314 0.6377 1.0278 1.5329 2.433233 2.1389 3.2524 3.9547 5.04035 5.176 6.60055 6.4674 7.7927 8.8236 9.0479 9.0028 10.3571 10.62692 11.4464 12.0956 12.8701 14.1095 15.0847 14.7077 16.1293 17.3777 18.9162 20.6153 22.5639 24.447 25.04463 25.921 26.2064 41.7757 28.2489 27.2227 26.25435 25.5819 24.8257 23.6979 22.7762 22.2862 17.5023 23.0468 17.5834 46.4375 15.7312 12.7196 12.9421 12.56878 13.1193 13.1434 11.7608 10.6517 9.9956 6.625 5.742683 3.3696 3.2687 3.4967 2.1333 2.0507 1.97935 1.9732 1.9612 2.3762 2.9566 2.105 1.5795 2.166883 1.4218 0.3981 0.2218 0.5504 1.67 2.456075 3.4497 3.8408 4.4263 4.9916 5.1321 6.8254 9.09935 10.1973 31.6481 1.3627 2.0201 2.757 2.231483 2.9992 3.0275 2.7736 2.3087 1.9758 1.7288 2.1511 1.5392 1.3863 1.249 1.1313 1.3758 1.434117 1.2714 0.8424 0.4729 0.2211 0.0852 0.338 0.8345 0.3335 0.0015 0.0003 0.03042 0.0258 0.0054 0.0001 0.001125 0.0005 0.0002 0.00025 0.00015 0.0001 0.0001111111 0.0001 0.0001006944 0.0001 0.0001 0.0001117438 0.000109375 0.0001 0.0001018519 
0.0001022135 0.0001 0.0001 0.0001 0.0001012346 0.0001 0.0001 0.0001055556 0.0001177083 0.0001 0.00015 0.0001875 0.0001 0.0002 0.0002 0.0004 0.0001 0.0005 0.0018 0.0054 0.0152 0.03238333 0.039 0.0899 0.22 0.437 0.7952 1.3202 1.603133 1.8316 2.5519 3.2868 3.9876 6.6893 6.9332 7.6162 8.2723 8.9868 10.3113 10.3649 10.61963 10.3871 10.1872 9.7813 9.3994 9.2364 10.086 12.8837 10.8852 11.4824 12.4948 13.4627 15.0708 16.5175 18.28867 17.2564 17.239 18.0658 18.8511 19.5602 19.79953 18.5135 18.022 17.3752 17.2052 17.4162 15.91734 18.05008 36.6844 9.6991 9.0795 9.2311 9.3569 10.0289 9.4435 9.4755 9.4351 9.366 9.6299 8.389466 9.8054 9.5725 5.9935 2.054 2.4696 2.3887 2.417133 2.3291 2.3787 2.802 2.2278 2.5064 2.152283 1.9671 1.9714 0.7553 0.8252 1.4472 2.342 2.75322 3.2064 4.0621 4.5753 4.7174 4.6844 5.4261 6.0168 8.0536 17.9539 18.5426 1.0194 1.6956 2.099633 2.1406 2.3944 2.4663 2.3972 2.2917 2.1798 2.1953 2.1226 2.064 1.9843 1.8279 1.4126 1.299317 1.0165 0.6557 0.41 0.2063 0.0829 0.09926666 0.0267 0.007 0.0434 0.0001 0.0001666667 0.01033111 0.0001 0.0001 0.0001 0.00048125 0.00035 0.0002 0.0001976191 0.0001333333 0.0001041667 0.0001 0.0001 0.0001660012 0.0001399691 0.00011875 0.0001 0.0001037037 0.0001018519 
0.000103125 0.0001035156 0.0001 0.0001 0.0001041667 0.0001233333 0.0001731481 0.0002818948 0.0001 0.000125 0.000134375 0.0001 0.00015 0.0001666667 0.00021 0.0001 0.0002 0.0001 0.0003 0.0012 0.004 0.01581667 0.0104 0.0336 0.089 0.2151 0.4715 0.88885 0.9375 1.8577 2.9412 4.2034 5.5041 5.96834 8.23778 8.7171 9.5644 10.0976 10.394 11.8276 12.1028 11.7783 11.6958 11.6722 11.7722 12.1408 12.3292 13.30962 12.7878 13.6248 13.7014 14.1517 13.4553 13.76332 12.9715 12.6186 12.7106 12.9599 13.4869 13.8566 15.31317 14.0623 13.4444 12.1941 11.2327 11.3163 17.0197 11.0657 7.4146 7.4901 7.5642 7.6236 7.6566 8.093467 7.655 7.6145 7.5334 7.4086 7.2403 7.97835 7.0406 6.889 6.8531 7.1522 4.97 3.1888 3.149733 2.5723 2.6503 2.3328 2.6554 2.7178 2.46855 2.0379 0.7564 0.805 1.3813 2.14 2.9591 3.191733 3.5886 4.002 4.5226 4.292 4.4325 4.980883 5.4654 6.9308 12.5557 25.3466 0.5983 1.2476 1.66085 1.7578 2.1095 2.3131 2.4061 2.4392 2.426967 2.448 2.4478 4.3568 1.9848 1.8939 1.5746 1.22705 1.145 0.7193 0.3431 0.1393 0.0478 0.0368 0.015 0.0039 0.0008 0.0001 0.0001 0.004425 0.005163333 0.002530555 0.001913333 0.001175 0.0007611111 0.0003666667 0.0002 0.0001166667 0.0001 0.0001 0.0002440972 0.0001824074 0.0001375 0.0001 0.0001111111 0.0001037037 0.0001 
0.0001 0.00010625 0.0001078125 0.0001 0.0001 0.0001166667 0.0002 0.0004166667 0.0009333334 0.002075926 0.002993056 0.004406667 0.006603704 0.007092302 0.0001333333 0.00015 0.0001 0.0002 0.0008 0.0027 0.0062 0.02138333 0.0201 0.0537 0.1325 0.3006 0.6246 1.137267 1.1841 2.0438 3.2345 4.6035 6.1178 7.5429 9.037675 10.6234 11.7657 12.6834 13.4096 13.9935 13.1785 14.2654 14.5217 14.8334 15.2436 15.7797 16.4432 13.86138 17.3263 18.427 15.3699 15.0766 13.3212 12.12768 11.2436 11.7859 12.2158 12.1821 12.2101 12.654 13.3376 13.2324 13.3059 11.7277 9.0375 9.7892 19.73088 35.5111 11.00476 6.8601 6.9709 7.0848 7.112333 7.1863 7.2625 7.3049 7.3094 7.2643 7.1705 7.001317 6.9834 6.8076 6.6735 6.6627 6.4571 5.039983 5.0358 3.3837 2.4966 2.75 3.1054 3.1272 3.3995 2.4549 1.4978 0.8492 1.699 2.5723 3.2965 3.4659 3.7578 4.2172 4.086 3.9624 4.2372 4.6647 5.049 6.2051 10.1265 28.3847 0.7909 3.060367 1.3489 1.7746 2.0903 2.3115 2.4589 2.5581 3.579383 2.6295 9.0697 1.3725 1.5423 1.5211 1.528433 1.2871 0.9265 0.562 0.2798 0.1147 0.0387 0.02655 0.0097 0.002 0.0004 0.003266667 0.005933333 0.0134 0.00685 0.005366667 0.002666667 0.001333333 0.0006 0.00035 0.00015 0.0001 0.0001 0.0004291667 0.0002722222 0.000175 0.0001 0.0001333333 0.0001111111 0.0001 0.0001 
0.0001 0.0001 0.0001125 0.00011875 0.0001 0.0001 0.00015 0.00035 0.00075 0.0017 0.003777778 0.006394444 0.01161111 0.0212 0.016175 0.00015 0.0002 0.0006 0.0023 0.0072 0.007916667 0.0234 0.0642 0.1609 0.3668 0.7567 1.4021 1.3431 2.2038 3.3245 4.6452 6.1946 7.7582 9.2673 9.92212 11.2799 13.3458 14.5275 13.1646 13.5268 13.2239 13.6794 13.6992 13.6071 13.4038 13.0677 12.9991 12.544 11.7378 10.5794 12.3004 10.5166 10.6056 9.42995 11.1689 10.2768 9.874 10.4614 11.4405 11.70893 12.6579 13.5624 14.6993 15.0296 6.5962 44.0034 18.32522 6.6996 6.7665 6.2304 6.348 6.4882 6.569783 6.6345 6.771 6.8887 7.0009 7.0165 6.8816 6.831133 6.6915 6.4564 6.1563 5.7859 5.4384 5.972816 5.1498 4.8465 3.3148 3.4201 4.0797 4.6157 3.4102 5.4435 1.846 0.8189 1.8834 2.7713 3.0101 3.362 3.8314 4.1771 3.918775 3.7829 4.0798 4.421767 4.7243 5.6689 8.6011 19.4484 13.3623 13.20585 1.0142 1.6854 2.1036 2.3706 2.5511 2.6829 4.897967 8.7186 3.1803 2.3908 1.9664 1.6332 1.549417 1.2607 0.8606 0.5057 0.2516 0.1054 0.0371 0.06796667 0.011 0.0028 0.0006 0.0001 0.0176 0.0414 0.0092 0.0045 0.0024 0.0011 0.0005 0.0002 0.00185 0.0001 0.0009 0.0004666667 0.00025 0.0001 0.0002 0.0001333333 0.0001 0.0001 0.0001125 
0.000105875 0.0001 0.0001 0.000125 0.00015 0.0001 0.0001 0.00025 0.0007 0.0013 0.0031 0.006933333 0.00915 0.01875 0.0357 0.026125 0.01604 0.0001 0.0004 0.0018 0.007083334 0.0062 0.0202 0.0599 0.1613 0.3914 0.8545 1.3223 1.7895 3.0698 4.7099 6.5664 8.4652 8.430317 10.2707 11.9063 9.7675 9.8939 11.8232 11.9657 11.6136 11.9126 11.6994 11.3472 10.881 10.3442 9.4852 9.8158 9.396 6.7144 5.8873 5.3599 4.8365 6.721917 5.4039 6.3449 7.4509 8.5997 9.9677 10.65305 11.3234 13.094 14.6525 55.5615 33.077 7.8473 12.61713 6.1007 6.1472 5.918162 5.7189 5.8975 5.894 6.1274 6.3727 6.5537 6.6192 6.6356 6.40325 6.6342 6.6256 6.6074 6.5267 6.2587 6.1173 6.2399 7.6385 6.2681 6.028 5.0995 4.0743 3.5319 3.8149 1.288 1.9617 0.7995 1.9558 2.7522 2.993833 3.3063 3.7063 3.7746 3.6776 3.6724 3.87524 3.9619 4.4784 5.2517 7.5085 15.4729 52.8643 15.6409 9.8545 6.0589 4.5003 3.7914 3.4563 4.860567 9.0942 3.7045 3.5915 3.0727 2.547 2.0439 1.938633 1.5505 1.0953 0.7242 0.4598 0.2906 0.3368667 0.1877 0.1236 0.0812 0.0517 0.0312 0.0808 0.1231 0.0974 0.0613 0.0359 0.0198 0.0102 0.0155 0.0049 0.0022 0.0009 0.0004 0.0001 0.0004 0.0002 0.0001 0.0001 0.000125 0.000115625 
0.0001125 0.000111 0.0001 0.0001 0.00015 0.00025 0.0001 0.000675 0.0004 0.001 0.0025 0.0058 0.0125 0.0356 0.025 0.0464 0.0329 0.1152 0.0002 0.0008 0.2535333 0.0031 0.0104 0.0323 0.0913 0.2346 0.5449 1.030367 1.139 2.1105 3.4619 5.0643 6.6954 7.62935 8.1251 9.1823 9.491543 9.1872 9.6247 9.739367 9.4779 9.1192 8.5848 7.8976 7.072 6.1156 6.830317 5.0239 3.8163 4.8818 4.7702 4.6558 4.985917 4.4652 3.8514 4.5654 5.5794 6.6839 8.1465 9.485 10.3823 11.1305 52.6122 31.1482 8.6103 10.8746 5.5276 5.5242 5.5407 5.6004 4.9932 5.0586 4.919816 5.1578 5.261 5.3762 5.4848 5.5802 5.358366 5.6714 5.7952 6.0159 6.3327 5.9912 6.9039 5.456666 6.1915 7.5279 7.9834 7.1795 5.2314 3.934233 5.9751 2.0352 1.7968 0.9571 1.9508 2.6385 2.8853 3.1327 3.3813 3.4343 3.4767 3.56326 3.78868 3.8792 4.3003 4.9313 6.6795 28.1024 8.5357 17.96005 8.2144 6.9055 5.8124 5.039 4.5165 6.116017 6.8624 5.7697 5.0135 4.267 3.548 2.8764 2.660317 2.2671 1.7444 1.3269 1.0135 0.7849 0.7942167 0.6155 0.4839 0.3761 0.2852 0.2088 0.1463 0.265275 0.345 0.2376 0.1531 0.0918 0.051 0.04073333 0.0262 0.0124 0.0054 0.0022 0.0008 0.0003 0.000275 0.0001 0.00015 0.0001375 0.0001 
0.0001 0.000125 0.00013 0.0001 0.0001 0.0002 0.0006 0.001783333 0.0016 0.0038 0.0087 0.0184 0.0365 0.1134833 0.0684 0.1227 0.148 0.2607 0.3641 0.5396 3.932667 0.9697 2.0674 3.3326 3.5242 2.7332 3.6846 1.0096 0.8447 1.5684 2.6452 3.9927 5.4396 6.899867 6.7801 7.8621 8.6415 9.1202 7.8977 9.30815 7.647 7.2304 6.7102 6.1413 5.5734 5.0532 4.824367 4.6292 4.3529 3.7178 4.5034 5.0517 4.251167 5.5464 5.9268 5.6922 5.9874 5.9216 7.1722 13.70913 9.9179 48.1071 27.8855 7.4141 5.0778 5.570283 5.1076 5.0822 5.0299 4.988 4.603914 3.6727 3.96124 3.6049 3.63 3.7022 3.7702 3.813 3.920683 3.8158 3.8047 3.9757 5.1872 6.5039 2.9455 3.797083 2.9433 2.927 2.8966 2.9804 3.3586 3.4664 1.4341 2.0327 1.576 1.2734 1.9679 2.5486 2.78265 2.9335 3.2284 3.2377 3.3847 3.6049 3.718825 3.825 4.1771 4.6913 10.7356 61.7482 23.76782 16.797 11.4944 9.2652 7.7668 6.7012 6.0419 6.467183 6.7248 6.5248 6.0226 5.3655 4.6494 4.2786 3.9402 3.2838 2.7122 2.2398 1.8628 1.5641 1.493283 1.3225 1.1184 0.9374 0.7709 0.6156 0.4724 0.4854 0.50078 0.458 0.3017 0.1823 0.1009 0.09398333 0.0512 0.0239 0.0102 0.004 0.0015 0.0014 0.0005 0.0002 0.0002 0.0001 0.0001222222 
0.0001222222 0.0001 0.00015 0.0002 0.0009166666 0.001 0.00255 0.0024 0.0056 0.0123 0.0271 0.0624 0.1541 0.3406167 0.3844 0.1938 0.6385 1.7143 4.2467 8.8291 11.74893 13.2537 14.2217 12.4336 10.4275 8.6214 8.985033 8.9639 8.229 6.4953 5.5405 5.9308 6.7333 11.03455 7.6257 8.4867 9.1743 7.8476 11.4684 10.67712 9.7332 8.3471 7.2896 6.0733 4.7716 4.906983 4.2649 3.8594 2.5906 2.7029 2.3591 2.6833 3.97505 3.1046 3.9796 4.6646 5.0904 5.1991 7.210983 5.3689 41.267 25.161 7.344 4.4548 4.5488 4.364533 4.5496 4.4687 4.3034 4.0741 3.8404 3.215825 2.68488 2.3122 2.2397 2.2903 2.342 2.3613 2.518383 2.2824 1.946 1.0267 8.9307 1.9055 2.4575 1.9053 1.893 1.8579 1.75 1.4203 2.819 2.3363 1.9802 1.6883 1.4766 1.6573 2.1014 2.330433 2.5265 2.9161 3.1501 3.1486 3.3404 3.5662 3.66758 3.972925 4.0964 5.0527 37.5308 13.7264 21.5219 13.6972 11.2399 9.9135 8.8218 8.075 7.3312 7.223333 7.3263 7.187 6.8277 6.2946 5.6613 5.269533 4.9963 4.3537 3.7706 3.2656 2.8408 2.4864 2.3431 2.1863 1.9233 1.6816 2.2834 0.9866 1.092567 0.824 0.6393 0.7438715 0.6148 0.3827 0.2192 0.1859167 0.1154 0.0558 0.0249 0.0102 0.0039 0.003266667 0.0014 0.0004 0.0001 0.0001666667 0.0001 
0.0001 0.0001666667 0.0001 0.0002 0.0004 0.0036 0.00462 0.0075 0.015 0.0304 0.0679 0.1741 0.4777 0.6039 0.9226 3.0057 6.4094 11.4862 17.2018 14.0093 22.7229 24.1786 24.5374 23.713 21.7337 16.2694 14.44993 16.3127 18.3168 20.3063 21.1278 20.795 16.58088 20.3056 19.323 17.5122 14.5881 13.6265 14.51462 13.26712 16.6393 13.7038 10.4671 7.9859 5.9339 5.09505 3.8449 2.847 3.3906 3.392 3.4063 3.546 3.806017 3.9183 4.1061 4.2502 4.6247 6.9227 7.11495 12.6814 15.4309 5.1205 3.4933 3.476 3.4578 3.599167 3.4456 3.4166 3.3183 3.1125 2.8208 2.58492 2.5294 1.3052 0.968 1.0465 1.1604 1.3131 2.127667 1.5247 1.8515 1.867 1.1151 0.7357 1.367267 0.7491 0.7876 0.9025 1.168 1.8769 2.4804 2.231833 1.9455 1.2164 1.6842 1.9191 2.2447 2.427283 2.5935 2.9941 3.0743 3.1296 3.3253 3.5486 3.64712 3.7932 8.189543 10.1575 8.5366 11.5395 11.64518 11.6231 10.4369 9.7092 9.2653 8.6401 8.186116 8.0644 7.8514 7.6871 7.4122 6.9972 6.4745 6.106667 5.8955 5.3089 4.7519 4.2471 3.8032 3.4179 3.229633 3.0814 2.7795 2.4961 2.4681 2.027 1.758633 1.6298 1.2565 0.9117 1.0251 0.6715 0.5467666 0.4048 0.224 0.1137 0.053 0.0227 0.009 0.006466667 0.0033 0.0011 0.0003 0.0001 0.00015 
0.0001333333 0.0001 0.0003 0.0007 0.0017 0.00244 0.00676 0.0086 0.0166 0.0324 0.0696 0.1692 0.3783 0.6767833 1.3063 2.9589 5.9055 9.927 14.1409 15.288 16.9144 20.6081 24.1121 23.3937 18.5748 18.5755 16.92458 17.9567 19.1207 21.2673 22.8493 23.0894 17.29123 22.6312 21.8782 21.1929 21.2936 20.5974 19.0332 13.73273 9.4615 8.9752 8.3843 7.326 6.0862 6.7372 5.6688 4.3941 4.3169 4.3866 4.501 4.290333 4.6773 4.9066 5.1334 5.4193 5.8437 6.5094 6.95715 6.0082 4.5126 3.1833 3.1037 2.9957 2.8629 2.9277 2.7303 2.6125 2.4784 2.2896 2.0176 2.055183 1.7164 2.020125 2.4582 2.5882 2.7481 2.43405 2.9406 2.3439 1.492 1.1325 1.2545 1.4735 1.347467 1.4345 1.4688 1.5639 1.7381 2.05 2.133417 2.3467 1.8192 1.0746 1.7794 2.0807 2.3668 2.564067 2.7308 3.0757 3.0283 3.1385 3.3311 3.444733 3.5479 3.7797 4.0478 26.3995 5.3984 9.2718 10.06582 10.0131 9.5516 9.4261 9.0626 8.6918 8.397034 8.3142 8.0979 7.9462 7.7452 7.4429 7.0414 6.72905 6.571 6.0695 5.5704 5.098 4.6656 4.429966 4.2772 3.9286 3.6092 3.3033 3.0789 2.7429 2.52615 2.3415 1.8985 1.4461 1.219213 0.9863 0.79745 0.6161 0.3524 0.1843 0.0881 0.0386 0.0155 0.007216667 0.0057 0.0019 0.0006 0.0002 0.0001333333 
0.0001 0.0002 0.0005 0.001 0.0021 0.0044 0.006925 0.0097 0.0179 0.0322 0.0594 0.0819 0.2659 0.2647 0.7111 1.6783 3.1141 5.9274 8.8773 12.63718 11.8707 15.2698 18.7266 21.4815 20.4402 18.00657 17.9487 14.4845 12.3743 10.5473 9.1323 8.5325 12.65032 8.3937 8.7482 9.3922 9.7889 9.989 12.94263 9.7969 9.2109 9.4541 9.5095 9.8187 12.0462 7.772933 6.8432 6.3278 4.9764 4.792 4.8065 5.008433 4.8049 4.751 4.5812 4.2 14.0959 5.8798 4.65655 3.7414 2.9107 2.8775 2.8359 2.7551 2.691983 2.6155 2.4541 2.3191 2.128 1.9235 1.5596 2.120633 1.6873 2.065 3.4315 3.5091 3.6279 3.145383 2.8142 2.5436 2.2348 1.8385 2.4988 1.8525 1.803783 1.8395 1.8459 1.8462 1.7921 1.5909 2.0278 2.4556 2.822 1.5375 2.0039 2.2742 2.5554 2.729167 2.8932 3.1175 3.0389 3.1697 3.354 3.462483 3.5615 3.7812 4.0236 9.78475 6.6467 8.7112 9.485117 9.2362 8.9729 8.7527 8.6027 8.4359 8.280066 8.2358 8.092 7.9868 7.8576 7.6575 7.3734 7.131834 7.0185 6.618 6.1991 5.7848 5.3908 5.162983 5.0251 4.6879 4.3716 4.0612 3.7662 3.4185 3.1969 2.9972 2.5063 1.9751 1.4514 1.2865 0.94064 0.8195 0.4769 0.4231 0.0159 0.0125 0.02476667 0.0068 0.003 0.0012 0.0004 0.0001 0.0001666667 
0.0001 0.0002 0.0004 0.0011 0.0024 0.005 0.00766 0.0157 0.0227 0.0416 0.0653 0.1921 0.3814333 0.5092 1.3321 2.0732 4.5064 8.2896 11.6845 15.84605 12.3353 11.5006 12.0951 15.3756 16.2243 16.18472 16.2759 12.8434 9.4964 6.3447 5.9056 6.3836 6.69145 6.8715 7.3697 7.9018 8.4903 8.975 8.833917 9.2643 9.4061 8.1182 7.5292 19.7929 11.1014 8.262 7.7312 7.3864 6.5165 5.9156 5.5428 4.513683 5.7181 5.9995 6.518 7.2369 8.5756 3.0926 3.23405 2.7079 2.5464 2.592 2.5598 2.5374 2.3653 2.3853 2.1993 2.1549 1.7303 2.1134 2.7252 2.7935 3.0177 3.2448 3.496512 4.2479 3.4384 3.369533 3.3031 2.9966 2.5913 2.1523 3.3518 2.565017 2.1366 2.0861 2.0588 2.0225 1.9609 2.024 2.116017 1.6996 2.8585 2.0126 2.2897 2.5137 2.567033 2.7631 3.0657 3.1277 3.0933 3.2189 3.392 3.494067 3.5884 3.7961 16.468 8.3052 6.9888 8.91896 13.5344 6.144 7.5945 7.9297 8.0249 8.0291 7.993067 7.9736 7.9177 7.8723 7.8094 7.6964 7.564583 7.5162 7.2705 6.9738 6.6459 6.3063 5.9706 5.766783 5.6486 5.3431 5.0484 4.7497 4.4349 4.23395 4.0663 3.615 3.0751 2.471 1.854 1.67076 0.97874 0.9948 0.5823 0.3406 0.1414 0.055 0.02588333 0.0202 0.0069 0.0022 0.0007 0.0002 0.00015 
0.0001 0.0003 0.0007 0.0016 0.0034 0.0067 0.00886 0.0125 0.05881429 0.0379 0.1187 0.335 1.3639 0.9057 2.1764 5.7915 11.3499 18.945 20.06033 24.6364 25.6721 22.3132 15.2143 9.7234 13.4282 15.2316 12.791 8.8142 5.2565 5.4207 4.6915 4.782883 4.8891 5.0783 5.1372 5.0931 5.9783 7.1861 7.334367 7.7922 8.1114 8.1624 9.2268 8.5322 10.29802 8.1564 7.2877 6.9154 6.5714 5.6722 4.1261 7.090734 2.0837 14.9817 4.6962 3.5465 1.5289 3.061317 1.7525 2.2301 2.1956 2.0271 1.4422 1.7145 2.3155 2.184 2.9262 3.844 3.1693 3.4816 3.319067 3.7921 3.9791 4.0824 4.0959 3.2955 3.5139 3.537717 3.5197 3.4371 3.2544 2.9894 3.0051 3.202817 2.5453 2.5139 2.32 2.1857 2.1906 2.4851 2.505583 2.4409 2.7109 1.8089 1.8066 2.4494 2.623933 2.8464 3.1676 3.1201 3.1542 3.2782 3.4415 3.53645 3.627 7.0547 5.0093 7.4269 8.07396 9.85984 8.7137 6.9824 7.2418 7.4353 7.5571 7.6286 7.66285 7.6554 7.6656 7.6721 7.6637 7.6196 7.54755 7.5244 7.3737 7.1739 6.9377 6.68 6.4146 6.245417 6.151 5.8927 5.6343 5.3604 5.0495 4.837467 4.6683 4.187 3.596 2.9191 2.2124 1.5495 1.536325 0.2434 0.2439 0.1724 0.0937 0.0432 0.02948333 0.0176 0.0065 0.0022 0.0007 0.0002 0.0001 
0.0001 0.0003 0.0006 0.0014 0.003 0.00585 0.0063 0.0138 0.0328 0.2504 0.7269 1.8967 2.84555 4.3447 8.6186 14.8048 22.0488 26.8051 24.61708 30.0014 36.1256 37.6189 33.435 25.2883 19.2556 19.02348 13.4146 8.1803 5.1346 3.9783 3.2698 4.992617 3.5577 3.968 4.5795 5.3596 5.2871 5.073 6.882467 5.7156 6.8903 8.5259 7.4913 8.2333 8.593933 8.8113 8.3106 7.5525 6.0489 3.747 1.7624 12.21012 23.3113 7.78 3.8813 2.6817 1.8486 1.836183 1.5697 1.1366 1.2359 1.4914 2.3066 2.4581 2.44395 2.6137 2.5792 2.2367 3.6018 3.8181 3.590333 3.984 4.1374 4.1848 4.2068 3.7063 5.05816 3.7072 3.744 3.6092 2.9972 2.3543 1.4355 4.324234 6.7426 2.8946 2.7806 2.4153 2.1153 2.8796 3.6285 2.7554 2.661 1.8887 1.405 2.3167 2.580217 2.8543 3.1609 3.122 3.2069 3.3372 3.4962 4.090066 3.6736 10.242 3.2643 6.1031 11.5458 9.072225 8.5165 7.4789 7.2875 7.2498 7.2749 7.34655 7.323 7.3674 7.4073 7.4451 7.4739 7.4796 7.45385 7.4491 7.3756 7.2598 7.1087 6.9327 6.807066 6.7423 6.5454 6.3443 6.1326 5.8925 5.5966 5.37895 5.2092 4.6985 4.0545 3.3034 2.5099 2.647 3.3576 0.8098714 0.2432 0.1292 0.0642 0.029 0.02208333 0.0119 0.0044 0.0015 0.0005 0.0001 0.000125 
0.0001 0.0003 0.0008 0.0019 0.0044 0.00665 0.0113 0.0322 0.0666 0.429075 1.3031 1.41755 3.1169 6.4743 11.6853 18.1335 21.7424 21.9129 22.69053 25.4017 30.8503 33.2621 35.2291 35.9653 31.52332 30.5651 24.6864 21.0981 18.0191 11.7207 6.9636 10.19103 6.584 6.9864 7.415 7.535 7.4591 7.6361 7.261 7.8918 8.0969 6.9431 7.881457 8.8797 9.17736 8.9507 9.148 8.8567 7.7321 5.8829 16.20757 27.5795 14.3977 8.3358 6.5553 5.7813 2.289 2.6568 2.0284 2.1289 2.2863 2.4236 2.5749 2.818317 2.7538 2.9396 3.031 3.2365 3.5502 3.413 3.433583 3.0532 2.6784 9.0175 3.1495 3.9762 5.840525 10.798 3.6137 3.0606 2.14 1.0612 2.2456 5.9444 9.9713 3.4605 3.1242 3.0385 3.1087 3.083033 3.7494 3.1469 3.1462 1.9194 1.1903 2.1907 2.539617 2.8238 3.0813 3.1169 3.2405 3.3857 3.897033 3.5479 6.7542 6.3101 4.6314 9.8522 7.5129 8.63998 7.97242 7.7389 7.4379 7.2497 7.1584 7.184683 7.1373 7.1532 7.1883 7.2339 7.281 7.3177 7.325067 7.3327 7.318 7.2711 7.1946 7.0946 7.015267 6.9782 6.8506 6.7115 6.5516 6.3494 6.0717 5.8496 5.6784 5.1354 4.4339 3.6067 5.3883 2.432183 0.8643 0.4564 0.2603 0.1229 0.0543 0.0223 0.01623333 0.0085 0.003 0.001 0.0003 0.0001 0.0001 
0.0001 0.0002 0.0006 0.0014 0.0037 0.006033333 0.0112 0.0346 0.1494 0.4709 0.4325 1.1884 1.0292 2.0735 3.4947 4.885 7.858 12.9806 15.58195 19.0415 22.9847 28.3244 34.1795 38.7491 34.73962 39.3165 37.3773 35.2271 32.5019 28.9588 23.315 19.8082 17.4561 17.0889 11.446 11.0739 9.4643 11.07855 8.8745 8.375 6.6547 7.3935 7.7034 11.37965 12.2054 11.0118 9.5881 8.4946 8.1705 39.7738 22.67368 18.4998 14.179 12.1992 9.4223 6.4509 5.406 3.297217 2.7991 2.8336 2.9271 3.0924 3.2955 2.7788 3.521 3.6602 3.5855 3.557 3.5282 3.3661 2.6189 2.9671 2.3464 1.5342 4.5101 4.8807 8.3259 8.50945 3.2571 2.7941 2.1506 2.1264 3.886683 6.9949 8.2765 3.3369 3.3136 3.2322 2.8825 3.008183 3.0138 3.5831 5.3313 2.7521 1.4033 2.1913 2.4278 2.8609 2.9642 3.0803 3.2462 3.415 4.81035 6.2002 4.2743 5.8245 8.9534 6.5816 7.3619 7.70932 8.2628 7.865 7.5866 7.3343 7.1557 7.131 7.0588 7.0239 7.0306 7.0642 7.1125 7.14955 7.1639 7.2074 7.2349 7.2419 7.2279 7.1955 7.1594 7.1483 7.0881 7.0109 6.9028 6.7369 6.582133 6.4737 6.068 5.484 4.7174 7.7292 1.5261 1.910033 0.9469 0.5163 0.3226429 0.1175 0.049 0.03395 0.0189 0.0068 0.0022 0.0007 0.0002 0.0001 0.0001 
0.0001333333 0.0001 0.0003 0.0006 0.0015 0.003583333 0.0041 0.0153 0.0498 0.1549 0.21728 0.31018 0.0603 0.1814 0.5036 1.2686 2.8743 5.168433 5.7327 8.4223 12.379 18.0591 24.0756 29.6467 30.03755 34.195 37.3751 38.0746 37.0969 35.7264 33.9813 28.19277 30.5492 22.3719 22.6499 19.9725 17.9238 16.20088 15.1135 10.2619 11.5607 12.5739 13.7494 15.1861 14.40047 16.9987 16.5025 15.4395 48.8777 26.4311 21.9416 17.875 13.7908 11.0583 8.2249 5.5412 5.008934 4.0018 3.259 2.5532 2.2338 2.0719 2.1239 2.572167 2.4037 10.9715 3.4685 3.0397 2.549 2.271617 1.8669 1.0471 0.3719 3.8808 5.0902 5.6056 11.0221 16.369 7.900914 3.3939 3.6097 4.3757 5.3455 6.5163 6.8684 3.4825 3.4856 3.4461 3.1872 2.7521 2.1075 3.4856 4.8449 6.2297 2.0476 2.114433 1.3916 3.1085 3.6014 3.4291 3.3002 3.435 5.912483 8.8783 2.854 8.1166 5.9679 6.71 7.0052 7.3322 8.0768 7.907643 7.7029 7.4433 7.2167 7.150517 7.0591 6.9708 6.9385 6.9475 6.9845 7.025367 7.0377 7.0964 7.1524 7.1999 7.2367 7.2624 7.264767 7.2774 7.2793 7.2593 7.1976 7.0603 6.907 6.8008 6.3691 5.7304 9.3293 2.9804 1.7476 1.36105 0.987 0.526 0.2591 0.1228571 0.0432 0.0292 0.016 0.0054 0.0017 0.0005 0.0001 0.000125 0.0001 
0.0001 0.0002 0.000275 0.0001 0.000625 0.0003 0.0007 0.0016 0.0038 0.0088 0.0193 0.023375 0.0096 0.0247 0.0677 0.1824 0.4651 1.738217 1.0999 2.3858 4.6922 8.2058 12.6317 17.14 19.90818 21.178 24.4243 27.1078 29.2946 30.7741 29.36968 31.3407 32.5143 34.9187 33.5881 28.4999 25.6837 23.52702 20.1455 20.0004 16.7042 15.7722 16.1024 16.88447 14.4053 26.30211 23.4566 45.9763 27.3125 15.9257 15.74662 13.1442 12.6725 9.4468 7.6369 5.3426 4.451783 3.3111 1.9287 1.1568 0.6905 0.4324 0.207 2.580983 3.8819 19.3755 2.8506 2.1252 1.4745 1.773583 0.845 0.3439 0.1186 4.7222 5.5094 6.2479 13.41877 22.0073 3.4645 4.0205 4.4761 4.9729 6.332083 7.0868 5.379 3.4497 3.6039 3.4949 3.2514 2.918917 2.0702 2.8235 4.0361 8.8156 3.6042 2.796783 2.0486 1.5121 3.048 4.1433 4.4795 7.7804 6.792017 5.766 6.8576 5.6643 6.0333 6.7273 7.028567 7.3182 7.9429 7.9165 7.706643 7.5463 7.422383 7.3044 7.1084 6.9761 6.9049 6.8846 6.9035 6.941566 6.9501 7.0146 7.0886 7.1662 7.2435 7.284283 7.3181 7.3869 7.443 7.4715 7.4453 7.3221 7.159483 7.0482 6.5704 9.0802 5.1373 3.3178 1.9196 1.393217 1.0391 0.5267 0.248 0.1078 0.0354 0.02332 0.0127 0.0042 0.0013 0.0004 0.0001 0.0001 0.00010625 
0.00015 0.00016875 0.0001 0.0001 0.0001666667 0.00034 0.0005 0.0005 0.0011 0.0021 0.0043 0.00806 0.008833333 0.0077 0.0137 0.029 0.0722 0.3082833 0.1851 0.4553 1.0427 2.2019 4.2012 6.9858 9.773883 10.3036 13.6607 16.6807 19.1744 21.2249 21.74723 23.1707 25.7209 29.2098 31.975 31.9878 30.4549 28.80378 31.8407 28.4507 23.9625 21.0964 20.617 18.71267 21.2466 22.8459 68.6592 25.2996 11.8841 11.40457 9.4633 11.6404 15.6849 8.5949 7.2101 5.3468 4.18845 3.1672 1.1634 0.5423 0.278 0.1364 3.12245 0.0544 6.815 20.8838 6.4309 2.085 2.2764 2.21555 1.6297 5.9392 3.8696 4.1325 5.3883 16.4865 13.01363 13.7963 3.8464 3.98365 3.9547 6.6886 7.313667 8.3522 4.5341 3.527 3.7779 3.808 3.823917 3.681 3.2162 3.6091 2.6769 7.5304 6.3822 3.782267 1.3065 1.5718 2.4739 3.5759 10.3446 8.465567 6.0247 8.8677 4.7885 5.8699 6.1849 6.7691 7.058217 7.3146 7.8463 7.926 7.7824 7.6291 7.46934 7.3945 7.1818 7.02 6.9171 6.8695 6.8686 6.90045 6.905 6.9697 7.0551 7.1552 7.265 7.329683 7.38 7.4935 7.5934 7.6576 7.65 7.5195 8.263783 7.206 11.6468 4.9716 4.1567 2.862 2.2749 1.7252 0.9408 0.4701 0.2159 0.0912 0.06648 0.01814 0.0093 0.003 0.0009 0.0002 0.0001 0.0001 0.0001 
0.0001395833 0.0001 0.0001 0.0001133333 0.0001 0.0001 0.0001 0.0003 0.0007 0.0014 0.002 0.0026 0.0045 0.0039 0.0063 0.0089 0.0113 0.05118333 0.0161 0.0337 0.0854 0.2111 0.484 2.1239 1.0231 2.0128 3.627 5.7738 8.2144 10.6757 11.89065 13.2973 16.5251 20.7866 26.561 26.8949 22.72307 31.5232 33.1747 31.7353 25.8657 20.6033 20.7049 16.16795 19.1998 24.5314 20.01789 2.8451 2.2923 4.376633 1.5495 0.7735 28.1685 5.3218 4.975 4.4032 2.82395 3.5598 3.0385 2.0058 3.7959 8.0753 18.3142 9.8292 26.3109 36.7086 7.0781 4.3508 2.8409 4.075033 4.2268 8.1587 6.3968 7.6402 9.3118 9.938517 11.5401 8.0037 3.8955 3.9713 4.2402 10.248 8.742483 6.5335 4.4127 3.7669 4.0444 4.2963 4.360983 4.4119 4.2846 4.7249 5.2914 6.128 5.567 3.9318 3.7851 0.4117 1.1919 2.3313 8.9857 10.86722 13.1785 3.9958 6.6114 7.2796 6.7925 6.8919 7.295917 7.3282 7.777 7.9113 7.8283 7.75362 7.5422 7.4724 7.2604 7.0846 6.9609 6.8922 6.8745 6.8993 6.901 6.9643 7.0579 7.1756 7.3119 7.3946 7.4596 7.608 7.7385 7.8207 7.8086 7.6425 9.2176 12.8444 6.1701 4.8619 3.5879 2.3918 1.928167 1.433 0.7768 0.3832 0.1725 0.0711 0.0269 0.0154 0.0064 0.002 0.0006 0.0002 0.00015 0.0001 0.0001 
0.0001 0.0001 0.0001026667 0.0001 0.0001 0.0001 0.00015 0.0001 0.0002 0.0005 0.001033333 0.0011 0.0022 0.0029125 0.0029 0.0053 0.0089 0.0087 0.0135 0.0177 0.0199 0.0196 0.0198 0.3891 0.0295 0.0664 0.1597 0.352 0.6871 1.1523 6.737075 1.823 2.6239 3.2059 12.7479 6.2197 12.48663 9.2579 13.2037 19.4956 20.8312 12.9175 6.491 10.88335 8.7484 9.2141 6.0272 0.7206 0.5606 1.780283 0.51 0.5466 0.611 0.607 0.4574 1.864533 0.2955 0.1712 0.1703 0.5723 2.1726 56.8242 20.44208 34.9657 44.237 36.5501 3.9358 3.906 6.4414 12.41997 7.035 8.0906 7.9813 8.5803 8.8047 9.559033 8.0997 5.668 4.1176 4.2004 6.7844 8.40618 12.4247 8.2079 5.5336 4.6016 4.3814 4.857 4.9747 5.1117 5.1467 5.5046 5.7763 5.8341 5.58925 5.6055 0.9445 1.148 1.5617 2.3116 18.8947 10.78242 7.7751 2.3993 5.5389 8.4867 8.7757 8.4503 7.9601 7.5116 7.7315 7.8775 7.843 7.6853 7.599875 7.5297 7.3318 7.1558 7.0231 6.9421 6.93465 6.9134 6.9333 6.9967 7.0978 7.2309 7.389 7.4841 7.5621 7.734 7.8788 7.956 7.9099 9.441 12.8113 7.2819 6.0375 4.5247 3.1372 1.9972 1.587467 1.1598 0.6129 0.2947 0.1292 0.0517 0.03606667 0.019 0.006557143 0.0012 0.0003 0.0001 0.00015 0.000125 0.0001 
0.0001 0.0001005333 0.0001 0.0001 0.0001 0.0001125 0.0001 0.000125 0.0001 0.0002 0.0004166667 0.0004 0.0008 0.0016 0.0011 0.0014 0.002866667 0.0014 0.001 0.0005 0.0001 0.01485 0.0197 0.0165 0.0242 0.04313333 0.09801666 0.2043833 0.44332 0.474775 0.7747 0.7846667 0.0003 0.3128 0.1187 0.2787 2.788417 0.7454 2.0773 6.1723 11.1235 8.5848 7.505466 5.0884 5.0676 3.6821 1.0977 2.493971 3.1792 2.3843 2.5901 1.8939 1.3858 0.5577 0.5008 1.530967 0.5553 0.6695 0.5164 0.111 3.553 4.1722 24.40828 8.7859 5.0861 1.0112 0.4342 0.8647 5.153733 1.7684 52.2073 16.7187 16.1084 13.3522 11.0219 7.104434 8.576 6.6222 6.4182 7.8145 10.232 8.42555 4.886 3.2655 3.342 4.4237 5.0262 5.2942 5.709033 5.8771 6.0482 5.8031 5.8745 5.4202 5.148933 4.9807 1.6636 1.647 1.9057 13.9312 7.3927 9.567433 8.4678 2.8277 5.2427 8.4146 10.3062 9.995617 9.9754 8.8553 8.0226 7.8593 7.8303 7.7121 7.64186 7.44826 7.3884 7.2236 7.0929 7.009 6.996967 6.9767 6.9954 7.0622 7.1724 7.3199 7.4959 7.59735 7.6861 7.8679 8.0061 8.0498 12.7518 9.509533 7.7219 6.901 5.5294 4.0172 2.6734 1.6319 1.277583 0.9111 0.4639 0.2152 0.0911 0.0352 0.02475 0.0125 0.0041 0.0007 0.0002 0.000175 0.0001 0.000125 0.0001125 
0.0001001333 0.0001 0.0001 0.0001 0.000103125 0.0001 0.00010625 0.0001 0.0001 0.0001 0.000225 0.0002 0.0004 0.0007 0.0008333334 0.0001 0.00075 0.0001 0.0001 0.0001 0.0002333333 0.0001 0.008572223 0.00015 0.0002 0.0007 0.0023 0.007 0.0182 0.023975 0.0415 0.082 0.1373 0.1513 0.1332 0.0823 0.2697833 0.1465 0.6095 1.9949 5.6109 6.641 5.61395 5.3101 3.5535 2.7839 2.6646 3.2079 3.6263 3.9929 3.473 2.9705 2.8394 2.7677 3.2301 4.3292 4.1467 5.5285 7.3458 9.3525 17.0531 24.4351 12.7596 17.2666 5.894 3.3748 5.7242 7.6072 7.938766 10.3347 16.2939 7.317 6.5481 4.7305 3.6345 6.686483 2.4898 1.1607 32.0476 8.7832 6.1595 6.16078 4.04428 3.6477 3.8869 5.0116 5.7609 5.994884 6.3107 6.8035 6.6507 5.7869 5.977 4.7136 4.840416 4.3395 3.0561 12.2789 0.1922 1.9668 5.85315 5.709 9.1653 6.7009 7.4679 9.2608 11.1436 11.29172 11.8127 11.0951 9.7168 8.4754 7.8827 7.7189 7.68544 7.5633 7.4281 7.2816 7.1622 7.0844 7.0721 7.0562 7.0799 7.1546 7.2762 7.4376 7.53795 7.6268 7.8242 7.9987 8.1045 12.0371 8.3055 8.70945 7.5568 6.369 4.8967 3.4263 2.1904 1.747717 1.281 0.6845 0.3337 0.1484 0.0603 0.0224 0.01593333 0.0077 0.0024 0.001314286 0.0001 0.00015 0.00013125 0.0001 0.0001125 
0.0001001333 0.0001 0.0001 0.0001 0.000103125 0.0001 0.00010625 0.0001 0.0001 0.0001 0.000225 0.0002 0.0004 0.0007 0.0008333334 0.0001 0.00075 0.0001 0.0001 0.0001 0.0002333333 0.0001 0.008572223 0.00015 0.0002 0.0007 0.0023 0.007 0.0182 0.023975 0.0415 0.082 0.1373 0.1513 0.1332 0.0823 0.2697833 0.1465 0.6095 1.9949 5.6109 6.641 5.61395 5.3101 3.5535 2.7839 2.6646 3.2079 3.6263 3.9929 3.473 2.9705 2.8394 2.7677 3.2301 4.3292 4.1467 5.5285 7.3458 9.3525 17.0531 24.4351 12.7596 17.2666 5.894 3.3748 5.7242 7.6072 7.938766 10.3347 16.2939 7.317 6.5481 4.7305 3.6345 6.686483 2.4898 1.1607 32.0476 8.7832 6.1595 6.16078 4.04428 3.6477 3.8869 5.0116 5.7609 5.994884 6.3107 6.8035 6.6507 5.7869 5.977 4.7136 4.840416 4.3395 3.0561 12.2789 0.1922 1.9668 5.85315 5.709 9.1653 6.7009 7.4679 9.2608 11.1436 11.29172 11.8127 11.0951 9.7168 8.4754 7.8827 7.7189 7.68544 7.5633 7.4281 7.2816 7.1622 7.0844 7.0721 7.0562 7.0799 7.1546 7.2762 7.4376 7.53795 7.6268 7.8242 7.9987 8.1045 12.0371 8.3055 8.70945 7.5568 6.369 4.8967 3.4263 2.1904 1.747717 1.281 0.6845 0.3337 0.1484 0.0603 0.0224 0.01593333 0.0077 0.0024 0.001314286 0.0001 0.00015 0.00013125 0.0001 0.0001125 
0.0001 0.0001 0.0001 0.0001007813 0.0001 0.0001015625 0.0001 0.0001 0.0001 0.0001 0.00015 0.0003 0.0004333333 0.0004 0.0001 0.0001 0.0001 0.0001 0.0001 0.0001 0.0001 0.0001444444 0.0001208333 0.0001333333 0.0001 0.0006 0.0019 0.0052 0.0123 0.01873333 0.0239 0.0275 0.0271 0.0516 0.0909 0.1165667 0.1468 0.219 0.357 0.9854 2.212 3.4051 4.765533 4.6543 3.7076 2.9369 3.6238 4.1252 3.6358 3.559325 3.3571 3.4848 3.9933 6.5349 7.9019 8.521916 9.6404 11.5993 13.5254 14.6234 18.9777 17.22008 15.2207 6.6771 3.12 5.425 5.9946 12.086 12.94248 14.9716 12.7389 9.4939 8.1985 7.2686 6.912766 7.0696 7.3271 8.4801 11.0731 4.9173 5.1409 5.08062 4.3855 4.0367 4.8089 5.7101 6.3701 6.7392 7.2072 7.4574 6.8682 6.2629 6.3094 4.9609 6.904833 4.6276 13.9112 1.526 1.4897 2.0122 3.694433 4.107 7.5093 9.027 9.8126 10.566 11.9111 12.07635 12.6013 12.6944 11.7661 10.1537 8.7267 8.380484 7.844 7.5889 7.460875 7.3276 7.2258 7.1616 7.153183 7.1447 7.1796 7.2665 7.4016 7.5756 7.6755 7.7719 7.9634 8.1089 9.2455 9.5092 8.5752 7.8106 7.3455 5.8546 4.2817 2.8604 1.7425 1.417067 0.9671 0.4905 0.2275 0.0965 0.0375 0.0134 0.009616666 0.0044 0.0013 0.0004 0.0002333333 0.0001 0.000125 0.0001140625 0.0001 
0.0001 0.0001 0.0001001953 0.0001 0.0001003906 0.0001 0.0001 0.0001 0.0001 0.0001166667 0.0001833333 0.0002944444 0.0003083333 0.0001 0.0001 0.0001 0.0001 0.0001 0.0001 0.0001 0.0001 0.0001 0.0001111111 0.0001 0.0001 0.0003 0.0009 0.0024 0.0057 0.0116 0.0108 0.0272 0.047 0.0773 0.1088 0.1354333 0.1374 0.1863 0.3051 0.5819 1.2449 4.1908 4.032866 4.3919 2.7997 2.7545 3.2114 3.4387 3.80106 3.4143 4.553614 5.7001 6.8291 8.0954 14.6474 12.23988 11.565 12.133 12.8644 14.3369 20.0378 14.57305 7.5961 4.2038 6.7658 7.429 13.2852 16.6948 15.4537 15.9606 13.2136 11.1576 10.3298 9.5995 9.204817 9.1739 8.7466 8.4265 7.8523 5.7277 5.2171 4.920283 4.5001 4.597988 4.9619 6.2053 6.9687 7.193467 7.8176 7.954 7.1758 6.9057 7.04 8.33905 6.1325 16.6549 2.3503 2.8205 2.7119 3.332 4.430383 5.0396 7.7422 9.5823 12.0205 11.3875 12.1829 12.35608 12.8065 13.1573 12.946 11.723 9.7483 9.154034 8.3623 7.6737 7.4592 7.3646 7.2809 7.256233 7.2359 7.2363 7.2875 7.3905 7.54 7.7234 7.817683 7.9177 8.0862 8.1768 8.7522 8.887 8.739767 8.1755 6.9051 6.4033 5.0603 3.2822 1.6177 1.012083 0.7037 0.327 0.1442 0.0586 0.0218 0.016 0.0075 0.0023 0.0007 0.0002 0.0002333333 0.0001791667 0.0001 0.0001125 0.0001066406 
0.0001 0.0001000488 0.0001 0.0001000977 0.0001 0.0001 0.0001 0.0001 0.0001055556 0.0001333333 0.0001981481 0.0002215278 0.0001 0.0001 0.0001 0.0001 0.0001 0.0001 0.0001 0.0001 0.0001 0.0001022222 0.0001 0.0001 0.00015 0.0001 0.0005 0.0015 0.003083333 0.0046 0.0123 0.0291 0.0575 0.0981 0.1433 0.1579333 0.1854 0.2411 0.4227 0.8962 1.3478 3.5896 3.33645 3.9655 3.1788 2.9066 3.3912 3.7997 3.974967 4.2274 4.8334 6.8582 8.0396 9.9432 13.36497 15.6267 14.0579 14.1114 15.1085 14.7608 19.2994 12.0731 6.3066 8.3814 10.0893 12.8013 16.8304 17.35015 17.0996 15.9096 14.3872 13.1999 12.2982 11.5298 11.44163 10.5875 9.6039 8.5985 7.5534 6.3728 5.949517 5.5469 4.7312 4.3293 5.0303 6.2202 7.1652 7.337433 7.632 8.3452 8.1984 8.3379 9.168 10.44598 16.4235 5.8643 2.7802 3.8715 3.9462 4.5985 6.231534 7.493 9.8699 11.4456 12.7019 10.6975 11.18718 11.8914 12.7433 13.2259 13.3683 12.6621 11.0222 10.13707 9.2207 8.0052 7.5145 7.443486 7.3288 7.30348 7.3044 7.3263 7.3979 7.519 7.6819 7.8689 7.951217 8.0486 8.1734 8.2271 8.3473 8.2702 9.231816 9.0215 8.7669 7.1496 4.1177 1.6715 0.6742 0.6456667 0.3673 0.1861 0.083 0.033 0.0119 0.00885 0.0039 0.0012 0.0003 0.0001 0.00015 0.0001611111 0.0001413194 0.0001 0.00010625 
0.0001000163 0.0001 0.0001000244 0.0001 0.0001 0.0001 0.0001 0.0001018519 0.000112963 0.000145679 0.0001632523 0.0001 0.0001 0.0001 0.0001 0.0001 0.0001 0.0001 0.0001 0.0001 0.0001004444 0.0001 0.0001 0.0001125 0.0001 0.0001 0.0002 0.001 0.002133333 0.0033 0.0099 0.0251 0.0543 0.1001 0.1574 0.1856167 0.2153 0.2686 0.3558 0.6658 1.1711 1.748367 1.8433 2.0376 2.3179 2.9398 3.588 4.1587 5.2979 4.811 5.694 8.611475 12.6987 14.7732 13.15055 17.1039 19.2669 18.5022 19.0763 16.645 8.4683 13.24467 10.7304 12.8578 14.5843 16.9272 19.44 20.50952 20.7509 21.388 20.2924 18.5728 16.699 14.9626 13.95505 12.7965 10.9134 9.3027 8.0092 6.8934 6.434117 5.9392 5.1163 4.8048 5.254428 5.9884 6.938 7.290117 7.5031 8.744 9.9206 12.6216 17.5838 10.82247 6.3281 7.8675 4.3242 4.9931 5.2878 6.8858 8.3275 10.0403 13.0764 13.5895 12.8618 9.79 11.14045 11.1738 12.1864 12.7335 12.9425 12.8468 12.0962 11.27183 10.3727 8.7507 7.7419 7.4145 7.427625 7.37316 7.3674 7.4116 7.5055 7.6449 7.818 7.9022 7.9998 8.1489 8.2555 8.1587 9.6226 10.475 9.73265 10.5617 8.3546 4.2286 1.5741 0.5792 0.6135167 0.3191 0.192 0.1002 0.0447 0.0175 0.0061 0.004616667 0.0019 0.0006 0.0002 0.000175 0.0001 0.000125 0.0001287037 0.0001206308 0.0001 
0.0001 0.0001000061 0.0001 0.0001 0.0001 0.0001 0.0001006173 0.0001049383 0.0001201646 0.0001304736 0.0001 0.0001 0.0001 0.0001 0.0001 0.0001 0.0001 0.0001 0.0001 0.0001000741 0.0001 0.0001 0.000103125 0.0001 0.0001 0.0001333333 0.0001 0.0005 0.0013 0.0019 0.0063 0.0176 0.0424 0.0878 0.158 0.1788167 0.2543 0.3893 0.65 1.0428 1.1168 1.040467 1.4216 1.7767 2.5726 3.7612 5.2752 6.7044 6.46555 8.0862 9.3434 10.7861 10.6384 10.9543 12.21312 10.502 8.9819 9.1686 17.9114 9.2631 19.65932 20.1444 14.5189 16.1734 18.1823 20.7347 23.6452 23.54517 25.291 25.1116 24.0493 22.4136 20.85 18.48933 18.3599 15.494 12.7972 10.546 8.7966 7.4611 6.97905 6.3913 5.5373 5.1404 5.2676 5.9531 6.61144 6.8106 7.6918 9.922 13.5207 21.4454 7.5762 9.710867 7.8552 7.1623 6.6194 6.7222 7.1367 7.921867 8.5337 12.4137 15.2007 15.661 14.6413 12.1859 11.46835 11.1041 12.1624 12.8633 13.2781 13.5033 13.42075 13.134 11.7852 9.8896 8.4002 7.5819 7.3853 7.480275 7.4799 7.5028 7.6089 7.7626 7.9399 8.034034 8.1047 8.2639 8.2436 9.7155 11.0398 11.5343 9.037117 8.5332 4.1927 1.5126 0.5209 0.2656 0.2652667 0.1715 0.1032 0.0529 0.0231 0.0088 0.003 0.00235 0.0009 0.0003 0.0001 0.00015 0.00013125 0.0001 0.0001125 0.0001137346 0.0001101538 
0.0001000015 0.0001 0.0001 0.0001 0.0001 0.0001002058 0.0001018519 0.0001085734 0.0001138941 0.0001 0.0001 0.0001 0.0001 0.0001 0.0001 0.0001 0.0001 0.0001 0.0001 0.0001 0.0001 0.0001007813 0.0001 0.0001 0.0001111111 0.0001 0.000225 0.0002 0.00065 0.0009 0.0031 0.0097 0.0255 0.0574 0.08293334 0.1097 0.1782 0.2425 0.2616 0.1859 0.3557 0.5622 0.3343 0.8765 1.8273 3.3779 5.2043 5.938667 6.8875 8.1455 9.1942 9.993 10.27181 9.8119 10.12047 10.1334 10.4921 10.5744 7.795 33.6018 28.93198 29.8333 18.1539 19.7602 22.1469 24.324 25.6809 25.82213 26.463 26.1702 24.8561 22.6358 20.7944 19.99312 19.2701 17.049 14.5137 12.006 9.8786 8.252 7.6062 6.9373 5.9771 5.4987 5.5394 6.0321 6.6375 7.2881 9.1085 14.1216 22.0775 8.6624 9.2392 9.450033 9.6827 8.6885 8.5483 8.4919 9.276 10.03352 10.4112 14.352 17.3545 17.6561 19.7196 12.0062 13.38745 12.5501 13.5754 14.1116 14.4499 14.5511 14.75328 14.3931 13.8918 12.5266 10.3769 8.6402 7.6885 8.8357 9.725 9.0106 8.0341 7.9592 8.0756 9.37635 8.2662 8.3133 9.9572 11.4718 11.9352 8.8057 6.662817 4.3128 1.5471 0.5165 0.2453 0.1559 0.1566 0.1003 0.0753 0.0418 0.018 0.0057 0.0017 0.001216667 0.0005 0.0001 0.00015 0.0001 0.000125 0.0001140625 0.0001 0.00010625 0.0001066615 
0.0001 0.0001 0.0001 0.0001 0.0001000686 0.0001006859 0.0001035437 0.0001060798 0.0001 0.0001 0.0001 0.0001 0.0001 0.0001 0.0001 0.0001 0.0001 0.0001 0.0001 0.0001 0.0001001953 0.0001 0.0001 0.0001037037 0.0001 0.00014375 0.00015 0.0001 0.00032 0.0003 0.0012 0.0041 0.0118 0.0282 0.04755 0.0565 0.0926 0.1202 0.1136 0.0631 0.023 0.1486833 0.1218 0.4599 1.2562 2.7038 4.6835 5.310417 6.8771 8.7253 9.79 9.9533 9.7657 9.6811 9.4065 9.9147 12.2385 8.3802 30.8685 48.2458 34.0116 32.5035 21.8702 23.3782 24.464 25.7688 25.94857 26.705 27.1477 26.7678 25.3863 23.1178 21.4766 19.9847 19.2077 17.2575 15.0423 12.7535 10.6627 9.0038 8.17405 7.5917 6.5142 5.9373 6.0496 6.4192 7.03782 10.58908 11.3512 18.9026 9.2869 9.808 10.48392 10.959 11.3879 11.1324 10.7919 10.8698 11.5925 13.35877 13.251 18.0988 22.2525 22.8732 26.655 21.15565 16.5895 15.8889 16.1571 16.3072 16.4954 16.5788 16.35672 16.3594 15.9933 15.3247 13.7916 12.4135 11.90967 11.3523 10.2725 12.7319 12.719 13.711 12.0172 11.42497 11.8545 11.8387 12.5556 12.9961 9.7937 7.346867 4.9671 1.8238 0.5933 0.3541 0.2805 0.145 0.1028667 0.1013 0.0392 0.0129 0.0044 0.0023 0.00216 0.0009 0.0003 0.0001 0.0001 0.0001125 0.0001 0.0001125 0.0001066406 0.0001 0.000103125 
0.0001 0.0001 0.0001 0.0001000229 0.0001002515 0.0001014327 0.0001025773 0.0001 0.0001 0.0001 0.0001 0.0001 0.0001 0.0001 0.0001 0.0001 0.0001 0.0001 0.0001 0.0001000488 0.0001 0.0001 0.0001012346 0.0001 0.0001171875 0.000125 0.0001 0.0001 0.0001666667 0.0001 0.0004 0.0014 0.0042 0.0108 0.0214 0.0227 0.0389 0.0529 0.0579 0.0213 0.0211 0.0089 0.0484 0.2088 0.6837 1.6354 3.0741 4.19845 5.136 7.4057 9.3246 11.0629 9.7403 12.06618 14.5252 17.0545 13.5466 24.812 36.1443 37.6511 32.2172 22.2341 23.7874 24.7443 25.5296 26.254 26.88518 26.9587 27.2923 26.8089 25.4209 23.767 20.7902 19.88515 18.3692 16.3864 14.4089 12.4884 10.715 9.95815 9.2558 8.0037 6.9259 6.3102 6.4846 7.078 8.17206 8.3717 16.8259 7.9007 9.6366 11.224 12.13982 13.0109 14.6436 15.0782 14.8691 15.4483 16.4998 17.44267 19.1221 24.1599 26.3949 27.6742 30.6005 24.89962 21.3631 19.7118 18.6889 18.3628 18.1921 18.1828 17.92403 18.0751 17.854 17.9452 17.579 16.5074 15.50827 14.8561 13.4325 16.12105 22.494 14.9694 14.3549 14.56248 13.9814 14.4518 14.7435 11.5377 6.195 4.5873 2.3845 0.7598 0.2897 0.0996 0.0487 0.0812 0.06353334 0.0335 0.0116 0.0035 0.0009 0.0002 0.001133333 0.0006 0.0004333333 0.0002 0.0001 0.0001 0.000103125 0.0001 0.00010625 0.0001032227 0.0001 
0.0001 0.0001 0.0001000076 0.0001000914 0.000100569 0.0001010654 0.0001 0.0001 0.0001 0.0001 0.0001 0.0001 0.0001 0.0001 0.0001 0.0001 0.0001 0.0001 0.0001000122 0.0001 0.0001 0.0001004115 0.0001 0.0001074219 0.0001125 0.0001 0.0001 0.0001166667 0.0001 0.0002 0.0001 0.0004 0.0012 0.0032 0.0077 0.007 0.0116 0.013 0.0024 0.0068 0.0075 0.0035 0.0177 0.0899 0.3485 0.9548 1.9069 2.9727 3.5131 5.9987 9.1389 13.1249 15.5401 16.95362 15.8783 20.372 32.6771 42.898 39.7935 36.05352 28.6741 23.9946 25.5314 26.587 27.1258 27.6627 27.85877 27.9619 27.7615 26.9186 24.8901 22.4551 21.0196 19.96712 18.4476 16.2662 14.2239 12.3818 10.721 10.12692 9.3906 8.2724 7.2192 6.6652 7.2881 8.3036 10.025 10.6878 10.41078 8.331 10.5236 12.5786 13.61487 15.2584 18.1013 19.5381 19.9664 20.5079 19.4939 21.2519 22.9387 25.6758 27.7823 30.3398 28.3 26.44535 25.8896 24.7166 21.9647 20.499 19.6212 19.31258 19.2508 19.0973 18.7143 19.2124 18.8446 18.9468 18.3343 18.9735 18.6951 18.0218 20.6016 18.7136 17.53447 17.6418 17.5251 17.1677 13.4898 7.7373 3.1709 2.360117 1.0126 0.34 0.1738 0.0917 0.0321 0.03701667 0.0145 0.0057 0.002 0.0006 0.0002 0.00035 0.0002 0.0005916667 0.0004111111 0.0002444444 0.00015 0.0001 0.0001 0.0001007813 0.0001 0.000103125 0.0001015869 
0.0001 0.0001000025 0.000100033 0.0001002227 0.0001004315 0.0001 0.0001 0.0001 0.0001 0.0001 0.0001 0.0001 0.0001 0.0001 0.0001 0.0001 0.0001 0.0001000031 0.0001 0.0001 0.0001001372 0.0001 0.000103418 0.00010625 0.0001 0.0001 0.0001041667 0.0001 0.0001333333 0.0001 0.0002 0.0001 0.0003 0.00095 0.0008 0.0017 0.0028 0.003 0.0012 0.0022 0.002833333 0.0023 0.0109 0.0524 0.2151 0.6593 1.207617 1.4376 2.7685 5.2135 9.0498 14.2023 19.4288 20.9386 24.1806 33.09544 47.3204 54.7497 46.7008 38.33267 27.3573 25.7582 27.2909 28.4183 28.7623 29.108 28.9943 29.2073 28.9524 28.2498 27.1048 24.4849 23.06338 21.9792 19.1969 16.8276 14.6498 12.7276 11.003 10.41967 9.6761 8.601 8.0611 7.4689 8.3293 9.514733 10.2493 15.4596 6.4717 9.2378 11.1878 13.1594 14.61407 16.4579 18.3509 20.207 21.0926 21.4339 21.05738 21.8216 22.5827 24.2778 26.113 28.0987 26.9292 26.15428 25.5897 24.8377 23.3477 21.7776 20.6156 20.24833 20.013 19.7548 19.7398 19.6641 19.5383 19.9954 20.69422 20.7266 21.9415 33.1155 21.61931 20.4054 17.74428 19.1217 16.897 13.0466 7.8002 3.3251 1.0581 0.9997666 0.3396 0.1734 0.1178 0.0734 0.035 0.02211667 0.0106 0.004 0.0013 0.0004 0.0001 0.00015 0.0002 0.0002 0.0003618055 0.0002685185 0.0001648148 0.000125 0.0001 0.0001 0.0001001953 0.0001 0.0001015625 
0.0001000013 0.0001000119 0.0001000861 0.0001001718 0.0001 0.0001 0.0001 0.0001 0.0001 0.0001 0.0001 0.0001 0.0001 0.0001 0.0001 0.0001 0.0001000008 0.0001 0.0001 0.0001000457 0.0001 0.0001016357 0.000103125 0.0001 0.0001 0.0001010417 0.0001 0.0001111111 0.0001 0.0001333333 0.0001 0.0001666667 0.0001 0.000325 0.0001 0.0003 0.0006 0.0007 0.0004 0.0008 0.001316667 0.0014 0.0043 0.0116 0.0232 0.0513 1.03035 2.2358 2.7288 5.2848 9.6725 16.0156 23.7719 24.86813 26.8319 40.0624 57.4408 59.0585 47.9576 44.90045 39.5127 28.7169 29.2847 29.9251 30.1212 30.0922 30.12047 29.9337 29.3604 27.9135 26.4789 25.5572 24.2496 22.8843 20.0704 17.5319 15.2624 13.2854 11.5324 10.90307 10.1949 9.2713 8.9308 8.5041 9.6376 9.721383 13.2805 5.9162 7.1251 9.479213 11.6959 12.58057 13.5277 16.7024 18.4973 19.7332 20.9569 21.0744 20.47492 20.2546 20.8265 21.4572 23.0465 23.8767 25.02585 25.1989 25.0183 24.3107 23.5946 22.3791 21.3212 21.00755 20.6682 21.4557 20.8047 20.0808 20.1729 21.6406 25.48808 23.8824 38.9783 23.442 21.8611 16.7935 15.0953 13.7897 9.8566 5.6034 2.3293 0.7222 0.9507333 0.2579 0.1595 0.1199 0.0878 0.056 0.029 0.01941667 0.0115 0.003 0.0007 0.0002 0.000225 0.0001 0.000125 0.00015625 0.0002 0.0002487847 0.0001861111 0.0001299383 0.0001125 0.0001 0.0001 0.0001000488 0.0001 
0.0001000066 0.0001000331 0.0001000674 0.0001 0.0001 0.0001 0.0001 0.0001 0.0001 0.0001 0.0001 0.0001 0.0001 0.0001 0.0001 0.0001000002 0.0001 0.0001 0.0001000152 0.0001 0.0001007996 0.0001015625 0.0001 0.0001 0.0001002604 0.0001 0.0001037037 0.0001 0.0001111111 0.0001 0.0001222222 0.0001 0.0001 0.0001 0.0001666667 0.0001 0.0001 0.0004 0.0002 0.00042 0.0004 0.0008 0.0025 0.009 0.0435 0.2265 1.074767 1.5716 3.5415 5.5831 10.0835 16.5848 18.8125 21.5294 33.4662 46.4132 49.67344 56.3232 52.3769 56.7148 55.4974 32.9951 32.9359 32.1532 31.7722 31.63193 31.3964 30.9852 30.3494 28.9539 28.3366 26.4659 25.11028 24.1261 21.0505 18.3521 15.9507 13.9519 13.03548 12.1784 10.8336 9.9153 9.4578 9.3028 11.709 8.340034 5.1226 6.5474 8.1222 9.9348 12.0584 12.70256 13.8542 16.9139 18.4106 20.1335 20.9784 19.9922 18.82732 18.2728 18.2516 18.4946 20.1448 22.1845 23.147 23.8671 24.3065 24.2095 23.7692 22.8322 21.9449 21.64052 21.4824 21.4642 23.0156 21.3124 24.2918 24.15745 26.4592 40.2243 22.914 21.4542 19.3899 15.72966 11.12263 5.3662 2.7225 1.0478 0.3628 0.1924 0.2640333 0.1487 0.1225 0.0952 0.0668 0.041 0.0213 0.01526667 0.0091 0.003 0.0009 0.0002 0.0002 0.0001729167 0.0001 0.0001125 0.0001421875 0.0002 0.0001912085 0.0001428498 0.0001141461 0.00010625 0.0001 0.0001 0.0001000122 
0.0001000198 0.0001000268 0.0001 0.0001 0.0001 0.0001 0.0001 0.0001 0.0001 0.0001 0.0001 0.0001 0.0001 0.0001 0.0001 0.0001 0.0001 0.0001000051 0.0001 0.0001003952 0.0001007813 0.0001 0.0001 0.0001000651 0.0001 0.0001012346 0.0001 0.0001037037 0.0001 0.0001074074 0.0001 0.0001 0.0001 0.0001166667 0.0001 0.0001 0.0001 0.00015 0.0002 0.000275 0.0003 0.0023 0.0148 0.0742 0.2805 0.776 0.9829167 1.5874 2.9618 5.4356 9.1534 13.4351 17.17688 21.5382 29.812 39.6118 48.8042 56.35437 86.2913 67.2055 58.6529 35.29 35.6565 34.78 33.6622 33.10933 32.7474 32.0848 31.4434 30.7928 29.2554 27.0547 25.68725 24.5735 21.9333 19.0402 16.531 14.5334 13.5591 12.7314 11.3013 10.2465 9.8884 10.9635 4.7289 6.33185 5.5616 6.984 8.7464 10.3377 11.16152 12.7959 12.3766 15.1672 18.4444 21.1078 19.2188 18.027 17.2133 16.1566 15.6424 16.9065 18.6612 20.9144 21.97168 22.8404 23.3678 23.3851 23.4103 22.901 22.3337 21.93152 22.0927 22.1121 23.4138 23.0456 37.9195 21.62847 14.4607 19.9502 18.3631 15.4909 12.0627 8.5411 4.19175 1.910517 0.3785 0.2124 0.1573 0.1394 0.1378833 0.1236 0.1015 0.0751 0.0496 0.0288 0.02235 0.0145 0.0062 0.0022 0.0007 0.0002 0.0001666667 0.0001666667 0.0001432292 0.0001 0.00010625 0.0001371094 0.0002 0.0001620511 0.000121082 0.0001067987 0.000103125 0.0001 0.0001 
0.0001000155 0.0001 0.0001 0.0001 0.0001 0.0001 0.0001 0.0001 0.0001 0.0001 0.0001 0.0001 0.0001 0.0001 0.0001 0.0001 0.0001000017 0.0001 0.0001001965 0.0001003906 0.0001 0.0001 0.0001000163 0.0001 0.0001004115 0.0001 0.0001012346 0.0001 0.0001024691 0.0001 0.0001 0.0001 0.0001041667 0.0001 0.0001 0.0001 0.0001166667 0.00015 0.0001916667 0.0002 0.0002 0.0014 0.0091 0.047 0.1849 0.5483 0.94635 1.1877 2.1339 3.6877 6.7194 11.8663 15.05953 18.1075 24.3404 30.2118 37.9406 56.39 71.49777 86.1112 64.3033 36.2783 36.8101 36.6791 35.2624 34.5888 33.8154 32.7605 30.8731 29.5453 29.3286 28.34427 27.134 24.7693 22.5345 19.5043 16.8924 14.9403 13.85327 13.0192 11.4626 10.3162 11.3121 4.5438 5.668716 4.9465 5.9225 6.7699 8.1732 10.5823 12.8944 11.73195 10.4188 11.0756 19.4953 24.5037 18.2364 14.55928 12.5229 11.4234 12.9836 14.8922 17.0003 20.0538 21.0444 21.9699 22.7848 23.0815 23.113 22.557 21.81132 21.9915 21.7439 21.6455 21.896 34.0331 15.052 15.52925 11.5876 11.7474 9.6006 6.638 3.9458 4.559633 1.9872 0.8725 0.1362 0.1289 0.1269 0.1196 0.1112833 0.1036 0.0809 0.0564 0.035 0.0192 0.01491667 0.0093 0.0039 0.0014 0.0004 0.0001 0.0001333333 0.0001333333 0.000137037 0.0001237703 0.0001 0.000103125 0.0001350586 0.0002 0.0001474829 0.0001103352 0.0001033079 0.0001015625 0.0001 
0.0001 0.0001 0.0001 0.0001 0.0001 0.0001 0.0001 0.0001 0.0001 0.0001 0.0001 0.0001 0.0001 0.0001 0.0001 0.0001000006 0.0001 0.0001000979 0.0001001953 0.0001 0.0001 0.0001000041 0.0001 0.0001001372 0.0001 0.0001004115 0.0001 0.000100823 0.0001 0.0001 0.0001 0.0001010417 0.0001 0.0001 0.0001 0.0001055556 0.0001222222 0.0001427778 0.0001444444 0.0001333333 0.0001 0.0004 0.0017 0.0058 0.0131 0.1969667 0.0156 1.5631 1.8006 3.3389 5.964 10.1012 12.65257 15.3089 20.5599 26.9874 35.7166 57.1986 65.52646 73.12636 70.8082 43.6717 37.646 38.2897 37.0278 35.62315 35.0176 33.6939 31.6074 31.06 29.5865 28.55737 27.7064 25.5517 23.382 20.5161 17.136 14.9324 13.91572 12.9629 10.9734 12.0001 4.6307 4.2145 4.2391 4.6151 5.4329 4.7895 7.253 10.4946 15.2257 10.17272 6.4311 7.0435 20.2048 25.7754 12.7361 11.04345 7.4282 5.9078 8.9324 12.1557 15.3412 19.1439 19.68922 21.344 22.194 22.4093 22.0338 21.0492 19.76962 20.0355 19.2664 18.2625 29.8356 9.7904 8.3442 7.5895 5.8115 4.223 2.5853 1.268 0.5435 1.162317 0.2775 0.1741 0.2159375 0.1112 0.1097 0.1041167 0.0996 0.0819 0.0605 0.0398 0.0233 0.0121 0.009433334 0.0056 0.0023 0.0008 0.0003 0.0001 0.0001 0.0001111111 0.0001148148 0.0001185185 0.0001121154 0.0001 0.0001015625 0.0001341553 0.0002 0.0001402815 0.0001050685 0.0001016235 0.0001007813 
0.0001 0.0001 0.0001 0.0001 0.0001 0.0001 0.0001 0.0001 0.0001 0.0001 0.0001 0.0001 0.0001 0.0001 0.0001000002 0.0001 0.0001000489 0.0001000977 0.0001 0.0001 0.000100001 0.0001 0.0001000457 0.0001 0.0001001372 0.0001 0.0001002744 0.0001 0.0001 0.0001 0.0001002604 0.0001 0.0001 0.0001 0.0001018519 0.0001092593 0.0001185556 0.0001185185 0.0001111111 0.0001 0.0001 0.0005 0.0037 0.021 0.0944 0.07786667 0.3255 0.8404 1.5811 2.8511 5.0119 8.1825 10.34542 12.349 17.9767 25.1867 35.0027 49.9865 57.4548 77.946 66.4631 46.8512 35.3628 37.7091 36.7827 37.6749 34.9408 34.2239 33.1939 31.6652 29.7638 28.23927 27.8249 25.8056 23.8287 21.2954 17.9645 16.31492 14.7171 12.9224 12.119 4.9583 3.4999 3.3208 3.814183 3.7939 3.8842 3.3423 5.7653 8.7686 13.4557 7.564267 2.8567 9.690388 20.2626 17.5691 8.5783 7.2957 6.7588 2.369 4.1248 7.6693 11.8596 12.97047 16.3943 19.2294 20.2877 20.1691 19.0758 17.3737 15.85438 15.6108 13.9453 24.13 5.0089 3.6912 4.429467 2.8951 1.8466 0.9593 0.365 0.1783 0.1184 0.2012167 0.1015 0.1011 0.1066 0.0969 0.0909 0.08443333 0.078 0.0606 0.0423 0.0263 0.0146 0.0072 0.00565 0.0032 0.0012 0.0004 0.0001 0.00015 0.0001 0.0001 0.0001037037 0.0001061728 0.000108642 0.0001058066 0.0001 0.0001007813 0.0001337341 0.0002 0.0001367434 0.0001024911 0.0001012024 
0.0001 0.0001 0.0001 0.0001 0.0001 0.0001 0.0001 0.0001 0.0001 0.0001 0.0001 0.0001 0.0001 0.0001000001 0.0001 0.0001000244 0.0001000488 0.0001 0.0001 0.0001000003 0.0001 0.0001000152 0.0001 0.0001000457 0.0001 0.0001000914 0.0001 0.0001 0.0001 0.0001000651 0.0001 0.0001 0.0001 0.0001006173 0.0001037037 0.0001076617 0.0001074074 0.0001037037 0.0001 0.0001 0.000225 0.0002 0.0009 0.0033 0.0081 0.07363334 0.0105 0.0401 1.5834 1.9344 3.5574 4.626717 6.1997 9.9312 14.7164 20.1107 25.9885 39.2889 49.76065 62.854 52.66765 39.6488 27.6771 31.3577 34.50888 38.637 32.4249 31.1325 30.0118 29.8476 28.2528 27.33985 26.3012 24.3673 22.3761 20.1541 17.8351 16.63255 15.3044 15.9696 5.1301 4.2517 2.6708 3.2328 3.495 3.708 3.0383 1.8545 3.734 6.9522 6.426084 5.2509 2.1655 3.5649 14.994 7.9049 3.984 4.332867 4.2888 3.0234 4.9415 1.667 5.1629 8.022266 9.9209 13.5536 15.2353 15.1382 13.6546 11.5767 11.34585 9.4804 16.0126 2.6389 1.6934 1.1983 1.460067 0.6576 0.2494 0.1115 0.0846 0.0802 0.081 0.09116667 0.0854 0.0914 0.0963 0.0849375 0.071 0.06491667 0.0574 0.0421 0.0277 0.0164 0.0086 0.0041 0.003216667 0.0017 0.0006 0.0002 0.0001 0.0001 0.0001125 0.0001 0.0001 0.0001012346 0.0001024691 0.0001038409 0.0001026519 0.0001 0.0001003906 0.0001335312 0.0002 0.0001351092 0.0001018467 
0.0001 0.0001 0.0001 0.0001 0.0001 0.0001 0.0001 0.0001 0.0001 0.0001 0.0001 0.0001 0.0001 0.0001 0.0001000122 0.0001000244 0.0001 0.0001 0.0001000001 0.0001 0.0001000051 0.0001 0.0001000152 0.0001 0.0001000305 0.0001 0.0001 0.0001 0.0001000163 0.0001 0.0001 0.0001 0.0001002058 0.0001014403 0.000103055 0.0001028807 0.0001012346 0.0001 0.0001 0.0001395833 0.0001333333 0.0001 0.0003 0.0009 0.0017 0.003833333 0.0016 0.0094 0.4383 0.7889 1.6468 2.636983 3.162 5.6792 9.2504 13.5592 18.2426 23.2474 35.57057 45.2411 51.3293 31.0077 21.2414 24.0246 29.91782 37.65 31.1778 29.5344 29.2215 28.3418 27.13823 26.8025 25.0939 23.3242 21.3807 19.4408 17.6529 14.90682 16.3213 4.9752 4.0923 3.3621 2.5895 3.3735 3.2828 3.541 2.2655 1.4269 1.6035 2.315 2.8705 1.8141 0.8653 1.2786 4.690638 1.8512 2.5189 0.9418 1.4455 1.3821 2.3063 0.2635 1.2095 3.503183 3.5864 6.2194 8.9207 7.6858 6.7471 6.68325 5.3632 8.6703 1.5136 0.9674 0.492 0.216 0.3917833 0.1022 0.0701 0.0654 0.0692 0.0742 0.07666667 0.0785 0.0822 0.0849 0.0849 0.0805 0.0524 0.04934 0.0398 0.0275 0.0171 0.0096 0.0048 0.0039 0.0022 0.0009 0.0003 0.0001 0.0001333333 0.0001 0.0001 0.000103125 0.0001 0.0001 0.0001004115 0.0001009602 0.0001016461 0.000101166 0.0001 0.0001001953 0.0001334316 0.0002 0.000145652 
0.0001 0.0001 0.0001 0.0001 0.0001 0.0001 0.0001 0.0001 0.0001 0.0001 0.0001 0.0001 0.0001 0.0001000061 0.0001000122 0.0001 0.0001 0.0001 0.0001 0.0001000017 0.0001 0.0001000051 0.0001 0.0001000102 0.0001 0.0001 0.0001 0.0001000041 0.0001 0.0001 0.0001 0.0001000686 0.0001005487 0.0001011871 0.0001010974 0.0001004115 0.0001 0.0001 0.0001126736 0.0001111111 0.0001 0.0001 0.0001 0.0004 0.0007333333 0.0006 0.0005 0.0234 0.0553 0.1227 0.3506 1.033817 0.9054 1.9201 3.6377 6.1553 8.9674 11.93695 12.778 30.014 37.8841 28.73515 19.3284 20.8316 24.66012 27.006 25.3591 26.1572 25.18 25.4559 24.68498 24.1288 22.6926 20.5802 17.6994 15.5044 15.2687 11.35463 7.0585 3.498 2.8103 2.6059 2.3214 2.520183 3.0627 2.7788 1.8667 1.309 1.07 0.6111 0.8752667 0.2797 0.1057 0.5629 7.1033 0.2653 0.66088 0.1662 0.2483 0.2728 0.439 0.1466 0.3127 1.036967 0.8267 1.4548 5.2896 1.1645 2.0842 2.522733 0.6737 0.4861 0.3369 0.2169 0.1247 0.0788 0.1151333 0.0978 0.0641 0.0421 0.0614 0.0709 0.07065 0.0752 0.0764 0.0751 0.0709 0.0632 0.05584 0.03418 0.0261 0.017 0.01 0.0053 0.0026 0.002083333 0.0011 0.0004 0.0001 0.00015 0.0001 0.0001111111 0.0001 0.0001 0.0001007813 0.0001 0.0001 0.0001001372 0.0001003658 0.0001006859 0.0001004973 0.0001 0.0001000977 0.0001333823 0.0002 
0.0001 0.0001 0.0001 0.0001 0.0001 0.0001 0.0001 0.0001 0.0001 0.0001 0.0001 0.0001 0.0001000031 0.0001000061 0.0001 0.0001 0.0001 0.0001 0.0001000006 0.0001 0.0001000017 0.0001 0.0001000034 0.0001 0.0001 0.0001 0.000100001 0.0001 0.0001 0.0001 0.0001000229 0.0001002058 0.0001004523 0.0001004115 0.0001001372 0.0001 0.0001 0.0001040943 0.0001037037 0.0001 0.0001 0.0001 0.0001 0.0002 0.0004 0.0006 0.0022 0.0092 0.0154 0.022 0.0401 0.2375167 0.098 0.2698 0.7157 1.5729 2.9957 5.148383 5.3906 21.5422 28.8265 24.3918 15.872 16.84422 17.02 21.4285 19.5769 16.2718 19.9171 21.9335 21.13702 21.4474 20.2783 17.0294 12.3022 10.9821 6.9953 6.752067 4.8311 1.7221 2.1752 2.0089 1.8002 1.95575 1.9738 1.7686 1.3225 0.9879 0.5767 0.1578 0.2131667 0.0739 0.0548 0.278 1.7604 1.91014 0.14034 0.0799 0.0776 0.0779 0.1015 0.0602 0.1233333 0.114 0.1725 0.2278 0.5556 0.5504 0.1702 0.5270166 0.098 0.0542 0.0849 0.0824 0.0714 0.09463333 0.096 0.1 0.0673 0.0448 0.04 0.0591 0.05936667 0.066 0.0662 0.0624 0.0557 0.0467 0.0364 0.025675 0.0162 0.01 0.0056 0.0028 0.0013 0.00105 0.0005 0.0002 0.0001 0.0001 0.0001125 0.0001 0.0001037037 0.0001 0.0001 0.0001001953 0.0001 0.0001 0.0001000457 0.0001001372 0.0001002794 0.0001002069 0.0001 0.0001000488 0.0001333578 
0.0001 0.0001 0.0001 0.0001 0.0001 0.0001 0.0001 0.0001 0.0001 0.0001 0.0001 0.0001000015 0.0001000031 0.0001 0.0001 0.0001 0.0001 0.0001000002 0.0001 0.0001000006 0.0001 0.0001000011 0.0001 0.0001 0.0001 0.0001000003 0.0001 0.0001 0.0001 0.0001000076 0.0001000762 0.0001001697 0.0001001524 0.0001000457 0.0001 0.0001 0.0001013322 0.0001012346 0.0001 0.0001 0.0001 0.0001 0.000125 0.0001 0.0003 0.0005 0.0016 0.0044 0.0072 0.0097 0.0163 0.0129 0.0181 0.0298 0.0592 0.12 0.1576 1.5329 0.601 11.5204 23.0947 22.6714 17.55458 13.48325 11.1691 14.4742 12.9786 11.8625 14.7556 16.7373 15.7651 17.1192 16.7022 13.2064 11.2413 5.3982 5.646083 4.4356 1.9232 1.762 1.7346 1.5539 1.3692 1.17415 1.2072 0.8674 0.4263 0.2862 0.2458 0.2245833 0.0873 0.0692 0.1542 0.1853 0.3001 0.1216 0.106475 0.0687 0.0549 0.051 0.0556 0.0469 0.0634 0.0596 0.0724 0.0794 0.0923 0.1319 0.0662 0.0904 0.0698 0.039 0.0638 0.0686 0.0682 0.09106667 0.1287 0.1017 0.0663 0.0438 0.0384 0.0353 0.04615 0.0497 0.0519 0.048 0.041 0.0326 0.02933333 0.024 0.01336667 0.0056 0.003 0.0014 0.0006 0.0005 0.0002 0.0001 0.0001333333 0.0001 0.0001 0.000103125 0.0001 0.0001012346 0.0001 0.0001 0.0001000488 0.0001 0.0001 0.0001000152 0.0001000508 0.0001001118 0.0001000843 0.0001 0.0001000244 
0.0001 0.0001 0.0001 0.0001 0.0001 0.0001 0.0001 0.0001 0.0001 0.0001 0.0001000008 0.0001000015 0.0001 0.0001 0.0001 0.0001 0.0001000001 0.0001 0.0001000002 0.0001 0.0001000004 0.0001 0.0001 0.0001 0.0001000001 0.0001 0.0001 0.0001 0.0001000025 0.0001000279 0.0001000629 0.0001000559 0.0001000152 0.0001 0.0001 0.0001004359 0.0001004115 0.0001 0.0001 0.0001 0.0001 0.00010625 0.0001 0.0001 0.0002166667 0.0003 0.0009 0.0023 0.0039 0.0056 0.007316667 0.0075 0.0094 0.0113 0.0108 0.06085 0.0128 0.1383167 0.0397 2.1855 11.415 14.9658 9.8719 7.017025 7.113 5.1923 4.7489 6.0311 8.4748 8.7328 9.6991 8.6204 9.0383 9.3404 4.805 3.6011 3.022633 2.4642 0.6905 0.8807 0.6592 0.5596 0.45 0.5864667 0.2445 0.1671 0.106 0.1791 0.2006 0.14445 0.0793 0.1312 0.1494 0.1405 0.1109 0.1557 0.10758 0.07286 0.0488 0.0464 0.0489 0.048 0.0528 0.0517 0.0513 0.0614 0.084 0.077 0.0825 0.0623 0.0759 0.0341 0.0586 0.0675 0.0698 0.09031667 0.1123 0.1422 0.0601 0.0265 0.0313 0.0303 0.03415 0.0365 0.0378 0.0343 0.0282 0.0214 0.01913333 0.0149 0.0095 0.004085714 0.0015 0.0007 0.0005666667 0.0003 0.0001 0.0001333333 0.0001 0.0001111111 0.0001 0.0001 0.0001007813 0.0001 0.0001004115 0.0001 0.0001 0.0001000122 0.0001 0.0001 0.0001000051 0.0001000186 0.000100044 0.0001000338 0.0001 
0.0001 0.0001 0.0001 0.0001 0.0001 0.0001 0.0001 0.0001 0.0001 0.0001000004 0.0001000008 0.0001 0.0001 0.0001 0.0001 0.0001 0.0001 0.0001000001 0.0001 0.0001000001 0.0001 0.0001 0.0001 0.0001 0.0001 0.0001 0.0001 0.0001000008 0.0001000102 0.0001000231 0.0001000203 0.0001000051 0.0001 0.0001 0.0001001433 0.0001001372 0.0001 0.0001 0.0001 0.0001 0.0001015625 0.0001 0.0001 0.0001 0.0001 0.0002 0.0005 0.0012 0.0021 0.0034 0.004383333 0.0048 0.0061 0.0066 0.0047 0.007725 0.008766667 0.0071 0.0117 0.1747 2.7986 5.4515 3.0555 3.56708 3.9716 0.7578 0.7245 1.21 2.3905 3.92915 3.2461 3.7388 4.0649 2.9957 2.1122 1.4116 1.466367 0.8251 0.2093 0.2072 0.1283 0.1499 0.25105 0.137 0.1109 0.1091 0.0898 0.1689 0.1785 0.1253 0.0752 0.1705 0.1369 0.1176 0.0962 0.1150667 0.129 0.0629 0.04965714 0.0453 0.0506 0.054 0.05603333 0.0566 0.0452 0.0669 0.0759 0.074 0.0796 0.0836 0.0845 0.0382 0.0623 0.0518 0.0661 0.07853334 0.0968 0.1181 0.0685 0.0347 0.0274 0.02851667 0.0343 0.0188 0.0239 0.0224 0.0181 0.0132 0.0113 0.0087 0.0053 0.003 0.0007 0.0003 0.0002666667 0.0001 0.00015 0.0001 0.0001111111 0.0001 0.0001037037 0.0001 0.0001 0.0001001953 0.0001 0.0001001372 0.0001 0.0001 0.0001000031 0.0001 0.0001 0.0001000017 0.0001000068 0.0001000171 0.0001000133 
0.0001 0.0001 0.0001 0.0001 0.0001 0.0001 0.0001 0.0001 0.0001000002 0.0001000004 0.0001 0.0001 0.0001 0.0001 0.0001 0.0001 0.0001 0.0001 0.0001 0.0001 0.0001 0.0001 0.0001 0.0001 0.0001 0.0001 0.0001000003 0.0001000037 0.0001000084 0.0001000073 0.0001000017 0.0001 0.0001 0.0001000472 0.0001000457 0.0001 0.0001 0.0001 0.0001 0.0001003906 0.0001 0.0001 0.0001 0.0001 0.0001333333 0.0001 0.0002 0.0006 0.0012 0.002 0.002666667 0.003 0.004 0.0042 0.0026 0.0031 0.006366667 0.0064 0.0097 0.0556 0.2727 1.0018 0.3918 1.384133 0.5446 0.8149 0.1095 0.1305 0.2607 1.08865 0.47 0.6694 0.7218 0.6108 0.4797 0.3536 0.484 0.1426 0.0452 0.0397 0.0298 0.1082 0.1162 0.1016 0.1058 0.1136 0.0929 0.1527 0.15 0.1076667 0.0682 0.1814 0.1312 0.1013 0.0877 0.09955 0.1109 0.0558 0.0445 0.0439 0.0547 0.0629 0.06283333 0.063 0.046 0.0633 0.0784 0.0761 0.08566666 0.1046 0.0905 0.0402 0.0638 0.0525 0.0478 0.06371666 0.0784 0.0946 0.0649 0.0363 0.0241 0.02438333 0.0237 0.0156 0.0204 0.013 0.0097 0.0065 0.00595 0.0031 0.0025 0.0014 0.0008125 0.0001 0.00014 0.0001 0.0001 0.0001125 0.0001 0.0001037037 0.0001 0.0001012346 0.0001 0.0001 0.0001000488 0.0001 0.0001000457 0.0001 0.0001 0.0001000008 0.0001 0.0001 0.0001000006 0.0001000024 0.0001000066 
0.0001 0.0001 0.0001 0.0001 0.0001 0.0001 0.0001 0.0001000001 0.0001000002 0.0001 0.0001 0.0001 0.0001 0.0001 0.0001 0.0001 0.0001 0.0001 0.0001 0.0001 0.0001 0.0001 0.0001 0.0001 0.0001 0.0001000001 0.0001000013 0.000100003 0.0001000026 0.0001000006 0.0001 0.0001 0.0001000156 0.0001000152 0.0001 0.0001 0.0001 0.0001 0.0001000977 0.0001 0.0001 0.0001 0.0001 0.0001111111 0.0001 0.000125 0.0001 0.0003 0.0006 0.0011 0.0015 0.0017 0.0018 0.0028 0.002 0.002 0.0055 0.0056 0.0088 0.0431 0.0773 0.2506 0.1519 0.2658333 0.1894 0.1454 0.0764 0.0665 0.0735 0.1721 0.0911 0.11 0.1196 0.1102 0.1213 0.2001833 0.1093 0.0618 0.0398 0.0142 0.0185 0.1102 0.10265 0.0903 0.113 0.1235 0.091 0.1242 0.1195 0.1163 0.0578 0.1594 0.1401 0.0859 0.0621 0.08758333 0.1114 0.0466 0.0393 0.04715 0.059 0.06486667 0.0721 0.0684 0.0475 0.0588 0.0783 0.0767 0.08676667 0.099 0.1148 0.0401 0.0619 0.05 0.04293333 0.0333 0.0599 0.0724 0.0549 0.033 0.0204 0.01865 0.0164 0.0113 0.0152 0.0069 0.0047 0.004516667 0.0029 0.0013 0.0008 0.0006 0.0003 0.0001 0.0001 0.0001 0.0001 0.0001 0.000103125 0.0001 0.0001012346 0.0001 0.0001004115 0.0001 0.0001 0.0001000122 0.0001 0.0001000152 0.0001 0.0001 0.0001000002 0.0001 0.0001 0.0001000002 0.0001000009 
0.0001 0.0001 0.0001 0.0001 0.0001 0.0001 0.0001 0.0001000001 0.0001 0.0001 0.0001 0.0001 0.0001 0.0001 0.0001 0.0001 0.0001 0.0001 0.0001 0.0001 0.0001 0.0001 0.0001 0.0001 0.0001 0.0001000005 0.0001000011 0.0001000009 0.0001000002 0.0001 0.0001 0.0001000052 0.0001000051 0.0001 0.0001 0.0001 0.0001 0.0001000244 0.0001 0.0001 0.0001 0.0001 0.0001037037 0.0001 0.00010625 0.0001 0.0001 0.0002 0.0005 0.00058 0.0005 0.0007 0.001 0.0017 0.0014 0.001433333 0.004466667 0.0045 0.0074 0.0375 0.0594 0.2163 0.1862333 0.1478 0.1695 0.1122 0.0901625 0.0643 0.0658 0.0742 0.0715 0.0747 0.0739 0.0744 0.0813 0.07756667 0.0559 0.0535 0.0397 0.0123 0.0192 0.1196 0.1037167 0.086 0.1227 0.131 0.0816 0.0908 0.08813334 0.083 0.0456 0.1338 0.1225 0.0783 0.0656 0.07561667 0.0878 0.0362 0.0329 0.0408 0.0621 0.07046 0.0784 0.0717 0.0484 0.0606 0.0683 0.0735 0.0811 0.0907 0.1031 0.0637 0.0565 0.0446 0.03643333 0.0294 0.0376 0.0514 0.0423 0.0269 0.0161 0.0139 0.0112 0.0075 0.0101 0.0033 0.0021 0.00205 0.0012 0.0005 0.0002 0.0002 0.0001 0.0001666667 0.0001 0.0001 0.0001 0.0001 0.0001 0.0001007813 0.0001 0.0001004115 0.0001 0.0001001372 0.0001 0.0001 0.0001000031 0.0001 0.0001000051 0.0001 0.0001 0.0001 0.0001 0.0001 0.0001000001 
0.0001 0.0001 0.0001 0.0001 0.0001 0.0001 0.0001 0.0001 0.0001 0.0001 0.0001 0.0001 0.0001 0.0001 0.0001 0.0001 0.0001 0.0001 0.0001 0.0001 0.0001 0.0001 0.0001 0.0001 0.0001000002 0.0001000004 0.0001000003 0.0001000001 0.0001 0.0001 0.0001000017 0.0001000017 0.0001 0.0001 0.0001 0.0001 0.0001000061 0.0001 0.0001 0.0001 0.0001 0.0001012346 0.0001 0.0001015625 0.0001 0.0001 0.00015 0.0002666667 0.00035 0.000325 0.0002 0.0003 0.0005 0.001 0.0009 0.0009333334 0.003333333 0.0033 0.0057 0.0311 0.0955 0.1926 0.1840833 0.1582 0.1717 0.1137 0.0758 0.067 0.06778 0.0694 0.0739 0.074 0.0704 0.0683 0.0635 0.05585 0.0341 0.0553 0.0431 0.0138 0.0228 0.0769 0.1306 0.0856 0.1324 0.1336 0.0669 0.06 0.05955 0.0545 0.0333 0.1059 0.1032 0.0685 0.0532 0.06308334 0.0736 0.026 0.0257 0.0357 0.046 0.0724 0.0807 0.0718 0.0477 0.0598 0.0572 0.06161667 0.0667 0.08 0.0889 0.0614 0.0634 0.0372 0.03041667 0.0241 0.0293 0.0288 0.0288 0.0197 0.01596667 0.0118 0.0075 0.0048 0.0062 0.0015 0.0009 0.0008833333 0.0005 0.0002 0.0001 0.0001 0.0001333333 0.0001 0.0001222222 0.0001 0.0001 0.0001 0.0001 0.0001 0.0001001953 0.0001 0.0001001372 0.0001 0.0001000457 0.0001 0.0001 0.0001000008 0.0001 0.0001000017 0.0001 0.0001 0.0001 0.0001 0.0001 
0.0001 0.0001 0.0001 0.0001 0.0001 0.0001 0.0001 0.0001 0.0001 0.0001 0.0001 0.0001 0.0001 0.0001 0.0001 0.0001 0.0001 0.0001 0.0001 0.0001 0.0001 0.0001 0.0001 0.0001000001 0.0001000001 0.0001000001 0.0001 0.0001 0.0001 0.0001000006 0.0001000006 0.0001 0.0001 0.0001 0.0001 0.0001000015 0.0001 0.0001 0.0001 0.0001 0.0001004115 0.0001 0.0001003906 0.0001 0.0001 0.000125 0.0001722222 0.0002555556 0.0002383333 0.00015 0.0001 0.0001 0.0003 0.0005 0.0005 0.0005666667 0.0023 0.0022 0.004 0.0424 0.1017 0.1872 0.18355 0.2024 0.3866 0.1164 0.0769 0.07254 0.06974 0.0724 0.0765 0.072 0.0529 0.094 0.0586 0.05056667 0.0417 0.0509 0.0285 0.0165 0.0275 0.08448333 0.1417 0.0874 0.1403 0.13 0.0503 0.0361 0.03695 0.0329 0.0225 0.0785 0.0826 0.0568 0.04941666 0.042 0.0563 0.0173 0.0188 0.0291 0.0623 0.069975 0.0785 0.0686 0.0452 0.0563 0.0527 0.05183333 0.0513 0.0667 0.0733 0.0543 0.0628 0.0289 0.02546667 0.0183 0.0166 0.0191 0.0187 0.0133 0.01105 0.008 0.0048 0.0029 0.0035 0.0006 0.0004 0.0003666667 0.0002 0.0001 0.000125 0.0001 0.0001 0.0001111111 0.0001 0.0001074074 0.0001 0.0001 0.0001 0.0001 0.0001 0.0001000488 0.0001 0.0001000457 0.0001 0.0001000152 0.0001 0.0001 0.0001000002 0.0001 0.0001000006 0.0001 0.0001 0.0001 0.0001 
0.0001 0.0001 0.0001 0.0001 0.0001 0.0001 0.0001 0.0001 0.0001 0.0001 0.0001 0.0001 0.0001 0.0001 0.0001 0.0001 0.0001 0.0001 0.0001 0.0001 0.0001 0.0001 0.0001 0.0001 0.0001 0.0001 0.0001 0.0001 0.0001000002 0.0001000002 0.0001 0.0001 0.0001 0.0001 0.0001000004 0.0001 0.0001 0.0001 0.0001 0.0001001372 0.0001 0.0001000977 0.0001 0.0001 0.0001125 0.0001324074 0.0001842593 0.0001782222 0.000125 0.0001 0.0001 0.0001 0.0001 0.0003 0.0003 0.0003 0.001466667 0.0014 0.0104 0.0407 0.1001 0.1759 0.17885 0.185 0.1277 0.1144 0.0751 0.0679 0.06945 0.072 0.0756 0.067 0.0409 0.1209 0.08945 0.0586 0.0469 0.0451 0.0199 0.0194 0.0328 0.09166667 0.1515 0.09 0.1448 0.12 0.0348 0.0223 0.02111667 0.0159 0.014 0.0543 0.0623 0.0443 0.03851667 0.0317 0.0397 0.0106 0.0128 0.022 0.0584 0.0645 0.06381667 0.0622 0.0408 0.0501 0.0402 0.04168333 0.0429 0.0532 0.0576 0.0447 0.0459 0.0382 0.0313 0.013 0.009 0.0117 0.0114 0.0084 0.007116667 0.0051 0.0029 0.0016 0.0019 0.0002 0.00028 0.0001 0.0001 0.0001333333 0.0001 0.00010625 0.0001 0.0001 0.0001037037 0.0001 0.0001024691 0.0001 0.0001 0.0001 0.0001 0.0001 0.0001000122 0.0001 0.0001000152 0.0001 0.0001000051 0.0001 0.0001 0.0001 0.0001 0.0001000002 0.0001 0.0001 0.0001 
0.0001 0.0001 0.0001 0.0001 0.0001 0.0001 0.0001 0.0001 0.0001 0.0001 0.0001 0.0001 0.0001 0.0001 0.0001 0.0001 0.0001 0.0001 0.0001 0.0001 0.0001 0.0001 0.0001 0.0001 0.0001 0.0001 0.0001 0.0001000001 0.0001000001 0.0001 0.0001 0.0001 0.0001 0.0001000001 0.0001 0.0001 0.0001 0.0001 0.0001000457 0.0001 0.0001000244 0.0001 0.0001 0.00010625 0.0001149691 0.0001430556 0.0001414778 0.0001125 0.0001 0.0001 0.0001 0.0001 0.00015 0.0001 0.0001 0.0001666667 0.0008666667 0.0008 0.0069 0.0439 0.0918 0.12885 0.1573 0.1653 0.1263 0.1063 0.0695 0.0655 0.0666 0.071525 0.0708 0.0596 0.0318 0.1451 0.0943 0.0595 0.0491 0.0412 0.0201 0.014 0.0379 0.09738334 0.1586 0.0919 0.1446 0.1048 0.0222 0.01836667 0.0122 0.0073 0.0081 0.035 0.0441 0.0342 0.02815 0.0221 0.0248 0.006 0.0081 0.0155 0.03295 0.0508 0.0725 0.0503 0.038 0.0422 0.0293 0.03191667 0.0337 0.0405 0.0431 0.0344 0.0324 0.03023333 0.0279 0.0085 0.0046 0.0066 0.0066 0.0049 0.0043 0.003 0.0017 0.0011 0.0008 0.0001 0.0001333333 0.0001 0.0001 0.0001 0.0001111111 0.0001 0.0001015625 0.0001 0.0001 0.0001012346 0.0001 0.000100823 0.0001 0.0001 0.0001 0.0001 0.0001 0.0001000031 0.0001 0.0001000051 0.0001 0.0001000017 0.0001 0.0001 0.0001 0.0001 0.0001000001 0.0001 0.0001 
0.0001 0.0001 0.0001 0.0001 0.0001 0.0001 0.0001 0.0001 0.0001 0.0001 0.0001 0.0001 0.0001 0.0001 0.0001 0.0001 0.0001 0.0001 0.0001 0.0001 0.0001 0.0001 0.0001 0.0001 0.0001 0.0001 0.0001 0.0001 0.0001 0.0001 0.0001 0.0001 0.0001 0.0001 0.0001 0.0001 0.0001 0.0001000152 0.0001 0.0001000061 0.0001 0.0001 0.000103125 0.000107073 0.0001214249 0.0001211505 0.00010625 0.0001 0.0001 0.0001 0.0001 0.0001125 0.0001 0.0001 0.0001 0.0001 0.0004666667 0.0004 0.0043 0.0425 0.0826 0.1123 0.1654 0.41 0.1118 0.0929 0.0608 0.0599 0.06106 0.0677 0.0625 0.058 0.0556 0.1223 0.0912 0.0594 0.049 0.0377 0.0189 0.0105 0.042 0.09855 0.1615 0.0919 0.1389 0.0864 0.0131 0.01045 0.0056 0.0035 0.0044 0.021 0.0313 0.0222 0.01921667 0.0144 0.0147 0.0032 0.0048 0.0102 0.02565 0.0408 0.0633 0.04971429 0.0331 0.0335 0.0273 0.0204 0.025 0.0293 0.0307 0.0249 0.022 0.02233333 0.0219 0.0053 0.0028 0.0031 0.0035 0.003466667 0.0027 0.0017 0.0009 0.0006 0.0003 0.000325 0.0001 0.0001083333 0.0001 0.0001 0.0001 0.0001037037 0.0001 0.0001003906 0.0001 0.0001 0.0001004115 0.0001 0.0001002744 0.0001 0.0001 0.0001 0.0001 0.0001 0.0001000008 0.0001 0.0001000017 0.0001 0.0001000006 0.0001 0.0001 0.0001 0.0001 0.0001 0.0001 
0.0001 0.0001 0.0001 0.0001 0.0001 0.0001 0.0001 0.0001 0.0001 0.0001 0.0001 0.0001 0.0001 0.0001 0.0001 0.0001 0.0001 0.0001 0.0001 0.0001 0.0001 0.0001 0.0001 0.0001 0.0001 0.0001 0.0001 0.0001 0.0001 0.0001 0.0001 0.0001 0.0001 0.0001 0.0001 0.0001 0.0001000051 0.0001 0.0001000015 0.0001 0.0001 0.0001015625 0.0001033993 0.000110541 0.0001105547 0.000103125 0.0001 0.0001 0.0001 0.0001 0.000103125 0.0001 0.0001 0.0001 0.0001 0.0001 0.0002333333 0.0002 0.0025 0.0369 0.0658 0.09071667 0.1109 0.0119 0.0898 0.0762 0.0502 0.0507 0.0518 0.0604 0.0643 0.0567 0.0654 0.1035 0.08046667 0.0574 0.0469 0.0345 0.0193 0.0171 0.02436667 0.0323 0.159 0.089 0.1278 0.067 0.0072 0.005483333 0.0024 0.0016 0.0022 0.0118 0.0205 0.0217 0.0136 0.0088 0.0082 0.0016 0.0027 0.0062 0.01868333 0.0304 0.0523 0.0385 0.0282 0.0227 0.0197 0.0157 0.0177 0.0202 0.0207 0.017 0.0142 0.01546667 0.0156 0.003 0.0016 0.0014 0.0017 0.0018 0.0014 0.0009 0.0005 0.0003 0.0001 0.0001666667 0.0001729167 0.0001 0.0001020833 0.0001 0.0001 0.0001 0.0001012346 0.0001 0.0001000977 0.0001 0.0001 0.0001001372 0.0001 0.0001000914 0.0001 0.0001 0.0001 0.0001 0.0001 0.0001000002 0.0001 0.0001000006 0.0001 0.0001000002 0.0001 0.0001 0.0001 0.0001 0.0001 
0.0001 0.0001 0.0001 0.0001 0.0001 0.0001 0.0001 0.0001 0.0001 0.0001 0.0001 0.0001 0.0001 0.0001 0.0001 0.0001 0.0001 0.0001 0.0001 0.0001 0.0001 0.0001 0.0001 0.0001 0.0001 0.0001 0.0001 0.0001 0.0001 0.0001 0.0001 0.0001 0.0001 0.0001 0.0001 0.0001000017 0.0001 0.0001000004 0.0001 0.0001 0.0001007813 0.0001016539 0.0001051676 0.0001052115 0.0001015625 0.0001 0.0001 0.0001 0.0001 0.0001007813 0.0001 0.0001 0.0001 0.0001 0.0001 0.0001366667 0.00015 0.0001 0.0014 0.0291 0.0478 0.06215 0.0718 0.0147 0.0661 0.0587 0.0391 0.04086667 0.0424 0.0513 0.0568 0.0588375 0.0657 0.0868 0.07001667 0.0534 0.0432 0.0312 0.0194 0.0193 0.02195 0.025 0.1506 0.0829 0.1123 0.0489 0.0037 0.0027 0.0009 0.0007 0.0017 0.0116 0.0263 0.019175 0.0163 0.0103 0.0043 0.0007 0.0014 0.0035 0.01275 0.021 0.0406 0.0297 0.0253 0.0146 0.01438 0.0113 0.012 0.0133 0.0133 0.0109 0.0088 0.01005 0.0103 0.0016 0.0008 0.0006 0.0008 0.0008666667 0.0007 0.0004 0.0002 0.0001 0.0001 0.0001 0.0001222222 0.0001237847 0.0001 0.0001005208 0.0001 0.0001 0.0001 0.0001004115 0.0001 0.0001000244 0.0001 0.0001 0.0001000457 0.0001 0.0001000305 0.0001 0.0001 0.0001 0.0001 0.0001 0.0001 0.0001 0.0001000002 0.0001 0.0001000001 0.0001 0.0001 0.0001 0.0001 
0.0001 0.0001 0.0001 0.0001 0.0001 0.0001 0.0001 0.0001 0.0001 0.0001 0.0001 0.0001 0.0001 0.0001 0.0001 0.0001 0.0001 0.0001 0.0001 0.0001 0.0001 0.0001 0.0001 0.0001 0.0001 0.0001 0.0001 0.0001 0.0001 0.0001 0.0001 0.0001 0.0001 0.0001 0.0001000006 0.0001 0.0001000001 0.0001 0.0001 0.0001003906 0.0001008117 0.0001025343 0.0001025629 0.0001007813 0.0001 0.0001 0.0001 0.0001 0.0001001953 0.0001 0.0001 0.0001 0.0001 0.0001 0.0001106667 0.0001166667 0.0001 0.001 0.0007 0.021 0.0271 0.0321 0.0445 0.0128 0.0451 0.0425 0.0288 0.03126667 0.0329 0.0416 0.0485 0.0533 0.06 0.06822 0.0714 0.0476 0.0382 0.0275 0.0187 0.0188 0.02266667 0.0192 0.1369 0.074 0.094 0.0336 0.0184 0.0017 0.0003 0.0004 0.0036 0.0132 0.01895 0.0213 0.0089 0.0001 0.0021 0.0003 0.0007 0.00145 0.0019 0.0135 0.0298 0.0217 0.0183 0.01592 0.00962 0.0076 0.0077 0.0083 0.0082 0.0067 0.006683333 0.006 0.0054 0.0008 0.0004 0.0002 0.0003 0.0003833333 0.0003 0.0002 0.0001 0.0001 0.0001 0.0001 0.0001 0.0001074074 0.000107798 0.0001 0.0001001302 0.0001 0.0001 0.0001 0.0001001372 0.0001 0.0001000061 0.0001 0.0001 0.0001000152 0.0001 0.0001000102 0.0001 0.0001 0.0001 0.0001 0.0001 0.0001 0.0001 0.0001000001 0.0001 0.0001 0.0001 0.0001 0.0001 
0.0001 0.0001 0.0001 0.0001 0.0001 0.0001 0.0001 0.0001 0.0001 0.0001 0.0001 0.0001 0.0001 0.0001 0.0001 0.0001 0.0001 0.0001 0.0001 0.0001 0.0001 0.0001 0.0001 0.0001 0.0001 0.0001 0.0001 0.0001 0.0001 0.0001 0.0001 0.0001 0.0001 0.0001000002 0.0001 0.0001 0.0001 0.0001 0.0001001953 0.0001004008 0.0001012455 0.0001012599 0.0001003906 0.0001 0.0001 0.0001 0.0001 0.0001000488 0.0001 0.0001 0.0001 0.0001 0.0001 0.0001032444 0.0001055556 0.0001 0.0001 0.00085 0.0018 0.0125 0.01756667 0.0201 0.0262 0.0093 0.0286 0.0289 0.0201 0.02275 0.0243 0.0323 0.0399 0.0475 0.05034 0.05678 0.0572 0.0405 0.0325 0.0236 0.0175 0.0202 0.02216667 0.0335 0.0959 0.0631 0.0748 0.0217 0.01188333 0.0008 0.0002 0.0003 0.0004 0.0090375 0.01781667 0.0123125 0.0001 0.0009 0.001 0.0001 0.0003 0.0007166667 0.0009 0.0081 0.0205 0.015 0.0116 0.0098 0.007 0.0048 0.0047 0.0049 0.0047 0.0039 0.004116667 0.0038 0.0027 0.0004 0.0002 0.0001 0.0001 0.0001666667 0.0001 0.0001 0.000125 0.0001 0.0001 0.0001 0.0001 0.0001 0.0001024691 0.0001025668 0.0001 0.0001000326 0.0001 0.0001 0.0001 0.0001000457 0.0001 0.0001000015 0.0001 0.0001 0.0001000051 0.0001 0.0001000034 0.0001 0.0001 0.0001 0.0001 0.0001 0.0001 0.0001 0.0001 0.0001 0.0001 0.0001 0.0001 
0.0001 0.0001 0.0001 0.0001 0.0001 0.0001 0.0001 0.0001 0.0001 0.0001 0.0001 0.0001 0.0001 0.0001 0.0001 0.0001 0.0001 0.0001 0.0001 0.0001 0.0001 0.0001 0.0001 0.0001 0.0001 0.0001 0.0001 0.0001 0.0001 0.0001 0.0001 0.0001 0.0001000001 0.0001 0.0001 0.0001 0.0001 0.0001000977 0.0001001987 0.0001006139 0.0001006203 0.0001001953 0.0001 0.0001 0.0001 0.0001 0.0001000122 0.0001 0.0001 0.0001 0.0001 0.0001 0.0001010193 0.0001018519 0.0001 0.0001 0.0001 0.0001 0.0008 0.0079 0.01056667 0.0118 0.0147 0.006 0.0171 0.0185 0.0133 0.01575 0.0171 0.0239 0.0314 0.0399 0.051 0.048325 0.0443 0.033 0.0264 0.0195 0.0155 0.01651667 0.0182 0.0231 0.0809 0.0514 0.0566 0.0132 0.007283333 0.0003 0.00035 0.0002 0.0003 0.0004 0.007933334 0.0001 0.0004416667 0.0005333333 0.0004 0.0003142857 0.0001 0.0003333333 0.0004 0.0046 0.0133 0.0098 0.0076 0.0058 0.0053 0.003316667 0.0028 0.0028 0.0026 0.0021 0.002383333 0.0022 0.0013 0.0002 0.0001 0.000125 0.0001 0.0001 0.0001 0.0001 0.0001 0.00010625 0.0001 0.0001 0.0001 0.0001 0.0001 0.000100823 0.0001008475 0.0001 0.0001000081 0.0001 0.0001 0.0001 0.0001000152 0.0001 0.0001000004 0.0001 0.0001 0.0001000017 0.0001 0.0001000011 0.0001 0.0001 0.0001 0.0001 0.0001 0.0001 0.0001 0.0001 0.0001 0.0001 0.0001 
0.0001 0.0001 0.0001 0.0001 0.0001 0.0001 0.0001 0.0001 0.0001 0.0001 0.0001 0.0001 0.0001 0.0001 0.0001 0.0001 0.0001 0.0001 0.0001 0.0001 0.0001 0.0001 0.0001 0.0001 0.0001 0.0001 0.0001 0.0001 0.0001 0.0001 0.0001 0.0001 0.0001 0.0001 0.0001 0.0001 0.0001000488 0.0001000988 0.0001003034 0.0001003061 0.0001000977 0.0001 0.0001 0.0001 0.0001 0.0001000031 0.0001 0.0001 0.0001 0.0001 0.0001 0.0001003273 0.0001006173 0.0001 0.0001 0.0001 0.0001 0.000425 0.0004 0.0046 0.006066666 0.0065 0.0078 0.0036 0.0097 0.0112 0.01045 0.0083 0.0114 0.0169 0.0236 0.0317 0.0408 0.04 0.03098 0.0256 0.0205 0.0154 0.0129 0.01378333 0.0148 0.0155 0.0651 0.0398 0.0407 0.0076 0.00506 0.0001 0.0002 0.0002125 0.0002 0.0003 0.00025 0.0002520833 0.0003055556 0.0002333333 0.0002 0.00018 0.0001 0.00018 0.0002 0.0025 0.0081 0.0061 0.0046 0.004266667 0.0032 0.0029 0.0015 0.0015 0.0014 0.0011 0.001283333 0.0012 0.0006 0.0001 0.0001333333 0.0001 0.0001 0.0001 0.0001 0.0001 0.0001 0.0001 0.0001015625 0.0001 0.0001 0.0001 0.0001 0.0001 0.0001002744 0.0001002804 0.0001 0.000100002 0.0001 0.0001 0.0001 0.0001000051 0.0001 0.0001000001 0.0001 0.0001 0.0001000006 0.0001 0.0001000004 0.0001 0.0001 0.0001 0.0001 0.0001 0.0001 0.0001 0.0001 0.0001 0.0001 
0.0001 0.0001 0.0001 0.0001 0.0001 0.0001 0.0001 0.0001 0.0001 0.0001 0.0001 0.0001 0.0001 0.0001 0.0001 0.0001 0.0001 0.0001 0.0001 0.0001 0.0001 0.0001 0.0001 0.0001 0.0001 0.0001 0.0001 0.0001 0.0001 0.0001 0.0001 0.0001 0.0001 0.0001 0.0001 0.0001000244 0.0001000492 0.0001001503 0.0001001514 0.0001000488 0.0001 0.0001 0.0001 0.0001 0.0001000008 0.0001 0.0001 0.0001 0.0001 0.0001 0.0001001066 0.0001002058 0.0001 0.0001 0.0001 0.0001 0.0002895833 0.0003666667 0.0004 0.0023 0.003233333 0.0033 0.0039 0.002 0.0052 0.0064 0.006183333 0.005 0.0073 0.0115 0.017 0.0238 0.0309 0.0301 0.033 0.019 0.0153 0.0116 0.0101 0.01071667 0.0112 0.0102 0.0498 0.0293 0.0278 0.01673333 0.0041 0.0021 0.0001 0.00015 0.000165625 0.0002 0.0002213349 0.0001972222 0.0001611111 0.00015 0.0001 0.0001333333 0.0001 0.0001333333 0.0001 0.0012 0.0047 0.0036 0.0027 0.002433333 0.0017 0.0016 0.0013 0.0008 0.0007 0.0007166667 0.0005 0.0006 0.0002 0.00025 0.0001 0.0001083333 0.0001 0.0001 0.0001 0.0001 0.0001 0.0001 0.0001 0.0001003906 0.0001 0.0001 0.0001 0.0001 0.0001 0.0001000914 0.000100093 0.0001 0.0001000005 0.0001 0.0001 0.0001 0.0001000017 0.0001 0.0001 0.0001 0.0001 0.0001000002 0.0001 0.0001000001 0.0001 0.0001 0.0001 0.0001 0.0001 0.0001 0.0001 0.0001 0.0001 
0.0001 0.0001 0.0001 0.0001 0.0001 0.0001 0.0001 0.0001 0.0001 0.0001 0.0001 0.0001 0.0001 0.0001 0.0001 0.0001 0.0001 0.0001 0.0001 0.0001 0.0001 0.0001 0.0001 0.0001 0.0001 0.0001 0.0001 0.0001 0.0001 0.0001 0.0001 0.0001 0.0001 0.0001 0.0001000122 0.0001000245 0.0001000747 0.0001000751 0.0001000244 0.0001 0.0001 0.0001 0.0001 0.0001000002 0.0001 0.0001 0.0001 0.0001 0.0001 0.000100035 0.0001000686 0.0001 0.0001 0.0001 0.0001 0.0002085069 0.0002666667 0.0002666667 0.0003 0.0007833333 0.0011 0.0016 0.0019 0.001 0.0026 0.0034 0.003483333 0.0028 0.0045 0.0074 0.0116 0.0169 0.02008333 0.0222 0.0236 0.01877143 0.0109 0.0084 0.0074 0.007916667 0.0079 0.0065 0.0363 0.0206 0.0181 0.01071667 0.0021 0.0024 0.00145 0.0001 0.000125 0.0001476562 0.0001596065 0.0001287037 0.000125 0.0001 0.0001 0.0001 0.0001133333 0.0001 0.00055 0.0006 0.0025 0.002 0.0015 0.001333333 0.0009 0.0009 0.0008 0.0004 0.0003 0.00035 0.0003 0.0003 0.0001 0.00015 0.00015 0.0001 0.0001020833 0.0001 0.0001 0.0001 0.0001 0.0001 0.0001 0.0001 0.0001000977 0.0001 0.0001 0.0001 0.0001 0.0001 0.0001000305 0.0001000309 0.0001 0.0001000001 0.0001 0.0001 0.0001 0.0001000006 0.0001 0.0001 0.0001 0.0001 0.0001000001 0.0001 0.0001 0.0001 0.0001 0.0001 0.0001 0.0001 0.0001 0.0001 0.0001 
0.0001 0.0001 0.0001 0.0001 0.0001 0.0001 0.0001 0.0001 0.0001 0.0001 0.0001 0.0001 0.0001 0.0001 0.0001 0.0001 0.0001 0.0001 0.0001 0.0001 0.0001 0.0001 0.0001 0.0001 0.0001 0.0001 0.0001 0.0001 0.0001 0.0001 0.0001 0.0001 0.0001 0.0001000061 0.0001000123 0.0001000371 0.0001000373 0.0001000122 0.0001 0.0001 0.0001 0.0001 0.0001 0.0001 0.0001 0.0001 0.0001 0.0001 0.0001000116 0.0001000229 0.0001 0.0001 0.0001 0.0001 0.0001576823 0.0001888889 0.0001777778 0.0001666667 0.0001 0.0003833333 0.0005 0.0007 0.0008 0.0005 0.0013 0.0017 0.00185 0.0016 0.0026 0.0046 0.0076 0.0115 0.01385 0.0152 0.0162 0.0134 0.008385714 0.0058 0.005683333 0.0052 0.0057 0.0071 0.0216 0.0138 0.0112 0.006583333 0.001 0.0012 0.001388889 0.0009041667 0.0001 0.0001125 0.0001137346 0.0001125 0.0001 0.0001 0.0001 0.0001 0.0001 0.0002958333 0.0003333333 0.0003 0.0012 0.0011 0.0007 0.0007 0.0005 0.0004 0.0004 0.0003571429 0.0002 0.0002 0.0001 0.0001 0.0001666667 0.0001 0.000125 0.00011875 0.0001 0.0001005208 0.0001 0.0001 0.0001 0.0001 0.0001 0.0001 0.0001 0.0001000244 0.0001 0.0001 0.0001 0.0001 0.0001 0.0001000102 0.0001000103 0.0001 0.0001 0.0001 0.0001 0.0001 0.0001000002 0.0001 0.0001 0.0001 0.0001 0.0001 0.0001 0.0001 0.0001 0.0001 0.0001 0.0001 0.0001 0.0001 0.0001 
0.0001 0.0001 0.0001 0.0001 0.0001 0.0001 0.0001 0.0001 0.0001 0.0001 0.0001 0.0001 0.0001 0.0001 0.0001 0.0001 0.0001 0.0001 0.0001 0.0001 0.0001 0.0001 0.0001 0.0001 0.0001 0.0001 0.0001 0.0001 0.0001 0.0001 0.0001 0.0001 0.0001000031 0.0001000061 0.0001000185 0.0001000186 0.0001000061 0.0001 0.0001 0.0001 0.0001 0.0001 0.0001 0.0001 0.0001 0.0001 0.0001 0.0001000038 0.0001000076 0.0001 0.0001 0.0001 0.0001 0.0001286181 0.0001432099 0.0001333333 0.0001222222 0.0001 0.0001 0.0002 0.0002 0.0003 0.0004 0.0002 0.0006 0.00085 0.0008 0.0008 0.0015 0.0027 0.0047 0.0074 0.0091 0.0099 0.0106 0.009 0.0074 0.0038 0.0041 0.0035 0.0038 0.0041 0.0144 0.0088 0.0066 0.0038 0.0005 0.0005666667 0.0006777778 0.0007981482 0.0005487269 0.0001 0.00010625 0.0001 0.0001 0.0001 0.0001 0.0001 0.0001713889 0.0002111111 0.0002 0.0001 0.0006 0.0005 0.0005333333 0.0004 0.0002 0.0002 0.0002 0.0002 0.00015 0.000125 0.0001 0.0001 0.0001 0.0001222222 0.0001 0.0001125 0.0001078125 0.0001 0.0001001302 0.0001 0.0001 0.0001 0.0001 0.0001 0.0001 0.0001 0.0001000061 0.0001 0.0001 0.0001 0.0001 0.0001 0.0001000034 0.0001000034 0.0001 0.0001 0.0001 0.0001 0.0001 0.0001000001 0.0001 0.0001 0.0001 0.0001 0.0001 0.0001 0.0001 0.0001 0.0001 0.0001 0.0001 0.0001 0.0001 
0.0001 0.0001 0.0001 0.0001 0.0001 0.0001 0.0001 0.0001 0.0001 0.0001 0.0001 0.0001 0.0001 0.0001 0.0001 0.0001 0.0001 0.0001 0.0001 0.0001 0.0001 0.0001 0.0001 0.0001 0.0001 0.0001 0.0001 0.0001 0.0001 0.0001 0.0001 0.0001000015 0.0001000031 0.0001000092 0.0001000092 0.0001000031 0.0001 0.0001 0.0001 0.0001 0.0001 0.0001 0.0001 0.0001 0.0001 0.0001 0.0001000013 0.0001000025 0.0001 0.0001 0.0001 0.0001 0.0001134302 0.0001197531 0.0001135802 0.0001074074 0.0001 0.0001 0.0001 0.0001333333 0.0001 0.0001 0.0001 0.0001 0.0003 0.0004 0.0004 0.0004 0.0008 0.0015 0.0028 0.0045 0.005683333 0.0061 0.0067 0.0058 0.0048 0.00428 0.00264 0.0022 0.0025 0.0034 0.0086 0.005 0.0033 0.002083333 0.0002 0.0002666667 0.0003277778 0.0003925926 0.000466358 0.0002609632 0.0001 0.0001 0.0001 0.0001 0.0001 0.0001300185 0.0001537037 0.00015 0.0001 0.000275 0.0003 0.0003 0.0002666667 0.0002 0.0001 0.0001 0.0001 0.0001 0.0001 0.0001 0.0001 0.0001 0.0001 0.0001 0.0001074074 0.0001 0.00010625 0.0001035156 0.0001 0.0001000326 0.0001 0.0001 0.0001 0.0001 0.0001 0.0001 0.0001 0.0001000015 0.0001 0.0001 0.0001 0.0001 0.0001 0.0001000011 0.0001000011 0.0001 0.0001 0.0001 0.0001 0.0001 0.0001 0.0001 0.0001 0.0001 0.0001 0.0001 0.0001 0.0001 0.0001 0.0001 0.0001 0.0001 0.0001 
0.0001 0.0001 0.0001 0.0001 0.0001 0.0001 0.0001 0.0001 0.0001 0.0001 0.0001 0.0001 0.0001 0.0001 0.0001 0.0001 0.0001 0.0001 0.0001 0.0001 0.0001 0.0001 0.0001 0.0001 0.0001 0.0001 0.0001 0.0001 0.0001 0.0001 0.0001000008 0.0001000015 0.0001000046 0.0001000046 0.0001000015 0.0001 0.0001 0.0001 0.0001 0.0001 0.0001 0.0001 0.0001 0.0001 0.0001 0.0001000004 0.0001000008 0.0001 0.0001 0.0001 0.0001 0.0001060325 0.000108642 0.0001053498 0.0001024691 0.0001 0.0001 0.0001 0.0001083333 0.0001 0.0001 0.0001 0.0001 0.00014 0.0001 0.00022 0.0002 0.0002 0.0004 0.0008 0.0016 0.002316667 0.0026 0.0036 0.004 0.0036 0.003 0.0024 0.001825 0.0013 0.0016 0.0024 0.0048 0.0026 0.002483333 0.0018 0.0001 0.00015 0.0001722222 0.0002083333 0.0002444444 0.0002404707 0.0001 0.0001 0.0001 0.0001 0.0001137506 0.0001262346 0.000125 0.0001 0.00016875 0.0002 0.0001 0.0001 0.000175 0.0001 0.0001 0.0001 0.0001 0.0001 0.0001 0.0001 0.0001 0.0001 0.0001 0.0001 0.0001 0.0001024691 0.0001 0.000103125 0.0001016602 0.0001 0.0001000081 0.0001 0.0001 0.0001 0.0001 0.0001 0.0001 0.0001 0.0001000004 0.0001 0.0001 0.0001 0.0001 0.0001 0.0001000004 0.0001000004 0.0001 0.0001 0.0001 0.0001 0.0001 0.0001 0.0001 0.0001 0.0001 0.0001 0.0001 0.0001 0.0001 0.0001 0.0001 0.0001 0.0001 
0.0001 0.0001 0.0001 0.0001 0.0001 0.0001 0.0001 0.0001 0.0001 0.0001 0.0001 0.0001 0.0001 0.0001 0.0001 0.0001 0.0001 0.0001 0.0001 0.0001 0.0001 0.0001 0.0001 0.0001 0.0001 0.0001 0.0001 0.0001 0.0001 0.0001000004 0.0001000008 0.0001000023 0.0001000023 0.0001000008 0.0001 0.0001 0.0001 0.0001 0.0001 0.0001 0.0001 0.0001 0.0001 0.0001 0.0001000001 0.0001000003 0.0001 0.0001 0.0001 0.0001 0.0001026169 0.000103658 0.0001020576 0.000100823 0.0001 0.0001 0.0001 0.0001020833 0.0001 0.0001 0.0001 0.0001 0.0001 0.0001 0.0001 0.0001333333 0.0001 0.0001 0.0002 0.0004 0.0009 0.0013 0.0015 0.002 0.0023 0.0021 0.0017 0.0014 0.00134 0.00106 0.001 0.0015 0.0026 0.0013 0.001266667 0.0009 0.0008 0.0001 0.000125 0.0001324074 0.0001510803 0.0001701646 0.000146947 0.0001 0.0001 0.0001065824 0.0001129115 0.0001125 0.0001 0.0001296875 0.00015 0.0001 0.0001 0.0001 0.0001 0.0001 0.0001 0.0001 0.0001 0.0001 0.0001 0.0001 0.0001 0.0001 0.0001 0.0001 0.0001 0.0001 0.000100823 0.0001 0.0001015625 0.0001008057 0.0001 0.000100002 0.0001 0.0001 0.0001 0.0001 0.0001 0.0001 0.0001 0.0001000001 0.0001 0.0001 0.0001 0.0001 0.0001 0.0001000001 0.0001000001 0.0001 0.0001 0.0001 0.0001 0.0001 0.0001 0.0001 0.0001 0.0001 0.0001 0.0001 0.0001 0.0001 0.0001 0.0001 0.0001 
0.0001 0.0001 0.0001 0.0001 0.0001 0.0001 0.0001 0.0001 0.0001 0.0001 0.0001 0.0001 0.0001 0.0001 0.0001 0.0001 0.0001 0.0001 0.0001 0.0001 0.0001 0.0001 0.0001 0.0001 0.0001 0.0001 0.0001 0.0001 0.0001000002 0.0001000004 0.0001000011 0.0001000011 0.0001000004 0.0001 0.0001 0.0001 0.0001 0.0001 0.0001 0.0001 0.0001 0.0001 0.0001 0.0001 0.0001000001 0.0001 0.0001 0.0001 0.0001 0.0001011039 0.0001015089 0.0001007773 0.0001002744 0.0001 0.0001 0.0001 0.0001005208 0.0001 0.0001 0.0001 0.0001 0.0001 0.0001 0.0001 0.0001083333 0.0001 0.0001 0.000125 0.0001 0.0002 0.0004 0.0007 0.0008 0.0011 0.0013 0.0012 0.001 0.0008 0.00076 0.0008 0.0006 0.0009 0.0014 0.0006 0.0006166667 0.0004 0.0005 0.0004083333 0.0001 0.0001125 0.0001149691 0.0001240998 0.0001337791 0.0001184318 0.0001032189 0.0001063872 0.00010625 0.0001 0.0001136719 0.000125 0.0001 0.0001 0.0001 0.0001 0.0001 0.0001 0.0001 0.0001 0.0001 0.0001 0.0001 0.0001 0.0001 0.0001 0.0001 0.0001 0.0001 0.0001 0.0001 0.0001002744 0.0001 0.0001007813 0.0001003967 0.0001 0.0001000005 0.0001 0.0001 0.0001 0.0001 0.0001 0.0001 0.0001 0.0001 0.0001 0.0001 0.0001 0.0001 0.0001 0.0001 0.0001 0.0001 0.0001 0.0001 0.0001 0.0001 0.0001 0.0001 0.0001 0.0001 0.0001 0.0001 0.0001 0.0001 0.0001 0.0001 
0.0001 0.0001 0.0001 0.0001 0.0001 0.0001 0.0001 0.0001 0.0001 0.0001 0.0001 0.0001 0.0001 0.0001 0.0001 0.0001 0.0001 0.0001 0.0001 0.0001 0.0001 0.0001 0.0001 0.0001 0.0001 0.0001 0.0001 0.0001000001 0.0001000002 0.0001000006 0.0001000006 0.0001000002 0.0001 0.0001 0.0001 0.0001 0.0001 0.0001 0.0001 0.0001 0.0001 0.0001 0.0001 0.0001 0.0001 0.0001 0.0001 0.0001 0.0001004551 0.0001006097 0.0001002896 0.0001000914 0.0001 0.0001 0.0001 0.0001001302 0.0001 0.0001 0.0001 0.0001 0.0001 0.0001 0.0001 0.0001020833 0.0001 0.0001 0.00010625 0.0001 0.0001333333 0.0001 0.0002 0.00035 0.0004 0.0006 0.0007 0.0006 0.0005 0.0005333333 0.0004 0.0004 0.0004875 0.0005 0.0007 0.0003 0.0002833333 0.0002 0.0002333333 0.0002944444 0.0002409722 0.0001 0.00010625 0.000107073 0.0001114326 0.0001162037 0.0001031707 0.000103125 0.0001 0.000106543 0.0001125 0.0001 0.0001 0.0001 0.0001 0.0001 0.0001 0.0001 0.0001 0.0001 0.0001 0.0001 0.0001 0.0001 0.0001 0.0001 0.0001 0.0001 0.0001 0.0001 0.0001 0.0001 0.0001000914 0.0001 0.0001003906 0.0001001968 0.0001 0.0001000001 0.0001 0.0001 0.0001 0.0001 0.0001 0.0001 0.0001 0.0001 0.0001 0.0001 0.0001 0.0001 0.0001 0.0001 0.0001 0.0001 0.0001 0.0001 0.0001 0.0001 0.0001 0.0001 0.0001 0.0001 0.0001 0.0001 0.0001 0.0001 0.0001 
0.0001 0.0001 0.0001 0.0001 0.0001 0.0001 0.0001 0.0001 0.0001 0.0001 0.0001 0.0001 0.0001 0.0001 0.0001 0.0001 0.0001 0.0001 0.0001 0.0001 0.0001 0.0001 0.0001 0.0001 0.0001 0.0001 0.0001 0.0001000001 0.0001000003 0.0001000003 0.0001000001 0.0001 0.0001 0.0001 0.0001 0.0001 0.0001 0.0001 0.0001 0.0001 0.0001 0.0001 0.0001 0.0001 0.0001 0.0001 0.0001 0.000100184 0.0001002422 0.0001001067 0.0001000305 0.0001 0.0001 0.0001 0.0001000326 0.0001 0.0001 0.0001 0.0001 0.0001 0.0001 0.0001 0.0001005208 0.0001 0.0001 0.0001015625 0.0001 0.0001111111 0.0001 0.0001333333 0.0001 0.0002 0.0002 0.0003 0.0003 0.0003 0.0003 0.0002666667 0.0002 0.0002 0.0003 0.0002 0.0003 0.0002833333 0.0001 0.0001 0.00015 0.0001611111 0.0001935185 0.0001657986 0.0001 0.000103125 0.0001033993 0.0001054648 0.0001015625 0.0001 0.0001031982 0.00010625 0.0001 0.0001 0.0001 0.0001 0.0001 0.0001 0.0001 0.0001 0.0001 0.0001 0.0001 0.0001 0.0001 0.0001 0.0001 0.0001 0.0001 0.0001 0.0001 0.0001 0.0001 0.0001 0.0001 0.0001000305 0.0001 0.0001001953 0.000100098 0.0001 0.0001 0.0001 0.0001 0.0001 0.0001 0.0001 0.0001 0.0001 0.0001 0.0001 0.0001 0.0001 0.0001 0.0001 0.0001 0.0001 0.0001 0.0001 0.0001 0.0001 0.0001 0.0001 0.0001 0.0001 0.0001 0.0001 0.0001 0.0001 0.0001 
0.0001 0.0001 0.0001 0.0001 0.0001 0.0001 0.0001 0.0001 0.0001 0.0001 0.0001 0.0001 0.0001 0.0001 0.0001 0.0001 0.0001 0.0001 0.0001 0.0001 0.0001 0.0001 0.0001 0.0001 0.0001 0.0001 0.0001 0.0001000001 0.0001000001 0.0001 0.0001 0.0001 0.0001 0.0001 0.0001 0.0001 0.0001 0.0001 0.0001 0.0001 0.0001 0.0001 0.0001 0.0001 0.0001 0.0001 0.0001000754 0.0001000954 0.000100039 0.0001000102 0.0001 0.0001 0.0001 0.0001000081 0.0001 0.0001 0.0001 0.0001 0.0001 0.0001 0.0001 0.0001001302 0.0001 0.0001 0.0001003906 0.0001 0.0001037037 0.0001 0.0001111111 0.0001 0.0001 0.0001333333 0.0001 0.0001 0.0002 0.0002 0.0001 0.00015 0.0001 0.0001 0.0002 0.0001875 0.0002 0.00016 0.0001 0.0001 0.0001 0.000125 0.0001287037 0.0001449074 0.000132827 0.0001 0.0001015625 0.0001016539 0.0001 0.0001015808 0.000103125 0.0001 0.0001 0.0001 0.0001 0.0001 0.0001 0.0001 0.0001 0.0001 0.0001 0.0001 0.0001 0.0001 0.0001 0.0001 0.0001 0.0001 0.0001 0.0001 0.0001 0.0001 0.0001 0.0001 0.0001 0.0001 0.0001000102 0.0001 0.0001000977 0.0001000489 0.0001 0.0001 0.0001 0.0001 0.0001 0.0001 0.0001 0.0001 0.0001 0.0001 0.0001 0.0001 0.0001 0.0001 0.0001 0.0001 0.0001 0.0001 0.0001 0.0001 0.0001 0.0001 0.0001 0.0001 0.0001 0.0001 0.0001 0.0001 0.0001 
0.0001 0.0001 0.0001 0.0001 0.0001 0.0001 0.0001 0.0001 0.0001 0.0001 0.0001 0.0001 0.0001 0.0001 0.0001 0.0001 0.0001 0.0001 0.0001 0.0001 0.0001 0.0001 0.0001 0.0001 0.0001 0.0001 0.0001000001 0.0001000001 0.0001 0.0001 0.0001 0.0001 0.0001 0.0001 0.0001 0.0001 0.0001 0.0001 0.0001 0.0001 0.0001 0.0001 0.0001 0.0001 0.0001 0.0001000447 0.0001000587 0.000100022 0.0001000051 0.0001 0.0001 0.0001 0.000100002 0.0001 0.0001 0.0001 0.0001 0.0001 0.0001 0.0001 0.0001000326 0.0001 0.0001 0.0001000977 0.0001 0.0001012346 0.0001 0.0001037037 0.0001 0.0001 0.0001083333 0.0001 0.0001 0.0001 0.0001 0.0001 0.0001 0.0001 0.0001 0.00012 0.0001 0.0001 0.0001 0.0001333333 0.0001 0.0001 0.0001 0.0001 0.0001125 0.0001206018 0.0001327546 0.0001218605 0.0001 0.0001007813 0.0001011157 0.0001015625 0.0001 0.0001 0.0001 0.0001 0.0001 0.0001 0.0001 0.0001 0.0001 0.0001 0.0001 0.0001 0.0001 0.0001 0.0001 0.0001 0.0001 0.0001 0.0001 0.0001 0.0001 0.0001 0.0001 0.0001 0.0001 0.0001 0.0001 0.0001000034 0.0001 0.0001000488 0.0001000326 0.0001 0.0001 0.0001 0.0001 0.0001 0.0001 0.0001 0.0001 0.0001 0.0001 0.0001 0.0001 0.0001 0.0001 0.0001 0.0001 0.0001 0.0001 0.0001 0.0001 0.0001 0.0001 0.0001 0.0001 0.0001 0.0001 0.0001 0.0001 
