ncols         149
nrows         94
xllcorner     94.931022919188
yllcorner     29.773638400357
cellsize      0.00032163419786813
NODATA_value  -9999
0.0001000109 0.0001 0.000103125 0.000836499 0.0023 0.001269547 0.0002 0.000225 0.0002660494 0.0004 0.0007611111 0.001004196 0.0001 0.0001020833 0.0001 0.0001 0.00015 0.0003 0.0001 0.0004 0.003225 0.0013 0.0042 0.0117 0.1065 0.1157 0.4484667 1.22115 2.119333 3.637633 5.334833 6.8798 7.68415 8.75435 7.31955 6.5807 5.017066 3.938133 2.304067 1.3225 0.17065 0.18135 0.2265333 0.3106667 0.3549 0.3929 0.5071 0.5466979 0.477 1.840699 2.082642 1.772886 1.626999 1.504257 1.460025 1.399 1.811323 1.825096 1.747053 1.6498 1.511978 1.582987 1.694426 1.703283 1.64225 1.56148 1.498378 1.460517 1.443689 1.438641 1.4378 1.4378 0.484824 0.005466406 0.0001 0.8369665 1.254302 1.2523 0.4193233 0.001172055 0.0003942196 0.0002387789 0.0002100914 0.0002046875 0.0002 0.0005545464 0.0006547255 0.0006163403 0.0006048128 0.0006023438 0.0006 0.00110003 0.0016 0.001200047 0.001000016 0.001 0.001 3.805548 5.706199 5.70555 5.7049 2.470277 0.8495456 0.8475198 0.8467058 0.8465027 0.8463 0.2994213 0.02131009 0.01614874 0.01154546 0.007723108 0.004881599 0.003012445 0.001929097 0.001378141 0.001133902 0.001040516 0.001010209 0.00100206 0.001000312 0.001000031 0.001000002 0.001 0.001 0.0004746505 0.0002055533 0.000201911 0.0002006806 0.0002002553 0.0002000854 0.0002000427 0.0002 0.00029887 0.0003219665 0.0003069663 0.0003021731 0.0003006946 0.0003002315 0.0003000835 0.0003000275 0.0003000137 0.0003 3.5038 7.0073 2.336162 0.0003454894 0.0001939749 0.0001499091 
0.0001 0.0001000326 0.0001 0.00010625 0.0008397461 0.0023 0.001308642 0.0002 0.00025 0.0003481481 0.0006018518 0.001333333 0.001981597 0.0001 0.00010625 0.0001 0.0001 0.0002 0.0008 0.0027 0.00455 0.0085 0.0256 0.0532 0.1709714 0.5135 1.249275 0.7162 1.7261 3.9157 5.2711 6.8177 8.5506 10.2634 8.9581 5.681 5.103 4.2672 2.4442 0.2008 5.542675 0.1405 0.2222 0.3169 0.3929 0.6213 0.6559938 0.477 2.405097 2.521989 1.958711 1.767226 1.592722 1.52105 1.399 2.020806 1.981181 1.844306 1.6498 1.386161 1.396274 1.615679 1.737007 1.730593 1.64225 1.553907 1.488281 1.452944 1.440324 1.4378 1.4378 0.4905631 0.01083281 0.0001 0.8391631 1.256303 1.2523 0.4217629 0.002554407 0.0006756973 0.0002860625 0.0002208991 0.000209375 0.0002 0.0006637598 0.0007198433 0.0006345824 0.000609751 0.0006046875 0.0006 0.001100091 0.0016 0.00120014 0.001000047 0.001 0.001 3.807495 5.707498 5.7062 5.7049 2.474684 0.8527828 0.8487421 0.8471121 0.8467053 0.8463 0.3034576 0.02675322 0.02117455 0.01600252 0.01126916 0.007364717 0.004535449 0.002744633 0.001757253 0.001285404 0.001091765 0.001024536 0.001005248 0.001000842 0.001000089 0.001000004 0.001 0.001 0.0004833035 0.0002114366 0.0002038621 0.0002013613 0.0002005097 0.0002001706 0.0002000854 0.0002 0.0003341839 0.0003464446 0.0003148515 0.0003046032 0.0003014443 0.0003004718 0.0003001678 0.0003000551 0.0003000275 0.0003 3.5038 7.0073 2.336479 0.0005880706 0.0002821065 0.0001662913 0.0001335269 
0.0001 0.0001 0.0001001302 0.0001 0.0001125 0.0008464844 0.0023 0.001425926 0.0002 0.0003 0.0005444444 0.0009611111 0.002494444 0.004370833 0.0001 0.000125 0.0001 0.0003 0.0011 0.0035 0.01015 0.0109 0.0341 0.1202 0.276 0.772125 1.636875 3.6517 5.1276 5.8362 7.9043 9.9156 11.2053 10.13827 12.3396 16.1572 16.1271 15.1358 14.027 8.544133 12.4866 9.3428 6.5784 3.5217 0.8497 1.132775 0.477 3.499933 3.4259 2.217556 1.922511 1.736067 1.6431 1.399 2.390479 2.25493 2.038812 1.6498 1.367516 1.150622 1.376704 1.661494 1.808839 1.740689 1.64225 1.543811 1.475661 1.445372 1.4378 1.4378 0.5027866 0.02156563 0.0001 0.8439459 1.260306 1.2523 0.4274839 0.005880076 0.001387654 0.0003954904 0.0002439472 0.00021875 0.0002 0.0009153872 0.0008651578 0.0006744942 0.0006198779 0.000609375 0.0006 0.001100274 0.0016 0.001200419 0.001000142 0.001 0.001 3.811387 5.710094 5.707499 5.7049 2.483413 0.8592327 0.8511901 0.8479255 0.8471106 0.8463 0.3084374 0.0326154 0.02647757 0.02116667 0.01587941 0.01096147 0.006966599 0.004166082 0.002473666 0.001594151 0.001203944 0.001058118 0.001013233 0.001002257 0.001000255 0.001000014 0.001 0.001 0.0005016298 0.000223741 0.0002078431 0.0002027258 0.0002010173 0.0002003409 0.0002001709 0.0002 0.0004072163 0.0003978073 0.0003317118 0.0003098148 0.0003030279 0.0003009668 0.0003003382 0.0003001103 0.0003000549 0.0003 3.5038 7.0073 2.337085 0.001063257 0.0004691351 0.00023182 0.0001453643 0.0001216896 
0.0001 0.0001 0.0001 0.0001005208 0.0001 0.000125 0.0008609375 0.0023 0.001777778 0.0002 0.0004 0.001033333 0.00145 0.005 0.01093333 0.0001 0.0002 0.0008 0.0026 0.0085 0.1847333 0.0268 0.081 0.2146 0.6329 1.6661 2.749 5.5959 5.3435 6.0975 6.9261 7.9404 9.6465 11.42002 10.1295 10.4617 10.7538 10.9469 11.038 12.51425 11.0682 9.9008 7.7853 5.5801 2.8115 0.477 5.203367 5.547033 2.772333 1.958333 1.922 1.8872 1.399 3.047925 2.687167 2.427825 1.6498 1.682198 1.168455 0.9696125 1.3138 1.8467 1.823983 1.755833 1.64225 1.528667 1.460517 1.4378 1.4378 0.5302153 0.04303125 0.0001 0.8550711 1.268312 1.2523 0.4406499 0.0137716 0.003213992 0.0006546296 0.0002943416 0.0002375 0.0002 0.001506959 0.001190741 0.0007638489 0.0006408836 0.00061875 0.0006 0.001100823 0.0016 0.001201249 0.001000427 0.001 0.001 3.819164 5.715285 5.710098 5.7049 2.50061 0.8720487 0.8560938 0.8495554 0.8479211 0.8463 0.3160703 0.03968808 0.03169123 0.02646691 0.02127456 0.01575853 0.01060514 0.006520733 0.003773923 0.002203591 0.001443482 0.001135378 0.00103297 0.001006005 0.001000724 0.001000041 0.001 0.001 0.0005407631 0.0002497228 0.0002160331 0.0002054671 0.0002020292 0.000200681 0.0002003418 0.0002 0.0005564876 0.0005046913 0.0003676864 0.0003210444 0.0003064045 0.0003019956 0.0003006836 0.0003002211 0.0003001099 0.0003 3.5038 7.0073 2.338222 0.001975079 0.0008419009 0.0003727906 0.0001927137 0.0001299558 0.0001134234 
0.0001 0.0001 0.0001 0.0001 0.0001020833 0.0001 0.00015 0.00089375 0.0023 0.002833333 0.0002 0.0006 0.0023 0.05425 0.0077 0.025 0.0765 0.2228 0.5804 0.6286 0.9725667 0.4301 0.04 0.1492 0.5363 1.7849 3.97306 3.8933 9.9634 10.0856 10.0311 10.989 12.55778 12.4747 12.7245 12.7938 13.0309 13.2614 13.3228 13.6512 13.1429 12.9021 12.6586 12.5345 12.449 9.982683 10.3157 4.8174 1.508 1.9916 2.3754 1.399 4.381 3.20585 3.20585 1.6498 2.354529 1.566139 1.158325 0.7809 4.793571 1.8467 1.8467 1.77855 1.64225 1.50595 1.4378 1.4378 0.5969985 0.0859625 0.0001 0.8835593 1.284325 1.2523 0.4702657 0.03208086 0.007953087 0.001280864 0.0004080247 0.000275 0.0002 0.002940765 0.001918176 0.0009688957 0.0006851509 0.0006375 0.0006 0.001102469 0.0016 0.001203717 0.00100128 0.001 0.001 3.834701 5.72566 5.715296 5.7049 2.534218 0.8974068 0.8659151 0.852824 0.8495423 0.8463 0.3301084 0.05071924 0.03715339 0.03119161 0.02672868 0.02148045 0.01561456 0.01018059 0.006020271 0.003361343 0.001940156 0.001309274 0.001081017 0.001015844 0.00100205 0.001000122 0.001 0.001 0.0006248814 0.0003051139 0.0002330574 0.0002109971 0.0002040448 0.0002013593 0.0002006836 0.0002 0.0008571837 0.000724685 0.0004440816 0.0003453073 0.0003136702 0.0003041556 0.0003013877 0.0003004435 0.0003002197 0.0003 3.5038 7.0073 2.340322 0.00369569 0.001570351 0.0006591943 0.0002961572 0.0001630205 0.0001189634 0.0001078834 
0.0001 0.0001 0.0001 0.0001 0.0001 0.0001083333 0.0001 0.0002 0.000975 0.0023 0.006 0.0184 0.0587 0.06953333 0.1483 0.326 0.636 1.0734 1.4929 2.425317 2.1845 2.5569 2.3921 2.2732 3.057 5.1771 11.68032 7.3439 14.22187 21.8862 21.3848 18.5649 19.04803 15.7312 15.9198 15.449 15.5804 16.0719 16.6253 16.67302 16.71 16.5522 16.4284 16.2651 16.5357 15.41502 17.3072 18.6423 17.6023 13.9747 9.9085 6.9821 6.54978 4.7619 1.6498 3.8508 2.381767 1.53575 0.7809 7.396088 8.721228 5.222942 1.8467 1.8467 1.64225 1.4378 1.4378 0.7782688 0.171825 0.0001 0.9654875 1.31635 1.2523 0.5353386 0.07305741 0.02036667 0.002818519 0.0006740741 0.00035 0.0002 0.006588988 0.003522839 0.001451235 0.0007804527 0.000675 0.0006 0.001107407 0.0016 0.001211026 0.001003841 0.001 0.001 3.865721 5.746389 5.725691 5.7049 2.599138 0.9472597 0.8855732 0.8593876 0.8527846 0.8463 0.3571262 0.07185724 0.04515032 0.03515017 0.03115967 0.027265 0.02176138 0.01541497 0.009667343 0.005459447 0.002934024 0.001690558 0.001195885 0.001041381 0.001005784 0.001000366 0.001 0.001 0.0008064078 0.0004242261 0.0002688917 0.0002222239 0.0002080566 0.0002027107 0.0002013672 0.0002 0.001452424 0.001171245 0.0006050659 0.0003977443 0.0003294345 0.0003087432 0.0003028328 0.0003008909 0.0003004395 0.0003 3.5038 7.0073 2.344131 0.006886845 0.002969991 0.001230235 0.0005108271 0.000236521 0.0001411235 0.000111417 0.0001043498 
0.0001 0.0001 0.0001 0.0001 0.0001 0.0001 0.0001333333 0.0001 0.0003 0.0012 0.004 0.0152 0.0462 0.1088333 0.154 0.381 0.8601 1.7969 3.4682 4.243083 6.1973 10.2881 15.3456 21.1852 25.9632 26.8438 23.05157 25.0389 21.3418 29.6317 35.8177 32.9568 28.52832 23.5716 19.9429 18.2239 17.7175 18.2402 19.69608 19.8193 20.4178 20.406 20.3924 19.5095 18.5213 19.73253 17.3612 16.1044 15.024 13.0014 11.6483 12.6205 10.5168 9.0891 7.389 4.0738 2.2906 0.7809 8.880366 10.76325 9.159833 6.2406 3.644633 1.8467 2.162033 1.4378 1.331625 0.34355 0.0001 1.22915 1.3804 1.2523 0.6765156 0.1593944 0.05314444 0.006633333 0.001322222 0.0005 0.0002 0.01657879 0.006964815 0.002612346 0.0009913581 0.00075 0.0006 0.001122222 0.0016 0.001232582 0.001011523 0.001 0.001 3.927618 5.787785 5.746483 5.7049 2.722469 1.044328 0.9248571 0.8725935 0.8592691 0.8463 0.4066846 0.1138848 0.06163527 0.04005161 0.03376409 0.0316348 0.02808012 0.02208006 0.01512396 0.009040878 0.004837189 0.002500274 0.001464609 0.00110679 0.001016255 0.001001097 0.001 0.001 0.001198189 0.0006820412 0.000345401 0.0002452361 0.0002160379 0.0002053976 0.0002027344 0.0002 0.002606715 0.002062405 0.0009405751 0.0005107548 0.0003638679 0.0003186101 0.0003058255 0.0003017939 0.0003008789 0.0003 3.503799 7.0073 2.350913 0.01269903 0.005611937 0.002349567 0.0009484696 0.0003926673 0.0001913444 0.0001255514 0.0001064746 0.000102225 
0.0001 0.0001 0.0001 0.0001 0.0001 0.0001 0.00018 0.0002 0.0009 0.003 0.0074 0.0229 0.04546667 0.0666 0.1792 0.4604 1.0498 2.2188 4.3307 5.115467 7.7849 12.9086 20.1923 26.5318 31.7994 29.65468 36.0084 37.8973 39.1881 38.1716 39.51451 40.7478 37.22108 39.5976 33.4792 29.4454 26.597 25.3765 23.18113 22.0433 24.0902 25.6232 25.6289 25.5893 24.8846 24.74267 23.7852 22.1698 20.5459 19.2234 18.502 18.88195 18.1653 18.0478 17.8823 18.4007 16.4398 13.9683 12.22034 11.8919 9.6346 5.953 3.1342 6.160625 3.5783 3.2016 0.687 0.0001 2.1557 1.5085 1.2523 0.9917125 0.3217167 0.1403333 0.01613333 0.002966667 0.0008 0.0002 0.04669479 0.01395741 0.005462963 0.001474074 0.0009 0.0006 0.001166667 0.0016 0.001295761 0.001034568 0.001 0.001 4.051017 5.870389 5.788065 5.7049 2.951231 1.230652 1.003091 0.8992422 0.8722383 0.8463 0.4903345 0.1922872 0.09781677 0.05155053 0.03553851 0.03306577 0.03268797 0.02915066 0.02240171 0.01468781 0.00828235 0.004152469 0.002076749 0.001271605 0.001045473 0.001003292 0.001 0.001 0.002039695 0.001241842 0.0005112189 0.0002930632 0.0002319209 0.0002107241 0.0002054688 0.0002 0.004792399 0.003804887 0.001629573 0.0007527553 0.0004393973 0.0003401116 0.0003120948 0.000303624 0.0003017578 0.0003 3.503797 7.0073 2.36276 0.02308694 0.01050605 0.00450409 0.00182567 0.0007189427 0.0003007961 0.000158263 0.000114974 0.0001034171 0.0001010328 
0.0001 0.0001 0.0001 0.0001 0.0001 0.0001 0.0002 0.0004 0.0012 0.0041 0.0146 0.0372 0.04605 0.0847 0.1722 0.3805 0.8401 1.717 3.2437 4.5782 5.668 9.1647 13.3327 18.8695 25.2238 28.27278 32.0895 39.0918 44.0775 45.2299 44.1633 44.17995 44.20178 49.2316 48.403 43.3504 37.0827 27.0701 30.83597 26.5374 25.7787 28.0431 30.2179 31.2814 29.13442 31.8069 32.0968 31.3849 30.0554 29.0112 27.5616 24.73078 26.8977 26.5365 23.5208 21.233 18.4213 17.6699 16.19753 16.7907 15.2729 13.9167 11.8345 7.8271 10.1866 7.329925 11.3574 5.6057 1.7647 1.2523 1.7891 0.55145 0.374 0.0397 0.0073 0.0014 0.0002 0.1473292 0.02668333 0.01256667 0.002622222 0.0012 0.0006 0.0013 0.0016 0.00147934 0.001103704 0.001 0.001 4.296801 6.035036 5.871231 5.7049 3.361318 1.580862 1.157845 0.9532501 0.8981766 0.8463 0.619466 0.3251444 0.1704275 0.08128971 0.04173308 0.03162881 0.03325364 0.03431488 0.03049541 0.0226417 0.01406804 0.007353703 0.003425309 0.001678395 0.001126543 0.001009876 0.001 0.001 0.003827619 0.002455458 0.0008757021 0.0003943644 0.0002635902 0.0002212348 0.0002109375 0.0002 0.00882042 0.007131157 0.003018019 0.001265486 0.0006052133 0.0003875664 0.0003254122 0.0003073564 0.0003035156 0.0003 3.503791 7.0073 2.383051 0.04129437 0.01939541 0.008571044 0.0035517 0.001389525 0.000535785 0.0002315182 0.0001350853 0.0001081856 0.0001016512 0.0001004145 
0.0001 0.0001 0.0001 0.0001 0.0001 0.0001 0.0001 0.0003 0.0008 0.0024 0.0062 0.0176 0.03953333 0.0473 0.119 0.2796 0.6113 1.2422 1.865183 2.3425 4.0994 6.6694 10.1249 14.4244 19.4454 22.49938 25.0702 31.1614 37.0988 41.8541 44.7129 43.02534 47.0958 44.3361 45.5827 46.9374 44.4256 45.0348 39.1547 38.9537 32.8695 29.2854 29.3964 30.6429 30.8014 30.6014 31.4968 32.336 32.4555 31.4126 29.6895 26.61172 27.5686 24.7103 24.1989 22.5668 21.2443 19.33268 19.5564 17.308 15.4552 15.4621 15.2342 15.644 13.59272 14.0737 13.78436 13.8156 10.1309 3.1095 9.45306 1.0055 0.0974 0.0191 0.0026 0.0002 0.5145333 0.04415 0.03043333 0.005466667 0.0018 0.0006 0.0017 0.0016 0.00200625 0.001311111 0.001 0.001 4.785994 6.362646 6.037562 5.7049 4.061186 2.219102 1.460086 1.063397 0.9500531 0.8463 0.8036084 0.5287204 0.2992352 0.1474775 0.06456982 0.03182181 0.02880761 0.03425699 0.0366963 0.03199136 0.02279856 0.01313519 0.00627037 0.002655555 0.00135 0.00102963 0.001 0.001 0.0075583 0.005066335 0.001685843 0.0006141975 0.0003270662 0.0002418296 0.000221875 0.0002 0.0160232 0.01330739 0.005751091 0.002334986 0.0009679788 0.0004934937 0.0003541674 0.000315038 0.0003070312 0.0003 3.503772 7.0073 2.41711 0.07257683 0.03521573 0.01609056 0.006879949 0.002742618 0.001032533 0.0003934233 0.0001813985 0.0001197328 0.0001041245 0.0001006994 0.0001001296 
0.0001 0.0001 0.0001 0.0001 0.0001 0.0001 0.0001 0.0002 0.0006 0.0016 0.0049 0.0138 0.02635 0.0366 0.0908 0.2105 0.4558 0.9195 1.389183 1.7262 3.0161 4.912 7.4802 10.7018 14.4769 17.20577 18.6905 23.2642 28.0837 32.935 37.5168 40.05192 41.6379 42.93867 42.1586 45.6321 49.3937 44.65273 49.5044 47.8278 44.1402 37.6456 30.2524 30.0549 32.76747 30.4209 28.2904 27.4867 27.0725 25.651 24.596 24.0645 23.3569 21.6959 20.3811 19.929 19.9445 19.19512 19.1597 18.2618 17.1437 15.5637 15.2295 15.2244 16.47738 15.1944 14.8046 21.6391 22.26 22.8142 13.35868 19.0838 13.8518 9.7967 6.6309 1.4679 4.34272 0.0755 0.0128 0.003 0.0006 0.0029 0.0016 0.003491667 0.001933333 0.001 0.001 5.759937 7.012813 6.370225 5.7049 5.172623 3.330856 2.036365 1.290085 1.053806 0.8463 1.053859 0.8132885 0.500986 0.2718866 0.1248329 0.04571296 0.02316358 0.02658889 0.03667037 0.03951173 0.03390679 0.02255556 0.01193333 0.004916667 0.001961111 0.001088889 0.001 0.001 0.01513934 0.01059719 0.003496673 0.001105144 0.0004557099 0.0002817387 0.00024375 0.0002 0.02848902 0.02442341 0.01098036 0.00451841 0.001754507 0.0007320416 0.0004173882 0.0003310514 0.0003140625 0.0003 3.503717 7.0073 2.473105 0.1252417 0.06279258 0.02969623 0.01315837 0.005417091 0.002064391 0.0007463725 0.0002868364 0.0001470609 0.0001102982 0.0001018391 0.0001002362 0.0001000229 
0.0001 0.0001 0.0001 0.0001 0.0001 0.0001 0.000125 0.0001 0.0005 0.0015 0.0043 0.00825 0.0119 0.0309 0.0756 0.1729 0.3695 0.7366 1.093733 1.3681 2.368 3.8254 5.7874 8.2443 10.04142 11.1404 14.4112 18.0352 22.0758 26.6306 31.8628 33.39423 37.4853 42.2743 40.08538 36.4627 38.9758 41.85115 40.5821 41.2571 41.3667 40.66 42.4834 39.3848 36.11185 35.4999 30.3652 25.3608 21.9631 20.3335 21.11205 19.7952 19.3808 17.9273 17.522 17.3144 17.4378 16.06542 17.828 18.3971 19.0671 19.7578 19.7138 15.39908 18.8663 19.8615 20.8124 17.60421 15.4391 16.5036 16.62237 17.6355 17.6936 15.6142 12.6134 11.9436 8.1294 8.2264 4.1053 1.1519 0.0065 0.0016 0.007566667 0.0038 0.001 0.001 7.70521 8.297989 7.03555 5.7049 6.755667 5.144783 3.08514 1.762644 1.261312 0.8463 1.399287 1.187943 0.7819055 0.4700167 0.2510358 0.09460741 0.02885555 0.01367593 0.02695926 0.03913148 0.04392037 0.03548333 0.02231667 0.009866667 0.003616667 0.001266667 0.001 0.001 0.03000159 0.02202346 0.007532305 0.002235802 0.0007219136 0.0003577161 0.0002875 0.0002 0.04933657 0.04376159 0.02065792 0.00885072 0.003432425 0.001272085 0.0005590107 0.0003650291 0.000328125 0.0003 3.50355 7.0073 2.563174 0.2120751 0.1098713 0.05377859 0.02472786 0.01058224 0.004165005 0.001504031 0.000524135 0.0002109511 0.000125423 0.0001048087 0.000100663 0.0001000457 0.0001 
0.0001 0.0001 0.0001 0.0001 0.0001 0.00010625 0.0001 0.0001 0.0004 0.0013 0.0039 0.0072 0.0107 0.0277 0.0671 0.1523 0.3228 0.6379 0.91615 1.1741 2.0125 3.2158 4.8042 6.7414 8.165833 8.9437 11.3128 13.7861 16.4003 19.377 23.2655 28.86085 28.5971 40.5546 33.43 33.36464 34.8769 35.7961 37.774 39.916 42.3883 46.0054 45.0223 42.0369 37.92802 39.2737 36.3607 30.9271 24.4289 19.6828 20.46912 16.6138 15.0847 13.7823 12.7022 11.7402 11.1385 12.53937 10.884 10.8823 11.0778 11.4176 11.5025 13.15885 11.858 12.5222 13.7269 14.5474 13.57616 13.64125 11.5979 12.0992 12.5317 12.9176 13.2851 13.6119 12.63358 13.4511 12.4906 10.284 5.9468 0.0145 0.0066 10.76488 0.001 11.63078 10.82287 8.3662 5.7049 8.648725 7.855256 4.813789 2.765306 1.676325 0.8463 1.914285 1.692609 1.143956 0.7272648 0.4744963 0.2082889 0.07032222 0.005211111 0.01103333 0.02478333 0.04506111 0.04755 0.03915 0.01975 0.00805 0.0018 0.001 0.001 0.05785266 0.04476605 0.01638765 0.004916667 0.001292593 0.0004981481 0.000375 0.0002 0.08299836 0.07623086 0.03791708 0.01713683 0.006919856 0.002495473 0.0008819444 0.0004388375 0.00035625 0.0003 3.503049 7.0073 2.704665 0.35215 0.1885818 0.09549356 0.04553854 0.02030368 0.008341358 0.003101669 0.001051989 0.0003584362 0.0001619799 0.0001124371 0.0001018519 0.0001001372 0.0001 0.0001 
0.0001 0.0001 0.0001 0.0001 0.0001015625 0.0001 0.0001 0.0001 0.0004 0.0011 0.0033 0.006016667 0.0091 0.0237 0.0576 0.1312 0.2792 0.4080833 0.5544 1.0258 1.7675 2.8386 4.2583 5.9891 6.99335 7.9361 9.9634 11.9154 13.6265 14.9109 17.75763 15.5106 36.4438 25.6705 28.6333 31.7921 29.3817 32.86712 33.1861 34.2767 34.3483 36.0033 36.8348 38.07515 36.3054 35.0674 33.6188 31.8516 29.6313 25.8793 22.54372 20.5101 15.5544 13.5325 11.9867 10.4212 10.4774 9.2964 8.6515 8.2973 8.125 8.1302 8.3232 8.961367 8.6893 9.3729 9.5541 10.3663 11.0244 10.69998 11.3686 11.2719 11.9622 12.6164 13.275 13.94 12.71815 14.6285 15.4521 16.5677 17.8675 34.4018 12.84193 23.2935 19.7584 15.7362 11.0275 5.7049 10.2675 11.63075 6.99175 4.943267 2.50635 0.8463 2.687419 2.45575 1.667672 0.9544055 0.8097889 0.4176 0.1961 0.01116667 0.0037 0.0007666667 0.02863333 0.04495 0.0616 0.0361 0.01975 0.0034 0.001 0.001 0.1075347 0.08771852 0.03515741 0.01142222 0.002583333 0.0007444444 0.00055 0.0002 0.1353811 0.1288185 0.06759383 0.03228025 0.01387716 0.005253086 0.001629321 0.0006040123 0.0004125 0.0003 3.501548 7.0073 2.92119 0.5728072 0.3173642 0.1662786 0.08210267 0.03809938 0.01641358 0.006398079 0.002212414 0.000694513 0.0002490398 0.0001317558 0.000105144 0.0001004115 0.0001 0.0001 0.0001 
0.0001 0.0001 0.0001 0.0001003906 0.0001 0.0001 0.0001 0.0001 0.0003 0.0008 0.0024 0.004533333 0.0067 0.0177 0.0435 0.1004 0.2168 0.3234167 0.4374 0.8235 1.4461 2.3705 3.6351 5.2344 6.049366 7.1154 9.1928 11.3733 13.5776 15.7528 15.6208 17.729 19.8409 22.0279 24.3615 26.8633 27.44796 29.3138 29.1169 34.307 31.3605 32.517 33.6812 34.73303 34.5703 34.8357 34.4119 33.1082 30.7601 27.8321 26.75745 24.7442 19.5033 15.2513 13.5034 11.0342 10.66003 9.2339 8.2316 7.7565 7.3701 6.9881 6.7274 7.102133 6.6678 6.1165 7.221 8.867 9.6722 9.09972 10.5054 9.195114 8.6997 9.1974 9.6864 10.1507 10.99502 10.5267 10.7947 11.3097 30.7842 9.6116 15.72822 9.7236 10.1436 10.5731 11.0613 11.6532 13.4444 12.43627 9.8171 4.1664 0.8463 3.525875 3.5643 2.8132 0.98975 1.200067 0.6734 0.5559 0.0235 0.0089 0.0011 0.0011 0.0001 0.0847 0.05005 0.05005 0.0082 0.001 0.001 0.1934 0.1634 0.07233889 0.02741667 0.005716667 0.001133333 0.0009 0.0002 0.213454 0.2105333 0.117337 0.05858519 0.02685926 0.0113963 0.003375926 0.0009870371 0.000525 0.0003 3.497045 7.0073 3.243062 0.911349 0.5230477 0.2840249 0.14502 0.06979094 0.03149712 0.01301008 0.004733539 0.001450617 0.0004530864 0.0001798354 0.0001141975 0.0001012346 0.0001 0.0001 0.0001 0.0001 
0.0001 0.0001 0.0001000977 0.0001 0.0001 0.0001 0.0001 0.000175 0.0002 0.0005 0.001033333 0.0015 0.0042 0.0113 0.0284 0.0668 0.1476 0.2302833 0.3051 0.5894 1.0632 1.7924 2.8274 4.1847 5.0178 5.8365 7.7172 9.7443 11.8371 13.9052 14.9527 15.9163 17.8675 19.7809 21.6791 23.6322 25.5705 25.70905 28.82064 32.5305 29.4796 31.0518 32.7269 33.34947 34.2796 35.4514 36.0503 35.8043 34.2524 32.33593 31.8107 29.7683 27.3482 23.351 17.2624 13.6338 13.07815 10.3407 8.1259 7.3882 7.3625 6.9628 6.755533 6.2761 5.929 6.0924 6.0051 5.7176 6.7635 7.163633 7.5331 8.0769 6.3166 6.8617 7.4174 7.590833 8.0681 8.6561 30.9532 11.825 7.957 8.4424 8.553 8.8964 9.3484 9.8649 10.5038 11.3347 11.61022 12.3556 14.128 12.7558 6.1286 3.1135 4.0151 2.1783 1.6113 0.3682 1.6207 0.0313 0.0157 1.8205 0.0021 0.0001 0.154775 0.1825 0.0847 0.0154 0.351075 0.001 0.3491 0.2871333 0.1363667 0.0667 0.01395 0.0016 0.0016 0.0002 0.3246604 0.3278889 0.2010667 0.1026444 0.0483 0.02481111 0.007466667 0.001911111 0.00075 0.0003 3.483533 7.0073 3.706509 1.416344 0.8420957 0.4756074 0.2514401 0.1250272 0.05859259 0.02575309 0.01014568 0.003131482 0.0009234568 0.0002969136 0.0001388889 0.0001037037 0.0001 0.0001 0.0001 0.0001 0.0001 
0.0001 0.0001000244 0.0001 0.0001 0.0001 0.0001 0.00013125 0.00015 0.0001 0.0002 0.0005666667 0.0008 0.0022 0.006 0.0156 0.0382 0.0874 0.1427167 0.1874 0.3779 0.7091 1.2458 2.0492 2.6143 3.1594 4.5764 6.2582 8.1447 10.142 12.1973 13.14502 14.2156 16.1699 18.0719 19.9349 21.7677 22.77207 23.4698 24.679 27.38172 27.7216 29.4934 31.4282 32.27888 33.4106 35.1628 36.4121 36.7914 35.7411 34.97405 33.6192 31.8179 29.4633 26.6169 23.2094 19.1804 17.94818 15.0459 11.3246 8.8474 7.6407 7.0543 6.746383 6.5245 5.9367 5.3209 4.8092 4.4676 4.1365 5.25635 4.3711 5.1955 5.510643 4.3266 4.6198 6.560133 5.6026 12.5921 5.1401 5.8047 6.501 7.0656 7.240433 7.5784 8.0319 8.5265 9.1645 9.9471 10.41012 10.9263 13.3822 15.4201 17.053 13.0329 2.2561 1.9652 0.8307 1.5569 2.4537 2.3124 2.2575 4.053617 5.0067 0.1562 0.2596 0.2032 0.4502167 0.7454 0.7097167 0.6425 0.4772 0.2757 0.1085 0.0249 0.531725 0.003 0.0002 0.494775 0.4551667 0.3485 0.18 0.0747 0.05323333 0.01696667 0.004233333 0.0012 0.0003 3.443 7.0073 4.347553 2.150796 1.320385 0.77785 0.4280519 0.2209204 0.1053481 0.04881296 0.02161667 0.00682963 0.001990741 0.000574074 0.0002055556 0.0001111111 0.0001 0.0001 0.0001 0.0001 0.0001 0.0001 
0.0001000061 0.0001 0.0001 0.0001 0.0001 0.0001140625 0.000125 0.0001 0.000125 0.0001 0.0002833333 0.0003 0.0007 0.0022 0.0061 0.0161 0.0402 0.0763 0.0886 0.2004 0.3988 0.746 1.3101 1.75055 2.155 3.308 4.7164 6.3746 8.2626 10.3008 11.25873 12.3349 14.287 16.2052 18.1278 20.0866 20.80817 22.1056 23.9894 25.8902 26.46777 27.6369 28.46667 29.7567 32.0713 34.3998 36.3438 37.3596 37.8168 36.4716 36.6041 35.4578 33.753 31.5744 29.0314 26.25158 26.2257 23.2626 19.5064 15.0515 11.2347 7.3489 8.18115 6.3117 5.6288 5.1744 4.9075 4.6725 4.4617 4.051533 4.2722 4.0488 3.7484 4.599566 10.4778 5.49834 3.1751 2.6305 3.0452 3.7535 4.8205 5.0269 5.3905 6.0693 6.5583 7.0785 7.6381 8.347 8.699917 9.55 11.8984 13.7594 16.845 17.3764 8.177433 1.9586 1.1194 4.0663 5.6808 5.3067 5.2104 7.517667 11.8293 0.418 0.7783 0.8455 0.8071 1.1035 1.4426 1.4114 1.3353 1.2453 1.1669 1.0958 3.4585 1.0032 0.8625 0.6685 0.4479 0.2491 2.82225 0.1109 0.0385 0.0103 0.0021 0.0003 3.3214 7.0073 5.164425 3.1986 2.019889 1.2339 0.7073666 0.3922833 0.1845056 0.08597222 0.04556667 0.0149 0.004383333 0.001205556 0.0003833333 0.0001333333 0.0001 0.0001 0.0001 0.0001 0.0001 0.0001 0.0001 
0.0001 0.0001 0.0001 0.0001 0.0001066406 0.0001125 0.0001 0.00010625 0.0001 0.0001 0.0001666667 0.0002 0.0006 0.0015 0.0035 0.0077 0.0196 0.016 0.0382 0.0699 0.1526 0.3176 0.6308 1.165683 1.1988 2.1684 3.257 4.554 6.153 7.012816 8.1813 10.3225 12.2302 14.0666 15.8915 17.7513 18.70493 19.668 21.6054 23.6657 25.6922 25.1744 26.87738 27.3104 29.683 32.2131 34.6169 36.4459 37.3471 37.54688 37.7013 37.2276 35.9921 34.0567 31.4126 31.69057 28.45 25.2115 21.9136 18.7524 15.1414 12.0365 12.32572 9.811 7.7957 6.1314 4.7246 4.1549 4.881967 3.7451 3.3226 2.8818 2.4311 1.9937 5.59885 5.584175 3.6164 3.4361 3.3043 3.117 2.846 4.144717 3.5378 4.6444 4.9618 5.3078 5.7184 6.3054 6.7475 7.1237 8.7321 10.4427 11.0789 8.5712 9.77885 5.8694 1.7566 3.2107 6.0387 7.2848 8.0871 10.48492 12.715 23.0099 0.9686 1.337 1.4189 3.64224 4.745575 8.4676 9.4255 10.299 10.2612 9.7855 6.95195 8.8386 7.6375 6.9259 6.6438 5.8085 6.270683 5.1205 4.5403 4.0179 3.5036 2.9566 7.0073 5.9622 4.612333 3.075867 1.9076 1.0762 0.7179 0.328 0.13095 0.09456667 0.0324 0.009733333 0.002566667 0.00085 0.0002 0.0001 0.0001 0.0001 0.0001 0.0001 0.0001 0.0001 0.0001 
0.0001 0.0001 0.0001 0.0001032227 0.00010625 0.0001 0.0001015625 0.0001 0.0001 0.0001 0.00014 0.0002 0.0006 0.0018 0.0048 0.0119 0.0132 0.0257 0.0563 0.1154 0.2211 0.396 0.6637 0.7897167 1.0357 1.2738 2.2071 3.0035 3.6811 6.055483 5.4981 8.3223 10.2053 11.9432 13.6697 15.4123 16.33192 17.2058 19.0761 21.0623 23.1066 23.3275 24.8427 24.5085 26.742 29.2091 31.9289 34.5858 35.25518 36.9072 38.9048 40.2016 40.7089 40.3131 38.7412 36.65797 36.2825 32.8708 28.8211 24.6748 21.4409 20.2828 18.42917 18.1634 16.3258 13.4353 10.0714 6.8209 6.927183 5.4367 4.8463 4.7864 4.8275 4.8565 5.0674 4.3608 3.89875 4.1364 4.0932 4.0748 4.0968 3.02775 4.1767 3.0645 3.3657 3.6554 3.8791 4.267416 4.3202 4.8387 5.8164 6.2702 15.2216 10.8955 8.365117 14.002 7.0068 3.6162 6.3386 8.2508 10.0452 10.68822 15.0225 32.1881 4.2841 5.9638 6.8819 5.8916 7.6607 8.02185 8.0085 8.5227 9.7001 8.6594 11.2147 9.7739 11.9581 13.0433 13.2862 13.4003 10.75567 12.9348 12.2775 11.3827 9.8477 8.3923 6.5741 6.4022 4.4771 2.9577 1.7928 0.9723 0.4635 0.254625 0.1925 0.0694 0.0218 0.006 0.0014 0.0003 0.0002 0.0001 0.0001 0.0001 0.0001 0.0001 0.0001 0.0001 0.0001 
0.0001 0.0001 0.0001015869 0.000103125 0.0001 0.0001003906 0.0001 0.0001 0.0001 0.0001 0.0001333333 0.0001 0.0002 0.0006 0.0016 0.0045 0.009966667 0.0134 0.0317 0.0698 0.1434 0.2742 0.3595833 0.4855 0.7238 1.3767 2.0698 3.6242 5.9271 4.746683 6.8923 6.9232 8.3284 9.9479 11.5421 12.4539 13.144 14.8101 16.5468 18.3655 20.2868 22.3775 22.13873 24.17978 23.7019 26.0437 28.7771 31.5743 32.97545 34.6708 37.8429 40.7367 42.8255 44.3089 43.9572 41.53072 41.1043 38.5069 37.3688 31.6254 29.3293 26.76055 26.5137 23.7676 20.9987 18.3345 15.2231 12.249 10.32958 9.1565 5.9798 5.6122 5.0186 4.7944 4.6367 4.5507 4.2087 3.4442 3.0789 2.6339 2.0853 2.681183 1.4239 1.6243 1.8475 2.3722 2.3892 2.915583 2.9922 3.698 4.3644 5.8557 3.7597 3.9432 6.40915 6.9094 7.6095 3.6309 4.6505 5.8611 6.957917 7.3571 10.9024 19.1253 30.2255 6.0295 6.4627 6.201433 7.0338 7.535 6.584 5.1241 5.2981 6.168983 5.6968 9.5325 10.0303 10.9356 11.9294 13.144 9.814466 14.1259 14.3452 13.7977 11.054 8.3143 5.87445 6.3719 4.4273 2.7389 1.4797 0.6872 0.2713 0.18105 0.0912 0.0263 0.0066 0.0014 0.0003 0.0006666667 0.0002 0.0001 0.0001 0.0001 0.0001 0.0001 0.0001 0.0001 0.0001 
0.0001 0.0001007874 0.0001015625 0.0001 0.0001000977 0.0001 0.0001 0.0001 0.0001 0.0001083333 0.0001 0.00015 0.00025 0.0001 0.0004 0.0011 0.003766667 0.0032 0.0088 0.0222 0.0522 0.1137 0.1965833 0.2244 0.5066 0.8773 1.4023 1.942 2.696 3.913083 3.7855 5.2177 6.7481 8.2808 9.7637 10.48642 11.1916 12.6445 14.2715 16.113 18.0118 19.9022 19.95748 21.7667 21.9774 22.9375 25.5603 28.4456 29.43078 31.669 35.4631 39.3543 42.7056 45.6764 47.5274 43.97692 41.5717 46.645 35.3762 33.7802 32.7505 29.67948 30.2461 26.5937 23.0842 20.1443 17.568 14.5125 22.5426 13.8019 29.3304 11.4974 6.4976 4.4682 6.677767 4.083 3.753 3.579929 2.8556 2.5314 2.912533 2.2515 2.0529 1.965 1.7933 1.4821 1.8143 2.50165 2.0985 3.4322 4.4288 2.3679 1.5222 0.8518 2.41995 1.853 1.7662 2.2636 3.5525 4.5245 5.655334 5.7088 7.9826 13.2223 30.0264 3.9422 4.3952 4.5082 4.7743 5.1342 5.1795 3.737486 2.3503 3.71905 2.7539 2.9861 3.0949 3.1067 3.0204 5.636933 2.8144 2.4674 1.8319 1.2587 2.5419 3.0773 3.46505 2.6887 1.8508 1.0059 0.4444 0.1652 0.053 0.07271667 0.0148 0.0036 0.0008 0.0001 0.0006 0.0003 0.0003166667 0.0001333333 0.0001 0.0001 0.0001 0.0001 0.0001 0.0001 0.0001033364 
0.0001002642 0.0001005208 0.0001 0.0001000244 0.0001 0.0001 0.0001 0.0001 0.0001020833 0.0001 0.000125 0.00015 0.0001 0.00025 0.0005333333 0.0005333333 0.0001 0.0003 0.0011 0.0032 0.0089 0.0219 0.0762 0.0598 0.1297 0.2595 0.4826 0.969 1.451067 1.5305 2.6471 3.9156 5.3404 6.7719 8.0781 9.107367 9.199 10.2843 11.4675 12.892 14.8499 16.57092 16.9705 18.7705 20.6818 19.9397 21.8177 24.0486 24.31117 26.1764 28.9136 31.7844 34.4114 35.7994 38.4284 51.9531 37.7478 35.9541 33.3864 32.1463 30.361 27.76802 28.8763 28.0363 27.4623 27.0832 27.1061 31.12992 57.9882 27.5475 19.4383 17.3902 16.0986 13.2325 9.584567 8.9378 4.5213 3.1978 4.122517 3.8894 3.0438 4.0837 2.5183 2.417 2.3207 2.2756 2.5482 2.498317 3.1675 2.4425 1.8842 1.6185 0.4753 0.8322833 0.2729 0.6894 1.9417 3.0322 3.9695 4.7732 5.205367 5.7073 6.6044 9.0482 16.2411 26.2597 12.14537 1.6147 2.7685 2.7078 2.5031 2.2834 3.4239 2.84518 2.7913 2.3483 2.0237 1.7725 1.5601 2.218 1.3533 1.1438 1.1848 0.921 0.5184 0.2437 1.06865 0.0944 0.0298 0.0339 0.029 0.0136 0.04736 0.0047 0.0013 0.0003 0.0001 0.0003333333 0.0001 0.0003333333 0.0003 0.0002125 0.0001111111 0.0001 0.0001 0.0001 0.0001 0.0001074815 0.0001058642 
0.0001 0.000100013 0.0001 0.0001005208 0.0001 0.0001 0.0001 0.0001005208 0.0001 0.0001125 0.00011875 0.0001 0.000175 0.0002944444 0.0003541667 0.0001 0.0001666667 0.0001 0.0003 0.0009 0.0029 0.01 0.02228333 0.0274 0.0689 0.1577 0.3036 0.5752 0.9258 0.9937 1.5786 2.6412 4.05 5.7465 7.6815 8.374383 8.7303 9.3331 11.323 13.1939 14.2754 14.20755 15.4157 17.0122 18.3943 17.76311 15.5111 16.8551 20.33758 18.6723 20.9547 23.1366 24.6079 24.573 28.64467 25.0411 25.6733 25.9946 24.4832 23.6268 22.4581 22.20273 21.9161 21.9064 21.8594 21.8341 50.4316 29.6253 19.1731 15.8432 15.9699 15.988 15.781 14.1296 11.96098 12.6563 11.6365 7.9985 4.2624 6.47525 5.02096 2.463 2.901 2.7943 2.7048 2.6591 2.9357 2.742983 2.4257 2.7135 2.253 2.3037 0.9005 0.86525 0.971 1.723 2.7213 3.6062 4.2762 4.9922 5.1968 5.5262 5.6619 7.6143 11.0354 33.7155 17.56597 2.9449 3.3096 3.7954 3.8735 3.7788 3.0945 3.035075 2.9065 2.7619 2.632 2.5181 2.3851 2.395983 2.1747 1.8372 1.2822 0.8061 0.4389 0.22 0.1431833 0.0878 0.028 0.0072 0.0015 0.0003 0.004675 0.003 0.0021 0.0005666667 0.0002 0.0001 0.0001777778 0.0001 0.0002444444 0.0003 0.0001599206 0.0001097222 0.0001 0.0001 0.000125679 0.0001098765 0.0001018519 
0.0001 0.0001 0.0001000651 0.0001 0.0001020833 0.0001044907 0.0001126957 0.0001 0.00010625 0.0001078125 0.0001 0.0001375 0.0001898148 0.0002047222 0.0001 0.00012 0.0001 0.00016 0.0001 0.0003 0.0011 0.00515 0.0036 0.011 0.0312 0.0824 0.2266 0.4972 0.9014667 0.9892 1.7781 2.8832 4.2286 5.6967 6.8201 7.1281 9.4293 10.3905 11.1488 11.4914 11.8417 13.36122 11.8921 12.1973 13.4029 14.5943 16.14166 16.89663 17.7637 18.5094 18.108 17.8515 17.5111 17.307 19.17497 17.1944 17.3662 17.5213 17.7667 17.0105 18.2178 15.4385 14.1664 14.0467 13.6676 39.138 11.8736 18.47643 11.1792 11.3513 11.4857 11.5648 11.5689 11.86397 11.4761 11.3336 11.4657 11.4619 10.8797 6.8695 6.230375 7.7992 5.3838 3.5194 2.9666 2.9241 2.80605 2.5182 2.8626 2.9457 2.308 0.9039 0.9917 1.23595 1.5801 2.4744 3.3411 3.9421 4.5444 4.757184 5.1295 5.0524 5.2673 6.7197 8.8068 19.3449 19.78188 21.5161 1.4113 2.2323 2.7174 2.9678 3.07644 3.0186 2.9152 2.9573 2.9343 2.8845 4.7436 2.406367 2.1591 1.8159 1.3044 0.8006 0.4151 0.2724833 0.1608 0.0524 0.0143 0.0035 0.0007 0.0001 0.0002 0.001695833 0.001441667 0.0009555555 0.0002888889 0.00015 0.0001 0.0003046296 0.00021875 0.0001583333 0.0001375 0.0001 0.00025693 0.0001987654 0.0001259259 0.0001037037 0.0001 
0.000108167 0.0001 0.0001 0.0001002604 0.0001 0.00010625 0.0001162037 0.0001658951 0.0003271605 0.0005618056 0.0008956481 0.001245911 0.001211151 0.0001 0.0001 0.0001 0.0001333333 0.0001 0.0002 0.001 0.0032 0.01058333 0.0101 0.0292 0.0774 0.188 0.4158 0.8352 1.434117 1.5183 2.4918 3.7109 5.1256 6.6227 7.854466 8.0451 9.2944 11.772 12.4833 12.8868 13.1056 13.93027 13.6368 14.4212 15.198 16.2912 17.4566 18.7834 18.23055 18.2492 16.5432 14.4846 15.0695 15.5017 14.93265 15.4326 15.3738 15.6229 16.1895 16.2966 16.33092 14.4763 11.3167 11.7378 37.1685 8.967 9.0563 9.620517 9.1448 9.2161 9.2534 9.2432 9.1771 9.79135 9.0511 8.8579 8.5992 8.2828 7.9961 7.7898 7.64994 7.1144 7.3928 5.5142 3.6787 2.8734 3.08655 2.9258 3.3979 3.5175 2.7903 1.755 1.0487 1.444783 1.9237 2.8958 3.6029 4.17 4.7259 4.7003 4.8749 4.6735 5.0282 6.1316 7.6536 13.6837 20.5308 27.4862 1.3 1.9469 2.4119 2.7238 2.89235 2.8932 2.9537 3.031317 3.159 10.0104 1.4461 2.374217 1.5296 1.3349 0.9648 0.5779 0.2857 0.2277833 0.1144 0.0373 0.0099 0.002 0.0003 0.0004 0.0001 0.0001 0.0096 0.007366667 0.003544444 0.0017 0.00085 0.0004 0.0002 0.000175 0.0001 0.0004425347 0.0003185185 0.0001666667 0.0001111111 0.0001 0.0001 
0.0001112269 0.000113274 0.0001 0.0001 0.0001010417 0.0001 0.0001125 0.0001361111 0.0002490741 0.0005962963 0.001301852 0.002342593 0.003403704 0.002099722 0.0001 0.0001 0.0001 0.0002 0.001 0.0034 0.0113 0.01201667 0.0342 0.0942 0.2351 0.5069 1.0198 1.8312 1.81955 2.9336 4.2769 5.7995 7.4109 9.0311 9.411966 10.6031 12.0931 13.4786 14.4971 15.3598 16.1509 14.61048 16.9545 17.8077 18.7331 19.8318 21.5134 16.51856 18.3999 13.81793 12.4223 13.1848 12.4134 11.63588 11.8956 12.2646 13.2472 14.5968 15.4858 16.9795 23.54277 17.7841 9.3188 45.8668 7.9709 8.0537 8.14435 8.1666 8.3026 8.4463 8.5779 8.6784 8.7333 8.696183 8.7416 8.6836 8.553 8.3085 8.0808 7.9094 7.53056 7.8818 6.637417 5.8854 5.315 3.6465 4.103017 3.6313 4.4418 4.98 5.9653 2.1231 1.516783 0.9916 2.1329 3.0397 3.7066 4.2691 4.5293 4.45 4.3978 4.4648 4.8434 5.7029 6.9093 9.20305 11.1158 30.0381 1.9916 2.3014 2.5752 2.7957 2.863683 2.955 3.0592 3.1244 5.325157 3.3833 4.073534 2.4646 1.9023 1.4185 0.9513 0.5535 0.2749 0.3000333 0.1158 0.0414 0.0127 0.0033 0.0008 0.02302 0.0001 0.019 0.01306667 0.006233333 0.0028 0.0016 0.0007 0.00025 0.00025 0.0001 0.0008479166 0.0005555556 0.0002666667 0.0001333333 0.0001 0.0001 0.000162963 
0.00010625 0.0001162037 0.0001306424 0.0001 0.0001 0.0001041667 0.0001 0.000125 0.0001833333 0.0004388889 0.001166667 0.0023 0.003561111 0.00435 0.0023875 0.0001 0.00015 0.00032 0.0002 0.0008 0.003 0.01128333 0.0103 0.0328 0.0951 0.2718 0.6366 1.019517 1.3309 2.4681 4.0548 5.9761 8.0518 10.1226 9.501117 12.0472 11.5252 12.4686 13.1449 13.6066 13.64508 13.8731 13.942 13.7879 13.3659 12.6087 11.4912 12.97217 13.7317 12.0989 5.2803 5.8859 6.836 8.460433 8.0991 9.4843 11.0543 12.7339 14.9486 16.967 33.14805 58.7531 35.4869 8.6545 7.1918 7.2592 7.313033 7.3633 7.5082 7.6838 7.8699 8.0433 8.1773 8.2539 8.2967 8.3351 8.1837 7.9345 7.6331 7.7053 7.2621 6.8097 6.3406 6.761617 7.04 6.4335 5.919183 5.1076 4.2107 3.8762 1.4815 2.213 1.5714 0.9693 2.1969 3.0258 3.6562 4.0108 4.0686 4.143917 4.1035 4.3276 4.6963 5.3776 6.3611 8.0264 9.4948 20.8431 15.8414 1.5696 2.3689 2.7878 3.60195 3.0266 3.1768 3.2788 10.3979 3.9223 3.54652 3.2145 2.5301 1.9043 1.3568 0.9206 0.6082 0.6607 0.4012 0.2673 0.178 0.1159 0.072 0.1327833 0.0419 0.0227 0.0113 0.0052 0.0022 0.001 0.008275 0.0004 0.0001 0.001825 0.0009666667 0.0005 0.0002 0.0001 0.0001 0.0001888889 0.0002 
0.0001 0.0001125 0.0001361111 0.0001739583 0.0001 0.0001 0.0001166667 0.0001 0.00015 0.0003 0.0008666667 0.002333333 0.0037 0.00465 0.0047 0.05679445 0.07358619 0.00015 0.0001 0.0005 0.002 0.61135 0.0069 0.0223 0.0654 0.1734 0.4135 0.7300166 0.8851 1.6964 2.887 4.3618 5.8905 7.1811 8.588433 8.0216 10.4909 11.1255 11.4473 11.5135 11.17997 11.3666 11.035 10.5476 9.9638 9.3845 6.7097 8.12505 5.9871 5.6634 6.268986 4.5127 5.2404 6.538116 6.2781 7.4405 9.0987 11.5663 12.6848 29.7175 55.0101 33.3945 9.9809 6.404 6.4408 6.4809 6.550467 6.5545 6.6879 6.8906 7.1529 7.4569 7.7199 7.496433 7.8546 7.8705 7.848 7.8009 7.735 7.439917 7.6114 7.3329 7.1552 8.8335 7.67488 6.90656 8.8796 7.8166 5.6629 6.5305 2.2718 1.9997 1.593833 1.1317 2.1665 2.9216 3.3956 3.7341 3.816817 3.7909 3.9734 4.2424 4.5894 5.1375 5.9416 7.205317 8.3358 16.7263 55.2032 11.1435 7.0887 5.4173 4.805617 4.6293 4.2305 11.2056 4.2809 6.24556 4.412275 4.7479 3.8293 3.0301 2.3646 1.8373 1.751583 1.4347 1.1294 0.8918 0.6986 0.5361 0.3983 0.4420333 0.2836 0.192 0.1227 0.0736 0.0412 0.0543 0.0214 0.0103 0.0046 0.0019 0.0007 0.0003 0.000575 0.0001 0.0002666667 0.0002 0.0001555556 
0.0001229167 0.0001 0.000125 0.0001833333 0.0002875 0.0001 0.0001 0.0001666667 0.0001 0.0002 0.0006 0.0018 0.0046 0.0047 0.04053333 0.12155 0.1737333 0.2191 1.392633 0.6665 2.900467 1.3541 2.2918 2.3253 0.7478 0.2308 0.3581 2.504933 0.7559 1.4299 2.4295 3.7104 5.127 6.696434 6.4903 7.6678 8.6455 8.992 8.9697 8.643 8.930783 8.077 7.327 6.4364 5.4326 4.3526 5.870567 5.4297 5.4009 5.3154 5.1263 5.642133 6.2662 5.96144 6.5089 6.5039 7.7793 10.9739 49.5008 29.83413 29.1937 8.5725 5.6428 5.7754 5.8311 5.8299 5.7423 5.815 5.8381 5.9318 6.0847 6.2417 6.095833 6.3928 6.5373 6.6611 6.7648 6.8788 7.0669 6.7137 7.331 7.0598 8.1378 7.2934 8.774 6.1329 3.4057 3.4093 3.6949 1.7268 2.271 1.8219 1.653133 1.4274 2.2034 2.7997 3.2859 3.6301 3.6662 3.6664 3.9122 4.1939 4.518 4.9685 5.6295 7.3411 7.4691 29.8619 10.055 9.505 8.0735 7.91705 6.9044 6.0683 5.485 8.3214 6.8623 5.7644 5.943125 5.010475 5.2799 4.4412 3.711 3.1024 2.870167 2.6063 2.201 1.861 1.5641 1.2947 1.0444 1.139483 0.812 0.6019 0.4208 0.275 0.1667 0.1254667 0.0933 0.048 0.0227 0.0099 0.0039 0.0014 0.0008 0.0005 0.0002 0.0001666667 0.0001 
0.000125 0.00014375 0.0001 0.00015 0.0003 0.0006 0.0001 0.00116 0.0003 0.001 0.003 0.0078 0.0188 0.034 0.0762 0.0829 0.1602 0.2781 0.438 6.9726 8.18482 8.4071 8.5706 8.6274 9.5106 9.0148 7.0538 10.0285 5.5632 5.4219 5.848 6.4431 7.2722 10.51782 8.2175 6.8819 7.4638 7.6665 7.5627 7.2289 7.80715 6.7557 6.2326 5.7385 5.3369 5.067 4.247983 4.2799 5.1588 5.697 6.1585 6.5487 5.591725 5.70066 5.5136 5.6499 5.863 42.3701 24.953 20.03408 7.6624 4.7429 4.9771 5.0791 5.0831 4.9843 4.788133 4.7892 4.5546 4.3696 4.2939 4.3321 4.469567 4.4316 4.5326 4.6076 4.6323 4.6188 4.7514 6.0231 5.7865 7.2686 3.5116 3.504 3.4723 3.96478 2.60125 1.5849 3.0025 2.279 1.9207 1.847067 1.6943 1.8438 2.33 2.8346 3.3601 3.5409 3.598883 3.6348 3.8891 4.1707 4.4751 4.856 5.3957 12.30463 11.2749 64.0346 19.4335 13.2506 10.8177 9.472317 9.2007 8.0427 7.3332 8.1472 7.8127 7.0754 6.87968 6.1848 6.048314 5.7567 5.0329 4.3947 4.0754 3.8456 3.3747 2.9636 2.5917 2.2402 2.084 1.8951 2.4035 0.9775 0.7109 0.468 0.279 0.27085 0.1512 0.0748 0.034 0.0142 0.0054 0.0019 0.001866667 0.0006 0.0002 0.0001 0.00015 
0.0001 0.00015 0.000225 0.0001 0.0002 0.0006 0.0015 0.0048 0.0038 0.009 0.0204 0.044 0.0369 0.087 0.54395 0.1724 0.3817 1.0478 3.2266 9.91228 15.0795 23.5238 22.955 17.1542 17.5952 20.1571 16.61995 22.6778 23.7622 23.4462 22.7519 21.5911 19.5866 15.94522 16.4133 15.8452 13.5718 11.7082 10.1045 10.12133 8.8093 7.329 5.7944 5.06 4.5946 3.1045 3.9267 3.2542 2.8709 3.2416 3.6473 4.4486 5.1034 5.095075 5.1112 7.4634 12.8869 15.5684 5.0312 8.098083 3.8634 3.8268 3.7806 3.7635 3.7681 3.8636 3.7307 3.5797 3.3057 2.9935 2.748 2.6744 2.76475 2.7448 2.826 2.8808 2.8394 2.5272 3.004583 1.5839 9.6189 2.2513 2.2518 2.2307 2.1668 2.01252 2.0051 2.1255 2.703 2.2019 1.4813 1.736567 1.8932 2.1256 2.5061 2.9919 3.4641 3.4825 3.574733 3.6386 3.8913 4.1672 4.4548 4.7866 6.125817 5.5118 38.5468 15.6955 15.9628 12.9404 11.4958 10.62505 10.3418 9.5822 8.775 8.7831 8.5611 8.198116 8.0425 7.3313 6.5408 6.8035 6.1423 5.5283 5.183133 4.9751 4.4817 4.0372 3.624 3.221 3.00195 2.8086 2.6251 2.0141 1.4556 0.9747 0.5987 0.4859333 0.3362 0.1727 0.0813 0.0352 0.014 0.01098333 0.0051 0.0017 0.0005 0.0002 0.0002 
0.0001 0.0001 0.0002 0.0005 0.0014 0.0033 0.0075 0.009633333 0.0156 0.0308 0.0595 0.082 0.2605 0.4306167 0.7392 2.1482 5.4402 10.9914 17.5097 21.4145 21.28322 21.30333 17.5997 18.8501 18.0821 19.2602 17.62575 21.556 23.2872 23.4413 22.8797 22.1869 21.8543 16.86368 22.3274 21.9298 20.4912 18.1773 15.2016 11.09687 11.821 9.1656 6.8536 4.5423 3.3415 3.9503 4.040884 3.9043 3.8536 3.9206 4.2783 4.4722 5.085166 4.6521 6.13785 7.0539 6.1058 4.5762 3.592 3.723167 3.4865 3.3438 3.1688 2.9999 2.8685 3.007233 2.7469 2.58 2.318 1.9952 1.521 1.1557 2.2879 1.2499 1.3915 1.5855 1.859 2.2721 1.9757 2.2741 1.3389 0.8984 0.9061 0.9429 1.0633 1.7404 1.3551 2.1024 2.451443 2.1162 1.3516 1.814467 2.0783 2.3657 2.7271 3.1711 3.5285 3.4835 3.588117 3.6681 3.9133 4.1799 4.4528 4.7498 9.960617 11.455 9.2226 13.007 13.4858 11.9698 11.1634 10.81218 10.7309 10.078 9.4744 9.2532 9.0369 8.741867 8.6601 8.1212 7.4803 7.081657 6.9811 6.43916 6.4347 5.9204 5.4446 5.0023 4.5785 4.1512 3.896733 3.6956 3.2739 2.7124 2.0929 1.49 0.9719 0.7669833 0.5786 0.3137 0.155 0.0698 0.0287 0.01975 0.0108 0.0037 0.0012 0.0004 0.0001 
0.0001 0.0001 0.0003 0.0009 0.0021 0.0048 0.01 0.01411667 0.0194 0.0359 0.0529 0.1534 0.3884 0.5309 1.0717 2.7925 6.1125 10.6228 14.6804 19.0598 18.55902 21.1348 18.31496 17.531 14.2113 11.976 13.16417 10.1274 8.8016 8.6098 8.8305 9.4406 13.5095 10.1749 10.8256 11.3235 11.4195 11.2139 10.7139 11.65847 9.9309 8.5662 7.0727 6.63 5.1338 4.9916 4.87305 5.0404 5.1381 5.3045 5.5347 5.77 5.236483 6.0647 6.4818 7.455067 3.9501 3.285 3.350833 3.2176 3.1483 3.041 2.8749 2.6893 2.5423 2.417317 2.3869 2.183 1.8052 1.9669 2.4208 2.600567 2.8666 3.036 3.2436 3.4791 2.8172 1.8112 2.13145 1.3857 1.532 1.7798 1.7214 1.7433 1.654533 1.8355 2.0166 2.3125 2.6224 3.1017 1.7504 2.066683 2.332 2.6328 2.9637 3.3676 3.5541 3.548733 3.5379 3.7181 3.9517 4.2068 4.4662 4.7379 12.83918 28.5226 5.8575 10.4006 11.5296 10.9082 10.83035 10.7632 10.378 9.9977 9.6078 9.3857 9.2055 8.993834 8.9451 8.5645 8.0826 7.541 7.52045 7.021375 7.1094 6.6661 6.2401 5.8296 5.4215 4.992 4.719234 4.512 3.9828 3.3559 2.6556 1.9479 1.607817 1.3115 0.805 0.4487 0.2269 0.1041 0.0434 0.03021667 0.0165 0.0057 0.0018 0.0005 0.0001 
0.000125 0.0001 0.0004 0.001 0.0024 0.0054 0.00895 0.0111 0.0211 0.0283 0.0623 0.1105 0.2189 0.4616667 0.5067 1.241 2.8705 5.8456 9.8301 12.34153 13.4736 17.7124 18.7957 16.581 13.3005 9.5118 8.222517 6.5536 6.4618 7.0496 7.6738 8.3348 8.187333 9.0655 9.8737 10.4907 10.885 11.0969 11.1472 10.34228 11.1362 11.2972 13.4533 7.8693 7.1534 6.482067 5.7938 5.5579 5.5733 5.5799 5.5422 5.3992 6.260716 5.0607 14.9403 6.1985 3.789267 2.7572 2.77754 2.677 2.6236 2.5703 2.411 2.1241 2.0006 2.712083 1.9587 2.3976 3.089 3.4385 3.7096 3.6462 3.9297 4.0303 4.0887 3.3369 3.0789 2.7677 2.335683 2.2779 2.8643 2.1931 2.1685 2.1705 2.112933 2.1717 2.1237 1.9893 2.8247 2.5564 2.2489 2.2267 2.6389 2.9109 3.2099 3.5675 3.574 3.597367 3.6144 3.7854 4.0056 4.2476 4.4939 17.9557 12.57808 9.6141 7.4611 9.8124 10.5821 10.2363 9.921467 9.9412 9.7713 9.6018 9.4 9.2557 9.1379 9.006433 8.9775 8.7327 8.3998 7.9994 7.5603 7.543025 7.14545 7.2265 6.8723 6.5159 6.1433 5.7281 5.4469 5.2365 4.6475 3.9434 3.1497 2.3356 1.935833 1.59 0.9857 0.5537 0.2813 0.1293 0.0795 0.0374 0.0024 0.0015 0.0007 0.0002 0.0001 
0.0001 0.0002 0.0006 0.0016 0.0036 0.0076 0.009166666 0.0148 0.024 0.0501 0.0825 0.1354 0.1943 0.4318 0.39 0.8739 1.8505 3.873 7.0217 11.03433 9.9836 13.1715 14.8577 14.37856 9.2513 8.59738 5.4135 5.7528 5.3759 5.6449 5.9078 6.0442 6.826383 6.064 7.2008 8.4845 9.2323 9.7488 9.8381 10.41732 9.2874 21.6014 9.6808 8.9502 8.3856 7.487617 7.4342 6.7773 6.3725 6.5519 6.8381 7.3453 5.8234 7.9244 8.8977 3.4955 3.0493 2.5546 2.26956 1.9509 1.777 2.092 2.5468 3.2312 2.748433 3.9705 3.4135 3.788 4.146 4.3512 4.465 4.1599 4.4855 4.402 3.9928 3.8045 3.5588 3.1712 2.913483 2.6004 3.6774 2.4592 2.4252 2.3981 2.364267 2.3585 2.2901 2.4075 2.047 3.2997 2.6878 2.2831 2.1633 2.878 3.3276 3.661 3.6067 3.6502 3.6971 3.8636 4.0719 4.3011 8.3961 8.83535 5.9845 8.6537 7.9973 15.3573 7.04 8.6755 9.101566 9.0044 9.0857 9.0848 9.0286 8.9741 8.930333 8.9247 8.8479 8.7128 8.5075 8.2385 7.9226 7.81412 7.5798 7.469572 7.3603 7.0713 6.7466 6.514567 6.3551 5.8577 5.2239 4.4448 3.5553 2.637 2.182717 1.793 1.1081 0.6193 0.3123 0.1422 0.08123333 0.0623 0.0203 0.0062 0.0018 0.0005 0.0001 
0.0001 0.0002 0.0006 0.0014 0.003 0.0062 0.01043333 0.0099 0.02 0.0325 0.0513 0.0923 0.6021166 0.2917 0.9892 3.3727 9.5928 13.7544 13.7191 18.80325 12.1779 9.5121 14.3024 13.5613 11.56565 7.236825 5.5098 4.4002 3.7283 4.0863 4.5692 5.2729 6.718433 6.1769 6.078 6.0753 6.9403 8.3915 9.351167 10.1309 10.9641 10.1791 9.7625 8.7107 8.4058 8.195333 7.7529 6.6551 5.0112 3.0063 15.873 8.003016 5.2659 3.9449 1.7999 2.006 2.2874 2.1245 1.87285 1.8382 2.248 2.3799 2.5309 2.6306 3.101883 2.5336 3.5661 3.8205 4.0388 4.1779 4.2614 4.982267 4.1082 3.8793 3.6305 3.6618 3.6651 3.511233 3.502 3.1617 3.1038 2.6516 2.6054 2.5636 2.4924 2.5232 2.5117 2.8937 2.8325 3.1213 2.75466 2.0813 2.293067 2.7376 3.3494 3.638 3.6412 3.695417 3.7678 3.9398 4.143 4.3632 12.2514 7.297767 3.9305 7.1503 13.3452 9.8231 7.9982 8.2909 8.505183 8.4611 8.5574 8.6135 8.6334 8.6422 8.64825 8.6474 8.6344 8.5828 8.4795 8.323 8.1213 7.965734 7.8866 7.6309 7.7306 7.5135 7.2405 7.02315 6.8738 6.3683 5.6891 4.8329 3.848 2.8333 2.3339 1.9074 1.1643 1.0388 0.0613 0.048 0.05545 0.0261 0.011 0.004 0.0013 0.0004 0.0001 
0.0001 0.0003 0.0008 0.0018 0.004 0.0074 0.0113 0.0167 0.0349 0.0831 0.236 0.7298 1.542767 2.1692 5.5901 11.9573 19.1034 28.7936 35.4321 26.5234 34.4851 27.1577 21.0368 14.6773 8.7727 13.38685 9.567575 10.7988 7.5414 7.5274 7.8742 8.2206 8.229683 8.532 8.7574 9.0292 9.3391 9.5353 8.859683 8.4624 9.0487 9.9715 10.7523 10.2459 9.4225 9.080717 7.771 5.2792 3.2462 24.6462 8.4571 8.017917 4.2387 3.0265 2.081 1.7802 1.4224 1.5778 2.00956 2.22508 2.5319 2.6617 2.8212 3.0046 3.20355 3.2408 3.6774 3.7403 3.6319 3.169 8.5382 4.80165 4.0353 4.2621 3.8911 3.902 3.8891 3.496583 3.2812 2.4729 1.4952 6.9859 2.7139 2.6119 2.650383 2.4991 2.4707 4.0226 3.1943 3.0715 2.681817 2.1995 1.6987 2.615129 3.3162 3.5469 3.579683 3.6464 3.8133 4.0021 4.2092 8.0956 7.643 7.889983 5.5811 11.6094 8.7329 9.6355 8.5518 8.3397 8.349767 8.2595 8.2469 8.2691 8.2988 8.3325 8.36785 8.3686 8.3975 8.4046 8.378 8.3124 8.2093 8.11885 8.0748 7.9148 7.825643 7.863 7.6365 7.429033 7.2864 6.7615 6.0259 5.0856 4.0068 3.411317 2.9085 1.9242 1.9111 0.2167 0.0916 0.0383 0.02916667 0.0158 0.0061 0.0021 0.0007 0.0002 0.0001 
0.0001 0.0003 0.0007 0.0015 0.0031 0.004766667 0.008 0.0196 0.0553 0.1762 0.5676 1.6768 1.799817 4.2968 9.0773 12.8754 16.6623 23.9843 25.62748 29.2516 34.0746 36.8599 32.0656 25.9564 21.7034 22.95574 17.5615 20.18382 17.7394 13.4822 14.0408 13.02608 10.4375 10.7382 9.8915 9.8848 9.7903 7.871 10.37537 8.767 9.3097 10.8634 10.896 11.3512 10.91787 11.0338 10.0983 7.9318 29.5974 15.3268 8.4237 7.546467 5.8491 4.9544 2.2027 2.0143 2.0145 2.045017 2.1625 2.3448 2.764017 3.2712 3.5366 3.7649 3.740367 4.0468 4.2268 4.2092 4.0728 3.8045 4.00175 3.0085 4.8583 5.1522 10.4165 4.2776 3.7745 3.355817 2.8676 1.5788 2.4572 11.0785 3.2577 3.0614 2.9564 2.7481 3.0111 3.7777 3.3246 3.388 3.083983 2.2293 1.4377 2.5893 3.177 3.3984 3.486783 3.6072 3.8238 4.04 7.3699 5.1893 7.1302 8.0802 10.8037 7.8127 8.6306 9.4037 8.8373 8.64135 8.4938 8.2536 8.1183 8.0654 8.0615 8.0867 8.131817 8.1297 8.1794 8.2237 8.2514 8.2557 8.239467 8.2341 8.187 8.1147 8.012 7.971033 7.9443 7.64932 7.5927 7.0278 6.218 5.1844 4.0165 3.713267 2.8548 3.1268 0.4388 0.2113 0.0888 0.0344 0.02325 0.0124 0.0042 0.0013 0.0004 0.0001 0.000125 
0.0001666667 0.0001 0.0003 0.0008 0.0019 0.003116667 0.0042 0.0099 0.0259 0.0735 0.2147 0.5813 1.373933 1.345 2.5187 5.892 11.1149 14.7244 18.20078 21.5789 30.0155 37.6259 40.3551 38.7463 35.6637 30.68828 31.0774 25.135 31.4332 26.5451 19.0259 21.22333 18.5575 16.9867 15.8354 14.5326 11.3221 13.2059 13.51677 14.4106 15.8538 17.7137 13.4612 12.2054 13.94588 11.2484 10.7947 42.2773 19.4095 13.8325 10.8334 8.436033 7.4768 4.9541 4.1596 2.4606 2.4938 2.535817 2.5991 2.7595 3.015 5.876585 10.1541 4.1965 4.034867 4.1886 4.0142 3.5903 2.7314 1.0436 2.949167 4.4467 5.257 5.8659 16.209 3.9815 3.5028 3.538133 2.8197 2.5639 7.5176 8.5003 3.444 3.372217 3.3845 3.1511 2.985 2.7999 3.4596 5.0125 3.843217 2.6031 1.597 2.3286 2.809386 3.206 3.42012 3.5158 3.7922 4.0457 10.5752 3.5059 10.0339 8.301084 7.2893 8.0342 8.6543 9.2568 8.9809 8.795167 8.6446 8.3347 8.11 7.9802 7.9245 7.9208 7.961117 7.9526 8.0065 8.0708 8.1349 8.1911 8.216666 8.2342 8.2603 8.2636 8.2315 8.1389 8.151275 7.87285 7.7867 7.154 6.2487 5.1151 3.8705 3.814 4.6225 0.7854 0.4066 0.1853 0.0764 0.0287 0.01911667 0.0099 0.0031 0.0009 0.0003 0.0001 0.0001 
0.0001 0.0001666667 0.0001 0.0002 0.0005 0.001383333 0.001 0.0019 0.0035 0.0082 0.023 0.1527333 0.0766 0.2671 0.8916 2.6534 4.1279 6.9061 10.61362 12.7594 20.206 27.9125 34.631 39.2734 40.0023 35.17668 38.1214 35.1995 31.58246 33.4915 33.7191 28.2667 31.5592 26.6788 24.243 19.8419 20.3467 19.18352 18.5072 18.3389 18.6421 16.5932 19.6762 19.3992 22.81462 18.4373 51.582 27.4373 17.5744 12.8502 10.93125 10.2468 7.7864 4.5857 3.4733 2.8448 2.9514 2.743267 2.9936 2.8344 2.2798 1.585 17.2944 8.60682 4.1976 3.8148 3.2825 2.4397 1.1268 0.4497 3.200433 4.942 5.6563 6.4923 21.9393 4.1017 4.1003 4.0051 4.2591 5.0478 7.3791 7.1547 3.6506 3.55965 3.5401 3.5434 3.4114 2.4302 3.6964 4.315033 4.85 4.9764 1.8937 1.9993 2.9671 2.914725 3.261825 3.3732 3.717 6.828 6.8521 8.4191 7.063066 7.116 7.4334 8.1262 8.69 9.1681 9.0507 8.8941 8.7637 8.441 8.1675 7.9788 7.8725 7.874067 7.8329 7.844 7.8916 7.9642 8.0517 8.1458 8.202467 8.2391 8.3239 8.388 8.4101 8.3542 8.29504 8.1677 7.614743 7.1226 6.1027 4.8714 6.1646 3.1584 1.3551 0.7067 0.3425 0.1511 0.0604 0.04118333 0.022 0.0073 0.0022 0.0006 0.0002 0.000175 0.0001 
0.0001222222 0.0001 0.0001666667 0.0002 0.0002 0.0004333333 0.0005 0.001 0.002 0.0037 0.0068 0.0223 0.014 0.0358 0.1058 0.3185 0.9047 2.3398 4.859483 5.3731 10.3656 16.6426 23.011 28.2016 29.6339 31.922 34.2733 35.1196 34.1533 32.13625 32.7567 32.81104 33.9818 32.8358 30.3954 30.7368 27.3073 24.4581 24.4119 22.888 22.7409 23.5338 25.6582 26.8904 35.41188 48.707 28.5045 16.0798 11.9758 10.3645 10.31133 7.4601 6.8695 5.5764 4.2801 3.5725 3.0499 2.5254 2.3718 1.3524 0.5914 2.3325 8.9118 12.11147 7.1915 2.7767 2.1168 1.6202 6.0743 4.0393 4.66065 4.2813 5.1279 16.4994 14.9832 4.4058 4.385733 4.6049 5.1937 5.8457 8.0087 5.8499 3.6559 3.698183 3.6828 3.502 3.7295 2.835 3.5303 4.416517 5.3414 7.9618 2.6258 2.0907 2.5335 2.9523 3.111375 4.068425 5.9536 6.0947 8.3646 5.9239 7.100067 7.3796 7.6872 8.2444 8.7313 9.1127 9.0784 8.951417 8.8463 8.5409 8.2514 8.0276 7.8828 7.861767 7.8109 7.7999 7.8372 7.912 8.0147 8.1365 8.2152 8.2681 8.3974 8.5049 8.5594 8.5129 8.378983 8.3015 7.8553 6.9154 5.772 7.8907 1.8414 2.1483 1.0963 0.5708 0.2688 0.1144 0.0441 0.03031667 0.0155 0.005 0.0015 0.0004 0.0001 0.0001333333 0.0001270833 
0.0001 0.0001555556 0.0002 0.0002 0.0001666667 0.0001 0.0003 0.0007 0.0014 0.0028 0.005 0.006883333 0.0084 0.0139 0.0253 0.0597 0.1693 0.4838 1.6069 1.2947 3.1434 6.4754 11.248 16.6875 18.36595 21.7166 25.4951 27.6554 28.6631 30.0338 28.0441 28.97804 32.0384 31.871 35.1382 34.9262 31.224 24.88065 24.9515 21.8959 22.8149 21.2029 26.9842 28.08788 71.6603 27.3771 12.527 9.0835 10.7383 13.5061 13.75117 7.4403 8.2588 7.2652 5.8062 4.3877 2.4565 2.925033 1.3292 0.5558 0.2133 3.5847 19.7624 19.65957 6.20495 5.3553 2.8768 3.8305 8.0304 6.837717 6.3622 7.8894 9.7572 12.6473 9.9805 4.5291 4.68065 4.6678 4.7624 7.5739 9.2236 5.1104 4.550317 3.7594 3.9003 3.901 4.0761 3.7779 4.1464 4.960233 4.9346 8.0342 4.6452 2.0644 2.9008 2.8901 3.12692 3.2299 5.919471 7.6932 6.24 6.1686 6.782583 7.5932 7.9601 8.3945 8.7808 9.0727 9.069167 9.0764 8.893 8.6192 8.3368 8.1002 7.933 7.894834 7.8385 7.8101 7.8384 7.9141 8.0281 8.114783 8.171 8.3307 8.4898 8.6204 8.6797 8.6074 8.433367 8.3302 7.7784 7.390214 9.3565 2.4932 2.851517 1.5635 0.8689 0.4353 0.1967 0.0804 0.0298 0.0207 0.0101 0.0031 0.0009 0.0002 0.0001 0.0001 0.0001111111 
0.0001518519 0.0002 0.0002 0.0001666667 0.0001 0.0001666667 0.0001 0.0002 0.0005 0.0011 0.0024 0.003716667 0.0047 0.008 0.012 0.0161 0.0216 0.1254333 0.0406 0.1094 0.3103 0.8185 1.9582 4.1644 8.4476 7.5036 11.5703 15.5088 18.8061 22.2196 19.1888 27.1663 18.947 11.5004 14.3796 17.7859 21.7293 19.62232 19.6599 12.7558 7.3402 10.0285 10.3727 20.31587 6.9615 3.3065 3.3949 3.4607 3.2092 31.9894 11.12782 11.7466 11.958 14.518 16.4086 14.1939 4.681467 6.8959 1.4469 0.2432 1.277 14.5813 42.1881 24.9282 9.4963 5.839583 5.5508 6.3616 8.1253 11.11493 8.3948 9.6137 10.4396 10.3552 7.6799 4.8636 5.7844 5.0127 5.166 11.2193 7.4088 4.9217 4.760967 4.0046 4.1796 4.3714 4.7028 4.8318 5.5082 5.611233 6.3005 7.0785 5.1624 3.1307 2.0528 2.8793 3.1633 3.399 7.0092 8.0567 4.9189 5.9935 6.84085 7.6367 8.1432 8.5118 8.8018 9.0269 9.028084 9.0479 8.9058 8.6698 8.4095 8.1778 8.0044 7.956316 7.8994 7.862 7.8864 7.9652 8.0896 8.181916 8.2488 8.427 8.5995 8.7285 8.7586 8.6183 8.37945 8.2299 7.5334 6.5205 5.695917 2.0957 1.65594 1.2246 0.6493 0.3105 0.1341 0.0524 0.0186 0.01313333 0.0061 0.0018 0.0005 0.0001 0.000125 0.0001 0.0001 
0.0002 0.0002 0.0001666667 0.0001 0.0001222222 0.0001 0.00015 0.0002 0.0001 0.0003 0.0008 0.0006 0.0012 0.0026 0.005 0.0091 0.0152 0.01681667 0.0221 0.0274 0.0302 0.0359 0.0639 0.1654 3.070375 0.4481 1.0935 2.3345 4.096 6.3254 13.46672 10.1989 10.00581 0.5123 1.307 3.4849 8.999416 7.9607 12.2085 8.5209 5.5545 5.4662 4.1632 4.328683 1.7533 0.7259 0.7078 1.0393 1.1788 1.2657 8.495183 0.8188 0.6698 0.4838 0.2878 0.1238 3.758617 0.031 0.0036 23.8571 27.9125 46.2131 44.6049 17.88967 8.5893 3.169 10.789 45.9098 17.8704 11.46812 17.9065 16.3312 14.4493 11.8538 8.4598 10.4267 7.0376 8.5956 11.3617 13.7298 9.2091 5.9173 4.644083 4.8524 4.5339 4.942 5.2466 5.5978 6.2359 6.39575 6.5418 6.7138 5.364 1.441 2.7368 2.989483 3.532 4.2497 11.498 7.916229 4.8449 5.69216 5.934 7.7191 8.2957 8.5836 8.7722 8.9545 8.965633 8.9901 8.8862 8.691 8.4622 8.2489 8.163383 8.083 7.9796 7.9428 7.9702 8.0561 8.1914 8.28565 8.3626 8.5482 8.7146 8.8119 8.7725 8.5174 8.192317 7.9735 7.1038 10.3999 3.3097 2.4326 1.29472 0.9027 0.4545 0.2066 0.085 0.0317 0.02285 0.0108 0.0034 0.001 0.0003 0.0001 0.0001 0.00010625 0.0001 
0.0002 0.0001666667 0.0001 0.0001074074 0.0001 0.000125 0.00013 0.0001 0.0001 0.0001 0.000325 0.0003 0.0006 0.0009 0.0012 0.0013 0.001 0.00776 0.0004 0.020025 0.0234 0.02608 0.05312 0.0577 0.1547 0.31184 0.6540667 1.273267 2.165717 2.656975 3.6502 1.4234 0.2924 0.4214 0.1453 0.5811 2.6011 2.4546 6.6445 6.3643 4.5748 3.0975 1.9489 1.69895 0.7725 0.8404 1.4306 2.338 2.9834 2.913067 3.2734 1.8772 1.4199 0.8476 0.6169 0.8318 1.659767 0.4753 3.7066 6.8982 14.9942 13.1082 20.27988 2.1735 0.2859 0.2619 0.1879 14.082 8.4232 12.36768 8.0885 6.6973 5.5719 3.9411 1.7031 11.81927 32.8162 9.7571 6.9349 5.7242 3.9198 3.6529 4.756117 4.5156 5.0917 5.3892 6.1877 6.6432 6.610433 6.7324 7.0557 6.6723 5.4398 2.2134 2.8308 3.97445 3.6212 10.9479 9.4911 9.5948 8.711675 6.21725 6.7695 7.9949 8.4555 8.5728 8.719 8.8651 8.882 8.9093 8.839 8.6847 8.4927 8.3069 8.229083 8.1593 8.0681 8.041 8.0785 8.1757 8.322 8.4142 8.4995 8.6785 8.8142 8.8441 8.6906 8.433917 8.2745 7.5403 10.9491 4.2458 2.7 1.625 1.08675 0.6256 0.2976 0.1282 0.0501 0.0178 0.01305 0.0058 0.0017 0.0005 0.0001 0.00015 0.0001 0.0001 0.0001015625 
0.0001555556 0.0001 0.0001024691 0.0001 0.0001125 0.000111 0.0001 0.0001 0.0001 0.0001 0.0002 0.00045 0.0006 0.0007 0.0001 0.0001 0.0001 0.0005 0.0004 0.0004 0.0001 0.0001 0.0003 0.000625 0.0012 0.0041 0.0123 0.0319 0.0714 0.1351 0.35958 0.1682 0.1617 0.1097 0.2529667 0.3014 0.93174 0.8239 2.7601 3.407 3.9101 2.1798 1.0673 0.8746333 0.4885 0.8626 1.9663 3.4771 4.5234 3.677883 4.2537 3.378 2.934 2.5021 2.4807 3.2744 5.545367 5.2223 14.8601 26.6512 24.5881 12.4789 6.7122 3.1007 4.7501 6.2516 8.5524 10.10902 11.95492 11.5224 10.3951 9.5244 9.1057 8.8338 9.3714 12.54642 11.5275 6.2338 6.6405 5.7894 4.5687 4.3596 4.8166 5.2389 5.8972 6.4908 7.179 7.3093 7.197767 7.144 7.4021 6.2739 5.6075 3.8821 10.3756 3.583917 0.7503 4.0423 11.4055 13.0864 7.3206 8.542725 8.88064 9.2895 8.8049 8.5241 8.6373 8.694167 8.7612 8.8118 8.7702 8.6548 8.5017 8.349 8.283566 8.2274 8.1567 8.1471 8.2006 8.312 8.4675 8.552517 8.6422 8.7962 8.8717 8.794 8.4816 8.307533 7.8669 10.7858 5.3647 3.4644 2.095 1.1937 0.9438 0.47652 0.1847 0.0748 0.0276 0.0093 0.006966667 0.0029 0.0008 0.0002 0.0001 0.0001 0.0001125 0.0001 0.0001 
0.0001 0.000100823 0.0001 0.00010625 0.0001047 0.0001 0.0001 0.0001 0.0001 0.0001333333 0.00025 0.0004166667 0.0004625 0.0001 0.0001 0.0001 0.0001 0.0001 0.00035 0.00025 0.0001 0.000175 0.0002 0.0004833333 0.0008 0.0027 0.0074 0.0167 0.0224 0.05163333 0.0233 0.0479 0.0889 0.1517 0.2286 0.2446 0.4867 0.4977 1.1472 4.1121 3.4546 2.0802 1.368717 0.6242 0.3464 0.8603 2.0456 3.1757 3.5346 3.872217 3.4988 4.8205 5.0562 5.782 7.3128 7.469833 9.9297 13.5387 22.5984 24.694 15.7515 4.1089 6.6342 5.303 5.5896 12.2075 15.6165 13.7921 13.65385 12.11308 12.8761 12.2556 11.8212 11.0906 10.316 10.3265 9.5443 7.7385 7.1893 6.0415 4.9552 4.929833 5.1868 5.9458 6.5329 7.4143 7.9467 7.6414 7.729033 7.7163 7.9043 6.6389 6.2675 12.9193 5.771383 1.4451 2.4805 5.4432 10.8244 13.9745 10.8957 10.53788 9.1851 11.1642 9.9932 8.6086 8.5393 8.614017 8.6431 8.701 8.685 8.6058 8.4914 8.3747 8.32465 8.2841 8.2399 8.2534 8.327 8.453 8.5291 8.6125 8.7714 8.8771 8.8584 8.6326 8.1233 7.939883 8.4083 7.2877 4.8749 2.9245 1.6379 1.272617 0.8586 0.4161 0.1826333 0.0415 0.0144 0.0046 0.0035 0.0014 0.0004 0.0001 0.0001333333 0.0001 0.0001 0.000103125 0.0001 
0.0001002744 0.0001 0.000103125 0.00010219 0.0001 0.0001 0.0001 0.0001 0.0001111111 0.0001611111 0.0002666667 0.0003072917 0.0001 0.0001 0.0001 0.0001 0.0001 0.0001 0.0001 0.0001 0.00013125 0.00015 0.0001 0.0003 0.0003 0.0011 0.0029 0.0065 0.0192 0.02691667 0.0384 0.0725 0.1138 0.1497 0.1837 0.2647 0.4051 0.5458 1.1069 3.1914 2.7643 1.868 0.9533833 0.3928 0.3653 1.1372 2.2582 3.1209 3.4979 3.8482 3.9249 4.8254 11.3842 8.3281 9.5452 11.65982 12.2762 17.3723 27.3635 16.1838 6.4651 7.5539 7.912734 7.2598 13.2492 17.5878 17.8685 15.6422 15.26864 13.6587 14.07142 14.5634 13.7792 12.6567 11.2716 10.79503 9.9282 8.6095 7.5702 6.2194 5.2243 5.310383 5.2844 6.3482 7.1696 8.0137 8.4313 8.0984 8.510616 8.4648 8.8284 7.9749 16.5455 2.1659 4.919233 3.8403 4.7076 7.0255 11.13 14.2383 12.9222 12.39783 12.3658 11.54036 11.5773 9.5296 8.5754 8.612534 8.5278 8.5812 8.5874 8.5414 8.4644 8.3847 8.351817 8.328 8.3141 8.354 8.4495 8.5876 8.657133 8.742 8.8675 8.8976 8.7498 8.3401 7.611 7.382017 7.1482 5.9267 4.0208 2.3625 1.2475 0.93805 0.603 0.2686 0.1101 0.04303333 0.0072 0.00588 0.0022 0.0006 0.0002 0.0002 0.0001 0.0001111111 0.0001 0.0001 0.0001007813 
0.0001 0.0001015625 0.000101063 0.0001 0.0001 0.0001 0.0001 0.0001037037 0.0001240741 0.0001796296 0.0002087674 0.0001 0.0001 0.0001 0.0001 0.0001 0.0001 0.0001 0.0001 0.00011125 0.000125 0.0001 0.0001 0.00015 0.0001 0.0005 0.0019 0.0061 0.0174 0.02678333 0.0408 0.0817 0.137 0.1946 0.2444 0.3122 0.37728 0.62922 0.7297 1.328 0.9481 0.4882 0.5905167 0.2669 0.4051 1.2649 2.3616 3.1097 4.2468 3.8162 4.8168 6.8487 12.8648 11.6546 13.4987 15.56682 17.3963 19.8932 25.7547 9.8571 10.4253 10.66283 10.6757 12.5751 16.8366 18.1386 18.1769 17.2615 18.49413 15.9887 15.086 17.94553 18.6391 15.7648 14.37922 12.9053 10.8048 9.213 7.8717 6.4495 5.6357 5.58335 5.5759 6.2966 7.4501 7.8788 8.8275 9.03985 9.1326 10.0102 11.3416 17.3851 5.8915 3.5373 4.588033 5.6075 6.367 8.4169 12.9741 15.5833 15.38415 14.981 14.0372 12.4597 11.53378 10.1098 8.9264 9.100333 8.4632 8.4589 8.48 8.4645 8.4234 8.397034 8.3804 8.359 8.3772 8.4447 8.5608 8.7054 8.76295 8.8423 8.9135 8.8395 8.5307 7.9133 7.413833 6.9851 6.0162 4.712 3.8554 2.3201 0.8935 0.6328833 0.3878 0.1628 0.0628 0.0222 0.0111 0.00286 0.001 0.0003 0.0001 0.00015 0.0001375 0.0001 0.0001037037 0.0001 0.0001 
0.0001007813 0.0001005251 0.0001 0.0001 0.0001 0.0001 0.0001012346 0.0001092593 0.0001358025 0.0001531178 0.0001 0.0001 0.0001 0.0001 0.0001 0.0001 0.0001 0.0001 0.00010475 0.0001125 0.0001 0.0001 0.00011 0.0001 0.0001 0.0003 0.0011 0.004 0.0125 0.0218 0.0324 0.0713 0.1318 0.2059 0.2776 0.3365333 0.3385 0.4252 0.9046667 1.2259 0.8093 0.3372 0.2645833 0.19 0.4097 1.402 3.165 5.0287 5.61705 6.9074 9.1235 11.5309 14.1203 16.5391 18.5549 17.86665 22.1296 22.0887 13.8926 13.5178 14.2108 14.01423 14.6462 16.3145 19.0769 21.5979 24.2928 24.8488 22.62305 23.5649 21.8662 20.7561 20.9287 18.4837 16.48522 15.1932 12.2142 10.0146 8.3074 6.7595 5.9158 5.911334 5.864 6.286 7.3359 7.8696 9.1735 10.3009 10.5758 13.8357 19.9928 6.977 8.282 5.4332 6.420817 6.944 7.9154 10.6851 15.0502 17.9154 17.27623 16.6647 14.7034 12.8923 12.634 11.52293 10.7617 9.95458 9.3475 8.5001 8.3829 8.3759 8.3676 8.376884 8.3617 8.3764 8.4275 8.522 8.655 8.7979 8.8369 8.9025 8.8973 8.6923 8.1996 7.3942 7.010867 6.2393 5.9919 5.1953 2.9895 0.9418 0.4475 0.3870667 0.218 0.0927 0.0345 0.0115 0.0035 0.00165 0.0004 0.0001 0.00015 0.0001 0.000125 0.000115625 0.0001 0.0001012346 0.0001 
0.0001003266 0.0001 0.0001 0.0001 0.0001 0.0001004115 0.0001034979 0.0001154321 0.0001245449 0.0001 0.0001 0.0001 0.0001 0.0001 0.0001 0.0001 0.0001 0.0001022 0.00010625 0.0001 0.0001 0.000102 0.0001 0.0001 0.0001666667 0.0001 0.0005 0.0021 0.0071 0.01428333 0.0206 0.0512 0.1086 0.2 0.3301 0.3139 0.5164 0.82 0.8992 0.4990714 0.1431 0.2564833 0.1942 0.111 0.2733 1.1598 3.3066 6.2479 7.241333 8.5924 9.7864 10.568 11.1471 11.6505 13.5562 13.0751 22.5453 14.7799 23.6008 16.0997 16.5672 17.34947 17.5602 19.5611 22.6598 25.6984 27.1976 27.6063 26.28513 26.4681 24.948 22.9399 21.16659 19.5813 17.41044 16.983 13.8583 11.2325 9.0747 7.2536 6.836867 6.2964 6.1802 6.4855 7.3129 8.0886 10.1861 13.34868 13.9099 22.3422 8.6343 9.3626 8.5374 8.6072 8.1665 8.8364 9.8857 12.3552 17.1725 19.7419 19.31305 18.7711 16.8507 15.0533 14.2827 12.423 12.94182 12.44316 12.2741 11.3978 10.0531 8.7019 8.383 9.063434 8.3452 8.3816 8.4633 8.583 8.7275 8.785784 8.8585 8.9148 8.8122 8.4555 7.8027 6.7692 7.017967 6.7641 6.0494 3.3068 0.9927 0.439 0.4172833 0.2504 0.1252 0.0522 0.0187 0.0059 0.0017 0.0014 0.000225 0.0001 0.0001 0.0001125 0.0001 0.0001125 0.0001070313 0.0001 0.0001004115 
0.0001 0.0001 0.0001 0.0001 0.0001001372 0.0001013032 0.0001064472 0.0001108687 0.0001 0.0001 0.0001 0.0001 0.0001 0.0001 0.0001 0.0001 0.000101065 0.000103125 0.0001 0.0001 0.0001004 0.0001 0.0001 0.0001222222 0.0001 0.000225 0.0002 0.0008 0.002416667 0.0031 0.01 0.0272 0.0625 0.1201 0.1896 0.2393667 0.2312 0.1655 0.317 0.0808 0.0182 0.08182 0.0369 0.0696 0.1705 0.771 2.6676 6.3046 7.55145 10.367 11.5232 10.5452 9.9235 10.2698 10.71198 11.2478 11.2421 36.6395 32.0309 18.8509 19.6843 20.48955 21.4281 23.447 25.3914 27.2202 28.4314 28.45715 28.4433 26.7794 25.1104 23.6903 21.7861 20.68877 18.21048 16.811 14.1776 11.9018 9.8544 7.9605 7.320483 6.8354 6.7019 6.9604 7.7982 9.3623 14.1194 14.74893 22.1274 9.102 10.6045 11.5712 10.678 10.80417 10.5461 10.9384 12.216 14.2118 18.9158 21.6985 22.55482 21.0867 21.7421 15.6806 16.6884 15.1345 15.37348 13.4481 16.3844 14.535 12.83 12.1501 11.2261 10.7879 9.697 8.6819 8.5581 8.6501 8.7868 9.575117 8.889 8.879 8.659 8.1885 7.3132 7.6182 7.0091 7.3228 3.9008 1.1803 0.4619 0.2707 0.2367167 0.1543 0.0736 0.0293 0.01 0.0037 0.0011 0.0007 0.0003 0.0001666667 0.0001 0.0001 0.000103125 0.0001 0.00010625 0.0001033203 0.0001 
0.0001 0.0001 0.0001 0.0001000457 0.0001004801 0.0001026292 0.0001046548 0.0001 0.0001 0.0001 0.0001 0.0001 0.0001 0.0001 0.0001 0.0001005255 0.0001015625 0.0001 0.0001 0.00010008 0.0001 0.0001 0.0001074074 0.0001 0.00014375 0.00015 0.0001 0.0003 0.00095 0.0011 0.0037 0.0108 0.0263 0.0519 0.0802 0.1090167 0.0887 0.0532 0.0016 0.0056 0.02252 0.019225 0.0167 0.0525 0.1097 0.3937 1.4682 2.949783 4.1188 9.678 11.547 10.8263 8.8836 9.7317 12.82273 8.297 31.8053 49.9301 33.6492 22.3471 23.387 23.32917 24.3105 25.714 27.203 28.6435 29.6172 29.37633 29.4471 27.7671 26.3852 24.0511 21.9211 19.4666 17.3766 15.13033 13.272 11.5457 9.9575 8.3435 7.768333 7.2335 7.19 7.7221 8.9355 11.5788 13.08042 18.8399 9.3109 10.6358 12.7129 13.5752 13.5098 14.24233 13.3872 13.9278 15.2478 18.1671 23.9416 27.2126 26.33735 26.8181 28.0534 19.3943 19.8363 18.3516 17.31065 17.5102 16.82474 18.2314 17.434 15.8378 15.06392 14.1587 12.9174 12.5328 12.2122 11.9305 11.4641 11.96928 10.7248 11.0307 8.3059 7.6514 8.4011 8.150967 8.5775 5.0028 1.5511 0.5084 0.2857 0.1768 0.1462833 0.1291 0.0665 0.0212 0.0077 0.0017 0.0003 0.00038 0.0001 0.0002 0.0001416667 0.0001 0.0001 0.0001007813 0.0001 0.000103125 0.0001016113 
0.0001 0.0001 0.0001000152 0.0001001753 0.0001010517 0.000101941 0.0001 0.0001 0.0001 0.0001 0.0001 0.0001 0.0001 0.0001 0.0001002613 0.0001007813 0.0001 0.0001 0.000100016 0.0001 0.0001 0.0001024691 0.0001 0.0001171875 0.000125 0.0001 0.0001666667 0.0001 0.00038 0.0003 0.0011 0.0033 0.0085 0.0176 0.03135 0.0285 0.0359 0.0158 0.0011 0.0029 0.0051 0.01175 0.0327 0.0431 0.0828 0.2118 0.7551 1.83205 2.3844 7.167 12.6828 15.2793 16.3235 13.0082 21.55267 24.3819 36.474 38.5476 22.6665 24.2141 24.74613 25.1418 26.0233 27.0056 28.2784 29.5529 30.2878 30.00853 30.0312 28.9908 26.4186 23.5193 20.8032 19.76868 17.9657 15.2631 13.2926 11.5617 10.1184 8.6023 8.30885 7.6348 8.0889 9.0399 11.249 16.6645 11.72332 7.9176 10.111 12.4776 15.1028 17.8991 18.6126 18.02705 18.7203 19.6675 21.0367 23.7269 28.1269 28.41317 30.141 31.0672 32.257 24.0488 22.4731 20.2818 19.6833 19.1377 18.5264 18.58142 18.8227 18.4743 17.76948 18.5365 17.4573 16.3541 15.3705 14.623 13.9575 16.90828 17.9935 11.2562 11.1088 10.5283 10.4615 7.46065 6.5343 2.1448 0.5972 0.2939 0.1903 0.1143 0.09238333 0.0325 0.0106 0.0086 0.0021 0.0004 0.00052 0.0001 0.0001 0.0001 0.00015 0.0001229167 0.0001 0.0001 0.0001001953 0.0001 0.0001015625 
0.0001 0.0001000051 0.0001000635 0.0001004141 0.000100792 0.0001 0.0001 0.0001 0.0001 0.0001 0.0001 0.0001 0.0001 0.0001001304 0.0001003906 0.0001 0.0001 0.0001000032 0.0001 0.0001 0.000100823 0.0001 0.0001074219 0.0001125 0.0001 0.0001222222 0.0001 0.0001 0.0001666667 0.0001 0.0002 0.0008 0.0021 0.0042 0.009633333 0.0057 0.0012 0.0042 0.0008 0.0024 0.0067 0.01036 0.0185 0.0437 0.0676 0.1608 0.5471 1.255883 1.7187 4.5872 10.0242 17.3567 17.5043 30.1116 35.39018 43.7856 41.5138 29.3279 24.233 25.7461 26.91815 27.6407 28.369 29.1683 29.9799 30.6199 30.8448 30.93977 29.8231 28.1782 26.8245 23.6394 20.6591 19.61315 17.7964 15.4838 13.92123 11.9021 10.4344 10.04772 9.553 8.486 9.1904 10.8817 15.2 6.6012 9.567767 8.7379 11.1855 13.7074 17.2217 20.5156 21.6777 21.12065 22.2547 23.1133 24.3504 26.3719 29.3071 29.59107 31.7498 33.8232 31.1939 28.2171 26.5615 22.4604 21.18505 20.3581 19.4262 19.0478 19.19862 19.7082 19.43106 19.9014 20.4019 21.058 21.1679 20.6794 23.3473 29.7942 17.5156 15.3056 14.0091 12.7743 7.986 5.1701 2.8035 0.7361 0.3099 0.2003 0.1302 0.0733 0.0524 0.0283 0.0067 0.0018 0.0004 0.0001 0.000175 0.0001 0.0001 0.0001 0.0001 0.000125 0.0001119792 0.0001 0.0001 0.0001000488 0.0001 
0.0001000025 0.0001000229 0.0001001609 0.0001003174 0.0001 0.0001 0.0001 0.0001 0.0001 0.0001 0.0001 0.0001 0.0001000651 0.0001001953 0.0001 0.0001 0.0001000006 0.0001 0.0001 0.0001002744 0.0001 0.000103418 0.00010625 0.0001 0.0001074074 0.0001 0.0001 0.0001166667 0.0001 0.00015 0.0003 0.0001 0.0004 0.0008 0.002 0.001 0.0005 0.001 0.0006 0.002 0.003633333 0.0059 0.0156 0.0346 0.1087714 0.1583 0.5414 1.139167 1.5886 4.02 9.0239 15.1965 28.481 33.88391 43.3433 57.7105 49.6698 28.5098 26.5183 28.5059 29.48523 30.2603 30.75 31.2591 31.7535 32.2128 31.85327 32.4609 32.1908 30.3194 27.9281 24.7332 21.6769 20.08305 18.7776 16.18 13.7653 12.30508 10.9998 10.53214 10.5784 9.5543 10.2965 12.9244 6.1345 7.5664 8.712317 9.919 11.946 13.9511 17.6699 20.043 20.80602 22.1721 23.2865 23.7969 24.6405 25.8777 27.9675 28.6124 30.2541 32.0376 30.5307 28.2861 26.4183 24.86313 23.6705 21.2018 19.8459 19.5781 19.5606 20.29675 20.53986 20.5349 21.576 23.351 24.7644 38.5994 24.20003 22.4303 19.6067 16.3675 12.2861 7.0017 2.548 2.4507 0.6873 0.2993 0.2075 0.1454 0.0895 0.07161666 0.0468 0.0192 0.0059 0.0012 0.0003 0.0001 0.0001 0.000115 0.0001 0.0001 0.0001 0.0001 0.0001125 0.0001061198 0.0001 0.0001 0.0001000122 
0.0001000127 0.0001000621 0.0001001253 0.0001 0.0001 0.0001 0.0001 0.0001 0.0001 0.0001 0.0001 0.0001000326 0.0001000977 0.0001 0.0001 0.0001000001 0.0001 0.0001 0.0001000914 0.0001 0.0001016357 0.000103125 0.0001 0.0001024691 0.0001 0.0001 0.0001041667 0.0001 0.000125 0.0001625 0.0001 0.0002 0.0001 0.0001 0.000525 0.0002 0.0001 0.0002 0.0004 0.0012 0.0025 0.0036 0.0082 0.0124 0.0787 0.249 0.6697 1.195683 1.7695 4.2271 8.7153 17.7892 33.0543 37.02255 50.809 61.9284 52.0904 41.5132 30.8603 32.2542 32.37017 32.5042 32.7203 32.701 32.7893 32.7899 32.78907 32.1913 31.6235 31.2605 28.7296 25.5676 22.2839 20.86815 19.3044 16.7168 14.3009 12.428 12.00333 11.06035 11.0951 10.0913 11.3675 5.4257 7.0151 8.703 9.563517 10.7464 12.5295 14.2013 17.3735 19.0844 20.53977 21.3433 22.7906 23.0187 22.8729 23.9868 25.171 26.11645 27.2249 28.5357 29.188 27.8113 25.9829 25.07508 24.0852 21.9609 20.4771 19.8828 20.8371 21.0811 21.59145 21.4737 24.1275 26.3376 36.4745 18.5004 18.25573 15.1965 11.2822 7.3027 3.7718 1.34 0.4261 0.7195833 0.2533 0.2053 0.1577 0.1057 0.0605 0.0472 0.0294 0.0119 0.0039 0.001 0.0002 0.000175 0.0001 0.0001 0.000103 0.0001 0.0001 0.0001 0.0001 0.00010625 0.0001030924 0.0001 0.0001 
0.0001000374 0.00010005 0.0001 0.0001 0.0001 0.0001 0.0001 0.0001 0.0001 0.0001 0.0001000163 0.0001000488 0.0001 0.0001 0.0001 0.0001 0.0001 0.0001000305 0.0001 0.0001007996 0.0001015625 0.0001 0.000100823 0.0001 0.0001 0.0001010417 0.0001 0.0001125 0.000121875 0.0001 0.0001333333 0.0001 0.0001 0.0001 0.00015 0.00015 0.00015 0.0001 0.0002 0.0006 0.00145 0.0017 0.0034 0.0042 0.037 0.2259333 0.485825 0.7685 1.8364 3.9827 8.5835 16.0763 26.5521 33.01865 39.8956 55.7128 56.8179 58.6172 35.1386 35.05952 35.4098 35.2866 34.836 34.3367 34.0601 33.8779 33.67642 33.2016 33.2558 31.8946 29.5396 26.3752 24.61767 23.1403 20.0258 17.3429 14.928 13.0174 11.5681 11.4394 9.5876 10.8451 5.0749 5.8754 7.3744 7.981517 9.321 11.1253 12.8804 14.542 17.7526 19.1339 20.24652 21.4619 22.3167 21.3717 20.5841 21.1054 21.31328 21.9293 24.1519 27.0408 28.1545 27.2769 25.9363 24.88993 24.3573 22.5615 21.2411 20.726 20.8647 21.50347 23.2761 23.84367 31.9938 10.8115 14.0286 9.4504 8.494833 5.3574 2.5947 1.0828 0.4352 0.2405 0.4258333 0.2103 0.1925 0.1618 0.1182 0.0738 0.0392 0.0302 0.0178 0.0069 0.0023 0.0006 0.0001 0.0001333333 0.0001270833 0.0001 0.0001 0.0001006 0.0001 0.0001 0.0001 0.0001 0.000103125 0.0001015544 0.0001 
0.0001000291 0.0001 0.0001 0.0001 0.0001 0.0001 0.0001 0.0001 0.0001 0.0001000081 0.0001000244 0.0001 0.0001 0.0001 0.0001 0.0001 0.0001000102 0.0001 0.0001003952 0.0001007813 0.0001 0.0001002744 0.0001 0.0001 0.0001002604 0.0001 0.00010625 0.0001085937 0.0001 0.0001111111 0.0001 0.0001 0.0001 0.0001166667 0.0001333333 0.0001375 0.0001 0.000125 0.0001 0.0004 0.0008833333 0.0012 0.0036 0.0134 0.0651 0.2561 0.42815 1.11135 1.3197 2.9922 6.3876 12.0022 19.1358 26.35233 28.6651 51.2966 88.7287 63.4392 38.0109 37.6997 38.6833 38.1942 36.9999 35.9396 35.3624 35.0863 34.23005 34.9115 33.8611 32.0912 29.6911 26.8049 25.01853 23.5341 20.3151 17.7128 15.2568 13.1068 12.0657 11.5818 11.0287 4.8778 5.0476 5.9385 6.9063 7.33695 8.5693 11.1963 13.4893 12.7604 15.2933 18.88 20.82035 21.5756 19.9504 17.8524 16.8568 16.8946 18.38372 18.7926 20.9256 24.8503 26.621 26.0964 24.9185 24.47763 24.0594 22.7033 21.6384 21.1124 21.0205 20.45905 21.9413 20.2496 16.66153 4.9369 3.9706 1.8256 2.929283 0.6387 0.2537 0.1797 0.1645 0.1686 0.17795 0.1695 0.1542 0.1223 0.0832 0.0484 0.024 0.01846667 0.0103 0.0038 0.0012 0.0003 0.0001 0.0001 0.0001111111 0.0001095486 0.0001 0.0001 0.00010012 0.0001 0.0001 0.0001 0.0001 0.0001015625 0.0001007792 
0.0001 0.0001 0.0001 0.0001 0.0001 0.0001 0.0001 0.0001 0.0001000041 0.0001000122 0.0001 0.0001 0.0001 0.0001 0.0001 0.0001000034 0.0001 0.0001001965 0.0001003906 0.0001 0.0001000914 0.0001 0.0001 0.0001000651 0.0001 0.000103125 0.0001037109 0.0001 0.0001037037 0.0001 0.0001 0.0001 0.0001055556 0.0001166667 0.000121875 0.0001 0.00010625 0.0001 0.0001 0.0003 0.0006666667 0.0011 0.0038 0.0132 0.0482 0.1672 0.3046 0.5208 1.599714 2.5457 5.3761 10.286 13.86478 17.4298 26.4356 49.8376 85.926 68.1979 39.2849 40.43247 39.6707 39.9068 38.5446 37.1038 36.1561 35.64463 34.6371 33.6659 33.6306 31.7108 29.3498 26.7039 25.19252 23.5528 20.2664 17.7192 15.1885 12.9477 11.7675 10.56852 11.479 6.540114 4.2808 5.0167 4.5472 5.885983 7.3035 10.5163 14.8159 6.1514 11.0295 15.09553 19.5701 24.3006 17.5693 12.5993 11.9467 14.4566 15.53453 17.1238 20.3967 23.0973 24.4378 24.9327 24.42418 24.367 23.2273 21.6423 20.3918 19.3946 18.2639 17.24378 17.3878 23.312 8.6654 3.083243 0.4036 1.095633 0.1789 0.1247 0.1158 0.1232 0.1345 0.1419 0.1397667 0.1369 0.1167 0.0861 0.0546 0.0297 0.02345 0.0139 0.0056 0.002 0.0006 0.0002 0.000175 0.0001 0.0001 0.0001037037 0.0001033131 0.0001 0.0001 0.000100024 0.0001 0.0001 0.0001 0.0001 0.0001007813 
0.0001 0.0001 0.0001 0.0001 0.0001 0.0001 0.0001 0.000100002 0.0001000061 0.0001 0.0001 0.0001 0.0001 0.0001 0.0001000011 0.0001 0.0001000979 0.0001001953 0.0001 0.0001000305 0.0001 0.0001 0.0001000163 0.0001 0.0001015625 0.000101709 0.0001 0.0001012346 0.0001 0.0001 0.0001 0.0001018519 0.0001074074 0.0001110243 0.0001 0.0001015625 0.0001 0.0001 0.0001 0.00018 0.0002 0.0008 0.0021 0.0041 0.0484 0.1376 0.2903167 0.4413 1.1604 2.2179 4.6394 8.8982 11.6701 15.4367 25.7064 41.1617 74.2064 72.1286 47.2157 41.94493 39.7293 40.6837 39.7599 38.1639 37.1472 36.26988 35.4787 35.0349 33.6553 31.7946 29.4693 26.8281 25.17202 23.7313 20.266 17.3622 14.5714 12.4451 11.20333 12.1796 4.8906 4.1763 3.978667 3.3844 2.5742 4.041683 5.4154 7.856 11.7765 1.9556 6.87 12.86347 18.9303 22.244 10.7378 7.6731 6.9163 11.0384 12.31172 14.9012 19.378 22.5656 23.6182 23.441 22.2558 22.7895 20.6628 18.2194 16.1894 14.0278 12.0793 11.30455 12.7699 4.6582 2.6013 0.9058 0.0991 0.17344 0.096 0.0982 0.1042 0.1122 0.1183 0.117 0.1112 0.1047 0.0826 0.0566 0.0335 0.0171 0.0136 0.0076 0.0029 0.001 0.0003 0.0001 0.00015 0.00013125 0.0001 0.0001 0.0001012346 0.0001011369 0.0001 0.0001 0.0001000048 0.0001 0.0001 0.0001 0.0001 
0.0001 0.0001 0.0001 0.0001 0.0001 0.0001 0.000100001 0.0001000031 0.0001 0.0001 0.0001 0.0001 0.0001 0.0001000004 0.0001 0.0001000489 0.0001000977 0.0001 0.0001000102 0.0001 0.0001 0.0001000041 0.0001 0.0001007813 0.0001008179 0.0001 0.0001004115 0.0001 0.0001 0.0001 0.0001006173 0.0001030864 0.0001050709 0.0001 0.0001003906 0.0001 0.0001 0.0001 0.0001 0.00015 0.0002 0.0006 0.0021 0.0075 0.0338 0.1113 0.2165 0.3637 0.9955 2.010343 3.119 6.3774 8.485717 11.5925 18.666 30.1754 56.1644 65.1907 53.76778 49.4638 36.3052 38.5788 39.1283 37.4119 37.3637 35.49812 36.8365 35.3825 33.5076 31.3125 28.9 26.584 24.513 23.632 20.4213 16.7083 13.9466 12.7115 8.734317 5.1686 3.6423 3.2879 3.7259 3.23478 2.22194 1.3726 3.0372 4.9207 3.5699 1.4308 3.1675 9.718817 17.6134 11.2273 6.5034 6.356 3.2502 5.913434 6.2846 10.0657 15.7115 19.3947 20.2959 19.8977 17.9693 18.1069 15.1007 11.9742 9.3884 6.9126 5.5274 5.479784 1.799 0.8194 0.2964 0.1213 0.25708 0.0916 0.0896 0.0955 0.0996 0.1019 0.1001 0.09556667 0.0914 0.0753 0.055 0.0351 0.0194 0.0094 0.007466667 0.0039 0.0014 0.0005 0.0001 0.00015 0.0001 0.000125 0.0001140625 0.0001 0.0001 0.0001004115 0.0001003871 0.0001 0.0001 0.000100001 0.0001 0.0001 0.0001 
0.0001 0.0001 0.0001 0.0001 0.0001 0.0001000005 0.0001000015 0.0001 0.0001 0.0001 0.0001 0.0001 0.0001000001 0.0001 0.0001000244 0.0001000488 0.0001 0.0001000034 0.0001 0.0001 0.000100001 0.0001 0.0001003906 0.0001003998 0.0001 0.0001001372 0.0001 0.0001 0.0001 0.0001002058 0.0001012346 0.0001021936 0.0001 0.0001000977 0.0001 0.0001 0.0001 0.0001 0.0001166667 0.0001333333 0.0001 0.0004 0.001 0.0021 0.0099 0.0428 0.0681 0.177 0.5444 1.3958 2.537433 2.7711 5.61462 5.8384 10.4074 16.1081 37.6709 48.0629 44.58598 40.545 27.6576 30.6185 38.1876 33.4594 33.2687 33.5068 32.8939 32.9004 31.3281 29.0643 26.7716 25.78195 24.5069 21.7957 18.8567 16.1084 15.7889 5.4858 5.9348 4.4153 2.643 3.42 3.8947 2.5947 1.762675 1.1838 1.1884 1.2297 0.7466 0.2404 0.9264 6.091717 10.8053 3.5777 2.4189 3.3037 3.1132 3.316117 4.8779 2.1987 7.6833 12.3763 13.6974 12.9379 11.93123 10.6428 7.7544 5.1922 3.3198 2.4967 2.616717 0.4874 0.2157 0.1225 0.0904 0.0775 0.0817 0.08505 0.091 0.0912 0.091 0.0874 0.0796 0.0739 0.067 0.051 0.0345 0.0206 0.0107 0.0049 0.0039 0.0019 0.0007 0.0002 0.0001 0.0001 0.0001125 0.0001 0.0001125 0.0001066406 0.0001 0.0001 0.0001001372 0.0001001311 0.0001 0.0001 0.0001000002 0.0001 0.0001 
0.0001 0.0001 0.0001 0.0001 0.0001000003 0.0001000008 0.0001 0.0001 0.0001 0.0001 0.0001 0.0001 0.0001 0.0001000122 0.0001000244 0.0001 0.0001000011 0.0001 0.0001 0.0001000003 0.0001 0.0001001953 0.0001001976 0.0001 0.0001000457 0.0001 0.0001 0.0001 0.0001000686 0.0001004801 0.0001009085 0.0001 0.0001000244 0.0001 0.0001 0.0001 0.0001 0.0001055556 0.0001111111 0.0001 0.0001 0.0002 0.0004 0.0006 0.0039 0.02141667 0.0298 0.049 0.1281 0.4021 1.1592 1.156775 2.6594 1.4937 3.3966 6.5398 23.2662 33.9914 33.53013 30.2621 20.8437 22.7244 35.8497 30.435 29.9914 29.50917 30.6866 30.1335 28.8896 27.0209 25.019 23.18603 22.9102 20.4658 17.9058 16.151 5.2095 4.4869 3.903017 3.3407 2.4107 3.6951 3.5213 1.8996 1.66258 1.0057 0.5838 0.2108 0.1084 0.0539 0.3328667 0.406 3.6317 0.6005 0.4358 0.8046 0.9536 1.790617 1.4172 0.3834 2.0349 4.6387 5.7946 6.3933 5.909383 3.6088 2.3421 1.3931 0.7934 0.1656 0.5721 0.1106 0.0882 0.0798 0.0771 0.0763 0.0812 0.07554 0.0877 0.08331667 0.0769 0.0697 0.0591 0.05376667 0.0462 0.0326 0.0205 0.0115 0.0056 0.0046 0.0024 0.0009 0.0003 0.0001 0.0001333333 0.0001 0.0001 0.000103125 0.0001 0.00010625 0.0001032227 0.0001 0.0001 0.0001000457 0.0001000442 0.0001 0.0001 0.0001 0.0001 
0.0001 0.0001 0.0001 0.0001000001 0.0001000004 0.0001 0.0001 0.0001 0.0001 0.0001 0.0001 0.0001 0.0001000061 0.0001000122 0.0001 0.0001000004 0.0001 0.0001 0.0001000001 0.0001 0.0001000977 0.0001000982 0.0001 0.0001000152 0.0001 0.0001 0.0001 0.0001000229 0.0001001829 0.0001003643 0.0001 0.0001000061 0.0001 0.0001 0.0001 0.0001 0.0001018519 0.0001037037 0.0001 0.0001 0.0001333333 0.0001 0.0002 0.0002 0.0045 0.009766666 0.0123 0.0182 0.0303 0.0568 0.1624 0.38558 0.5344 0.8501714 0.3393 0.9571 15.2538 25.3445 24.73135 22.9749 17.4638 18.2298 25.0535 23.4355 23.52658 25.2119 25.0025 25.5911 24.6924 23.3436 21.3018 19.5561 18.6067 16.0747 15.0002 7.2013 3.9038 3.531617 3.1945 2.4949 2.2431 3.1347 2.514 1.568 1.21136 1.0668 0.46465 0.1026 0.074 0.0655 0.2012 0.305 0.61 0.1748 0.122 0.147 0.169 0.4838833 0.2128 0.1311 0.5474 0.9735 1.2227 2.5636 1.6494 0.2241 0.2547 0.1123 0.1047 0.091 0.1019833 0.0813 0.0788 0.0782 0.117 0.0792 0.0693 0.0533 0.0738 0.0793 0.06117143 0.0512 0.0409 0.0367 0.0298 0.0196 0.0116 0.0061 0.0028 0.002316667 0.0012 0.0004 0.0001 0.00015 0.0001 0.0001111111 0.0001 0.0001 0.0001007813 0.0001 0.000103125 0.0001015869 0.0001 0.0001 0.0001000152 0.0001000149 0.0001 0.0001 0.0001 
0.0001 0.0001 0.0001000001 0.0001000002 0.0001 0.0001 0.0001 0.0001 0.0001 0.0001 0.0001 0.0001000031 0.0001000061 0.0001 0.0001000001 0.0001 0.0001 0.0001 0.0001 0.0001000488 0.000100049 0.0001 0.0001000051 0.0001 0.0001 0.0001 0.0001000076 0.0001000686 0.0001001425 0.0001 0.0001000015 0.0001 0.0001 0.0001 0.0001 0.0001006173 0.0001012346 0.0001 0.0001 0.0001111111 0.0001 0.000125 0.0001 0.0005 0.0024 0.0048 0.0057 0.009 0.0136 0.0181 0.0252 0.1336167 0.0467 0.1224 0.0181 0.0404 3.3992 17.0754 16.35105 18.7398 11.9996 12.5346 17.6129 17.3757 16.2802 14.71 18.4659 20.466 20.3803 19.4615 16.7074 15.47807 12.7915 11.3103 7.0507 5.1804 2.1244 2.505533 2.2706 1.8153 1.5658 1.7271 1.4485 0.9955 0.7574 0.5269 0.297 0.1456833 0.0817 0.1647 0.1766167 0.2121 0.1941 0.1332 0.0917 0.0762 0.0725 0.1081 0.0782 0.0685 0.1219 0.1672 0.1631 0.5611167 0.1585 0.0906 0.0761 0.0811 0.0702 0.082 0.08275 0.0814 0.0813 0.1166 0.117 0.0757 0.06091667 0.0501 0.0439 0.0587 0.0585 0.0339 0.03354 0.0262 0.018 0.0112 0.0062 0.0031 0.0014 0.001116667 0.0005 0.0002 0.0001 0.0001 0.0001125 0.0001 0.0001037037 0.0001 0.0001 0.0001001953 0.0001 0.0001015625 0.0001007874 0.0001 0.0001 0.0001000051 0.000100005 0.0001 0.0001 
0.0001 0.0001 0.0001000001 0.0001 0.0001 0.0001 0.0001 0.0001 0.0001 0.0001 0.0001000015 0.0001000031 0.0001 0.0001 0.0001 0.0001 0.0001 0.0001 0.0001000244 0.0001000245 0.0001 0.0001000017 0.0001 0.0001 0.0001 0.0001000025 0.0001000254 0.0001000547 0.0001 0.0001000004 0.0001 0.0001 0.0001 0.0001 0.0001002058 0.0001004115 0.0001 0.0001 0.0001037037 0.0001 0.00010625 0.0001 0.0001 0.0003 0.0008666667 0.0012 0.0027 0.0047 0.0075 0.0102 0.0134 0.0204 0.0196 0.034 0.0396 0.0137 0.2674 4.38015 4.9411 9.0306 5.4581 5.9517 8.2154 7.9807 8.850083 8.9674 12.103 13.9809 14.9116 15.1066 13.14393 12.3972 11.0638 5.4721 4.4558 2.1035 1.8967 1.528283 1.6432 1.3405 1.1447 0.7179 0.354 0.5336667 0.1704 0.2168 0.2297 0.0891 0.1226429 0.157 0.1594167 0.1554 0.0979 0.1669 0.0795 0.0611 0.06225 0.0571 0.059 0.0606 0.063 0.0747 0.0835 0.11165 0.0895 0.0821 0.0719 0.0879 0.0556 0.067 0.0779 0.0829 0.0834 0.1481 0.1071 0.0653 0.0511 0.0419 0.0353 0.031 0.0379 0.03492 0.024075 0.0155 0.0102 0.006 0.0031 0.0015 0.0006 0.0005166667 0.0002 0.0001 0.0001333333 0.0001 0.0001 0.000103125 0.0001 0.0001012346 0.0001 0.0001 0.0001000488 0.0001 0.0001007813 0.0001003921 0.0001 0.0001 0.0001000017 0.0001000017 0.0001 
0.0001 0.0001 0.0001 0.0001 0.0001 0.0001 0.0001 0.0001 0.0001 0.0001000008 0.0001000015 0.0001 0.0001 0.0001 0.0001 0.0001 0.0001 0.0001000122 0.0001000122 0.0001 0.0001000006 0.0001 0.0001 0.0001 0.0001000008 0.0001000093 0.0001000207 0.0001 0.0001000001 0.0001 0.0001 0.0001 0.0001 0.0001000686 0.0001001372 0.0001 0.0001 0.0001012346 0.0001 0.0001015625 0.0001 0.0001 0.000175 0.0002 0.00045 0.0006 0.0013 0.0025 0.0042 0.0064 0.0085 0.01001667 0.009 0.014 0.009 0.06298333 0.0681 1.18158 0.5297 2.2769 0.9772 1.1321 1.681 1.58 3.57475 2.4867 4.5965 6.26 6.6875 7.3302 7.852317 7.8607 4.3305 3.2223 2.2458 0.6768 0.7809 0.83265 0.4539 0.3604 0.2495 0.1511 0.1325 0.1645167 0.1011 0.1945 0.205 0.084 0.1396 0.1424 0.1369 0.1249 0.093 0.1381 0.0689 0.0535 0.05355 0.0531 0.0581 0.0628 0.0641 0.0575 0.0728 0.0873 0.1025 0.0838 0.0776 0.097 0.0445 0.06131667 0.0718 0.081 0.0819 0.121 0.133 0.0509 0.04293333 0.0227 0.0248 0.0223 0.0236 0.0207 0.0139 0.009875 0.0054 0.003 0.0015 0.0007 0.0003 0.00026 0.0001 0.0001333333 0.0001 0.0001111111 0.0001 0.0001 0.0001007813 0.0001 0.0001004115 0.0001 0.0001 0.0001000122 0.0001 0.0001003906 0.0001001957 0.0001 0.0001 0.0001000006 0.0001000006 
0.0001 0.0001 0.0001 0.0001 0.0001 0.0001 0.0001 0.0001 0.0001000004 0.0001000008 0.0001 0.0001 0.0001 0.0001 0.0001 0.0001 0.0001000061 0.0001000061 0.0001 0.0001000002 0.0001 0.0001 0.0001 0.0001000003 0.0001000034 0.0001000077 0.0001 0.0001 0.0001 0.0001 0.0001 0.0001 0.0001000229 0.0001000457 0.0001 0.0001 0.0001004115 0.0001 0.0001003906 0.0001 0.0001 0.00013125 0.00015 0.0001 0.00026 0.0003 0.0006 0.0013 0.0024 0.0039 0.0051 0.005383333 0.0045 0.006533334 0.0079 0.0118 0.03545 0.187775 0.1016 0.3212 0.196 0.2809 0.2261 0.6503667 0.1766 0.2571 0.6352 1.2822 1.8632 2.3979 3.369633 2.0213 1.4496 0.96 0.5763 0.1504 0.3049 0.1437 0.0775 0.1379 0.1322 0.123 0.1266 0.11655 0.1025 0.1745 0.1723 0.0767 0.1715 0.15214 0.126375 0.1048 0.0836 0.1154 0.0566 0.0461 0.04775 0.0504 0.0621 0.0713 0.0711 0.0521 0.06518333 0.0808 0.0947 0.0869 0.1008 0.1026 0.0459 0.05783333 0.0722 0.0592 0.0722 0.0962 0.1015 0.07591667 0.0522 0.0246 0.0182 0.0198 0.0103 0.011 0.01022 0.0084 0.003966667 0.0011 0.0004 0.0003 0.0003 0.0001 0.0001 0.0001 0.0001111111 0.0001 0.0001037037 0.0001 0.0001 0.0001001953 0.0001 0.0001001372 0.0001 0.0001 0.0001000031 0.0001 0.0001001953 0.0001000977 0.0001 0.0001 0.0001000002 
0.0001 0.0001 0.0001 0.0001 0.0001 0.0001 0.0001 0.0001000002 0.0001000004 0.0001 0.0001 0.0001 0.0001 0.0001 0.0001 0.0001000031 0.0001000031 0.0001 0.0001000001 0.0001 0.0001 0.0001 0.0001000001 0.0001000012 0.0001000028 0.0001 0.0001 0.0001 0.0001 0.0001 0.0001 0.0001000076 0.0001000152 0.0001 0.0001 0.0001001372 0.0001 0.0001000977 0.0001 0.0001 0.0001140625 0.000125 0.0001 0.0001 0.00015 0.0001 0.0003 0.0007 0.0013 0.0022 0.002766667 0.0029 0.0023 0.004566667 0.0065 0.0102 0.0517 0.06715 0.18466 0.2068 0.1652 0.2214 0.1413 0.14515 0.0972 0.0848 0.1016 0.1523 0.2292 0.3079 0.8696667 0.2998 0.2633 0.2453 0.1025 0.0425 0.07206666 0.0351 0.0249 0.1265 0.1075 0.1263 0.1356 0.1166167 0.101 0.1402 0.1329 0.0654 0.1738 0.1517 0.1334 0.10065 0.0603 0.1052 0.043 0.0375 0.04126666 0.0459 0.0667 0.0814 0.077 0.053 0.0636 0.0749 0.0937 0.0871 0.1191 0.1018 0.0447 0.0551 0.0679 0.0545 0.048 0.0709 0.0737 0.0592 0.0442 0.0221 0.0134 0.0116 0.0069 0.0073 0.006033333 0.0037 0.0022 0.0008333334 0.0001 0.0001 0.0001666667 0.0001 0.0001 0.0001 0.0001 0.0001037037 0.0001 0.0001012346 0.0001 0.0001 0.0001000488 0.0001 0.0001000457 0.0001 0.0001 0.0001000008 0.0001 0.0001000977 0.0001000489 0.0001 0.0001 
0.0001 0.0001 0.0001 0.0001 0.0001 0.0001 0.0001000001 0.0001000002 0.0001 0.0001 0.0001 0.0001 0.0001 0.0001 0.0001000015 0.0001000015 0.0001 0.0001 0.0001 0.0001 0.0001 0.0001 0.0001000004 0.000100001 0.0001 0.0001 0.0001 0.0001 0.0001 0.0001 0.0001000025 0.0001000051 0.0001 0.0001 0.0001000457 0.0001 0.0001000244 0.0001 0.0001 0.0001066406 0.0001125 0.0001 0.0001 0.00011 0.0001 0.0001 0.0001 0.0003 0.0006 0.0009 0.001466667 0.0016 0.0014 0.003166667 0.0048 0.008 0.0439 0.05264 0.0714 0.2223 0.1752 0.2139 0.138 0.1165833 0.0917 0.0757 0.076 0.0862 0.095 0.1494667 0.0971 0.094 0.1189 0.1066 0.0658 0.0459 0.03355 0.0148 0.0215 0.134 0.0977 0.1357 0.1433 0.115 0.0907 0.1006 0.0936 0.0515 0.145 0.1354167 0.1348 0.087 0.0775 0.0786 0.03 0.0297 0.0285 0.0392 0.0697 0.0884 0.0801 0.0536 0.06111667 0.0672 0.0885 0.0832 0.1058 0.1169 0.07608333 0.0406 0.0593 0.0463 0.0304 0.0486 0.0505 0.0426 0.0331 0.0174 0.0095 0.0067 0.0041 0.0043 0.003283333 0.0015 0.0008 0.0004 0.000175 0.0001 0.0001 0.0001166667 0.0001 0.0001 0.0001 0.0001 0.0001012346 0.0001 0.0001004115 0.0001 0.0001 0.0001000122 0.0001 0.0001000152 0.0001 0.0001 0.0001000002 0.0001 0.0001000488 0.0001000244 0.0001 
0.0001 0.0001 0.0001 0.0001 0.0001 0.0001 0.0001000001 0.0001 0.0001 0.0001 0.0001 0.0001 0.0001 0.0001000008 0.0001000008 0.0001 0.0001 0.0001 0.0001 0.0001 0.0001 0.0001000002 0.0001000004 0.0001 0.0001 0.0001 0.0001 0.0001 0.0001 0.0001000008 0.0001000017 0.0001 0.0001 0.0001000152 0.0001 0.0001000061 0.0001 0.0001 0.0001032227 0.00010625 0.0001 0.0001 0.000102 0.0001 0.0001 0.0001 0.0001 0.0001 0.0002 0.0004 0.0007166667 0.0008 0.0008 0.0021 0.0032 0.0057 0.02031667 0.0349 0.0613 0.1436429 0.1838 0.2111 0.1402 0.1141 0.0911 0.0765 0.0778 0.084 0.0858 0.08831666 0.0818 0.0811 0.0894 0.0607 0.0629 0.0479 0.03238333 0.0151 0.0248 0.1452 0.095 0.1459 0.1441667 0.1455 0.0739 0.065 0.0602 0.0373 0.1135 0.11265 0.112 0.0758 0.0581 0.04317143 0.0192 0.02033333 0.02 0.031 0.0689 0.0902 0.0794 0.0524 0.05801667 0.0656 0.0723 0.0745 0.0898 0.0964 0.07233334 0.0561 0.0481 0.0362 0.0232 0.0271 0.0317 0.02775 0.0224 0.0122 0.0064 0.0038 0.0022 0.002533333 0.0023 0.0006 0.0003 0.0001 0.00025 0.000145 0.0001 0.0001 0.0001041667 0.0001 0.0001 0.0001 0.0001 0.0001004115 0.0001 0.0001001372 0.0001 0.0001 0.0001000031 0.0001 0.0001000051 0.0001 0.0001 0.0001 0.0001 0.0001000244 0.0001000122 
0.0001 0.0001 0.0001 0.0001 0.0001 0.0001 0.0001 0.0001 0.0001 0.0001 0.0001 0.0001 0.0001000004 0.0001000004 0.0001 0.0001 0.0001 0.0001 0.0001 0.0001 0.0001000001 0.0001000001 0.0001 0.0001 0.0001 0.0001 0.0001 0.0001 0.0001000003 0.0001000006 0.0001 0.0001 0.0001000051 0.0001 0.0001000015 0.0001 0.0001 0.0001015869 0.000103125 0.0001 0.0001 0.0001004 0.0001 0.0001 0.0001 0.0001 0.0001 0.0001 0.0001 0.0002 0.00035 0.0004 0.0004 0.001283333 0.002 0.0037 0.01733333 0.0257 0.0896 0.2019 0.237 0.4208 0.20662 0.1365 0.0871 0.0758 0.0802 0.0873 0.088 0.08076666 0.0822 0.0784 0.0733 0.0395 0.0676 0.0527 0.03183333 0.0179 0.0301 0.157 0.0963 0.1542 0.1453333 0.1404 0.0549 0.0381 0.0354 0.0248 0.0825 0.0861 0.0881 0.0622 0.0454 0.0596 0.0113 0.01428 0.013 0.0225 0.0631 0.0866 0.0746 0.06071667 0.0489 0.0604 0.0562 0.0625 0.0725 0.0755 0.0618 0.0485 0.0466 0.0261 0.0163 0.0179 0.0155 0.01653333 0.0133 0.0077 0.004 0.0021 0.0012 0.001316667 0.0011 0.0002 0.0001 0.0001666667 0.0001 0.000175 0.000124 0.0001 0.0001 0.0001010417 0.0001 0.0001 0.0001 0.0001 0.0001001372 0.0001 0.0001000457 0.0001 0.0001 0.0001000008 0.0001 0.0001000017 0.0001 0.0001 0.0001 0.0001 0.0001000122 
0.0001 0.0001 0.0001 0.0001 0.0001 0.0001 0.0001 0.0001 0.0001 0.0001 0.0001 0.0001000002 0.0001000002 0.0001 0.0001 0.0001 0.0001 0.0001 0.0001 0.0001 0.0001 0.0001 0.0001 0.0001 0.0001 0.0001 0.0001 0.0001000001 0.0001000002 0.0001 0.0001 0.0001000017 0.0001 0.0001000004 0.0001 0.0001 0.0001007874 0.0001015625 0.0001 0.0001 0.00010008 0.0001 0.0001 0.0001 0.0001 0.0001 0.0001 0.0001 0.0001333333 0.0001333333 0.0001 0.0002 0.0002 0.0007333333 0.0011 0.0022 0.01633333 0.0318 0.0892 0.1874 0.217 0.241575 0.1858 0.1245 0.0784 0.0712 0.0788 0.0869 0.0843 0.07345 0.0625 0.1078 0.0693 0.0504 0.0634 0.05045 0.0361 0.0213 0.0361 0.1674 0.0988 0.1581 0.1410167 0.1279 0.0373 0.0203 0.0191 0.0151 0.03686666 0.0556 0.0649 0.0477 0.0339 0.0412 0.0289 0.009575 0.0079 0.0152 0.0531 0.0781 0.0659 0.05385 0.0431 0.0522 0.0472 0.0441 0.0549 0.056 0.04758333 0.0383 0.0399 0.0174 0.0105 0.0088 0.009983334 0.0089 0.0074 0.0045 0.0023 0.0011 0.0006 0.00065 0.0005 0.0001 0.0001333333 0.0001 0.0001222222 0.0001 0.0001375 0.0001123 0.0001 0.0001 0.0001002604 0.0001 0.0001 0.0001 0.0001 0.0001000457 0.0001 0.0001000152 0.0001 0.0001 0.0001000002 0.0001 0.0001000006 0.0001 0.0001 0.0001 0.0001 
0.0001 0.0001 0.0001 0.0001 0.0001 0.0001 0.0001 0.0001 0.0001 0.0001 0.0001000001 0.0001000001 0.0001 0.0001 0.0001 0.0001 0.0001 0.0001 0.0001 0.0001 0.0001 0.0001 0.0001 0.0001 0.0001 0.0001 0.0001 0.0001000001 0.0001 0.0001 0.0001000006 0.0001 0.0001000001 0.0001 0.0001 0.0001003921 0.0001007813 0.0001 0.0001 0.000100016 0.0001 0.0001 0.0001 0.0001 0.0001 0.0001 0.0001 0.0001111111 0.0001166667 0.0001 0.0001333333 0.0001 0.0001 0.00046 0.0006 0.0061 0.01666667 0.0285 0.0812 0.1636 0.1871 0.1414 0.122725 0.1058 0.066 0.0629 0.0728 0.0812 0.0758 0.06181667 0.0479 0.1343 0.0691 0.0565 0.0568 0.04321667 0.0261 0.0244 0.0419 0.1741 0.1004 0.156 0.1310667 0.1095 0.0233 0.0109 0.0083 0.0085 0.02305 0.0347 0.0446 0.0341 0.0238 0.0263 0.0061 0.00535 0.008 0.0095 0.041 0.0662 0.0548 0.04506667 0.0358 0.0423 0.0329 0.0334 0.0394 0.0393 0.03441667 0.0279 0.0257 0.0158 0.0063 0.0041 0.0051 0.0047 0.0039 0.0024 0.0012 0.0006 0.0003 0.0003 0.0002 0.000225 0.0001 0.0001111111 0.0001 0.0001074074 0.0001 0.00011875 0.00010621 0.0001 0.0001 0.0001000651 0.0001 0.0001 0.0001 0.0001 0.0001000152 0.0001 0.0001000051 0.0001 0.0001 0.0001 0.0001 0.0001000002 0.0001 0.0001 0.0001 
0.0001 0.0001 0.0001 0.0001 0.0001 0.0001 0.0001 0.0001 0.0001 0.0001 0.0001 0.0001 0.0001 0.0001 0.0001 0.0001 0.0001 0.0001 0.0001 0.0001 0.0001 0.0001 0.0001 0.0001 0.0001 0.0001 0.0001 0.0001 0.0001 0.0001000002 0.0001 0.0001 0.0001 0.0001 0.0001001957 0.0001003906 0.0001 0.0001 0.0001000032 0.0001 0.0001 0.0001 0.0001 0.0001 0.0001 0.0001 0.0001037037 0.0001069444 0.0001 0.0001111111 0.0001 0.0001 0.0001 0.000275 0.0003 0.002083333 0.0035 0.0279 0.0679 0.133 0.1516 0.1192 0.10782 0.076825 0.0519 0.0522 0.063 0.0709 0.06805 0.0641 0.0363 0.1533 0.0686 0.0581 0.0512 0.03813333 0.0257 0.0178 0.0463 0.1751 0.0994 0.1216167 0.1472 0.0877 0.0133 0.0052 0.0034 0.0044 0.0134 0.02 0.0285 0.0236 0.0151 0.0149 0.009933333 0.003 0.0044 0.01582857 0.0291 0.0525 0.0405 0.03558333 0.0303 0.032 0.0217 0.0236 0.0267 0.0275 0.0261 0.0189 0.0159 0.0119 0.0035 0.0018 0.00245 0.0023 0.0019 0.0012 0.0006 0.0003 0.00025 0.0001 0.0001 0.00015 0.00014375 0.0001 0.0001037037 0.0001 0.0001024691 0.0001 0.000109375 0.000103117 0.0001 0.0001 0.0001000163 0.0001 0.0001 0.0001 0.0001 0.0001000051 0.0001 0.0001000017 0.0001 0.0001 0.0001 0.0001 0.0001000001 0.0001 0.0001 
0.0001 0.0001 0.0001 0.0001 0.0001 0.0001 0.0001 0.0001 0.0001 0.0001 0.0001 0.0001 0.0001 0.0001 0.0001 0.0001 0.0001 0.0001 0.0001 0.0001 0.0001 0.0001 0.0001 0.0001 0.0001 0.0001 0.0001 0.0001 0.0001000001 0.0001 0.0001 0.0001 0.0001 0.0001000977 0.0001001953 0.0001 0.0001 0.0001000006 0.0001 0.0001 0.0001 0.0001 0.0001 0.0001 0.0001 0.0001012346 0.000102662 0.0001 0.0001037037 0.0001 0.0001 0.0001 0.0001483333 0.0001666667 0.0001 0.00115 0.0019 0.024 0.0541 0.1177 0.2808 0.0891 0.08266 0.0836 0.05465 0.0406 0.0511 0.0591 0.05816667 0.0572 0.0555 0.1246 0.0657 0.056 0.0455 0.0346 0.0235 0.0132 0.0484 0.1692 0.0946 0.1119667 0.1321 0.0658 0.007 0.0021 0.0015 0.0021 0.00725 0.0107 0.018 0.014 0.009 0.0079 0.005283333 0.0014 0.0023 0.0055 0.019 0.039 0.0283 0.02646667 0.0238 0.0228 0.0136 0.0157 0.0172 0.01773333 0.0163 0.0119 0.0094 0.0079 0.0018 0.0009 0.0011 0.0009 0.0009 0.0005 0.0003 0.0001 0.00014 0.0001 0.0001 0.0001 0.000125 0.0001171875 0.0001 0.0001012346 0.0001 0.000100823 0.0001 0.0001046875 0.0001015609 0.0001 0.0001 0.0001000041 0.0001 0.0001 0.0001 0.0001 0.0001000017 0.0001 0.0001000006 0.0001 0.0001 0.0001 0.0001 0.0001 0.0001 
0.0001 0.0001 0.0001 0.0001 0.0001 0.0001 0.0001 0.0001 0.0001 0.0001 0.0001 0.0001 0.0001 0.0001 0.0001 0.0001 0.0001 0.0001 0.0001 0.0001 0.0001 0.0001 0.0001 0.0001 0.0001 0.0001 0.0001 0.0001 0.0001 0.0001 0.0001 0.0001 0.0001000489 0.0001000977 0.0001 0.0001 0.0001000001 0.0001 0.0001 0.0001 0.0001 0.0001 0.0001 0.0001 0.0001004115 0.0001009742 0.0001 0.0001012346 0.0001 0.0001 0.0001 0.0001141111 0.0001222222 0.0001 0.0001 0.00072 0.001 0.0184 0.0382 0.071 0.0061 0.06 0.0622 0.0614 0.0382 0.0375 0.0391 0.0472 0.0488 0.0505 0.0599 0.1002 0.0602 0.051 0.0449 0.0395 0.0222 0.0187 0.0364 0.1562 0.0861 0.09836667 0.1124 0.0461 0.0034 0.0008 0.0006 0.0009833333 0.0009 0.0054 0.0105 0.0077 0.005 0.0039 0.002633333 0.0006 0.0011 0.0029 0.01518571 0.027 0.02534 0.0196 0.0163 0.0139 0.0093 0.0099 0.0104 0.01083333 0.0097 0.0071 0.0053 0.0048 0.0009 0.0007666667 0.0004 0.0003 0.0004 0.0002 0.0001 0.0001 0.0001 0.0001 0.0001 0.0001 0.0001 0.0001125 0.0001074219 0.0001 0.0001004115 0.0001 0.0001002744 0.0001 0.0001023438 0.0001007809 0.0001 0.0001 0.000100001 0.0001 0.0001 0.0001 0.0001 0.0001000006 0.0001 0.0001000002 0.0001 0.0001 0.0001 0.0001 0.0001 
0.0001 0.0001 0.0001 0.0001 0.0001 0.0001 0.0001 0.0001 0.0001 0.0001 0.0001 0.0001 0.0001 0.0001 0.0001 0.0001 0.0001 0.0001 0.0001 0.0001 0.0001 0.0001 0.0001 0.0001 0.0001 0.0001 0.0001 0.0001 0.0001 0.0001 0.0001 0.0001000244 0.0001000488 0.0001 0.0001 0.0001 0.0001 0.0001 0.0001 0.0001 0.0001 0.0001 0.0001 0.0001001372 0.0001003464 0.0001 0.0001004115 0.0001 0.0001 0.0001 0.0001043037 0.0001074074 0.0001 0.0001 0.0001 0.00045 0.0005 0.0127 0.0244 0.0407 0.0063 0.02256667 0.0371 0.042 0.0263 0.0297 0.03348333 0.0362 0.03946667 0.0426 0.0553 0.0787 0.0523 0.0441 0.0385 0.0333 0.0204 0.0195 0.027 0.1374 0.0745 0.08225 0.0905 0.0302 0.0016 0.0003 0.0002 0.00048 0.0006 0.0043 0.0106 0.0075 0.0047 0.0018 0.001233333 0.0002 0.0005 0.0014 0.0115 0.015625 0.019225 0.0128 0.0105 0.008 0.0059 0.0059 0.006 0.006283334 0.0054 0.0039 0.0028 0.0027 0.0004 0.0003666667 0.0002 0.0001 0.0001 0.0001 0.000125 0.0001 0.0001 0.0001 0.0001 0.0001 0.0001 0.0001 0.00010625 0.000103418 0.0001 0.0001001372 0.0001 0.0001000914 0.0001 0.0001011719 0.0001003906 0.0001 0.0001 0.0001000003 0.0001 0.0001 0.0001 0.0001 0.0001000002 0.0001 0.0001000001 0.0001 0.0001 0.0001 0.0001 
0.0001 0.0001 0.0001 0.0001 0.0001 0.0001 0.0001 0.0001 0.0001 0.0001 0.0001 0.0001 0.0001 0.0001 0.0001 0.0001 0.0001 0.0001 0.0001 0.0001 0.0001 0.0001 0.0001 0.0001 0.0001 0.0001 0.0001 0.0001 0.0001 0.0001 0.0001000122 0.0001000244 0.0001 0.0001 0.0001 0.0001 0.0001 0.0001 0.0001 0.0001 0.0001 0.0001 0.0001000457 0.0001001209 0.0001 0.0001001372 0.0001 0.0001 0.0001 0.0001013546 0.0001024691 0.0001 0.0001 0.0001 0.00027 0.0004 0.0002 0.008 0.0144 0.0221 0.0046 0.01396667 0.0213 0.0268 0.017 0.0204 0.0283 0.027575 0.0264 0.0339 0.0461 0.0599 0.0431 0.0361 0.0316 0.027 0.0178 0.0176 0.0195 0.1148 0.08516667 0.0612 0.0688 0.0185 0.0007 0.0001 0.0001 0.0003 0.00245 0.005166667 0.007466667 0.0076 0.0037 0.0008 0.00064 0.0001 0.0002 0.0006 0.0065 0.0175 0.0122 0.0093 0.006 0.0047 0.0035 0.0033 0.003666667 0.0033 0.0029 0.0021 0.0016 0.0012 0.0002 0.0002 0.0001 0.00012 0.0001 0.0001 0.0001 0.00010625 0.0001 0.0001 0.0001 0.0001 0.0001 0.0001 0.0001 0.000103125 0.0001016357 0.0001 0.0001000457 0.0001 0.0001000305 0.0001 0.0001005859 0.0001001953 0.0001 0.0001 0.0001000001 0.0001 0.0001 0.0001 0.0001 0.0001000001 0.0001 0.0001 0.0001 0.0001 0.0001 
0.0001 0.0001 0.0001 0.0001 0.0001 0.0001 0.0001 0.0001 0.0001 0.0001 0.0001 0.0001 0.0001 0.0001 0.0001 0.0001 0.0001 0.0001 0.0001 0.0001 0.0001 0.0001 0.0001 0.0001 0.0001 0.0001 0.0001 0.0001 0.0001 0.0001000061 0.0001000122 0.0001 0.0001 0.0001 0.0001 0.0001 0.0001 0.0001 0.0001 0.0001 0.0001 0.0001000152 0.0001000417 0.0001 0.0001000457 0.0001 0.0001 0.0001 0.0001004355 0.000100823 0.0001 0.0001 0.0001 0.0002051111 0.0003222222 0.0003 0.0005 0.0042 0.0078 0.0113 0.0029 0.008 0.0116 0.0159 0.0104 0.0133 0.0194 0.021 0.026 0.0254 0.0355 0.0439 0.0336 0.0281 0.02476667 0.021 0.0149 0.0164 0.0268 0.0756 0.06528334 0.0475 0.0495 0.0106 0.0003 0.00026 0.0001 0.0001 0.002004167 0.005027778 0.006744444 0.004891667 0.0008 0.0004 0.0003 0.00016 0.0001 0.0003 0.0035 0.0106 0.00932 0.0079 0.004328571 0.0025 0.0019 0.0018 0.001966667 0.0017 0.0014 0.001 0.0008 0.0005 0.0001 0.0001333333 0.0001 0.0001 0.0001 0.0001 0.0001 0.0001 0.0001015625 0.0001 0.0001 0.0001 0.0001 0.0001 0.0001 0.0001 0.0001015625 0.0001007996 0.0001 0.0001000152 0.0001 0.0001000102 0.0001 0.000100293 0.0001000977 0.0001 0.0001 0.0001 0.0001 0.0001 0.0001 0.0001 0.0001 0.0001 0.0001 0.0001 0.0001 
0.0001 0.0001 0.0001 0.0001 0.0001 0.0001 0.0001 0.0001 0.0001 0.0001 0.0001 0.0001 0.0001 0.0001 0.0001 0.0001 0.0001 0.0001 0.0001 0.0001 0.0001 0.0001 0.0001 0.0001 0.0001 0.0001 0.0001 0.0001 0.0001000031 0.0001000061 0.0001 0.0001 0.0001 0.0001 0.0001 0.0001 0.0001 0.0001 0.0001 0.0001 0.0001000051 0.0001000142 0.0001 0.0001000152 0.0001 0.0001 0.0001 0.000100142 0.0001002744 0.0001 0.0001 0.0001 0.0001632444 0.0002407407 0.0002333333 0.0002666667 0.0002 0.0023 0.004 0.0054 0.0016 0.0043 0.006 0.0089 0.0059 0.0082 0.0126 0.01404 0.0183 0.02245 0.0255 0.0308 0.0248 0.0232 0.0208 0.0156 0.0118 0.0133 0.0172 0.0576 0.04693333 0.035 0.0336 0.0057 0.0001 0.0002 0.000152 0.0001 0.0001 0.003469097 0.004365972 0.0008 0.000375 0.0002 0.0001 0.0001666667 0.0001666667 0.0001 0.0017 0.006 0.0058 0.0046 0.0034 0.0012 0.001 0.0009 0.001 0.0008 0.0007 0.0005 0.0004 0.0002 0.000225 0.0001 0.0001083333 0.0001 0.0001 0.0001 0.0001 0.0001 0.0001 0.0001003906 0.0001 0.0001 0.0001 0.0001 0.0001 0.0001 0.0001 0.0001007813 0.0001003952 0.0001 0.0001000051 0.0001 0.0001000034 0.0001 0.0001001465 0.0001000488 0.0001 0.0001 0.0001 0.0001 0.0001 0.0001 0.0001 0.0001 0.0001 0.0001 0.0001 
0.0001 0.0001 0.0001 0.0001 0.0001 0.0001 0.0001 0.0001 0.0001 0.0001 0.0001 0.0001 0.0001 0.0001 0.0001 0.0001 0.0001 0.0001 0.0001 0.0001 0.0001 0.0001 0.0001 0.0001 0.0001 0.0001 0.0001 0.0001000015 0.0001000031 0.0001 0.0001 0.0001 0.0001 0.0001 0.0001 0.0001 0.0001 0.0001 0.0001 0.0001000017 0.0001000048 0.0001 0.0001000051 0.0001 0.0001 0.0001 0.0001000467 0.0001000914 0.0001 0.0001 0.0001 0.000135118 0.0001790123 0.0001703704 0.0001666667 0.0001333333 0.0001 0.0011 0.0019 0.0025 0.001966667 0.0008 0.0029 0.0046 0.0032 0.0048 0.0078 0.0105 0.0121 0.0179 0.01957143 0.0206 0.0173 0.01645 0.0146 0.011 0.0087 0.0097 0.0107 0.0415 0.03381667 0.0244 0.0215 0.0029 0.002525 0.0001 0.00015 0.0001204 0.0001 0.0001 0.0008 0.00035625 0.00015 0.0001 0.0001 0.0001 0.0001 0.000725 0.0008 0.002266667 0.0032 0.0025 0.0018 0.001342857 0.0005 0.0004 0.0004833333 0.0004 0.0003 0.0002 0.0002 0.0001 0.00015 0.00014375 0.0001 0.0001020833 0.0001 0.0001 0.0001 0.0001 0.0001 0.0001 0.0001000977 0.0001 0.0001 0.0001 0.0001 0.0001 0.0001 0.0001 0.0001003906 0.0001001965 0.0001 0.0001000017 0.0001 0.0001000011 0.0001 0.0001000732 0.0001000244 0.0001 0.0001 0.0001 0.0001 0.0001 0.0001 0.0001 0.0001 0.0001 0.0001 
0.0001 0.0001 0.0001 0.0001 0.0001 0.0001 0.0001 0.0001 0.0001 0.0001 0.0001 0.0001 0.0001 0.0001 0.0001 0.0001 0.0001 0.0001 0.0001 0.0001 0.0001 0.0001 0.0001 0.0001 0.0001 0.0001 0.0001000008 0.0001000015 0.0001 0.0001 0.0001 0.0001 0.0001 0.0001 0.0001 0.0001 0.0001 0.0001 0.0001000006 0.0001000016 0.0001 0.0001000017 0.0001 0.0001 0.0001 0.0001000154 0.0001000305 0.0001 0.0001 0.0001 0.0001181347 0.0001407407 0.0001333333 0.0001259259 0.0001111111 0.0001 0.0001 0.0005 0.0008 0.0011 0.0009 0.0004 0.0014 0.0023 0.0017 0.0026 0.0046 0.006533334 0.0076 0.0119 0.0172 0.0131 0.0115 0.01106667 0.0097 0.0074 0.006 0.0066 0.0064 0.0283 0.0231 0.0161 0.0131 0.0014 0.001633333 0.00125625 0.0001 0.000125 0.00010908 0.0003333333 0.00029625 0.000125 0.0001 0.0001 0.0001 0.0001 0.0002983333 0.0004 0.0003 0.001133333 0.0016 0.0013 0.0009 0.0006 0.0003666667 0.0002 0.00026 0.0002 0.0001 0.0001 0.0001 0.0001333333 0.0001 0.000125 0.0001171875 0.0001 0.0001005208 0.0001 0.0001 0.0001 0.0001 0.0001 0.0001 0.0001000244 0.0001 0.0001 0.0001 0.0001 0.0001 0.0001 0.0001 0.0001001953 0.0001000979 0.0001 0.0001000006 0.0001 0.0001000004 0.0001 0.0001000366 0.0001000122 0.0001 0.0001 0.0001 0.0001 0.0001 0.0001 0.0001 0.0001 0.0001 
0.0001 0.0001 0.0001 0.0001 0.0001 0.0001 0.0001 0.0001 0.0001 0.0001 0.0001 0.0001 0.0001 0.0001 0.0001 0.0001 0.0001 0.0001 0.0001 0.0001 0.0001 0.0001 0.0001 0.0001 0.0001 0.0001000004 0.0001000008 0.0001 0.0001 0.0001 0.0001 0.0001 0.0001 0.0001 0.0001 0.0001 0.0001 0.0001000002 0.0001000006 0.0001 0.0001000006 0.0001 0.0001 0.0001 0.0001000051 0.0001000102 0.0001 0.0001 0.0001 0.0001088396 0.0001197531 0.0001148148 0.0001098765 0.0001037037 0.0001 0.0001 0.000225 0.0002 0.0003 0.0004 0.0004 0.0002 0.0006 0.001 0.0008 0.0014 0.002216667 0.0026 0.0045 0.0074 0.011 0.01065714 0.0072 0.00764 0.0061 0.0047 0.0039 0.0042 0.0037 0.01163333 0.0183 0.01 0.0075 0.0006 0.0007666667 0.0009111111 0.0006751736 0.0001 0.0001125 0.0001662376 0.0001125 0.0001 0.0001 0.0001 0.0001 0.0001685556 0.0002222222 0.0001666667 0.0001 0.0005333333 0.0008 0.0006 0.0004 0.0003 0.0002 0.00015 0.00015 0.0001 0.0001 0.0001 0.0001 0.0001 0.0001111111 0.0001 0.0001125 0.0001074219 0.0001 0.0001001302 0.0001 0.0001 0.0001 0.0001 0.0001 0.0001 0.0001000061 0.0001 0.0001 0.0001 0.0001 0.0001 0.0001 0.0001 0.0001000977 0.0001000489 0.0001 0.0001000002 0.0001 0.0001000001 0.0001 0.0001000183 0.0001000061 0.0001 0.0001 0.0001 0.0001 0.0001 0.0001 0.0001 0.0001 
0.0001 0.0001 0.0001 0.0001 0.0001 0.0001 0.0001 0.0001 0.0001 0.0001 0.0001 0.0001 0.0001 0.0001 0.0001 0.0001 0.0001 0.0001 0.0001 0.0001 0.0001 0.0001 0.0001 0.0001 0.0001000002 0.0001000004 0.0001 0.0001 0.0001 0.0001 0.0001 0.0001 0.0001 0.0001 0.0001 0.0001 0.0001000001 0.0001000002 0.0001 0.0001000002 0.0001 0.0001 0.0001 0.0001000017 0.0001000034 0.0001 0.0001 0.0001 0.0001041182 0.0001091449 0.00010631 0.0001037037 0.0001012346 0.0001 0.0001 0.00014375 0.00015 0.0001 0.0001 0.0002 0.0002 0.0001 0.0003 0.0004 0.0004 0.0007 0.001183333 0.0014 0.0026 0.0044 0.0066 0.008 0.006025 0.005325 0.0037 0.0029 0.0024 0.0027 0.0033 0.0071 0.0098 0.0059 0.0041 0.0003 0.0003333333 0.0004333333 0.0005185185 0.0003896267 0.0001 0.00010625 0.0001 0.0001 0.0001 0.0001 0.0001248222 0.0001481481 0.0001222222 0.0001 0.0001 0.00028 0.0003 0.0003 0.0002 0.0001 0.0001 0.0001333333 0.0001 0.0001 0.0001 0.0001 0.0001 0.0001 0.0001 0.0001037037 0.0001 0.00010625 0.000103418 0.0001 0.0001000326 0.0001 0.0001 0.0001 0.0001 0.0001 0.0001 0.0001000015 0.0001 0.0001 0.0001 0.0001 0.0001 0.0001 0.0001 0.0001000488 0.0001000244 0.0001 0.0001000001 0.0001 0.0001 0.0001 0.0001000092 0.0001000031 0.0001 0.0001 0.0001 0.0001 0.0001 0.0001 0.0001 
0.0001 0.0001 0.0001 0.0001 0.0001 0.0001 0.0001 0.0001 0.0001 0.0001 0.0001 0.0001 0.0001 0.0001 0.0001 0.0001 0.0001 0.0001 0.0001 0.0001 0.0001 0.0001 0.0001 0.0001000001 0.0001000002 0.0001 0.0001 0.0001 0.0001 0.0001 0.0001 0.0001 0.0001 0.0001 0.0001 0.0001 0.0001000001 0.0001 0.0001000001 0.0001 0.0001 0.0001 0.0001000006 0.0001000011 0.0001 0.0001 0.0001 0.0001018509 0.0001040847 0.0001026063 0.0001013717 0.0001004115 0.0001 0.0001 0.0001171875 0.000125 0.0001 0.0001 0.0001333333 0.0001333333 0.0001 0.00015 0.0001 0.0002 0.0002 0.0003 0.0006 0.0007 0.0014 0.0025 0.0038 0.0046 0.0043 0.003125 0.00256 0.0017 0.0014 0.0016 0.0017 0.004133333 0.0058 0.0033 0.0021 0.0001 0.0002 0.0002111111 0.0002648148 0.0003123457 0.0002457863 0.0001 0.0001 0.0001 0.0001 0.000109162 0.0001185185 0.0001074074 0.0001 0.0001 0.0001 0.00015 0.0001 0.0001 0.0001 0.0001 0.0001 0.0001 0.0001 0.0001 0.0001 0.0001 0.0001 0.0001 0.0001 0.0001 0.0001012346 0.0001 0.000103125 0.0001016357 0.0001 0.0001000081 0.0001 0.0001 0.0001 0.0001 0.0001 0.0001 0.0001000004 0.0001 0.0001 0.0001 0.0001 0.0001 0.0001 0.0001 0.0001000244 0.0001000122 0.0001 0.0001 0.0001 0.0001 0.0001 0.0001000046 0.0001000015 0.0001 0.0001 0.0001 0.0001 0.0001 0.0001 
0.0001 0.0001 0.0001 0.0001 0.0001 0.0001 0.0001 0.0001 0.0001 0.0001 0.0001 0.0001 0.0001 0.0001 0.0001 0.0001 0.0001 0.0001 0.0001 0.0001 0.0001 0.0001 0.0001 0.0001000001 0.0001 0.0001 0.0001 0.0001 0.0001 0.0001 0.0001 0.0001 0.0001 0.0001 0.0001 0.0001 0.0001 0.0001 0.0001 0.0001 0.0001 0.0001000002 0.0001000004 0.0001 0.0001 0.0001 0.0001008081 0.0001017731 0.0001010517 0.000100503 0.0001001372 0.0001 0.0001 0.0001074219 0.0001125 0.0001 0.0001 0.0001111111 0.0001166667 0.0001 0.0001 0.0001 0.0001333333 0.0001 0.0001 0.0002 0.0003 0.0003 0.0007 0.0013 0.002 0.0025 0.002733333 0.0024 0.0021 0.0012 0.0008 0.0009 0.0012 0.002316667 0.003 0.0017 0.0009 0.000875 0.0001 0.00015 0.0001537037 0.0001811728 0.0002065844 0.000158468 0.0001 0.0001 0.0001033962 0.0001069959 0.0001024691 0.0001 0.0001 0.0001 0.00011 0.0001 0.0001 0.0001 0.0001 0.0001 0.0001 0.0001 0.0001 0.0001 0.0001 0.0001 0.0001 0.0001 0.0001 0.0001 0.0001 0.0001004115 0.0001 0.0001015625 0.0001007996 0.0001 0.000100002 0.0001 0.0001 0.0001 0.0001 0.0001 0.0001 0.0001000001 0.0001 0.0001 0.0001 0.0001 0.0001 0.0001 0.0001 0.0001000122 0.0001000061 0.0001 0.0001 0.0001 0.0001 0.0001 0.0001000023 0.0001000008 0.0001 0.0001 0.0001 0.0001 0.0001 
0.0001 0.0001 0.0001 0.0001 0.0001 0.0001 0.0001 0.0001 0.0001 0.0001 0.0001 0.0001 0.0001 0.0001 0.0001 0.0001 0.0001 0.0001 0.0001 0.0001 0.0001 0.0001 0.0001 0.0001 0.0001 0.0001 0.0001 0.0001 0.0001 0.0001 0.0001 0.0001 0.0001 0.0001 0.0001 0.0001 0.0001 0.0001 0.0001 0.0001 0.0001000001 0.0001000001 0.0001 0.0001 0.0001 0.0001003445 0.0001007519 0.0001004166 0.0001001829 0.0001000457 0.0001 0.0001 0.000103418 0.00010625 0.0001 0.0001 0.0001037037 0.0001069444 0.0001 0.0001 0.0001 0.0001083333 0.0001 0.0001 0.000125 0.0001 0.00018 0.0002 0.0003 0.0007 0.0011 0.0013 0.001483333 0.0013 0.0011 0.0009 0.0004 0.0005 0.0006666667 0.0007 0.0015 0.0008 0.0004 0.0005 0.0004270833 0.0001 0.000125 0.0001262346 0.0001399691 0.000153155 0.0001262666 0.0001012554 0.0001026063 0.000100823 0.0001 0.0001 0.0001 0.000102 0.0001 0.0001 0.0001 0.0001 0.0001 0.0001 0.0001 0.0001 0.0001 0.0001 0.0001 0.0001 0.0001 0.0001 0.0001 0.0001 0.0001 0.0001 0.0001001372 0.0001 0.0001007813 0.0001003952 0.0001 0.0001000005 0.0001 0.0001 0.0001 0.0001 0.0001 0.0001 0.0001 0.0001 0.0001 0.0001 0.0001 0.0001 0.0001 0.0001 0.0001000061 0.0001000031 0.0001 0.0001 0.0001 0.0001 0.0001 0.0001000011 0.0001000004 0.0001 0.0001 0.0001 0.0001 
0.0001 0.0001 0.0001 0.0001 0.0001 0.0001 0.0001 0.0001 0.0001 0.0001 0.0001 0.0001 0.0001 0.0001 0.0001 0.0001 0.0001 0.0001 0.0001 0.0001 0.0001 0.0001 0.0001 0.0001 0.0001 0.0001 0.0001 0.0001 0.0001 0.0001 0.0001 0.0001 0.0001 0.0001 0.0001 0.0001 0.0001 0.0001 0.0001 0.0001 0.0001 0.0001 0.0001 0.0001 0.000100144 0.0001003127 0.0001001626 0.000100066 0.0001000152 0.0001 0.0001 0.0001016357 0.000103125 0.0001 0.0001 0.0001012346 0.000102662 0.0001 0.0001 0.0001 0.0001020833 0.0001 0.0001 0.00010625 0.0001 0.0001 0.0001333333 0.0001 0.0002 0.0003 0.0005 0.0007 0.0007666667 0.0007 0.0006 0.0005 0.0004285714 0.0003 0.00042 0.0004 0.0007 0.0003 0.0002 0.0002333333 0.0002944444 0.0002456597 0.0001 0.0001125 0.0001129115 0.0001197102 0.0001264175 0.0001009602 0.0001002744 0.0001 0.0001 0.0001 0.0001004 0.0001 0.0001 0.0001 0.0001 0.0001 0.0001 0.0001 0.0001 0.0001 0.0001 0.0001 0.0001 0.0001 0.0001 0.0001 0.0001 0.0001 0.0001 0.0001 0.0001 0.0001000457 0.0001 0.0001003906 0.0001001965 0.0001 0.0001000001 0.0001 0.0001 0.0001 0.0001 0.0001 0.0001 0.0001 0.0001 0.0001 0.0001 0.0001 0.0001 0.0001 0.0001 0.0001000031 0.0001000015 0.0001 0.0001 0.0001 0.0001 0.0001 0.0001000006 0.0001000002 0.0001 0.0001 0.0001 
0.0001 0.0001 0.0001 0.0001 0.0001 0.0001 0.0001 0.0001 0.0001 0.0001 0.0001 0.0001 0.0001 0.0001 0.0001 0.0001 0.0001 0.0001 0.0001 0.0001 0.0001 0.0001 0.0001 0.0001 0.0001 0.0001 0.0001 0.0001 0.0001 0.0001 0.0001 0.0001 0.0001 0.0001 0.0001 0.0001 0.0001 0.0001 0.0001 0.0001 0.0001 0.0001 0.0001 0.0001000592 0.000100128 0.0001000627 0.0001000237 0.0001000051 0.0001 0.0001 0.0001007996 0.0001015625 0.0001 0.0001 0.0001004115 0.0001009742 0.0001 0.0001 0.0001 0.0001005208 0.0001 0.0001 0.0001015625 0.0001 0.0001 0.0001083333 0.0001 0.0001333333 0.0001 0.0001 0.0002 0.0003 0.0003833333 0.0003 0.0003 0.0002 0.0002 0.000175 0.00025 0.0002 0.0003 0.0001 0.0001 0.00015 0.0001611111 0.0001935185 0.0001669705 0.0001 0.00010625 0.0001063872 0.0001097408 0.0001000914 0.0001 0.0001 0.0001 0.00010008 0.0001 0.0001 0.0001 0.0001 0.0001 0.0001 0.0001 0.0001 0.0001 0.0001 0.0001 0.0001 0.0001 0.0001 0.0001 0.0001 0.0001 0.0001 0.0001 0.0001 0.0001 0.0001 0.0001000152 0.0001 0.0001001953 0.0001000979 0.0001 0.0001 0.0001 0.0001 0.0001 0.0001 0.0001 0.0001 0.0001 0.0001 0.0001 0.0001 0.0001 0.0001 0.0001 0.0001 0.0001000015 0.0001000008 0.0001 0.0001 0.0001 0.0001 0.0001 0.0001000003 0.0001000001 0.0001 0.0001 
0.0001 0.0001 0.0001 0.0001 0.0001 0.0001 0.0001 0.0001 0.0001 0.0001 0.0001 0.0001 0.0001 0.0001 0.0001 0.0001 0.0001 0.0001 0.0001 0.0001 0.0001 0.0001 0.0001 0.0001 0.0001 0.0001 0.0001 0.0001 0.0001 0.0001 0.0001 0.0001 0.0001 0.0001 0.0001 0.0001 0.0001 0.0001 0.0001 0.0001 0.0001 0.0001 0.0001000251 0.0001000522 0.000100024 0.0001000085 0.0001000017 0.0001 0.0001 0.0001003952 0.0001007813 0.0001 0.0001 0.0001001372 0.0001003464 0.0001 0.0001 0.0001 0.0001001302 0.0001 0.0001 0.0001003906 0.0001 0.0001 0.0001020833 0.0001 0.0001111111 0.0001 0.0001 0.0001 0.0001 0.00016 0.0001 0.0002 0.0001 0.0001 0.0001 0.0001 0.000125 0.00016 0.0001 0.0001 0.0001 0.0001 0.000125 0.0001287037 0.0001449074 0.0001331199 0.0001 0.000103125 0.0001031707 0.0001 0.0001 0.0001 0.000100016 0.0001 0.0001 0.0001 0.0001 0.0001 0.0001 0.0001 0.0001 0.0001 0.0001 0.0001 0.0001 0.0001 0.0001 0.0001 0.0001 0.0001 0.0001 0.0001 0.0001 0.0001 0.0001 0.0001 0.0001 0.0001000051 0.0001 0.0001000977 0.0001000489 0.0001 0.0001 0.0001 0.0001 0.0001 0.0001 0.0001 0.0001 0.0001 0.0001 0.0001 0.0001 0.0001 0.0001 0.0001 0.0001 0.0001000008 0.0001000004 0.0001 0.0001 0.0001 0.0001 0.0001 0.0001000001 0.0001 0.0001 
0.0001 0.0001 0.0001 0.0001 0.0001 0.0001 0.0001 0.0001 0.0001 0.0001 0.0001 0.0001 0.0001 0.0001 0.0001 0.0001 0.0001 0.0001 0.0001 0.0001 0.0001 0.0001 0.0001 0.0001 0.0001 0.0001 0.0001 0.0001 0.0001 0.0001 0.0001 0.0001 0.0001 0.0001 0.0001 0.0001 0.0001 0.0001 0.0001 0.0001 0.0001 0.0001000146 0.0001000333 0.0001000143 0.0001000047 0.0001000008 0.0001 0.0001 0.0001002619 0.0001003906 0.0001 0.0001 0.0001000457 0.0001001209 0.0001 0.0001 0.0001 0.0001000326 0.0001 0.0001 0.0001000977 0.0001 0.0001 0.0001005208 0.0001 0.0001037037 0.0001 0.0001 0.0001 0.0001 0.0001 0.0001 0.0001 0.0001 0.0001 0.0001 0.0001 0.0001 0.0001 0.0001 0.0001 0.0001 0.0001 0.0001 0.0001 0.0001125 0.0001206018 0.0001327546 0.0001219582 0.0001 0.0001015625 0.0001 0.0001 0.000100004 0.0001 0.0001 0.0001 0.0001 0.0001 0.0001 0.0001 0.0001 0.0001 0.0001 0.0001 0.0001 0.0001 0.0001 0.0001 0.0001 0.0001 0.0001 0.0001 0.0001 0.0001 0.0001 0.0001 0.0001 0.0001 0.0001 0.0001000017 0.0001 0.0001000488 0.0001000326 0.0001 0.0001 0.0001 0.0001 0.0001 0.0001 0.0001 0.0001 0.0001 0.0001 0.0001 0.0001 0.0001 0.0001 0.0001 0.0001 0.0001000004 0.0001000003 0.0001 0.0001 0.0001 0.0001 0.0001 0.0001000001 0.0001 
