ncols         137
nrows         87
xllcorner     94.932948248344
yllcorner     29.775294396421
cellsize      0.00032170095067664
NODATA_value  -9999
0.0001 0.0001 0.0001 0.0001 0.0001 0.0001 0.0001 0.0001 0.0001000651 0.0001 0.00010625 0.0001162037 0.000165072 0.0003160494 0.0006830247 0.001388272 0.001517142 0.0001 0.0001005208 0.0001 0.0001 0.0001 0.00025 0.000475 0.0001 0.0005 0.0018 0.0122 0.0059 0.0789 0.1548 0.2506 0.2833 0.72285 0.0334 0.0915 0.2526 0.333 0.5897 1.562444 1.84575 1.6196 1.6196 1.910803 1.95532 1.760619 1.431609 0.9767445 0.6395278 0.3643 0.2903 0.1571 0.7130584 0.9476902 0.9371063 0.9187 6.12881 6.921136 5.162892 3.993805 3.352034 3.081175 3.000109 2.9875 2.9875 1.051566 0.05740312 0.0068 0.2453462 0.1414318 0.0265037 0.0044 0.0044 0.0044 0.0044 0.0044 0.0044 0.01039475 0.006695204 0.003475128 0.002773739 0.002677344 0.0026 0.005906925 0.0092 0.006201955 0.004700632 0.0047 0.0047 4.488883 6.722936 6.719719 6.7165 3.128031 1.31427 1.302449 1.297559 1.296329 1.2951 0.4448557 0.01032248 0.004516731 0.002489969 0.001891821 0.001743185 0.001711189 0.0017033 0.001701648 0.0017 0.0009215639 0.0003518483 0.0002483932 0.0002147243 0.0002041913 0.0002010664 0.0002002235 0.0002000339 0.0002000028 0.0002 0.0002 0.0002 0.0002 0.0002 0.0002 0.0002 0.0001722723 0.0001257644 0.000107584 0.0001021104 0.000100584 0.0001001711 0.0001000572 0.0001000184 0.0001000092 0.0001 0.59355 1.187 
0.0001 0.0001 0.0001 0.0001 0.0001 0.0001 0.0001 0.0001 0.0001 0.0001002604 0.0001 0.0001125 0.0001361111 0.0002466049 0.0005654321 0.001237037 0.002362346 0.002369184 0.0001 0.0001015625 0.0001 0.0001 0.0001 0.0004 0.0013 0.0042 0.012 0.01885 0.0291 0.09887143 0.2597 0.5194 0.9457 1.10445 1.629 1.8139 1.5395 0.8464 1.742425 2.29805 1.6196 1.6196 2.034546 2.019256 1.969811 1.876894 1.43515 0.9827833 0.5123 0.4235 0.1571 0.7707625 0.9688584 0.9555125 0.9187 7.783772 9.074809 6.737959 4.950641 3.800075 3.2307 3.025326 2.9875 2.9875 1.103959 0.1080062 0.0068 0.5546892 0.3491842 0.07071111 0.0044 0.0044 0.0044 0.0044 0.0044 0.0044 0.02005992 0.01241492 0.004704165 0.002966531 0.002754688 0.0026 0.005920774 0.0092 0.006205922 0.004701898 0.0047 0.0047 4.498526 6.729369 6.722939 6.7165 3.152835 1.33302 1.309771 1.300019 1.297557 1.2951 0.4568737 0.01956977 0.007879568 0.003518111 0.002152514 0.001799283 0.001723667 0.001706604 0.001703296 0.0017 0.001162879 0.0005198329 0.0003035439 0.0002321679 0.0002094678 0.0002025373 0.0002005689 0.0002000931 0.0002000085 0.0002 0.0002 0.0002 0.0002 0.0002 0.0002 0.0002 0.0002164914 0.0001558166 0.0001167809 0.0001046955 0.0001012756 0.00010036 0.0001001163 0.000100037 0.0001000183 0.0001 0.59355 1.187 0.5277007 
0.0001 0.0001 0.0001 0.0001 0.0001 0.0001 0.0001 0.0001 0.0001 0.0001 0.0001010417 0.0001 0.000125 0.0001833333 0.0004314815 0.001081481 0.002198148 0.003807407 0.003371181 0.0001 0.00010625 0.0001 0.0001 0.0004 0.0013 0.0043 0.0172 0.03523333 0.0471 0.1166 0.5851572 0.9346 1.5717 2.2181 2.1636 2.58 2.7859 2.8138 2.9765 3.114275 1.6196 2.47595 2.195333 1.8473 2.015133 2.047 1.56855 0.6899 0.6899 0.1571 0.938075 0.99555 0.992325 0.9187 9.544639 11.70617 8.965578 6.552674 4.695626 3.603622 3.100978 2.9875 2.9875 1.212324 0.2092125 0.0068 1.168804 0.8398194 0.2033333 0.0044 0.0044 0.0044 0.0044 0.0044 0.0044 0.04198513 0.02604163 0.007812903 0.003390218 0.002909375 0.0026 0.005962323 0.0092 0.006217995 0.004705693 0.0047 0.0047 4.517797 6.74223 6.729377 6.7165 3.200723 1.369761 1.324356 1.304943 1.300014 1.2951 0.4795333 0.0378435 0.01501781 0.005847981 0.002772913 0.001933439 0.001751189 0.00171322 0.001706592 0.0017 0.001661545 0.0008699124 0.0004200583 0.0002695278 0.0002210456 0.0002059304 0.0002014273 0.000200254 0.0002000254 0.0002 0.0002 0.0002 0.0002 0.0002 0.0002 0.0002 0.0003090137 0.0002199282 0.0001370238 0.0001104979 0.000102821 0.0001007676 0.0001002381 0.0001000742 0.0001000366 0.0001 0.5935501 1.187 0.3958498 0.0002524001 
0.0001 0.0001 0.0001 0.0001 0.0001 0.0001 0.0001 0.0001 0.0001 0.0001 0.0001 0.0001041667 0.0001 0.00015 0.0003 0.0008444444 0.0021 0.00365 0.005672222 0.0040625 0.0001 0.000125 0.0001 0.0005 0.002 0.0084 0.01581667 0.027 0.079 0.2037 0.468 1.5941 2.945 3.7564 4.0536 4.7168 5.0231 4.7249 4.2114 4.511517 3.6496 3.2237 1.4109 1.9514 2.1796 1.9144 3.095075 1.2227 0.1571 1.52725 1.002 1.06595 0.9187 11.04041 14.4853 11.73414 8.899077 6.263511 4.495433 3.327933 2.9875 2.9875 1.443372 0.411625 0.0068 2.153359 1.913858 0.6012 0.0044 0.0044 0.0044 0.0044 0.0044 0.0044 0.08976752 0.05790494 0.01586805 0.004351903 0.00321875 0.0026 0.006086968 0.0092 0.006254901 0.004717078 0.0047 0.0047 4.5563 6.767934 6.742255 6.7165 3.291908 1.441143 1.353341 1.3148 1.304928 1.2951 0.5205419 0.07272197 0.02976943 0.01103911 0.004244896 0.002259934 0.001813908 0.001726476 0.001713184 0.0017 0.002685408 0.001595594 0.0006651767 0.0003489667 0.0002460315 0.0002135853 0.00020352 0.0002006859 0.0002000762 0.0002 0.0002 0.0002 0.0002 0.0002 0.0002 0.0002 0.0004997923 0.0003550228 0.0001812398 0.0001235221 0.0001063096 0.0001016619 0.0001004916 0.0001001495 0.0001000732 0.0001 0.5935504 1.187 0.3958944 0.0002689456 0.0002358545 
0.0001 0.0001 0.0001 0.0001 0.0001 0.0001 0.0001 0.0001 0.0001 0.0001 0.0001 0.0001 0.0001166667 0.0001 0.0002 0.0006 0.001733333 0.003966667 0.00525 0.0078 0.0031 0.0001 0.0002 0.0008 0.0028 0.0092 0.07741667 0.0288 0.1012 0.284 0.7182 1.4017 2.858225 4.9171 6.8874 7.7982 8.553 8.2245 7.6276 7.77255 6.9844 6.4298 6.27 4.8153 4.5184 5.7393 4.7164 4.5268 3.8646 0.8741 1.2132 0.9187 11.70253 16.5452 14.9952 11.9155 8.291734 6.49 4.0088 2.9875 2.9875 1.962737 0.81645 0.0068 2.869459 3.942375 1.7948 0.0044 0.0044 0.0044 0.0044 0.0044 0.0044 0.1875735 0.1299482 0.03714846 0.00661821 0.0038375 0.0026 0.006460906 0.0092 0.006368368 0.004751235 0.0047 0.0047 4.633195 6.819294 6.768009 6.7165 3.46225 1.578162 1.41072 1.334545 1.314756 1.2951 0.5912466 0.1365656 0.05925539 0.02234495 0.007707944 0.003064445 0.001962298 0.00175306 0.001726367 0.0017 0.004772156 0.00309042 0.001179055 0.0005173077 0.0002991676 0.0002304247 0.0002085023 0.000201829 0.0002002286 0.0002 0.0002 0.0002 0.0002 0.0002 0.0002 0.0002 0.0008867644 0.0006355944 0.0002768103 0.0001526637 0.0001142453 0.0001036573 0.0001010262 0.000100302 0.0001001465 0.0001 0.5935512 1.187 0.3959954 0.000335128 0.0002471069 0.0002246021 
0.0001 0.0001 0.0001 0.0001 0.0001 0.0001 0.0001 0.0001 0.0001 0.0001 0.0001 0.0001 0.0001 0.0001666667 0.0001 0.0003 0.0014 0.0035 0.007 0.021875 0.0086 0.0006 0.004 0.0215 0.1013 0.364 0.6988 0.0271 0.0745 0.2375 0.7082 1.9767 5.5471 7.430725 10.7145 13.0951 13.0717 12.8872 12.3236 12.42093 11.8387 11.1009 10.199 9.619 9.9744 13.47315 11.1326 12.8058 14.4029 17.6221 17.5891 16.9999 15.51306 17.189 15.9014 11.8952 7.9499 5.0301 6.669625 2.9875 3.23055 1.6261 0.0068 3.586287 4.29955 3.5852 2.580335 0.0044 0.0044 0.0044 0.0044 0.0044 0.3682292 0.2834741 0.09419074 0.01217963 0.005075 0.0026 0.007582716 0.0092 0.00671977 0.004853704 0.0047 0.0047 4.786696 6.921864 6.819519 6.7165 3.772138 1.836736 1.523625 1.374125 1.334412 1.2951 0.7064286 0.2476674 0.1157905 0.04623874 0.01573694 0.005059174 0.002327716 0.001806444 0.001752734 0.0017 0.008991806 0.006145125 0.002251694 0.0008744399 0.0004110298 0.0002664533 0.0002200198 0.0002048011 0.0002006859 0.0002 0.0002 0.0002 0.0002 0.0002 0.0002 0.0002 0.001657702 0.001208729 0.0004806261 0.0002174277 0.000132377 0.0001081863 0.0001021727 0.000100613 0.000100293 0.0001 0.5935537 1.187 0.3962083 0.0004811186 0.0002921166 0.0002321487 0.0002170554 
0.0001 0.0001 0.0001 0.0001 0.0001 0.0001 0.0001 0.0001 0.0001 0.0001 0.0001 0.0001 0.0001 0.0002 0.0003 0.001 0.0032 0.0098 0.0256 0.07408334 0.0463 0.0061 0.0363 0.1949 0.8812 1.9178 4.76485 1.8459 1.4237 2.3022 4.6103 8.0907 8.83752 7.2039 14.2219 16.5705 18.1236 18.171 17.69952 17.6699 18.0814 18.6523 19.651 22.0652 23.8588 21.63993 26.6383 29.2853 27.2795 25.4334 22.3776 21.6775 20.47192 20.7802 19.266 18.08 16.1019 11.9784 11.44852 6.6825 3.2454 0.0068 5.73925 5.0139 3.5852 4.807292 3.261733 1.24305 0.0044 0.0044 0.0044 0.6444833 0.5754 0.2486333 0.02638889 0.00755 0.0026 0.01094815 0.0092 0.007817969 0.005161111 0.0047 0.0047 5.092995 7.126554 6.922537 6.7165 4.315394 2.313056 1.743601 1.45355 1.373723 1.2951 0.8823811 0.4295781 0.2186551 0.09476921 0.03394716 0.009999846 0.003263814 0.001913864 0.001805469 0.0017 0.01746773 0.01232637 0.004473121 0.001635886 0.0006460753 0.000341358 0.0002456561 0.0002123457 0.0002020576 0.0002 0.0002 0.0002 0.0002 0.0002 0.0002 0.0002 0.003164451 0.002358135 0.0009082216 0.0003598314 0.0001738252 0.0001186266 0.0001046791 0.0001012532 0.0001005859 0.0001 0.5935612 1.187 0.3966524 0.0007891611 0.0003918596 0.0002623352 0.0002221549 0.0002119559 
0.0001 0.0001 0.0001 0.0001 0.0001 0.0001 0.0001 0.0001 0.0001 0.0001 0.0001 0.0001 0.0001 0.0001 0.0004 0.0017 0.0065 0.024 0.0832 0.1151667 0.2738 0.8403 1.9253 3.8548 6.4757 5.877967 9.6737 14.7606 18.6182 19.4858 19.0344 12.4587 18.21132 14.4576 14.3594 23.1523 22.6841 23.2072 23.36422 21.9382 22.0662 23.5173 25.7626 27.4422 28.7913 26.67348 29.4442 28.3459 29.6691 28.3163 26.6839 24.36405 24.4306 21.7543 19.8405 20.1902 20.4553 21.4643 17.22813 20.5483 18.3433 12.9224 6.4426 3.5852 7.018233 5.0526 3.573133 1.159467 0.2352 0.0044 0.9114 0.9928 0.6693333 0.06406666 0.0125 0.0026 0.02104444 0.0092 0.01128854 0.006083333 0.0047 0.0047 5.704118 7.534587 7.128575 6.7165 5.219112 3.160714 2.165252 1.613204 1.452347 1.2951 1.133906 0.7067416 0.3937766 0.188216 0.07397261 0.02211903 0.00574985 0.002130654 0.001910937 0.0017 0.03446119 0.02470476 0.009004984 0.003269364 0.001145016 0.0004932784 0.0002999314 0.0002308642 0.0002061728 0.0002 0.0002 0.0002 0.0002 0.0002 0.0002 0.0002 0.006051695 0.004617924 0.001788185 0.0006682961 0.0002681834 0.0001430146 0.0001102777 0.0001025876 0.0001011719 0.0001 0.5935836 1.187 0.3975711 0.001434457 0.0006040463 0.0003289794 0.000242553 0.0002154733 0.0002084385 
0.0001 0.0001 0.0001 0.0001 0.0001 0.0001 0.0001 0.0001 0.0001 0.0001 0.0001 0.0001083333 0.0001 0.0001 0.0004 0.0017 0.0062 0.0211 0.0668 0.14115 0.1953 0.5262 1.2971 2.9045 5.8526 8.2326 10.4668 16.2501 21.5201 27.6415 29.6893 35.1235 30.07757 31.9335 26.9312 27.89589 29.3223 29.3703 31.00258 29.8287 26.9837 25.6683 25.434 24.6738 25.2211 25.72275 26.0872 26.2792 26.2309 26.3202 26.1877 25.0188 24.827 23.4284 22.1063 20.6045 20.6443 21.1294 22.5852 21.5659 21.5664 20.8953 17.5229 10.1415 15.85564 7.328 2.7772 0.6142 0.087 5.109825 5.214075 1.8184 0.1672 0.0224 0.0026 0.05133333 0.0092 0.02240417 0.00885 0.0047 0.0047 6.92451 8.346611 7.54065 6.7165 6.612724 4.595978 2.951246 1.934917 1.609594 1.2951 1.475588 1.097026 0.6679112 0.3552878 0.1581308 0.05122942 0.01255759 0.002570088 0.002121875 0.0017 0.06881075 0.0493286 0.01800542 0.006780247 0.002229287 0.0007985597 0.0004072016 0.0002740741 0.0002185185 0.0002 0.0002 0.0002 0.0002 0.0002 0.0002 0.0002 0.01147642 0.008970141 0.003560222 0.001323408 0.0004809256 0.0002005544 0.0001230703 0.0001054191 0.0001023438 0.0001 0.5936509 1.187 0.3994516 0.002778217 0.001054744 0.0004704112 0.0002869841 0.0002295429 0.0002111319 0.0002057451 
0.0001 0.0001 0.0001 0.0001 0.0001 0.0001 0.0001 0.0001 0.0001 0.0001 0.0001 0.0001270833 0.0001333333 0.0001 0.0005 0.0018 0.0061 0.0198 0.0403 0.0596 0.1682 0.4449 1.1048 2.5784 5.6314 7.1551 11.2954 19.7765 23.5436 30.9539 38.7937 35.32402 42.6099 43.8822 42.1896 36.6323 37.24109 42.4525 37.03438 39.2186 34.2036 28.679 24.5353 22.5485 23.73078 22.2475 22.5452 21.9771 22.8644 23.4875 23.8715 22.24723 24.1121 24.3371 24.6926 25.2466 25.2821 20.77503 24.6695 26.1338 27.4465 28.6062 29.6083 30.5945 20.39947 27.629 23.7764 19.5629 14.1872 6.1607 9.38875 12.8728 7.7075 2.7852 0.1422 0.0092 0.05856667 0.01715 0.0047 0.0047 9.370007 9.958533 8.3648 6.7165 8.532027 6.858284 4.344086 2.585564 1.924088 1.2951 1.93931 1.611514 1.05643 0.6231334 0.3241707 0.1185593 0.0316625 0.003466512 0.00254375 0.0017 0.1398095 0.09862839 0.03510514 0.01425226 0.004658848 0.00142963 0.0005993827 0.0003666667 0.0002555556 0.0002 0.0002 0.0002 0.0002 0.0002 0.0002 0.0002 0.02147565 0.01718244 0.007047582 0.002680401 0.0009526834 0.0003371399 0.0001529535 0.0001115698 0.0001046875 0.0001 0.5938526 1.187 0.4032438 0.005550328 0.002012137 0.000772187 0.0003799073 0.0002591392 0.0002219057 0.0002075839 0.0002039063 
0.0001 0.0001 0.0001 0.0001 0.0001 0.0001 0.0001 0.0001 0.0001 0.0001 0.0001 0.0001 0.000175 0.0002 0.0006 0.0022 0.007 0.0203 0.04448333 0.0542 0.1318 0.2944 0.6171 1.2834 2.8727 7.211083 6.8117 24.0271 19.7013 25.3224 30.6635 34.77755 35.0642 38.1352 40.2091 41.0858 44.5833 45.14362 42.43594 44.3018 42.4005 37.4216 30.7744 25.6231 25.86912 22.0707 20.3204 19.2688 18.6595 18.0574 17.514 18.9357 16.9711 16.4132 16.0462 16.1026 16.169 17.82432 16.7559 17.6726 19.2204 20.3495 21.4826 22.8233 23.0416 23.8805 23.5711 20.9374 17.6205 16.7031 14.2843 13.5391 16.0326 13.2062 8.1549 0.1369 0.0296 13.45232 0.0047 14.31623 13.146 10.0131 6.7165 10.74527 10.09567 6.570667 3.908517 2.553075 1.2951 2.610772 2.2874 1.563967 0.9831759 0.6221463 0.2640778 0.08628796 0.005312037 0.0033875 0.0017 0.2913311 0.2007907 0.06541605 0.0296784 0.01022099 0.002857407 0.0008981482 0.0005333333 0.0003666667 0.0002 0.0002 0.0002 0.0002 0.0002 0.0002 0.0002 0.03956256 0.03237654 0.01376348 0.005407305 0.001971965 0.0006619341 0.0002241512 0.0001253344 0.000109375 0.0001 0.5944577 1.187 0.4107439 0.01119182 0.004039363 0.001419805 0.0005772434 0.000319513 0.0002429655 0.0002149391 0.0002078125 0.0002 
0.0001 0.0001 0.0001 0.0001 0.0001 0.0001 0.0001 0.0001 0.0001 0.0001 0.0001 0.0001 0.0001 0.0003 0.001 0.0034 0.0107 0.0311 0.05681667 0.0819 0.1946 0.4108 0.7514 1.1262 2.23835 1.1516 15.5037 12.5594 17.4094 22.7398 28.1787 30.00572 33.3553 37.4943 41.747 47.1402 47.6395 45.8992 42.68818 40.3076 40.0402 39.233 37.6891 34.1957 30.36368 28.5292 22.8687 20.5941 18.9679 17.3244 17.45043 16.0472 15.0983 14.134 13.0417 12.1635 11.8757 13.04867 12.1937 13.0168 13.4488 14.5343 15.478 17.53645 16.3095 17.0128 17.5641 17.9268 18.1415 18.1414 18.45234 17.5435 18.529 22.689 24.7741 41.1637 16.27702 29.2363 24.5387 19.4118 13.3097 6.7165 12.597 14.38605 9.28155 6.6194 3.81105 1.2951 3.613506 3.253667 2.280817 1.327717 1.083367 0.5384445 0.2446278 0.009161111 0.005075 0.0017 0.6209188 0.4289148 0.1137907 0.05966667 0.02279074 0.006577778 0.001294444 0.0007 0.0007 0.0002 0.0002 0.0002 0.0002 0.0002 0.0002 0.0002 0.07162309 0.05992654 0.02650062 0.01070247 0.004087346 0.001432099 0.0003964506 0.0001572531 0.00011875 0.0001 0.5962732 1.187 0.425212 0.02245974 0.008303944 0.002811763 0.001002383 0.0004452675 0.0002840792 0.0002291924 0.000215625 0.0002 0.0002 
0.0001 0.0001 0.0001 0.0001 0.0001 0.0001 0.0001 0.0001 0.0001 0.0001 0.0001 0.0001 0.0001 0.0004 0.0013 0.0044 0.014 0.0413 0.06871667 0.1121 0.2795 0.6389 1.3356 2.55 2.589817 4.4462 7.1109 10.4988 14.4659 18.8604 23.448 26.62358 29.3246 32.2794 33.9321 37.1274 39.4056 41.3304 40.2441 40.09208 41.1888 41.1194 39.6638 37.2564 36.31173 34.507 29.1479 24.3276 22.1745 19.0753 18.60342 16.6843 15.208 14.3878 13.4468 12.1232 10.9152 10.90515 10.3825 9.9318 11.1564 12.9256 13.985 13.8034 15.1403 16.2162 17.1322 17.9643 18.7546 19.5167 17.48597 20.357 21.3457 20.69744 35.1195 13.8589 20.23507 13.2367 13.4451 13.6238 14.0268 14.5385 16.536 15.17408 12.2361 6.327 1.2951 4.839075 4.57065 3.7492 1.44115 1.6521 0.8899 0.7081 0.01733333 0.00845 0.0017 1.308342 0.9947111 0.1789222 0.1131111 0.04933889 0.01655 0.002483333 0.0007 0.0007 0.1037104 0.07598437 0.0002 0.0002 0.0002 0.0002 0.0002 0.1271757 0.1084778 0.05063889 0.02066296 0.0082 0.003244444 0.0008175926 0.0002342593 0.0001375 0.0001 0.6017197 1.187 0.4522617 0.04439506 0.01719136 0.005792798 0.001927675 0.0007148148 0.0003646605 0.0002563272 0.00023125 0.0002 0.0002 0.0002 
0.0001 0.0001 0.0001 0.0001 0.0001 0.0001 0.0001 0.0001 0.0001 0.0001 0.0001 0.0001 0.0001 0.0004 0.0013 0.0044 0.0137 0.0256 0.0397 0.1062 0.2614 0.5898 1.2177 2.2979 3.119967 3.967 6.2864 9.2031 12.5661 16.2033 19.9849 22.8876 25.45 32.4565 31.0783 33.7035 36.2497 37.96355 38.5443 40.2275 41.76115 44.2568 43.9436 42.23368 42.3155 41.0666 39.1487 35.199 28.1574 23.5413 22.87172 18.948 15.7878 14.6758 14.2644 12.7695 11.99553 10.7897 9.2741 8.8622 8.8534 9.2218 10.453 10.63803 11.4546 12.185 12.9734 13.5724 14.1178 14.5567 15.52085 14.8005 14.9118 14.8935 11.1485 11.7206 11.9327 12.1942 12.6191 13.0893 13.7096 14.5463 14.626 15.4391 16.4851 15.7583 8.9199 3.9646 5.1767 3.043925 2.3217 0.5606 2.074 0.0351 0.0152 0.0017 2.4449 2.546433 0.2403333 0.1973667 0.09906667 0.0429 0.00605 0.0007 0.0007 0.195175 0.1550167 0.06395 0.08477084 0.0002 0.0002 0.0002 0.2223083 0.1888111 0.09738334 0.03923889 0.01529444 0.007455556 0.00185 0.0004277778 0.000175 0.0001 0.6180593 1.187 0.5009818 0.08555617 0.03550864 0.01212037 0.003945062 0.001312963 0.000525 0.0003064815 0.0002625 0.0002 0.0002 0.0002 0.0002 
0.0001 0.0001 0.0001 0.0001 0.0001 0.0001 0.0001 0.0001 0.0001 0.0001 0.0001 0.0001 0.0001 0.0003 0.0011 0.0037 0.0115 0.02131667 0.0334 0.0897 0.2216 0.503 1.0461 1.9907 2.666667 3.468 5.5473 8.1962 11.2841 14.6259 16.46583 18.0352 21.0829 30.641 29.1887 32.1776 35.196 36.49582 38.1416 40.8037 42.9707 44.69864 45.5942 45.36283 44.6286 44.0485 42.5537 40.3091 37.0058 32.3164 30.23175 26.665 21.269 17.4069 15.13 13.6047 13.08613 11.7709 9.7855 7.8978 6.8647 6.3181 6.1788 8.029883 6.6165 7.7785 9.4119 10.0574 10.7422 11.03138 11.5929 12.3013 35.7452 16.6923 11.72459 9.9997 10.5969 10.5861 11.0459 11.4665 12.0475 12.8459 13.37368 13.8502 16.3226 18.9293 20.9586 16.6375 3.405 2.896367 1.2723 2.4014 3.4455 3.1194 3.1964 6.043067 7.1297 0.2033 0.3063 0.2114 0.0744 0.0114 0.40395 0.0007 0.3711 0.2842 0.1247 0.05615 0.011 0.2717333 0.0002 0.3988 0.2987333 0.1915 0.0762 0.02445 0.01706667 0.004366667 0.0009333334 0.00025 0.0001 0.6670778 1.187 0.5856403 0.1584333 0.07285371 0.02538148 0.008290741 0.002688889 0.0008555556 0.0003944444 0.000325 0.0002 0.0002 0.0002 0.0002 0.0002 
0.0001 0.0001 0.0001 0.0001 0.0001 0.0001 0.0001 0.0001 0.0001 0.0001 0.0001 0.0001 0.000175 0.0002 0.0007 0.0023 0.0074 0.01471667 0.0222 0.0612 0.1549 0.3613 0.7749 1.5254 2.100783 2.751 4.5522 6.9443 9.8626 13.1775 14.62112 16.7682 20.3634 23.9049 27.2966 30.4898 33.7465 35.28867 37.0968 40.3459 43.2165 45.2264 47.6823 46.99834 48.0128 48.314 47.8469 46.6208 44.715 41.7359 41.9401 37.9797 32.7093 26.5595 21.3912 15.8427 16.56307 13.7393 11.5038 9.1738 7.547 7.1309 6.8758 6.401183 6.6006 6.2314 5.6993 6.5561 6.8407 9.196 8.338 15.9563 7.5639 8.3433 9.2742 8.508525 9.19305 8.4839 9.0258 9.6283 10.3117 11.1412 11.4579 12.4194 15.0503 17.3489 20.7434 20.619 3.1069 3.59015 2.0956 6.1764 7.7603 7.5624 8.6017 10.81063 17.3137 0.6343 1.0219 1.0278 0.9683 0.88 0.9595833 0.7237 0.4982 0.2618 0.0926 0.0197 0.620125 0.0023 0.8127 0.5132 0.2691 0.1139 2.95505 0.0385 0.0104 0.0023 0.0004 0.0001 0.8141333 1.187 0.7331167 0.2740778 0.1483667 0.05285555 0.01733889 0.00595 0.001583333 0.0005333333 0.00045 0.0002 0.0002 0.0002 0.0002 0.0002 0.0002 
0.000100002 0.0001 0.0001 0.0001 0.0001 0.0001 0.0001 0.0001 0.0001 0.0001 0.0001 0.0001270833 0.0001333333 0.0001 0.0003 0.0009 0.0032 0.00845 0.0106 0.0322 0.0853 0.2073 0.4674 0.7367333 0.9809 1.8887 3.3217 5.3074 7.8601 10.883 12.4984 14.2369 17.7788 21.4365 25.0522 28.4697 29.95407 31.9387 35.6124 39.4216 42.9778 45.6614 45.96522 47.92757 49.0738 50.295 50.6146 50.1502 48.531 49.61853 45.9071 41.7157 36.7286 32.1105 27.5025 23.9123 23.53403 20.5085 17.2268 13.8836 10.2768 7.2306 8.748683 6.3594 5.776 5.1602 4.538 3.9557 12.5812 7.533916 5.081 4.1952 4.661 5.6114 7.0577 6.67982 7.7025 6.940871 6.9303 7.3403 7.8697 8.6498 9.124717 9.8409 11.7319 14.0611 14.7978 12.0922 12.55243 8.4977 3.1634 4.8588 7.9277 9.5107 11.4186 14.55173 17.2037 27.9835 1.8948 2.1521 2.1932 4.068833 2.1306 2.0111 1.8597 1.7013 1.5402 1.3513 4.2992 1.1072 4.564871 8.6558 7.853 6.4435 5.997066 5.2243 4.1058 3.0443 2.0688 1.2553 1.187 1.033133 0.412 0.3003333 0.1099 0.03486667 0.0138 0.00335 0.0007 0.0007 0.0002 0.0002 0.0002 0.0002 0.0002 0.0002 0.0002 
0.0001 0.0001000081 0.0001 0.0001 0.0001 0.0001 0.0001 0.0001 0.0001 0.0001 0.0001095486 0.0001111111 0.0001 0.0001 0.0002 0.0006 0.0019 0.004133333 0.0054 0.013 0.0383 0.0926 0.1997 0.4620167 0.4721 1.0479 2.1747 3.6918 5.7838 8.4215 9.944883 11.5033 14.8996 18.5018 22.1802 25.7781 27.38173 29.3016 33.0025 36.9197 40.8369 44.3146 46.9414 47.96025 49.75844 53.5976 56.5915 58.6576 59.1753 56.61267 57.4427 52.9608 47.1232 41.177 37.323 35.187 32.13933 32.0144 29.1632 24.7869 19.6423 14.4974 12.6486 10.398 7.8782 7.1273 7.0351 6.8903 7.0214 7.08785 5.3412 5.0555 4.8981 4.663 4.2324 5.923433 5.1323 6.5171 4.7942 5.1712 5.4918 5.9719 6.0319 6.6651 7.8665 8.8486 18.6621 14.0761 11.08102 16.9227 9.9294 5.3321 8.1987 10.5332 13.3204 14.38057 19.4523 37.3487 7.1743 8.0607 8.7545 6.8383 9.4864 10.3488 11.4123 12.4366 12.5569 12.1782 8.55195 11.1365 9.7264 11.50457 14.1587 13.0795 9.559267 11.0827 8.7856 6.4278 4.2074 2.5616 1.319 0.80636 0.5934 0.2306 0.077 0.0221 0.0055 0.001875 0.0012 0.0002 0.0002 0.0002 0.0002 0.0002 0.0002 0.0002 0.0002 
0.0001000057 0.0001 0.0001000326 0.0001 0.0001 0.0001 0.0001 0.0001 0.0001 0.0001033131 0.0001037037 0.0001 0.0001 0.0001333333 0.0001 0.0003 0.0006666667 0.0009 0.0028 0.0094 0.0254 0.0761 0.2114 0.2480333 0.4406 0.7854 1.2462 2.2841 3.8443 5.001266 5.9751 8.6495 11.7802 15.2473 18.8914 22.6075 24.39642 26.1948 29.7322 33.4536 37.5301 41.7323 43.3182 45.86 49.9658 54.3217 59.1485 63.5427 65.2756 63.36333 63.3443 60.087 56.8745 49.6135 46.6482 43.55617 42.5955 38.6183 34.758 30.7348 25.9548 21.2702 18.82868 16.136 10.6578 10.1888 7.4073 6.907 6.89945 6.5031 5.9992 5.8412 5.7359 5.6612 5.6483 4.336833 5.7674 4.3576 4.218829 3.446 3.5673 4.1699 4.2209 4.8404 5.743 7.8409 5.2214 5.411 8.38905 9.4864 10.1908 5.177 6.386 8.0034 9.360133 10.1718 14.7166 23.1519 33.4275 9.2531 9.0664 8.517134 9.3987 9.8098 10.2521 10.8443 12.126 11.12718 13.6934 11.8451 13.9592 14.6743 11.42556 11.395 8.274533 10.1306 8.065 5.6655 3.3025 1.6043 1.075683 0.6868 0.2456 0.0731 0.0182 0.0038 0.0007 0.001875 0.0001 0.0005 0.0002 0.0002 0.0002 0.0002 0.0002 0.0002 0.0001664062 
0.0001000057 0.0001000115 0.0001 0.0001001302 0.0001 0.0001 0.0001 0.0001 0.0001011369 0.0001012346 0.0001 0.0001 0.0001111111 0.0001 0.0001666667 0.0001 0.000375 0.0002 0.0008 0.0026 0.0077 0.0205 0.0514 0.1442333 0.113 0.2738 0.6048 1.2168 2.232 3.16775 3.7509 5.8326 8.5228 11.8621 15.6538 19.4852 21.0203 23.0113 26.3368 29.9275 33.9471 38.119 40.80965 42.9419 48.3189 53.9401 58.6895 64.8132 69.6488 67.03833 65.2933 69.9814 56.863 54.0104 51.759 47.73617 47.8243 43.106 38.9112 35.114 31.3476 26.6187 34.23797 24.0518 41.0134 19.408 12.8499 7.9854 10.49085 6.0895 5.4963 5.0284 4.4894 3.8402 3.0664 3.83935 2.1742 2.4869 2.7588 2.989314 2.7393 3.443767 2.9682 4.4863 5.3717 3.2385 2.2186 1.5 3.49515 2.9381 2.9532 3.4133 4.8169 6.1894 7.714567 7.9426 10.7907 16.4173 33.4791 7.4075 7.1474 7.118683 7.2494 7.4646 7.5966 7.73 7.9261 8.289117 8.2825 12.3724 12.3015 12.3177 11.9974 2.3563 5.24982 1.6031 0.8945 0.4304 0.3784 0.2053 0.4342667 0.0771 0.0217 0.0048 0.0009 0.0001 0.001533333 0.0004 0.0001 0.0001 0.0002666667 0.0002 0.0002 0.0002 0.0002 0.000165625 0.0001 
0.0001 0.0001000114 0.0001000347 0.0001 0.0001005208 0.0001 0.0001 0.0001003871 0.0001004115 0.0001 0.0001 0.0001037037 0.0001 0.0001222222 0.0001 0.0001 0.00015 0.0003666667 0.0001 0.0003 0.0011 0.0041 0.01558333 0.0118 0.0372 0.1023 0.2546 0.5713 1.1484 1.93905 2.0558 3.2833 4.8284 7.2757 11.1459 13.87478 15.5597 19.2633 22.828 26.6843 30.9696 35.5255 37.1142 40.6792 46.6546 52.9264 54.50753 55.7361 62.57962 75.6322 63.0358 61.1333 56.8421 54.1989 50.3705 46.45218 47.2195 45.3937 44.3986 43.8654 43.7106 45.19748 74.2609 43.0902 30.6833 26.83 24.486 20.7146 15.1908 14.7455 8.0652 4.8967 4.2973 3.7846 4.348017 3.3431 3.0367 2.9118 2.6961 2.3474 3.3703 3.16666 3.7966 3.3328 2.7918 2.1613 0.7107 1.27025 0.4458 1.1896 2.7992 4.1097 5.2265 6.3771 6.9353 7.6031 8.6147 11.4307 18.6956 30.8571 15.88683 4.2872 5.563 5.2809 4.6787 3.9485 3.6864 5.437483 4.0203 4.085 3.9394 3.5961 3.0555 4.04702 1.478275 0.7641 0.4888 0.2382 0.0871 0.0258 0.05685 0.0063 0.0013 0.0002 0.00122 0.0005 0.0001 0.0005333333 0.0002 0.0001 0.0001 0.0001888889 0.0002 0.0002 0.0001625 0.0001 0.000189253 
0.0001 0.0001 0.0001000343 0.0001001044 0.0001 0.0001020833 0.0001025162 0.0001001372 0.0001 0.0001 0.0001012346 0.0001 0.0001074074 0.0001 0.0001 0.0001166667 0.0001633333 0.0001 0.00015 0.0001 0.0004 0.0014 0.0049 0.0043 0.0126 0.04 0.1171 0.3157 0.7804 1.23905 1.6668 2.9085 5.1529 7.4544 9.35 10.33212 12.0541 16.3132 19.9598 23.4569 26.9698 30.8462 32.02662 34.5734 39.3949 44.8539 50.5935 48.14138 55.78183 47.0678 49.2947 50.3914 48.2137 46.1341 42.1756 39.28612 39.3642 37.9965 37.097 36.349 64.0567 41.99245 31.1904 26.9229 26.3075 26.0444 24.7655 22.1375 18.91757 19.4723 17.3473 12.8651 7.4432 5.9862 5.436817 6.0676 3.6841 3.5191 3.3727 3.2869 3.29356 3.458975 2.9589 3.3483 2.9773 3.1909 1.328 1.265417 1.4184 2.5485 3.7295 4.6615 5.6316 6.6571 6.738367 6.8425 7.5285 9.7993 13.4718 38.1954 21.9358 7.4264 6.6241 6.3392 5.9602 5.5322 4.8861 4.189133 3.8235 3.0918 2.5427 2.079 1.6363 2.04632 1.1896 0.8997857 0.5536 0.2261 0.0753 0.0216 0.01145 0.005 0.0009 0.0001 0.00015 0.000414 0.0003 0.0001 0.0002333333 0.0001333333 0.0001 0.0001 0.0001608025 0.00015 0.0001 0.0002309148 0.0002368441 
0.0001 0.0001 0.0001 0.0001001029 0.0001003147 0.0001 0.00010625 0.000108323 0.0001 0.0001004115 0.0001 0.0001024691 0.0001 0.0001 0.0001041667 0.0001310417 0.00015 0.0001 0.000175 0.0001 0.0005 0.0018 0.0066 0.006 0.0184 0.0513 0.1302 0.2975 0.7389666 0.6064 1.1765 1.6545 2.7783 4.2929 6.0623 9.496034 7.8207 9.9754 13.7463 17.3013 20.2486 23.3725 27.36132 27.1629 31.6825 36.6154 41.5447 44.6912 39.15145 38.0301 34.7227 35.013 35.2142 33.2944 34.29232 29.8231 26.7638 25.2656 24.0323 48.641 19.9732 27.18673 18.7629 18.9659 19.0773 19.0623 18.8815 18.84573 18.4834 17.9521 17.434 16.7087 15.1191 9.6838 7.7864 3.7556 4.2355 4.0434 3.8806 3.7531 3.7101 3.364725 3.3633 3.7194 2.9725 1.3387 1.5377 1.765717 2.1519 3.377 4.2825 5.1317 6.0395 6.16925 6.5208 6.4296 7.1305 8.754 11.0801 23.2046 24.11193 27.6441 3.0388 4.1266 4.4889 4.5806 4.4945 4.36745 4.224 3.9162 3.5714 3.1263 2.5306 2.255583 1.8196 1.1241 0.3587 0.1316 0.0396 0.02883333 0.0085 0.0015 0.0002 0.00035 0.0001 0.00015 0.004223905 0.00407 0.002423611 0.001488889 0.0005555556 0.0002259259 0.00015 0.0001 0.0003499711 0.0002794753 0.000194213 
0.0001 0.0001 0.0001 0.0001 0.0001003086 0.0001009503 0.0001 0.0001125 0.0001291152 0.0001676698 0.0002265432 0.0001 0.0001 0.0001008333 0.0001 0.0001 0.00015625 0.00025 0.0001 0.0004 0.0017 0.0061 0.02006667 0.02 0.0596 0.1604 0.3871 0.8344 1.4926 1.5994 2.7327 4.9022 6.6688 8.4014 10.0682 10.6387 11.6209 13.1837 14.815 17.3692 20.7163 21.5451 22.7249 25.488 26.8836 28.7768 30.5838 31.6346 31.81854 33.2122 25.8531 26.362 27.6449 28.2373 27.77923 26.0894 20.9977 19.5032 43.1568 14.3522 14.5019 15.41065 14.6353 14.7296 14.7578 14.6955 14.5311 15.41645 14.2754 13.8827 13.3504 12.6979 11.8717 11.1548 9.663067 10.0704 6.9626 4.8082 4.226 3.9986 3.786217 3.3293 3.4606 4.2657 3.7343 2.4456 1.6382 2.022983 2.5201 3.7037 4.6415 5.5116 6.0908 6.029383 6.0757 6.2862 6.9147 8.1258 9.8372 16.7762 24.46732 31.4249 4.189 4.2977 4.3983 4.4522 4.544167 4.4374 4.3392 4.168 3.8993 3.4821 4.8535 2.138717 1.5039 0.809 0.4614 0.079 0.0227 0.02321667 0.0053 0.001 0.0002 0.0004 0.0002 0.01165333 0.01144444 0.005505556 0.003 0.001088889 0.0003777778 0.0002 0.0001 0.0006267361 0.00045 0.0002231481 0.0001652778 
0.0001 0.0001 0.0001 0.0001 0.0001 0.0001009259 0.0001028754 0.0001 0.000125 0.0001623457 0.0002833333 0.0006111111 0.001697531 0.001833304 0.0001 0.0001 0.0001 0.000175 0.0004 0.0015 0.0059 0.008016666 0.0207 0.0658 0.1868 0.4719 1.0535 2.0671 2.08105 3.5508 5.3885 7.4414 9.5438 11.5301 13.3223 12.3023 14.9378 16.4618 18.0071 19.7009 22.141 17.931 20.0673 21.3496 20.9461 20.1748 22.4482 24.324 24.60623 25.2307 23.83336 20.3887 21.82 23.861 31.87453 25.3702 18.1794 52.6785 11.8144 11.9913 12.33565 12.1865 12.4041 12.6381 12.8634 13.0429 13.1335 13.26627 13.1938 13.1437 12.9563 12.5265 12.0984 11.7469 10.92695 11.5669 9.9725 7.1375 4.8944 4.0769 4.14405 3.8493 4.1334 4.6279 7.2118 2.8235 2.14715 1.5351 2.7549 3.9133 4.8699 5.4494 5.6379 5.766667 5.8116 6.1867 6.7506 7.6808 9.0302 13.9119 22.04368 33.8422 5.255 4.9199 4.7558 4.6763 4.579983 4.624 4.552 4.4227 4.1875 10.178 1.2197 1.94245 0.905 0.5047 0.2227 0.1370167 0.048 0.08862 0.0152 0.0042 0.001 0.0002 0.02966667 0.02005 0.00825 0.006033333 0.002233333 0.0007333333 0.0003 0.0001 0.0012625 0.0008055556 0.0003388889 0.0002055556 0.000125 
0.0001175781 0.0001 0.0001 0.0001 0.0001 0.0001 0.0001027778 0.000108724 0.0001 0.00015 0.000237037 0.000462963 0.001133333 0.003496296 0.004336889 0.0001 0.0001 0.0001 0.0001 0.0007 0.0029 0.008883334 0.0108 0.0362 0.1099 0.2982 0.7191 1.5363 2.273133 2.8983 4.3054 6.3503 8.4159 10.2101 11.1532 11.5409 12.3237 12.5295 12.1578 11.2587 9.7886 13.00683 12.1479 10.7221 12.1112 14.4989 15.1637 15.90717 16.0323 17.2036 18.5832 17.96107 19.0653 22.1695 39.3409 65.5198 43.922 14.1753 10.15 10.3753 10.55587 10.6067 10.8714 11.1837 11.5326 11.8867 12.1194 12.20133 12.3444 12.4696 12.3436 11.9318 11.4213 11.3454 10.8344 10.1883 9.5331 8.068 6.8864 4.87 5.246183 4.7402 5.2542 6.2347 4.4152 2.9093 2.09768 1.5312 2.9111 3.9503 4.5885 5.1349 5.306 5.544167 5.678 6.1118 6.6197 7.3493 8.4354 10.3693 12.0674 24.2395 22.3498 3.0087 4.1453 4.5694 5.634817 4.7206 4.7442 4.6688 13.7874 3.038 3.982833 1.9665 1.2061 0.6619 0.3174 0.1323 0.3857 0.46842 0.3519 0.2123 0.1185 0.0606 0.0282 0.114525 0.0119 0.0046 0.0016 0.0005 0.0001 0.0029 0.00155 0.0005 0.0003666667 0.00015 0.0001 
0.000125 0.0001277344 0.0001 0.0001 0.0001 0.0001 0.0001 0.0001083333 0.0001265625 0.0001 0.0002 0.0004111111 0.0007777778 0.002211111 0.0075 0.01177333 0.0001 0.0001 0.00034 0.0007 0.0028 0.007166666 0.0102 0.0341 0.1014 0.2678 0.6243 1.2787 1.956217 2.3076 4.2152 6.0939 7.9827 9.5933 9.676233 10.7225 11.3002 11.3789 11.0778 10.4609 7.3226 8.493267 6.5736 6.4032 6.3684 7.0133 8.0431 10.70765 9.4317 11.186 13.3244 15.9305 16.6154 29.62444 59.7318 39.3931 15.6183 8.4684 8.7448 8.9826 9.157333 9.1928 9.4214 9.7146 10.0891 10.5303 11.0116 10.95103 11.4053 11.5633 11.5257 11.3775 11.1415 10.8269 10.8299 10.3814 9.9748 12.006 9.3466 7.986 7.43335 5.9547 4.789 4.9486 2.1506 2.720725 2.214125 1.6893 2.8974 3.729 4.4867 5.0094 5.2052 5.4379 5.6263 6.071 6.5296 7.1136 8.0095 9.466084 10.7614 20.0821 61.5095 14.8098 10.1199 8.1315 7.3913 7.0871 6.4485 16.6029 5.2443 4.2601 4.348516 3.2347 2.3677 1.6874 1.1819 0.815 0.5475 1.0279 1.3795 0.9977 0.6858 0.4437 0.268 0.2840333 0.15 0.0774 0.0366 0.0159 0.0063 0.0023 0.003725 0.0008 0.0002 0.0001 0.0001666667 
0.0001 0.00015 0.0001609375 0.0001 0.0001 0.0001 0.0001 0.0001 0.000125 0.00018125 0.0001 0.0003 0.0008333334 0.0012 0.0046 0.0167 0.03736667 0.026275 0.0001 0.001366667 0.0035 0.41702 0.0128 0.0417 0.1206 0.3082 0.6915 2.511167 1.3581 2.3583 3.6851 5.1709 6.5877 7.6901 8.61605 8.3005 8.3539 7.9036 7.0882 6.1147 7.449817 7.5631 7.5638 7.457 7.2312 6.558 7.2762 8.25365 8.2989 9.4517 11.3006 14.6415 22.65098 39.78795 30.5402 11.4152 6.7074 7.1086 7.4878 7.7954 7.840183 7.9912 8.1358 8.3209 8.5995 8.9472 8.7618 9.268 9.5575 9.8184 10.0162 10.1436 10.2646 9.616633 10.4697 10.3524 12.0054 10.9067 12.2835 8.626616 11.7386 9.3106 6.6036 7.7692 3.0963 2.7267 2.2332 2.541 2.9378 3.8219 4.6117 4.9356 5.076917 5.1929 5.619 6.0585 6.4787 6.9603 7.711 9.539333 9.8118 33.828 16.6095 13.8561 11.9192 11.71885 10.4677 9.3715 8.5111 12.0156 9.4857 7.5678 6.5151 6.024 4.782 3.7938 3.0064 2.3667 2.21625 1.8327 2.133417 2.2367 1.6775 1.1844 0.7772 0.7788166 0.4689 0.2579 0.1287 0.0582 0.0238 0.009816667 0.0088 0.003 0.0009 0.0003 0.0001 
0.0001666667 0.0001 0.0002 0.00024375 0.0001 0.0001 0.0001 0.006076667 0.0001 0.00015 0.000375 0.0001 0.0005 0.0019 0.02395 0.0073 0.0261 0.0787 0.0002 0.0009 1.416275 5.81126 2.0558 2.7437 3.9785 4.8778 5.5326 9.36525 5.5818 2.9117 4.1774 5.4735 6.6198 7.4644 8.920033 7.9255 8.014 7.8287 7.523 7.2326 6.07785 6.005 7.191 7.7257 8.1721 8.5623 8.1704 7.610167 8.3016 8.3756 9.8498 13.8031 52.2644 28.429 13.6816 5.2325 5.5825 5.9872 6.3196 6.5173 6.3542 6.5618 6.4551 6.2953 6.2194 6.3066 6.495433 6.5071 6.7388 6.9541 7.1009 7.1278 7.1293 8.397634 7.8648 9.6192 5.3491 5.3638 5.3031 6.75545 5.1019 5.2843 4.5883 2.8772 2.9723 2.5486 2.44772 1.9682 3.2123 4.027 4.7681 4.898 5.07805 5.2204 5.6418 6.0697 6.4616 6.8749 7.4664 14.67733 13.4759 69.4177 27.2311 18.9289 15.8736 13.76327 13.8012 12.2354 11.2506 11.9044 11.0125 9.6848 8.711733 8.3192 7.0677 5.9771 5.0409 4.2289 3.82385 3.5067 2.8472 2.907333 2.796 2.0659 1.414 1.283583 1.5948 0.1396 0.0565 0.027 0.0125 0.02048333 0.0052 0.0019 0.0006 0.0002 0.00024 
0.0002 0.0002 0.0001 0.0003 0.000475 0.0001 0.002 0.00965 0.01853333 0.0001 0.0002 0.0011 0.0045 0.0183 0.85415 0.0683 0.2311 0.6933 1.9524 3.0171 2.6436 12.42072 24.3406 25.5962 25.8094 25.1598 23.1521 16.29728 19.8754 20.1659 17.2682 15.086 13.3479 12.02045 11.9439 10.1958 8.3131 7.2514 6.7651 4.6261 5.65095 4.9256 4.4342 5.0233 5.3916 6.0975 6.881166 6.6681 6.9458 7.0721 7.1427 44.7747 23.3729 18.6231 7.5385 5.2783 4.7312 4.587 4.5497 4.819433 4.6096 4.6499 4.5387 4.2689 3.9777 3.9027 4.052 4.041 4.2278 4.4092 4.5169 4.3468 4.849017 3.3002 11.3572 3.2579 3.2724 3.2681 3.1805 3.360033 2.9251 2.3243 3.7472 3.1787 2.6916 2.5613 2.531117 2.4338 3.2002 4.2714 4.8619 4.9428 5.121167 5.2786 5.6883 6.1009 6.4718 6.842 8.574284 7.3373 42.2616 21.0638 21.9602 17.6159 15.9279 14.9003 14.59 13.7555 12.6617 12.4013 11.7989 11.14775 10.8731 9.8015 8.7187 7.6974 6.7618 5.905 5.409 5.1031 4.3278 3.5588 3.351486 2.8945 2.41205 2.0219 1.4247 0.7187 0.3297 0.139 0.0537 0.03365 0.0189 0.0061 0.0018 0.0005 0.0001 
0.0001666667 0.0002 0.0003 0.0001 0.0005 0.0012 0.0047 0.02095 0.0146 0.0409 0.1014 0.224 0.4669 1.3022 2.61265 3.7269 6.9161 7.0049 10.463 15.1901 12.7354 20.6429 22.07662 21.7638 21.3558 20.9775 21.1586 18.56582 22.4832 22.9199 22.1733 20.4563 17.9833 14.45613 14.7634 11.9395 9.453 6.5305 4.7644 5.6299 5.761317 5.4865 5.2793 5.1745 5.5431 5.7618 6.74835 6.0269 6.7282 9.2841 14.8694 14.7822 5.076 8.386884 4.8637 4.8657 4.134 3.8028 3.5434 3.7014 3.377 3.2496 3.066 2.7621 2.1592 1.7093 3.269433 1.8453 2.0752 2.3832 2.8314 3.5831 3.3081 3.6069 2.0505 1.4465 1.4536 1.5068 1.6468 2.577533 2.0028 2.9586 3.5057 3.1351 2.3815 2.604333 2.7304 2.9444 3.5443 4.334017 4.9252 5.0287 5.200417 5.3585 5.7536 6.1495 6.5042 6.848 13.05143 16.0771 11.4148 16.9551 17.9014 15.7398 14.8007 14.53327 14.4084 13.6634 12.9455 12.5438 12.081 11.62103 11.4362 10.6468 9.788 8.9204 8.0761 7.259 6.75465 6.4513 5.6233 4.7491 3.8272 3.5689 2.7628 2.5071 1.6234 0.921 0.4618 0.206 0.0822 0.05103333 0.0294 0.0095 0.0028 0.0007 0.0002 
0.0001 0.0002 0.0002 0.0006 0.002 0.0067 0.0187 0.02408333 0.0458 0.0997 0.1973 0.4014 1.1142 3.7676 3.54245 6.7926 8.4278 12.2242 14.2827 16.1362 14.81715 18.7825 21.3337 15.27915 9.9147 10.8532 14.29322 11.8555 12.8701 13.7852 14.5456 14.9618 14.7496 15.4068 13.9487 12.2444 9.8446 9.1267 7.2801 7.098283 6.9442 6.9556 7.0296 7.2055 7.4875 7.7853 7.225633 8.1505 8.618 9.1096 7.0289 5.1193 4.81 4.643767 4.6602 4.4397 4.057086 3.408 3.1612 3.014383 2.9675 2.7595 2.4023 2.6408 3.2923 3.520367 3.9059 4.2124 4.5937 5.056 4.3223 2.8408 3.40045 2.1708 2.3948 2.7791 2.7028 2.6872 2.7621 2.6178 2.9479 3.2526 3.534 3.115 2.2581 2.7179 3.0031 3.3333 3.8689 4.5324 4.85576 5.06746 5.137 5.4569 5.8359 6.2148 6.5563 6.8841 16.61982 34.3201 8.0417 13.8338 15.1861 14.1591 14.12383 13.9589 13.5137 13.1039 12.6354 12.3048 11.9795 11.6914 11.5575 11.0198 10.3941 9.7175 9.0145 8.2886 7.81375 7.5209 6.6776 5.7289 4.6755 4.28216 3.234375 2.8216 1.7858 1.0095 0.5071 0.2263 0.1505167 0.09 0.032 0.0103 0.003 0.0008 0.0002 
0.00015 0.0001 0.0003 0.0007 0.0025 0.0071 0.0183 0.03636667 0.0424 0.0871 0.1612 0.2808 0.5327 1.53955 1.4997 4.1657 7.0568 8.883 8.9827 9.2478 11.34657 8.9034 8.2653 9.0416 9.216515 9.8653 9.963767 11.0492 12.4681 13.7102 14.6035 15.1537 15.4481 14.59698 15.5477 15.7069 17.9076 11.5929 9.7925 9.056316 8.1786 7.7671 7.7997 7.8574 7.9063 7.8905 8.583867 7.7388 17.555 7.6255 4.9788 4.4298 4.331883 4.2836 4.1691 4.0108 3.7386 3.104783 2.5149 3.07392 2.5223 3.1004 3.9376 4.444 4.8574 4.8399 5.1981 5.4072 5.5581 4.7222 4.5981 4.4481 3.7747 3.753 4.0674 3.2688 3.1846 3.173 3.095283 3.1858 3.1614 3.2066 3.965 4.1435 2.5622 3.00235 3.3721 3.7394 4.2139 4.8147 4.9778 5.113975 5.2686 5.5754 5.9365 6.298 6.6283 22.6339 16.30585 12.9557 10.4932 13.2681 13.9707 13.3213 12.92642 12.7632 12.4992 12.2951 12.0579 11.8607 11.6698 11.51217 11.4244 11.0941 10.6794 10.1942 9.6484 9.263683 9.0353 8.3274 7.4836 6.4715 5.2993 4.0399 3.521275 2.342975 1.8216 1.006 0.4936 0.2151 0.1445333 0.0835 0.029 0.0091 0.0026 0.0007 0.0002 
0.0001333333 0.0002 0.0006 0.0019 0.0055 0.0142 0.0304 0.038 0.0626 0.1154 0.1936 0.3163 0.6051 0.83885 1.718 4.6339 6.7735 8.3744 8.5717 8.0174 7.4019 6.9921 7.1989 7.9897 8.8631 7.988 9.02776 8.1714 9.8702 11.5 12.6407 13.6311 14.13635 14.1324 13.7554 26.2309 13.8754 12.8422 11.793 10.76642 10.3495 9.3666 8.8126 8.9394 9.2757 9.8361 7.986133 10.102 10.4602 4.8524 4.2637 3.7717 3.63165 3.5769 3.4613 3.381 3.1327 2.6733 3.56885 3.74864 4.2037 4.7353 5.2658 5.6397 5.8734 5.487484 5.9123 5.8517 5.4264 5.2858 5.2861 5.1966 4.6152 4.2389 4.7994 3.5105 3.4451 3.4022 3.373267 3.3614 3.3067 3.6107 3.2066 4.4521 3.0572 3.1499 3.7614 4.1377 4.5671 5.0463 5.0725 5.18128 5.487925 5.7041 6.0507 6.3979 12.7373 12.63055 9.0385 12.0028 11.3818 19.3201 10.3517 11.6623 11.95227 11.6937 11.6183 11.5434 11.4479 11.3607 11.2767 11.22063 11.1651 10.9973 10.7593 10.446 10.0492 9.738017 9.5461 8.8948 8.0446 6.9634 5.6748 4.2807 3.68266 2.9429 1.7226 0.9204 0.4361 0.1835 0.1239667 0.0688 0.0231 0.007 0.0019 0.0005 0.0001 
0.000175 0.0001 0.0005 0.0015 0.0041 0.0101 0.02131667 0.0249 0.0494 0.0875 0.1375 0.1941 0.2616 0.9087833 0.416 0.972 4.2118 7.796 7.5916 7.151367 5.4631 5.7876 6.5521 7.1087 7.6158 7.4226 7.7556 8.0649 8.001 8.4454 9.9371 12.2095 13.40877 14.2433 15.3983 14.4811 13.9296 12.9234 12.8819 12.40442 11.603 9.8651 7.7386 5.6796 18.3844 10.40157 7.0972 5.2522 2.6437 2.9751 3.2935 3.0365 3.02175 2.6914 2.3357 2.6954 3.2586 4.1217 3.65328 4.9655 4.5368 4.9402 5.3011 5.5608 5.7171 6.301333 5.3666 5.133 4.8153 5.0092 5.2531 5.19715 5.3223 4.7323 4.2549 3.7231 3.6452 3.5833 3.511367 3.5339 3.5263 4.122 4.0413 4.291 3.69085 2.9253 3.2212 4.1501 4.7584 5.1379 5.1839 5.28588 5.4036 5.776933 6.166 6.507 18.6577 11.15908 6.0876 10.2105 18.8909 12.3498 11.0753 11.1773 11.2728 11.0958 11.0177 10.9714 10.9363 10.9147 10.94097 10.9033 10.8845 10.835 10.733 10.5583 10.2835 10.02928 9.8656 9.2455 8.3635 7.1942 5.7868 4.950083 4.2806 2.8692 1.723 0.7751 0.3519 0.1419 0.09651667 0.051 0.0165 0.0061 0.0002 0.0001 0.0002333333 
0.0001 0.0003 0.0009 0.0026 0.0066 0.0155 0.02428333 0.0328 0.0623 0.1066 0.1662 0.2518 0.4969 3.449167 1.9551 3.9871 11.3545 13.0755 8.0191 10.24522 5.2453 4.2537 4.5424 5.131 5.848 6.7981 9.258475 10.6156 11.8191 12.3943 13.0151 13.4802 12.74418 12.7561 13.6917 14.9776 15.9723 15.6998 14.8692 14.32245 12.9299 9.9836 7.4405 28.649 11.355 10.9226 6.461 4.4976 3.1829 2.7042 2.2229 2.3771 2.853483 2.6769 3.138 3.1719 3.2543 3.3173 3.9281 3.1886 4.501786 4.9684 5.0082 4.7043 9.5767 6.004967 5.3619 5.2203 4.9059 5.1764 5.2994 4.897183 4.8254 3.7623 2.196 8.9239 3.7602 3.6503 3.655733 3.5371 3.6107 5.2563 4.5389 4.2689 3.765017 3.1506 2.5513 3.9633 4.7992 5.1044 5.2556 5.368233 5.5138 5.8234 7.3699 12.596 11.9444 12.19595 8.489 16.9711 12.48 12.4868 11.5141 11.143 11.05658 10.8647 10.6943 10.6097 10.5771 10.5805 10.63447 10.6099 10.6507 10.6814 10.6752 10.5983 10.4038 10.17738 10.0275 9.3933 8.4383 7.1552 5.6309 4.76225 4.0467 2.6198 1.5129 0.9220715 0.2595 0.18336 0.0997 0.0342 0.0135 0.0007 0.0002 0.00015 0.0001 
0.0002 0.0005 0.0015 0.0038 0.0092 0.0204 0.02465 0.042 0.0837 0.1552 0.408 1.4598 1.7176 5.372 12.1934 21.0621 25.376 22.823 19.4838 18.58537 15.6684 11.0401 9.2883 9.7596 10.2807 10.47152 10.8191 11.3518 13.6377 13.4636 13.419 11.0995 14.28402 12.6765 14.1186 16.2245 16.5976 17.3933 17.09638 17.2961 16.3546 14.2349 35.8006 19.818 12.5003 10.98923 9.7377 8.6514 3.7661 3.249 3.0232 3.023117 3.0936 3.2454 3.4071 3.4851 3.6198 3.826 3.889067 4.1495 4.7635 4.967317 5.0795 4.8794 5.220683 4.3692 5.6383 5.745 11.6305 5.0691 4.7353 4.544017 3.9476 2.3585 3.2178 12.6416 3.8877 3.817683 3.8084 3.8214 4.2599 5.1252 4.7027 4.718 4.312683 3.2363 2.2107 3.7176 4.7257 4.9973 5.113067 5.2715 5.581 5.9148 6.2665 8.3156 11.5336 12.72195 16.4634 11.7407 12.3614 12.444 11.746 11.46842 11.229 10.8297 10.5702 10.4291 10.3721 10.3754 10.43678 10.423 10.4984 10.5787 10.6305 10.6061 10.50443 10.439 10.0449 9.3369 8.2609 6.843 5.219 4.353066 3.6095 2.2364 1.2315 0.6006 0.3656 0.149475 0.0638 0.0268 0.0017 0.0004 0.0001 0.0001333333 0.0001208333 
0.0001 0.0003 0.0009 0.0025 0.0059 0.0127 0.01915 0.0245 0.0434 0.098 0.2453 0.751 1.748517 1.9741 6.8515 17.7677 28.3822 34.7431 34.4001 29.09752 28.6955 22.3043 16.7267 14.6858 15.4269 13.82665 13.6563 13.9814 14.60016 16.4623 14.5907 17.0751 17.79392 18.6167 20.3298 23.1879 19.5561 18.8653 20.86635 18.4546 18.5937 49.6899 24.7591 18.1061 14.8051 12.50795 11.0763 7.7071 6.5899 3.7873 3.7042 3.586983 3.7177 3.7642 3.8285 3.9161 4.0842 4.2731 4.314783 4.5799 4.9227 5.0616 3.973671 2.6888 3.97015 5.1057 5.8198 6.2781 17.3689 4.953 4.4554 4.487184 4.001 3.4698 7.7565 8.9928 3.9525 3.885017 3.847 3.7976 4.2751 3.8607 4.8924 6.7605 5.332483 3.7418 2.4982 3.4491 4.5134 4.8303 5.000517 5.2193 5.5923 5.9636 11.1754 10.81407 16.4696 13.538 11.4317 12.2681 12.4019 12.4056 11.858 11.57307 11.3204 10.8747 10.5627 10.3777 10.2943 10.289 10.34657 10.3429 10.436 10.5404 10.6131 10.5909 10.4637 10.3885 9.907 9.0605 7.8218 6.2679 4.5876 3.7685 3.0247 1.7781 0.9266 0.4274 0.1749 0.09855 0.02884 0.0037 0.001 0.0002 0.0001 0.0001 0.0001111111 
0.00015 0.0001 0.0003 0.0008 0.0021 0.005066667 0.0049 0.0104 0.0213 0.0447 0.0851 0.1876 0.6627 0.7466 2.911 8.9094 19.6201 32.5372 32.43213 38.9468 37.3905 32.164 25.7935 19.4247 15.9346 18.1486 16.8423 16.6168 16.6875 18.69468 23.0027 20.96156 23.4832 23.8125 24.3078 22.2991 26.1256 26.6518 30.72947 26.537 60.1726 33.5443 22.2259 17.0633 14.68928 14.8136 12.1147 7.4823 5.5944 4.227 4.0772 3.833083 3.906 3.6228 3.1372 2.2963 9.0815 6.8022 4.4539 4.6063 4.6747 4.5016 3.9673 1.6375 3.95326 5.1403 5.9189 6.7048 22.1093 5.0303 4.9291 4.7259 5.0579 5.6549 7.9522 7.5344 3.9728 3.902933 3.8417 3.7646 4.1514 3.0661 4.8776 5.583766 6.6003 6.938 2.9372 2.9543 4.2642 4.5886 4.825967 5.0961 5.5432 5.9626 16.1026 5.8352 12.0863 12.94285 11.7917 12.5648 12.4658 12.3645 11.8987 11.62932 11.3863 10.9406 10.6122 10.4064 10.3078 10.32242 10.2966 10.3525 10.4507 10.5548 10.6088 10.5326 10.3384 10.2251 9.5838 8.5429 7.124 5.4665 4.5975 3.802 2.3682 1.3107 0.6423 0.2789 0.1076 0.08314 0.0479 0.002 0.0005 0.0001 0.000125 0.0001 0.0001 
0.0001 0.0001 0.0002 0.0006 0.0015 0.00245 0.0033 0.0067 0.0125 0.0212 0.0358 0.0751 0.229 0.2418 0.9779 3.7106 10.5949 21.5005 26.10522 32.4651 38.211 37.9034 33.5365 28.8869 24.6347 23.09495 22.3968 20.8064 20.8305 20.5944 23.64178 24.79744 26.6561 27.1149 27.3685 28.7149 32.1826 35.712 44.04183 58.1561 35.6652 21.0794 15.7425 13.3524 13.7202 9.9952 9.7987 8.0263 5.8389 4.4419 4.0555 3.766133 3.5379 2.7198 1.5271 3.2292 14.4449 9.199683 4.4756 4.4697 4.3261 3.9162 3.089 3.22612 3.713975 5.194 5.7931 12.8652 17.5574 5.2307 5.161917 5.1793 5.9359 6.6423 8.662 6.3997 3.9743 3.909417 3.8293 3.7466 4.129 3.3088 4.0527 5.4738 6.3191 9.4292 4.0275 2.9315 3.7987 4.3068 4.630567 4.9147 5.4374 10.3519 10.6287 13.962 10.96178 12.0784 12.48829 12.8372 12.5369 12.3122 11.8916 11.64535 11.4209 11.0011 10.6825 10.4776 10.3785 10.38403 10.3683 10.4246 10.5154 10.5919 10.5817 10.3887 10.09037 9.9046 9.041 7.7764 6.1992 4.5088 3.726733 2.9522 1.7234 0.8922 0.4091 0.1666 0.0782 0.0428 0.0071 0.008914285 0.0002 0.0001 0.0001 0.00010625 0.0001 
0.0001 0.0001333333 0.0001 0.0003 0.0008 0.001416667 0.0021 0.0049 0.01 0.0182 0.0294 0.039 0.0444 0.0785 0.2278 0.9151 3.5258 10.1879 15.44452 20.9938 31.7681 36.7875 35.7697 33.0061 30.4582 28.0987 28.3031 25.4902 24.2564 25.1267 25.8433 25.90895 25.0019 25.3974 27.355 25.5422 32.8391 34.19695 80.333 36.8611 17.6486 11.9308 13.4926 16.5448 16.74927 10.5519 11.4652 9.8784 7.7984 5.7804 10.14417 3.8882 3.132 2.0854 0.8908 4.4527 16.2665 11.38892 6.4757 4.1243 3.6409 2.6424 4.5527 2.8841 4.72565 6.05786 8.4777 13.0667 14.6365 5.3572 5.449017 5.4481 5.9047 7.9221 9.7177 5.7165 4.923017 3.9879 3.8505 3.8049 4.2819 3.9446 4.6536 5.615117 6.3395 9.0331 5.2448 2.9095 3.7365 4.1391 4.433217 4.7381 8.9387 8.6552 14.1914 10.1664 12.17753 12.7669 12.2905 13.0885 12.6129 12.2487 12.04615 11.8497 11.4249 11.0445 10.7529 10.5655 10.4782 10.47918 10.4748 10.5278 10.5941 10.6089 10.4823 10.24412 10.1073 9.3839 8.2616 6.7862 5.1184 3.4947 2.843483 2.1362 1.1608 0.5593 0.2391 0.118 0.0123 0.01818333 0.0037 0.001 0.00036 0.0001333333 0.0001 0.0001 0.0001015625 
0.0001111111 0.0001 0.0002 0.00035 0.0002 0.000925 0.0006 0.0016 0.0042 0.0095 0.0185 0.02193333 0.0308 0.0439 0.0596 0.1172 0.4176 1.7439 6.5055 5.7759 13.4707 22.8199 27.6263 27.662 26.14758 30.7859 32.0135 32.304 31.048 28.9588 26.1345 21.9712 19.60737 13.018 9.0613 12.7722 13.6747 24.33263 10.4403 4.4459 4.8117 5.3589 5.7431 35.1237 13.37365 14.9276 15.3865 19.7077 23.9943 25.0022 8.907267 17.6968 8.6432 1.3066 1.638 5.4631 19.9892 22.54317 6.6816 3.9639 3.5672 2.9563 5.7083 4.8881 4.1942 6.6303 10.71079 12.9389 13.0178 5.6725 6.4786 5.8063 6.3579 11.1851 8.848 5.4086 5.204867 4.0511 3.9348 3.957 4.5293 4.6091 5.4711 6.089716 6.8547 8.2387 5.8331 3.7575 3.1823 3.73315 3.9359 4.5647 9.8908 12.6693 10.7228 10.7898 11.91615 13.3017 12.7786 12.81981 12.6086 12.1832 11.97812 11.7915 11.4066 11.0693 10.8136 10.6536 10.5855 10.584 10.5898 10.6299 10.6476 10.5592 10.2602 9.89225 9.6445 8.6422 7.2663 5.6422 3.9871 2.5335 2.035133 1.4355 0.7224 0.3228 0.1664 0.0197 0.02805 0.0061 0.0017 0.0004 0.0001 0.0001 0.0001083333 0.0001 0.0001 
0.0001 0.00015 0.0002125 0.0002 0.0002 0.0004 0.0007666667 0.0001 0.0003 0.0009 0.0025 0.00975 0.006 0.0134 0.0256 0.0439 0.0675 0.102 1.962825 0.2295 0.8804 3.5317 9.6265 14.9672 20.77378 20.0061 35.2379 26.1059 25.7028 22.9646 17.8641 16.1177 15.0122 10.09312 6.748 6.9989 5.7772 6.1392 2.9315 0.8661 0.8285 1.1488 1.3955 8.22035 1.6048 1.4891 1.4641 1.3835 1.1657 0.7698 7.928483 0.3062 0.0496 2.9828 7.0807 22.6286 50.5861 22.67562 35.2599 10.7699 5.8683 4.3143 6.2688 7.752417 5.7205 8.0626 9.9633 15.836 14.7602 12.0504 7.8528 8.7347 11.2409 14.9944 11.6152 6.848 5.416733 5.2171 4.6072 4.3307 4.8025 5.2298 6.1035 6.553433 7.1159 7.9097 6.1808 3.7255 3.4873 3.754317 3.9178 4.6216 14.5309 12.0246 9.6408 10.9537 12.23063 13.5184 13.1133 13.2463 12.6556 12.0824 11.8773 11.7132 11.3689 11.0759 10.86 10.732 10.70238 10.6846 10.6911 10.7016 10.6391 10.4015 9.8777 9.370767 8.9815 7.6983 6.1224 4.4512 2.9214 1.715 1.364733 0.8959 0.4159 0.2227 0.0293 0.0095 0.0072 0.0027 0.0007 0.0002 0.0002 0.0001 0.0001 0.0001020833 0.0001 
0.000125 0.000165625 0.0002 0.0002 0.0002666667 0.0003666667 0.0001 0.0001666667 0.0001 0.0002 0.0003 0.0023 0.0004 0.01135 0.02763333 0.04566666 0.07113333 0.05653333 0.082975 0.2224 0.7751833 2.345817 4.706817 6.175425 9.13272 10.4477 4.6471 3.3944 6.7443 10.8569 12.10263 12.099 9.4787 7.2405 5.405728 4.1666 2.8434 2.471633 1.1681 0.4693 0.8623 1.7315 2.4681 2.499217 2.9869 2.4083 2.4373 2.4727 2.4434 2.2165 1.80225 1.5794 4.186 13.0173 23.373 33.0141 28.18898 22.3464 1.1905 1.4214 2.082 14.1986 12.3272 10.072 12.2955 13.939 14.7173 13.0811 9.3384 13.54636 21.6607 12.0804 11.0873 11.7336 7.965 5.7636 6.031466 5.212 5.3136 5.4399 5.6404 5.7967 6.7031 6.4774 7.298 7.7164 6.332 3.7667 3.8826 4.165283 4.12 9.1409 12.875 12.8653 9.6946 10.5754 11.1422 13.678 13.3675 13.3032 12.5099 12.2396 11.77482 11.6162 11.3133 11.0652 10.8903 10.7945 10.7714 10.7641 10.7612 10.7189 10.5401 10.1092 9.3229 8.684167 8.1378 6.6159 4.9337 3.3309 2.0158 1.618 1.0871 0.5214 0.2884 0.0415 0.0139 0.0041 0.003233333 0.0011 0.0003 0.0001 0.00015 0.0001375 0.0001 0.0001 0.0001005208 
0.0001635417 0.0002 0.0002 0.0002222222 0.0002333333 0.0001 0.0001222222 0.0001 0.00015 0.0002 0.00025 0.00035 0.0004 0.0004 0.0212625 0.04814444 0.03470667 0.0001 0.0001 0.0003 0.0017 0.0075 0.0271 0.0809 2.14496 0.1617 0.2394 0.2579 0.6056 2.4384 5.58335 6.3928 6.1686 5.1876 4.8149 2.6836 2.43354 1.5701 0.5395 0.2221 0.6684 1.5461 2.6527 2.6072 3.8873 3.1159 3.2258 3.3039 3.3639 3.2604 3.240767 2.6812 7.222 18.1961 23.4261 22.9985 21.72717 17.5602 4.0064 3.785 5.912 14.5193 12.4 13.291 11.42 12.123 12.8886 14.0639 13.73612 15.04045 14.1197 10.8605 13.1756 12.6818 8.8594 6.8177 6.369717 6.3304 6.5606 6.938 7.8278 8.434 8.12215 8.1772 7.8077 7.546 6.3669 3.9929 5.7885 4.687716 3.7955 10.3686 13.6934 13.8434 10.497 11.1591 11.5241 13.8388 13.5832 13.1731 12.4052 11.9609 11.7247 11.5014 11.2404 11.0375 10.9035 10.8372 10.81738 10.816 10.7875 10.6654 10.335 9.6769 8.6149 7.867333 7.1702 5.4895 3.8117 2.3746 1.3182 1.063767 0.6505 0.37 0.0569 0.0196 0.0059 0.0016 0.001316667 0.0004 0.0001 0.0001666667 0.0001 0.000125 0.000115625 0.0001 0.0001 
0.0002 0.0002 0.0002074074 0.0001888889 0.0001 0.0001074074 0.0001 0.000125 0.00015 0.0002 0.0002666667 0.0003333333 0.0003833333 0.0004 0.0004 0.01745227 0.0001 0.0001 0.0001666667 0.0001 0.0006 0.0024 0.0057 0.02221667 0.0083 0.0262 0.0686 0.1483 0.2755 0.4997 1.902333 1.2133 4.078 2.4522 3.5756 3.08862 1.727175 0.904 0.2736 0.1157 0.4178 1.0182 1.7006 2.244383 1.9476 3.5398 3.8079 3.9173 4.1432 4.247117 4.5453 5.1618 12.2028 21.4859 22.6687 19.9512 17.72452 14.4926 5.5474 7.6215 12.4569 18.0727 16.9553 16.7219 14.5814 14.4385 15.1142 16.4992 15.043 15.88348 14.12424 13.6971 14.0972 12.4407 8.7835 8.0015 7.2113 6.8833 7.1626 7.8509 8.7327 9.4518 9.603784 10.3958 11.1141 9.9112 7.441 5.6771 5.50995 5.2618 5.2779 10.8431 13.8909 14.0581 11.8035 12.03548 12.2932 14.0939 13.8044 12.9375 12.2735 12.03905 11.8203 11.4586 11.1518 10.9937 10.8988 10.8575 10.83645 10.835 10.7624 10.5342 10.0233 9.1214 8.438066 7.8002 6.158 4.4175 2.8432 1.6285 0.8271 0.66965 0.4839 0.0777 0.0273 0.0085 0.0024 0.001966667 0.0006 0.0001 0.000175 0.0001 0.0001222222 0.0001 0.0001125 0.0001070313 0.0001 
0.0002 0.0002024691 0.0001740741 0.0001 0.0001024691 0.0001 0.0001125 0.000125 0.0001583333 0.0002055556 0.0002666667 0.0003277778 0.0003722222 0.0003944444 0.0004 0.0002 0.0001 0.0001222222 0.0001 0.0002666667 0.0001 0.0005 0.0026 0.005316667 0.0087 0.0282 0.0737 0.1516 0.2385 0.29 0.5803667 0.5798 2.7141 3.4572 2.618 1.751 1.07885 0.458775 0.1411 0.0702 0.2723 0.7239 1.3576 1.510883 1.9205 2.4526 6.6602 4.7181 4.7455 5.338583 5.4244 7.6089 17.9808 20.0861 19.007 17.5409 16.62198 13.8037 10.1135 12.9636 16.1818 20.4596 19.83662 19.5583 17.2053 16.4037 17.2527 18.6132 17.6487 17.44816 16.7225 15.2214 14.6617 12.2523 8.8334 8.20105 7.5037 7.4117 7.8316 8.6116 9.3991 10.1417 10.60702 11.0222 12.0793 12.2914 12.7138 5.9291 7.079733 6.4103 7.0111 11.11 13.8372 14.0042 12.6879 12.9047 13.4072 14.2901 13.9303 12.6371 12.1084 11.87958 11.666 11.3717 11.12208 10.935 10.8767 10.8543 10.82638 10.8187 10.6829 10.3255 9.617 8.4766 7.700167 6.9384 5.1798 3.4735 2.0697 1.0896 0.5065 0.4131833 0.2317 0.0655 0.0176 0.0045 0.0011 0.0008166667 0.0002 0.0001 0.0001 0.00011875 0.0001 0.0001074074 0.0001 0.00010625 0.0001033203 
0.0002012346 0.0001691358 0.0001 0.000100823 0.0001 0.00010625 0.0001125 0.0001319444 0.000162963 0.0002101852 0.0002666667 0.0003222222 0.0003648148 0.0003888889 0.0002736111 0.0001 0.0001074074 0.0001 0.0001555556 0.0001 0.00025 0.0003 0.0013 0.00345 0.0053 0.0185 0.0532 0.1241 0.2348 0.2694167 0.3694 0.53 0.7741 2.7504 2.6589 1.144 0.8623 0.5164 0.1608143 0.0305 0.1313 0.3912 0.7199667 0.8246 1.3144 2.3676 7.5115 5.5955 5.6718 6.635783 7.5013 10.4306 20.4933 19.8398 18.8836 18.78093 18.3104 15.6331 14.7183 15.8124 18.0427 22.0441 23.00807 22.1631 19.7919 18.7434 19.4591 20.5583 19.6058 19.79153 18.2208 17.09977 15.5243 12.2376 8.9833 8.44475 7.8911 7.8097 8.3012 9.0767 9.9585 10.3545 10.7647 11.8659 13.7036 18.3405 9.0699 9.3424 9.232817 9.8577 9.2283 11.6093 13.9795 14.211 13.73822 13.2682 13.9682 14.0989 13.9907 12.4211 11.9116 11.70052 11.4977 11.2303 11.05 10.89567 10.8375 10.82263 10.827 10.7658 10.5495 10.0458 9.1353 7.78 6.93615 6.0844 4.2918 2.6921 1.4882 0.7226 0.5498 0.3087 0.1212 0.0378 0.0102 0.0024 0.0005 0.0003833333 0.0001 0.000125 0.0001 0.0001 0.0001046875 0.0001 0.0001024691 0.0001 0.000103125 
0.0001567901 0.0001 0.0001002744 0.0001 0.000103125 0.00010625 0.0001168981 0.0001358025 0.0001683642 0.0002132716 0.000266358 0.0003179012 0.000358642 0.0002818287 0.0001 0.0001024691 0.0001 0.0001185185 0.0001 0.0001625 0.0002 0.0001 0.0005 0.001733333 0.0023 0.0091 0.0292 0.0782 0.1722 0.2375833 0.3116 0.4647 0.5886 0.8282 0.75 0.6234 0.5177166 0.2767 0.0676 0.0232 0.0913 0.2882 0.6008334 0.7343 1.5997 3.3041 6.5332 5.9454 6.4339 8.484917 10.0378 15.1024 20.4417 19.6955 19.9443 19.39423 18.9994 17.7066 17.187 18.1559 20.7483 26.1 25.89567 27.7233 25.479 24.3243 25.077 26.1174 23.9717 24.6181 21.9333 17.4144 15.79348 12.711 9.1775 8.810117 8.2795 8.1848 8.6501 9.421 10.3425 11.25473 11.5205 14.0087 21.2053 9.998 12.6336 11.1159 11.95623 12.7415 13.1664 13.818 14.4058 14.5608 14.15967 13.6972 14.041 13.7286 13.8657 12.2285 11.703 11.50625 11.3164 11.0794 10.936 10.8625 10.772 10.77678 10.7683 10.6716 10.3611 9.7013 8.5962 7.0628 6.178 5.2747 3.5193 2.071 1.0673 0.4811 0.3575667 0.1903 0.0673 0.0205 0.0055 0.0013 0.0003 0.00022 0.0001 0.0001 0.00010625 0.0001 0.0001 0.0001011719 0.0001 0.000100823 0.0001 
0.0001 0.0001000914 0.0001 0.0001015625 0.000103125 0.0001087577 0.0001196502 0.0001403549 0.0001724794 0.0002159979 0.0002658436 0.0003143004 0.000264593 0.0001 0.000100823 0.0001 0.0001061728 0.0001 0.000128125 0.00015 0.0001 0.0003 0.0002666667 0.0002 0.0008 0.0035 0.0127 0.0394 0.1034 0.1534 0.2341 0.4743 0.5788 0.9215 0.7824 0.4127 0.2702 0.1331 0.0324 0.05987143 0.1407 0.399 0.7020167 0.9677 2.0322 3.7539 5.9953 6.2489 6.648716 6.6898 14.5749 14.5119 23.8629 20.3083 20.4316 20.29658 19.7961 19.5706 19.5995 21.2026 24.2354 27.8923 28.53555 29.4512 28.4459 26.7649 26.7801 27.1391 26.71385 25.7915 23.4316 19.588 17.2856 14.43356 11.4199 9.8569 8.6724 8.548 9.1018 9.9621 11.1948 13.55015 13.7474 21.5695 10.3601 14.0203 14.3778 14.22353 13.9122 14.7677 16.0448 16.7181 16.876 15.1336 15.1831 14.0872 14.1406 13.6278 13.3614 12.008 11.4769 11.30913 11.1319 10.917 10.8056 10.7737 10.74816 10.72567 10.6791 10.5249 10.1088 9.2909 8.0089 7.167517 6.342 4.5241 2.8607 1.5857 0.7666 0.3232 0.2347667 0.1195 0.0391 0.0113 0.0029 0.0007 0.0001 0.00015 0.0001 0.0001 0.0001 0.0001015625 0.0001 0.0001 0.000100293 0.0001 0.0001002744 
0.0001000305 0.0001 0.0001007813 0.0001015625 0.0001044817 0.000110511 0.000122921 0.0001441615 0.0001762774 0.000218107 0.0002653807 0.0002361842 0.0001 0.0001002744 0.0001 0.0001020576 0.0001 0.0001132812 0.000125 0.0001 0.0002 0.0002166667 0.0002 0.0004 0.0002 0.001 0.004 0.0129 0.0337 0.07643333 0.0654 0.0673 0.2161 0.0123 0.0431 0.2283167 0.1183 0.057 0.0214 0.0425 0.2070667 0.391 1.03356 1.4319 3.5116 4.568 5.8967 6.812 6.758517 7.7623 9.5856 20.1279 29.4542 20.945 21.1386 21.69705 21.4695 22.6523 23.3831 24.4728 26.5206 28.16373 29.5885 30.458 30.1523 29.5578 29.1606 29.0667 28.12182 27.5503 24.8456 20.9821 18.6497 14.344 12.5417 11.0101 9.424 9.0603 9.8751 11.1527 14.2663 14.51998 20.2294 10.0286 13.5642 16.3238 16.6116 16.80788 16.6901 17.099 18.1263 19.6538 19.7593 18.1082 17.47818 15.5116 14.8524 12.8017 13.0504 11.8294 11.57037 11.2619 10.9647 10.7554 10.642 10.6493 10.6833 10.61855 10.5146 10.3192 9.785 8.8092 7.3738 6.4877 5.6214 3.8309 2.2998 1.2055 0.5495 0.2184 0.1523 0.0761 0.0234 0.0064 0.0016 0.0003 0.00028 0.0001 0.0001 0.0001 0.0001 0.0001 0.0001003906 0.0001 0.0001 0.0001000732 0.0001 
0.0001 0.0001003906 0.0001007813 0.0001022752 0.0001055184 0.0001126379 0.0001258645 0.0001477866 0.0001795153 0.0002199217 0.000204918 0.0001 0.0001000914 0.0001 0.0001006859 0.0001 0.0001064453 0.0001125 0.0001 0.00015 0.0001791667 0.0002 0.0002666667 0.0002 0.0004666667 0.0002 0.0009 0.003 0.0078 0.0209 0.0142 0.0133 0.0002 0.0008 0.0034 0.0297 0.01 0.0244 0.0247 0.0719 0.1973 0.243625 0.93406 1.9782 4.1143 6.8105 7.8249 7.7388 7.181267 5.2993 10.5374 31.2448 30.4665 21.8122 23.125 23.43785 24.2215 25.236 26.0761 27.2193 29.0898 30.24185 31.6558 32.4683 33.602 32.5937 31.5553 30.6265 29.12705 28.5568 25.33 21.2398 18.7012 14.9558 13.0381 10.28988 9.8113 9.946 11.2309 13.3677 13.69345 18.0035 9.6785 12.5585 15.9043 17.9848 19.1429 19.71528 20.1127 21.0119 21.6407 22.5933 23.7512 22.2308 21.51162 19.7977 19.038 14.4797 13.5903 11.7688 12.28495 11.0772 10.81 10.6238 10.4632 10.4875 10.5766 10.5105 10.5352 9.926814 9.3695 8.2415 6.6833 6.087683 4.8968 4.0212 1.264 0.7009 0.3294 0.1315 0.09481667 0.0451 0.0135 0.0036 0.0008 0.0002 0.000175 0.0001 0.0001 0.0001 0.0001 0.0001 0.0001 0.0001000977 0.0001 0.0001 0.0001000183 
0.0001001953 0.0001003906 0.000101149 0.0001028583 0.0001068105 0.0001146736 0.000128763 0.0001510555 0.0001824079 0.0001760888 0.0001 0.0001000305 0.0001 0.0001002286 0.0001 0.0001031738 0.00010625 0.0001 0.000125 0.0001572917 0.0002 0.0002222222 0.0002 0.0002888889 0.0002 0.0004333333 0.0002 0.0005 0.002183333 0.0015 0.0028 0.0022 0.0001 0.0003 0.0006 0.0032 0.0028 0.0118 0.0226 0.0632 0.1454 0.14968 0.2408 0.6284 3.2649 5.7918 9.3394 6.3111 9.36895 9.1641 20.7373 35.0127 25.1995 22.7595 23.96213 24.5968 26.0757 27.3637 28.4587 29.6484 31.2503 32.10349 33.3461 35.0079 35.8986 34.7078 32.6931 31.93495 30.829 28.133 24.4618 20.2001 17.4117 13.9665 13.18308 10.9141 11.02339 11.3609 13.4231 16.5096 12.62347 8.8609 11.7676 14.492 17.6343 21.1539 22.4758 22.01472 23.2586 24.6815 25.5198 27.0049 28.4955 28.14283 27.7005 25.7209 23.9354 18.1582 17.0357 14.9135 14.24545 12.8589 11.1377 10.5813 10.3498 10.3085 10.43052 10.4337 10.3237 10.0301 9.125 7.6158 5.951 5.95845 5.9998 1.6439 0.8628 0.4208 0.1875 0.1451667 0.0731 0.0247 0.0073 0.0019 0.0004 0.0001 0.00015 0.000125 0.0001 0.0001 0.0001 0.0001 0.0001 0.0001 0.0001000244 0.0001 0.0001 
0.000100293 0.0001005783 0.000101466 0.0001036059 0.0001081141 0.000116749 0.0001314974 0.0001540755 0.000152388 0.0001 0.0001000102 0.0001 0.0001000762 0.0001 0.0001015747 0.000103125 0.0001 0.0001125 0.0001455729 0.0002 0.0002074074 0.0002 0.0002296296 0.0002 0.0002777778 0.0002 0.0002666667 0.0001 0.000575 0.0002 0.0001 0.0003 0.0005166667 0.0001 0.0005 0.001183333 0.0019 0.0061 0.0154 0.0393 0.076 0.1276833 0.0889 0.7887 0.8024 3.4829 3.0056 5.681867 8.3254 19.375 29.9422 31.9696 24.7339 24.4136 25.87638 27.0657 29.0735 30.7489 31.7248 32.2832 33.1774 34.1303 34.1015 35.4913 38.1263 36.8596 34.2061 33.12413 31.6997 28.775 24.8882 20.6042 17.7149 14.748 13.09557 11.331 10.8081 12.9923 15.326 8.0778 11.10817 10.9213 13.5869 15.7571 18.424 21.0636 22.7292 22.77478 24.3691 26.5922 28.9699 31.1532 33.3804 32.54602 33.2986 31.9462 28.7639 24.5373 22.3359 18.8494 17.926 16.0049 14.5001 13.0515 11.4537 10.4251 11.73797 10.3517 10.3587 10.1069 10.27064 9.7382 9.7039 5.155133 2.5159 1.3492 0.632 0.2728 0.1096 0.08275 0.0399 0.0129 0.0037 0.0009 0.0002 0.0002 0.0001 0.000125 0.00011 0.0001 0.0001 0.0001 0.0001 0.0001 0.0001 0.0001000061 0.0001 
0.0001004356 0.0001007791 0.0001018834 0.0001043953 0.0001094897 0.0001187868 0.0001341073 0.0001344902 0.0001 0.0001000034 0.0001 0.0001000254 0.0001 0.0001007843 0.0001015625 0.0001 0.00010625 0.0001395182 0.0002 0.0002024691 0.0002 0.0002098765 0.0002 0.0002259259 0.0002 0.0001888889 0.0001 0.0001 0.00015 0.00015 0.0002 0.0002 0.0001666667 0.0001 0.00022 0.0003 0.001 0.0035 0.0107 0.0292 0.0685 0.09645 0.1465 0.349 0.9458333 0.607 0.9152 4.417817 6.1945 25.9619 39.3452 31.0771 24.9982 26.376 28.30298 30.0467 32.6175 34.3886 35.0563 35.1461 34.83177 35.7148 37.1917 38.7069 40.4015 39.1624 36.1594 34.31059 33.1575 29.9089 25.7069 21.0677 17.6201 16.53197 15.0925 12.5213 12.0468 12.08989 7.6265 9.7656 10.85715 12.5138 14.5493 15.9915 18.63 19.4595 20.3634 20.9656 22.8504 25.6581 29.1154 32.5488 35.7447 34.51092 36.6564 35.7241 33.0115 28.9111 26.7182 24.35105 23.8468 21.0825 18.9331 16.6941 15.1243 14.4722 14.76038 14.4366 13.9534 13.2396 12.0389 12.12326 9.5191 4.2409 2.5193 0.9171 0.4193 0.1735 0.0646 0.04738333 0.0218 0.0066 0.0018 0.0004 0.0001 0.00015 0.0001375 0.0001 0.0001125 0.0001045 0.0001 0.0001 0.0001 0.0001 0.0001 0.0001 0.0001000015 
0.0001006074 0.0001010327 0.0001023526 0.0001052561 0.0001108906 0.0001207946 0.0001218461 0.0001 0.0001000011 0.0001 0.0001000085 0.0001 0.0001003914 0.0001007813 0.0001 0.000103125 0.0001364421 0.0002 0.0002008231 0.0002 0.0002032922 0.0002 0.000208642 0.0002 0.000162963 0.0001 0.0001 0.0001166667 0.0001333333 0.0001666667 0.0001833333 0.0001666667 0.0001 0.0001 0.0001666667 0.0001 0.0004 0.0009 0.0104 0.0249 0.0632 0.09535 0.1356 0.2271 0.2066 0.4674 0.5612 3.6925 7.505 29.863 41.3496 38.8037 26.4168 28.6897 31.47487 33.2262 36.1876 37.4806 37.3799 36.5832 36.55192 36.0859 37.3412 40.2998 41.6706 40.4684 37.1094 35.30365 33.5314 29.9319 25.5179 20.9867 17.9115 17.01325 16.1048 13.6273 12.875 12.9545 9.442634 10.8565 11.7531 13.0079 14.9818 16.2882 18.5099 18.8919 19.16317 19.0706 20.709 23.6462 26.9091 30.6407 33.3541 33.2258 34.6313 34.0642 33.3807 30.2472 28.4095 26.08272 25.9465 23.4607 22.4932 21.8649 21.4087 19.362 18.46117 19.5147 19.331 17.9253 14.7419 14.3934 5.1874 1.58942 0.3655 0.3954 0.232 0.1012 0.0367 0.02681667 0.0117 0.0033 0.0009 0.0002 0.0002 0.0001 0.000125 0.000115625 0.0001 0.00010625 0.00010215 0.0001 0.0001 0.0001 0.0001 0.0001 0.0001 
0.00010082 0.0001013309 0.0001028805 0.0001061665 0.0001123138 0.0001133828 0.0001 0.0001000004 0.0001 0.0001000028 0.0001 0.0001001955 0.0001003906 0.0001 0.0001015625 0.0001348918 0.0002 0.0002002743 0.0002 0.0002010974 0.0002 0.0002028807 0.0002 0.000154321 0.0001 0.0001 0.0001055556 0.0001166667 0.0001388889 0.0001611111 0.0001541667 0.0001 0.0001 0.0001166667 0.0001 0.000175 0.0001 0.0002 0.0036 0.0262 0.03718333 0.0524 0.1059 0.1551 0.1288 0.1306 0.7224 3.24236 6.2567 26.129 42.0966 53.3123 31.8509 32.33875 33.4417 37.0689 39.6382 40.1606 39.2474 38.0993 37.9754 37.6822 39.622 41.353 42.415 41.175 39.24237 37.8626 34.0016 30.1819 25.7279 21.3338 18.8554 17.1015 16.4952 13.5921 11.7091 6.6515 8.8012 9.75055 11.89468 12.6217 14.7427 16.0963 18.19 17.8848 18.15112 18.7066 19.6951 21.1553 23.7176 26.5936 27.19485 28.6494 30.3189 31.5741 30.5224 28.3326 26.8659 25.48697 24.7094 23.7725 23.3871 23.4531 23.8937 22.7721 17.7981 20.2094 14.9856 9.1945 4.9555 1.5579 3.3988 0.5574 0.264 0.2274 0.1309 0.0565 0.04246667 0.02 0.0061 0.0016 0.0004 0.0001 0.00015 0.0001375 0.0001 0.0001125 0.0001070313 0.0001 0.000103125 0.000101055 0.0001 0.0001 0.0001 0.0001 0.0001 
0.0001010755 0.0001016771 0.0001034593 0.0001071202 0.0001079658 0.0001 0.0001000001 0.0001 0.0001000009 0.0001 0.0001000977 0.0001001953 0.0001 0.0001007813 0.0001341136 0.0002 0.0002000915 0.0002 0.0002003658 0.0002 0.0002009602 0.0002 0.0001514403 0.0001 0.0001 0.0001018519 0.0001074074 0.0001203704 0.0001388889 0.0001385417 0.0001 0.0001 0.0001041667 0.0001 0.00011875 0.0001 0.0001 0.0008 0.0044 0.0172 0.0287 0.0392 0.0779 0.1155 0.1267 0.1937 0.3006 2.109225 1.1665 16.6163 61.9244 58.921 36.2081 36.30378 37.4253 40.4259 41.9745 41.5791 40.3182 39.4889 38.86422 39.9129 40.778 41.7412 42.2011 41.0744 39.17752 37.7644 33.5851 29.5931 24.8934 20.4094 17.7715 16.37842 15.4706 11.9081 6.1886 6.6673 8.5797 8.71606 10.7648 12.2225 14.1677 12.519 15.3252 17.4543 17.18295 16.8985 16.4636 17.529 19.3584 20.8702 22.51822 23.0611 24.3157 27.714 27.0614 24.873 23.878 23.0622 23.1125 22.1082 21.4946 20.9659 19.4214 15.97072 15.0272 9.9032 5.267 0.928 0.5074 0.2391 0.49835 0.2462 0.2591857 0.1358 0.0726 0.0301 0.02285 0.0103 0.003 0.0008 0.0002 0.0002 0.0001 0.000125 0.000115625 0.0001 0.00010625 0.0001033203 0.0001 0.0001015625 0.0001005235 0.0001 0.0001 0.0001 0.0001 
0.0001013763 0.0001020706 0.0001040856 0.0001046363 0.0001 0.0001 0.0001 0.0001000003 0.0001 0.0001000488 0.0001000977 0.0001 0.0001003906 0.0001337237 0.0002 0.0002000305 0.0002 0.0002001219 0.0002 0.0002003201 0.0002 0.0001504801 0.0001 0.0001 0.0001006173 0.0001030864 0.0001098765 0.0001222222 0.0001244502 0.0001 0.0001 0.0001010417 0.0001 0.0001046875 0.0001 0.0001 0.0001 0.0007 0.0032 0.0108 0.01926667 0.0264 0.0537 0.0856 0.1133 0.165 0.2913 0.510425 6.783167 13.3037 60.9374 61.7579 40.2767 39.8852 38.62 41.3515 41.9381 41.0174 39.8964 39.37857 38.8532 39.1488 41.0084 41.4435 41.3695 40.1841 38.55172 37.0046 32.6889 28.4936 23.5171 19.7219 16.5464 13.8408 13.1314 6.1155 5.1476 5.8362 6.6085 7.540733 8.8261 10.46303 10.3015 4.4419 11.268 14.36395 19.2163 12.9372 11.2044 12.5351 14.2313 16.655 18.19923 19.28 23.9631 23.7066 23.7009 22.9667 20.80725 21.0166 18.7908 16.6358 14.7817 12.5141 9.3566 8.650884 5.3533 2.0458 0.4481 0.1864 0.2128 0.1929 0.19995 0.1966 0.1869 0.09354286 0.0385 0.0152 0.0117 0.005 0.0014 0.0004 0.0001 0.00015 0.0001375 0.0001 0.0001125 0.0001070313 0.0001 0.000103125 0.0001016113 0.0001 0.0001007813 0.0001002609 0.0001 0.0001 0.0001 
0.0001017235 0.0001025108 0.0001026981 0.0001 0.0001 0.0001 0.0001000001 0.0001 0.0001000244 0.0001000488 0.0001 0.0001001953 0.0001335286 0.0002 0.0002000102 0.0002 0.0002000406 0.0002 0.0002001067 0.0002 0.00015016 0.0001 0.0001 0.0001002058 0.0001012346 0.0001045267 0.0001117284 0.0001141372 0.0001 0.0001 0.0001002604 0.0001 0.0001011719 0.0001 0.0001 0.0001 0.0001 0.0002 0.0023 0.0062 0.0118 0.0158 0.0336 0.058 0.086 0.1227 0.1495333 0.1663 0.4176 9.0286 48.7208 63.3542 48.4589 41.53872 38.3222 39.9288 39.9542 39.1117 38.8432 38.542 38.8715 40.3038 41.2208 41.4288 40.8669 39.2637 37.33462 36.0191 31.5785 27.0308 21.6196 17.6536 14.87632 13.932 6.1929 4.0641 3.3647 3.1941 3.3611 5.1882 7.1042 9.8544 5.989867 0.7093 7.0365 10.96013 15.8834 5.8316 5.946 7.1608 8.2122 13.8549 13.03907 15.4742 21.7615 19.8764 19.0382 17.5133 15.27292 14.5959 11.1542 8.2643 6.3333 4.1497 2.0412 2.98275 0.7056 0.2052 0.1547 0.1419 0.1766 0.17265 0.1706 0.1543 0.1233 0.0782 0.0195 0.0073 0.0057 0.0023 0.0006 0.0002 0.0002 0.0001 0.000125 0.000115625 0.0001 0.00010625 0.0001033203 0.0001 0.0001015625 0.0001007935 0.0001 0.0001003906 0.0001001303 0.0001 0.0001 
0.0001021171 0.0001017331 0.0001 0.0001 0.0001 0.0001 0.0001 0.0001000122 0.0001000244 0.0001 0.0001000977 0.000133431 0.0002 0.0002000034 0.0002 0.0002000135 0.0002 0.0002000356 0.0002 0.0001500533 0.0001 0.0001 0.0001000686 0.0001004801 0.000101989 0.0001058299 0.0001075981 0.0001 0.0001 0.0001000651 0.0001 0.000100293 0.0001 0.0001 0.0001 0.0001 0.0001666667 0.0002 0.0011 0.0032 0.00655 0.0084 0.0188 0.0346 0.0547 0.0755 0.09003333 0.0764 0.8955 13.38633 29.9807 54.1837 47.9465 49.2295 34.325 34.7984 35.3935 34.958 36.4172 35.64877 38.3705 39.5268 40.3884 40.294 39.3269 37.5025 34.92402 34.0337 29.2966 24.5834 18.8759 14.9274 10.77695 6.4766 4.0145 3.1556 4.1548 2.1444 0.9027 3.006167 4.3266 5.561 5.0711 2.490543 3.0939 6.4784 9.2627 2.6003 3.3461 4.3991 5.433 6.307933 6.9609 6.0094 16.4856 13.2896 11.5282 9.276 8.52785 6.269 3.8555 2.1047 1.1083 0.4926 0.2707 0.5777166 0.1691 0.1407 0.1365 0.1335 0.1473 0.1401167 0.1357 0.1097 0.0759 0.0429 0.02995 0.009925 0.0034 0.001 0.0003 0.0001 0.00015 0.0001375 0.0001 0.0001125 0.0001070313 0.0001 0.000103125 0.0001016113 0.0001 0.0001007813 0.0001003937 0.0001 0.0001001953 0.0001000651 0.0001 
0.0001012834 0.0001 0.0001 0.0001 0.0001 0.0001 0.0001000061 0.0001000122 0.0001 0.0001000488 0.0001333822 0.0002 0.0002000011 0.0002 0.0002000045 0.0002 0.0002000119 0.0002 0.0001500178 0.0001 0.0001 0.0001000229 0.0001001829 0.0001008459 0.0001027663 0.0001038543 0.0001 0.0001 0.0001000163 0.0001 0.0001000732 0.0001 0.0001 0.0001 0.0001 0.0001555556 0.0002 0.000425 0.0003 0.0012 0.0017 0.004 0.0093 0.0182 0.0301 0.0424 0.05033333 0.0569 0.2522 4.4089 22.88872 34.3562 40.3641 38.0965 25.6915 24.4254 30.8619 27.8618 29.6386 31.1236 31.7516 34.903 36.2766 36.2631 35.1976 34.0523 33.1335 29.5916 24.7505 20.1041 16.7741 7.0483 6.935 4.6238 2.2841 4.6795 4.3711 1.3705 0.9655667 0.3249 2.0175 1.3494 0.7537 0.1052 0.6641 3.27102 2.9298 0.7133 0.7886 1.2638 1.7048 2.702733 1.6818 1.357 7.7769 6.3426 4.414 2.3859 3.24915 1.127 0.5067 0.2421 0.2039 0.2021 0.2297 0.1415 0.1382 0.1331 0.1284 0.1189 0.114 0.1061667 0.0965 0.0705 0.0436 0.0223 0.0095 0.004675 0.001575 0.0004 0.0001 0.0001666667 0.0001 0.000125 0.000115625 0.0001 0.00010625 0.0001033203 0.0001 0.0001015625 0.0001007935 0.0001 0.0001003906 0.0001001961 0.0001 0.0001000977 0.0001000407 
0.0001 0.0001 0.0001 0.0001 0.0001 0.0001000031 0.0001000061 0.0001 0.0001000244 0.0001333578 0.0002 0.0002000004 0.0002 0.0002000015 0.0002 0.000200004 0.0002 0.0001500059 0.0001 0.0001 0.0001000076 0.0001000686 0.0001003506 0.0001012651 0.0001018666 0.0001 0.0001 0.0001000041 0.0001 0.0001000183 0.0001 0.0001 0.0001 0.0001 0.0001518519 0.0002 0.0002229167 0.0001666667 0.0001 0.00055 0.0008 0.0017 0.0042 0.0086 0.0149 0.0221 0.03015 0.0287 0.0519 0.3022 14.1006 17.8965 27.29058 25.9546 18.7442 17.0008 26.6887 22.7195 23.737 24.7254 26.8267 29.2274 30.8439 31.1735 30.4461 28.7419 28.7072 25.3072 20.4303 16.2349 6.74 5.4889 4.3445 3.045 2.251 4.8371 2.8897 0.7982 0.5554 0.2527 0.4245 0.218 0.1184 0.0638 0.25516 1.092725 0.4046 0.269 0.2446 0.2335 0.2404 0.6718833 0.1955 0.1094 1.9589 1.3617 0.6717 0.2851 0.6977333 0.1519 0.1203 0.1314 0.1952 0.1378 0.1471667 0.1335 0.1322 0.125 0.1134 0.0967 0.0813 0.07063334 0.0622 0.0413 0.0232 0.011 0.0043 0.00356 0.0015 0.00056 0.0002333333 0.0001 0.0001222222 0.0001 0.0001125 0.0001070313 0.0001 0.000103125 0.0001016113 0.0001 0.0001007813 0.0001003937 0.0001 0.0001001953 0.0001000978 0.0001 0.0001000488 
0.0001 0.0001 0.0001 0.0001 0.0001000015 0.0001000031 0.0001 0.0001000122 0.0001333455 0.0002 0.0002000001 0.0002 0.0002000005 0.0002 0.0002000013 0.0002 0.000150002 0.0001 0.0001 0.0001000025 0.0001000254 0.0001001423 0.0001005614 0.0001008706 0.0001 0.0001 0.000100001 0.0001 0.0001000046 0.0001 0.0001 0.0001 0.0001 0.0001506173 0.0002 0.0001612847 0.0001222222 0.0001 0.0001 0.00028 0.0003 0.0007 0.0017 0.0038 0.0072 0.01118333 0.012 0.0188 0.0299 0.0419 3.0171 20.1121 18.43815 17.9335 11.5042 9.7046 17.1095 14.7109 14.8932 16.8542 19.5443 21.6025 23.2 23.9027 23.3436 22.22348 21.6234 18.5558 14.921 7.9968 5.5305 4.4285 3.7636 2.0974 2.4579 3.1903 1.3138 0.3218 0.3379667 0.2643 0.3247 0.128 0.0941 0.0703 0.18142 0.3724 0.2914667 0.2011 0.1521 0.1209 0.1096 0.13585 0.0992 0.1205 0.1959 0.194 0.1636 0.2580333 0.1621 0.0744 0.1095 0.1339 0.1498 0.1381 0.1305167 0.13 0.1224 0.1092 0.1206 0.0637 0.05555 0.0366 0.0332 0.0215 0.0114 0.005 0.0019 0.00155 0.0006 0.0002 0.00015 0.0001583333 0.0001 0.0001074074 0.0001 0.00010625 0.0001033203 0.0001 0.0001015625 0.0001007935 0.0001 0.0001003906 0.0001001961 0.0001 0.0001000977 0.0001000489 0.0001 
0.0001 0.0001 0.0001 0.0001000008 0.0001000015 0.0001 0.0001000061 0.0001333394 0.0002 0.0002 0.0002 0.0002000002 0.0002 0.0002000004 0.0002 0.0001500007 0.0001 0.0001 0.0001000008 0.0001000093 0.0001000567 0.000100243 0.0001003936 0.0001 0.0001 0.0001000003 0.0001 0.0001000011 0.0001 0.0001 0.0001 0.0001 0.0001502058 0.0002 0.000142173 0.0001074074 0.0001 0.0001 0.0001 0.0001666667 0.0001 0.0003 0.0007 0.0017 0.0036 0.0063 0.0073 0.0133 0.0216 0.0243 0.1922 9.7524 11.43244 10.5218 4.4836 3.3117 6.3228 4.7236 7.396983 6.614 10.1843 14.037 16.143 16.8119 15.645 15.53963 13.5756 11.9332 7.3391 6.3497 3.4035 2.804283 1.6445 1.0824 0.9796 1.0395 0.2793 0.1328 0.2218333 0.258 0.2841 0.1113 0.1094 0.0886 0.2031 0.312 0.1897 0.1519571 0.1157 0.0875 0.0845 0.09015 0.0859 0.0972 0.1115 0.1011 0.1189 0.141 0.1468 0.0951 0.1131 0.1427 0.1133 0.1258 0.1186 0.1179 0.1049 0.1125 0.0774 0.0362 0.0303 0.0188 0.0122 0.0094 0.005 0.0021 0.0008 0.00065 0.0002 0.0001 0.00015 0.0001333333 0.0001291667 0.0001 0.0001024691 0.0001 0.000103125 0.0001016113 0.0001 0.0001007813 0.0001003937 0.0001 0.0001001953 0.0001000978 0.0001 0.0001000488 0.0001000244 
0.0001 0.0001 0.0001000004 0.0001000008 0.0001 0.0001000031 0.0001333364 0.0002 0.0002 0.0002 0.0002000001 0.0002 0.0002000001 0.0002 0.0001500002 0.0001 0.0001 0.0001000003 0.0001000034 0.0001000223 0.000100103 0.0001001733 0.0001 0.0001 0.0001000001 0.0001 0.0001000003 0.0001 0.0001 0.0001 0.0001 0.0001500686 0.0002 0.0001361605 0.0001024691 0.0001 0.0001 0.0001 0.0001166667 0.0001 0.0001666667 0.0001 0.0003 0.0008 0.0022 0.0036 0.0055 0.014 0.011 0.018 0.0976 1.1983 4.12282 8.1659 3.1179 0.6194 0.985 0.5804 2.19455 0.8988 2.1525 4.5388 7.3548 9.4482 9.5783 9.9418 9.1084 5.1539 4.3366 2.3244 1.6483 1.32435 0.8353 0.3239 0.3054 0.2276 0.1824 0.1727833 0.1338 0.2203 0.2281 0.1003 0.1218 0.1629 0.1820833 0.2124 0.1434 0.1753 0.0864 0.067 0.0702 0.0728 0.0889 0.103 0.1059 0.0867 0.1124 0.1306167 0.1422 0.12 0.1159 0.1398 0.0811 0.09216667 0.1029 0.0969 0.0818 0.0943 0.0434 0.018 0.01538333 0.0085 0.005 0.0029 0.0018 0.0008 0.0003 0.0003 0.0001 0.0001333333 0.0001 0.000125 0.0001194444 0.0001152778 0.0001 0.000100823 0.0001 0.0001015625 0.0001007935 0.0001 0.0001003906 0.0001001961 0.0001 0.0001000977 0.0001000489 0.0001 0.0001000244 
0.0001 0.0001000002 0.0001000004 0.0001 0.0001000015 0.0001333349 0.0002 0.0002 0.0002 0.0002 0.0002 0.0002000001 0.0002 0.0001500001 0.0001 0.0001 0.0001000001 0.0001000012 0.0001000087 0.0001000429 0.0001000747 0.0001 0.0001 0.0001 0.0001 0.0001000001 0.0001 0.0001 0.0001 0.0001 0.0001500229 0.0002 0.0001342459 0.000100823 0.0001 0.0001 0.0001 0.0001041667 0.0001 0.0001222222 0.0001 0.00015 0.0001 0.0004 0.001 0.001966667 0.002 0.006157143 0.0065 0.0117 0.0778 0.2847333 0.1658 1.3317 0.7951 0.5053571 0.2711 0.18 0.3511667 0.1705 0.2144 0.5183 1.2844 2.4159 4.286167 3.207 2.4213 1.8321 1.3764 0.408 0.3267 0.5048333 0.0878 0.192 0.1848 0.1798 0.1796 0.1532167 0.1288 0.1644 0.1646 0.0839 0.1503 0.1559 0.1589333 0.1607 0.0985 0.1684 0.1047286 0.0487 0.05914 0.0607 0.0937 0.1157 0.1075 0.0787 0.1085 0.12545 0.1549 0.1128 0.1099 0.1225 0.0542 0.0682 0.0757 0.0717 0.0578 0.0553 0.0338 0.008 0.007416666 0.0028 0.002 0.0011 0.0006 0.0003 0.00032 0.0001 0.0001 0.0001 0.0001111111 0.0001 0.0001125 0.0001106482 0.000108044 0.0001 0.0001002744 0.0001 0.0001007813 0.0001003937 0.0001 0.0001001953 0.0001000978 0.0001 0.0001000488 0.0001000244 0.0001 
0.0001000001 0.0001000002 0.0001 0.0001000008 0.0001333341 0.0002 0.0002 0.0002 0.0002 0.0002 0.0002 0.0002 0.00015 0.0001 0.0001 0.0001 0.0001000004 0.0001000033 0.0001000176 0.0001000316 0.0001 0.0001 0.0001 0.0001 0.0001 0.0001 0.0001 0.0001 0.0001 0.0001500076 0.0002 0.0001336301 0.0001002744 0.0001 0.0001 0.0001 0.0001010417 0.0001 0.0001074074 0.0001 0.0001125 0.0001 0.0001 0.0002 0.0003833333 0.0004 0.0007 0.0024 0.0034 0.0068 0.0576 0.08991667 0.1113 0.2063 0.2013 0.4391 0.2265 0.1942 0.1519 0.1254 0.1177 0.14 0.1895 0.279 1.096017 0.4251 0.3924 0.306 0.2108 0.0711 0.1603833 0.0693 0.0616 0.1848 0.1396 0.1818 0.1833 0.1449 0.1114 0.1078 0.1062 0.0632 0.1487 0.1349 0.13145 0.1268 0.0844 0.1284 0.0589 0.04395 0.04705 0.0465 0.0941 0.1215 0.1064 0.07 0.08758333 0.1131 0.1216 0.0994 0.1107 0.096 0.0414 0.04793333 0.0539 0.0385 0.0355 0.0304 0.0181 0.0055 0.003666667 0.0017 0.0008 0.0005 0.0002 0.0001 0.0001666667 0.0001 0.0001 0.0001 0.0001 0.0001037037 0.0001 0.00010625 0.0001056327 0.0001042004 0.0001 0.0001000914 0.0001 0.0001003906 0.0001001961 0.0001 0.0001000977 0.0001000489 0.0001 0.0001000244 0.0001000122 
0.0001000001 0.0001 0.0001000004 0.0001333337 0.0002 0.0002 0.0002 0.0002 0.0002 0.0002 0.0002 0.00015 0.0001 0.0001 0.0001 0.0001000002 0.0001000013 0.0001000071 0.0001000131 0.0001 0.0001 0.0001 0.0001 0.0001 0.0001 0.0001 0.0001 0.0001 0.0001500025 0.0002 0.0001334304 0.0001000914 0.0001 0.0001 0.0001 0.0001002604 0.0001 0.0001024691 0.0001 0.000103125 0.0001 0.0001 0.0001333333 0.0001 0.000225 0.0002 0.0002 0.001116667 0.0016 0.0035 0.0385 0.06395 0.0885 0.1885 0.1994 0.3771 0.32098 0.185125 0.1415 0.1151 0.1095 0.1207 0.1344 0.1317 0.196 0.1174 0.162 0.2093 0.0992 0.0468 0.05363333 0.0404 0.0331 0.1938 0.1257 0.1915 0.1804 0.1310833 0.0859 0.0625 0.0611 0.0426 0.1201 0.1145 0.1125 0.0979 0.0671 0.0913 0.0359 0.0323 0.032625 0.06586 0.0861 0.1174 0.0993 0.0652 0.07685 0.09 0.099 0.0806 0.0968 0.0676 0.0283 0.03241667 0.0341 0.0228 0.0161 0.015 0.0089 0.00685 0.0031 0.0009 0.0003 0.0002 0.0001 0.0001333333 0.0001 0.0001166667 0.0001 0.0001 0.0001 0.0001 0.0001012346 0.0001 0.000103125 0.0001029192 0.0001021705 0.0001 0.0001000305 0.0001 0.0001001953 0.0001000978 0.0001 0.0001000488 0.0001000244 0.0001 0.0001000122 
0.0001 0.0001000002 0.0001333335 0.0002 0.0002 0.0002 0.0002 0.0002 0.0002 0.0002 0.00015 0.0001 0.0001 0.0001 0.0001000001 0.0001000005 0.0001000028 0.0001000054 0.0001 0.0001 0.0001 0.0001 0.0001 0.0001 0.0001 0.0001 0.0001 0.0001500009 0.0002 0.0001333652 0.0001000305 0.0001 0.0001 0.0001 0.0001000651 0.0001 0.000100823 0.0001 0.0001007813 0.0001 0.0001 0.0001111111 0.0001 0.0001 0.00015 0.0001666667 0.0001 0.00058 0.0007 0.0016 0.0233 0.04498333 0.0645 0.2037 0.2174 0.3416 0.2206 0.171875 0.120625 0.1022 0.104 0.1183 0.1283 0.12525 0.1181 0.1047 0.136 0.1258 0.0941 0.0705 0.04786666 0.0237 0.0399 0.2068 0.1244 0.1979 0.1664 0.11165 0.0591 0.0321 0.0314 0.0257 0.0796 0.08526666 0.0912 0.0712 0.0468 0.0621 0.0195 0.0195 0.02298 0.0322 0.0704 0.1042 0.086 0.0563 0.06216667 0.0665 0.0744 0.0601 0.0649 0.0528 0.0174 0.02058333 0.0194 0.0121 0.0067 0.0067 0.004 0.003283333 0.0015 0.0005 0.0001 0.0001 0.0001333333 0.0001 0.0001111111 0.0001 0.0001041667 0.0001 0.0001 0.0001 0.0001 0.0001004115 0.0001 0.0001015625 0.0001014939 0.0001011114 0.0001 0.0001000102 0.0001 0.0001000977 0.0001000489 0.0001 0.0001000244 0.0001000122 0.0001 
0.0001000001 0.0001333334 0.0002 0.0002 0.0002 0.0002 0.0002 0.0002 0.0002 0.00015 0.0001 0.0001 0.0001 0.0001 0.0001000002 0.0001000011 0.0001000022 0.0001 0.0001 0.0001 0.0001 0.0001 0.0001 0.0001 0.0001 0.0001 0.0001500003 0.0002 0.0001333438 0.0001000102 0.0001 0.0001 0.0001 0.0001000163 0.0001 0.0001002744 0.0001 0.0001001953 0.0001 0.0001 0.0001037037 0.0001 0.0001 0.0001166667 0.0001291667 0.0001 0.0001 0.0003 0.0003 0.0006 0.007483333 0.0128 0.0423 0.1979 0.2111 0.2963 0.2017 0.16222 0.1237 0.09724285 0.0926 0.1108 0.1229 0.1178333 0.1161 0.1078 0.1203 0.0848 0.1022 0.0769 0.05226667 0.0289 0.0485 0.2167 0.1261 0.1958 0.1658167 0.1417 0.0364 0.0147 0.0145 0.0139 0.0476 0.05693333 0.0606 0.0501 0.0347 0.0366 0.0095 0.01145 0.0107 0.0202 0.05351429 0.0847 0.0687 0.0447 0.0475 0.0503 0.0472 0.0407 0.0404 0.0313 0.02355 0.0143 0.01 0.0058 0.003 0.0024 0.0016 0.0014 0.0006 0.0002 0.0001 0.0001 0.0001 0.0001111111 0.0001 0.0001037037 0.0001 0.0001010417 0.0001 0.0001 0.0001 0.0001 0.0001001372 0.0001 0.0001007813 0.0001007584 0.0001005651 0.0001 0.0001000034 0.0001 0.0001000488 0.0001000244 0.0001 0.0001000122 0.0001000061 
0.0001444445 0.0002 0.0002 0.0002 0.0002 0.0002 0.0002 0.0002 0.00015 0.0001 0.0001 0.0001 0.0001 0.0001000001 0.0001000004 0.0001000009 0.0001 0.0001 0.0001 0.0001 0.0001 0.0001 0.0001 0.0001 0.0001 0.0001500001 0.0002 0.0001333368 0.0001000034 0.0001 0.0001 0.0001 0.0001000041 0.0001 0.0001000914 0.0001 0.0001000488 0.0001 0.0001 0.0001012346 0.0001 0.0001 0.0001055556 0.0001114583 0.0001 0.0001 0.00016 0.0002 0.0001 0.0002 0.0045 0.0064 0.0446 0.1486 0.1803 0.2374 0.1667 0.1308667 0.0984 0.0839 0.0759 0.0962 0.1112 0.10435 0.1104 0.106 0.1051 0.0614 0.1094 0.0804 0.05181667 0.0332 0.056 0.2177 0.1247 0.1825 0.14475 0.1106 0.0202 0.0061 0.006 0.0068 0.0259 0.03396667 0.0367 0.032 0.0222 0.0203 0.0042 0.005616667 0.0053 0.0116 0.0513 0.0586 0.0504 0.0325 0.0343 0.0347 0.0278 0.0252 0.0233 0.0172 0.01403333 0.0083 0.0058 0.0025 0.0012 0.0009 0.0005 0.0005333333 0.0002 0.0001 0.0001333333 0.0001 0.0001 0.0001 0.0001037037 0.0001 0.0001012346 0.0001 0.0001002604 0.0001 0.0001 0.0001 0.0001 0.0001000457 0.0001 0.0001003906 0.000100383 0.0001002859 0.0001 0.0001000011 0.0001 0.0001000244 0.0001000122 0.0001 0.0001000061 
0.0002 0.0002 0.0002 0.0002 0.0002 0.0002 0.0002 0.00015 0.0001 0.0001 0.0001 0.0001 0.0001 0.0001000002 0.0001000003 0.0001 0.0001 0.0001 0.0001 0.0001 0.0001 0.0001 0.0001 0.0001 0.00015 0.0002 0.0001333345 0.0001000011 0.0001 0.0001 0.0001 0.000100001 0.0001 0.0001000305 0.0001 0.0001000122 0.0001 0.0001 0.0001004115 0.0001 0.0001 0.0001018519 0.0001042535 0.0001 0.0001 0.000122 0.00015 0.0001 0.00025 0.0001 0.003183333 0.0069 0.0333 0.1032 0.1537 0.3648 0.1682 0.1239 0.0708 0.063 0.07077143 0.0761 0.089 0.08361667 0.0765 0.1254 0.0954 0.0725 0.0964 0.07703333 0.0569 0.0346 0.0599 0.2067 0.1174 0.1589 0.1185333 0.079 0.0101 0.0022 0.0022 0.003 0.00925 0.0128 0.0202 0.0186 0.013 0.0101 0.0016 0.002516667 0.0024 0.0061 0.0335 0.063 0.04456 0.0304 0.0217 0.0219 0.0168 0.013 0.0124 0.0088 0.007483333 0.0043 0.003 0.001 0.0005 0.0003 0.00035 0.0002 0.0001 0.0001333333 0.0001 0.0001111111 0.0001 0.0001 0.0001 0.0001012346 0.0001 0.0001004115 0.0001 0.0001000651 0.0001 0.0001 0.0001 0.0001 0.0001000152 0.0001 0.0001001953 0.0001001928 0.0001001441 0.0001 0.0001000004 0.0001 0.0001000122 0.0001000061 0.0001 
0.0002 0.0002 0.0002 0.0002 0.0002 0.0002 0.00015 0.0001 0.0001 0.0001 0.0001 0.0001 0.0001000001 0.0001000001 0.0001 0.0001 0.0001 0.0001 0.0001 0.0001 0.0001 0.0001 0.0001 0.00015 0.0002 0.0001333337 0.0001000004 0.0001 0.0001 0.0001 0.0001000003 0.0001 0.0001000102 0.0001 0.0001000031 0.0001 0.0001 0.0001001372 0.0001 0.0001 0.0001006173 0.0001015263 0.0001 0.0001 0.0001094 0.000125 0.0001 0.000325 0.00035 0.0006 0.002683333 0.0049 0.0219 0.0637 0.0906 0.0335 0.1113833 0.0829 0.0462 0.0434 0.0569 0.06331667 0.0643 0.06226 0.0503 0.1264 0.0839 0.0712 0.0787 0.06111667 0.0404 0.0329 0.0586 0.1839 0.1036 0.1286 0.0909 0.0516 0.0046 0.0008 0.0007 0.0012 0.004266667 0.0058 0.0101 0.0099 0.0069 0.0046 0.0006 0.001033333 0.001 0.0029 0.0198 0.0428 0.0341 0.022575 0.0133 0.0127 0.0085 0.0069 0.0061 0.0042 0.003683333 0.0021 0.0013 0.0005 0.0002 0.0001 0.000175 0.0001 0.0001333333 0.0001 0.0001111111 0.0001 0.0001037037 0.0001 0.0001 0.0001 0.0001004115 0.0001 0.0001001372 0.0001 0.0001000163 0.0001 0.0001 0.0001 0.0001 0.0001000051 0.0001 0.0001000977 0.0001000968 0.0001000724 0.0001 0.0001000001 0.0001 0.0001000061 0.0001000031 
0.0002 0.0002 0.0002 0.0002 0.0002 0.00015 0.0001 0.0001 0.0001 0.0001 0.0001 0.0001 0.0001000001 0.0001 0.0001 0.0001 0.0001 0.0001 0.0001 0.0001 0.0001 0.0001 0.00015 0.0002 0.0001333335 0.0001000001 0.0001 0.0001 0.0001 0.0001000001 0.0001 0.0001000034 0.0001 0.0001000008 0.0001 0.0001 0.0001000457 0.0001 0.0001 0.0001002058 0.0001005359 0.0001 0.0001 0.00010438 0.0001125 0.0001 0.000375 0.000475 0.0006 0.0003 0.0002 0.0034 0.0127 0.0352 0.0486 0.0132 0.03556667 0.05 0.0273 0.0274 0.0389 0.0547 0.049275 0.04366 0.0312 0.1119 0.0692 0.0618 0.061 0.04718333 0.0333 0.0221 0.0524 0.1525 0.0852 0.09096666 0.0964 0.0309 0.0019 0.0003 0.0002 0.0004 0.0018 0.0024 0.0047 0.005 0.0033 0.0019 0.0002 0.0004 0.0004 0.0012 0.0107 0.0266 0.0212 0.01766 0.010225 0.0068 0.004 0.0034 0.0028 0.002816667 0.0018 0.0009 0.0005 0.0002 0.00022 0.00015 0.0001 0.0001 0.0001 0.0001111111 0.0001 0.0001037037 0.0001 0.0001012346 0.0001 0.0001 0.0001 0.0001001372 0.0001 0.0001000457 0.0001 0.0001000041 0.0001 0.0001 0.0001 0.0001 0.0001000017 0.0001 0.0001000488 0.0001000485 0.0001000363 0.0001 0.0001 0.0001 0.0001000031 
0.0002 0.0002 0.0002 0.0002 0.00015 0.0001 0.0001 0.0001 0.0001 0.0001 0.0001 0.0001 0.0001 0.0001 0.0001 0.0001 0.0001 0.0001 0.0001 0.0001 0.0001 0.00015 0.0002 0.0001333334 0.0001 0.0001 0.0001 0.0001 0.0001 0.0001 0.0001000011 0.0001 0.0001000002 0.0001 0.0001 0.0001000152 0.0001 0.0001 0.0001000686 0.0001001854 0.0001 0.0001 0.000102126 0.00010625 0.0001 0.000403125 0.0005375 0.0006 0.0002875 0.00015 0.0001 0.0019 0.0066 0.0188 0.0415 0.0064 0.01898333 0.0274 0.0148 0.0159 0.0244 0.0358 0.03634 0.0423 0.0302 0.0743 0.0529 0.0485 0.0446 0.03546667 0.0251 0.0144 0.0429 0.1177 0.065 0.06713333 0.067 0.017 0.0007 0.0001 0.0001 0.0001 0.00082 0.0009 0.0021 0.0022 0.0014 0.0007 0.00062 0.0001 0.0001 0.0005 0.0053 0.0152 0.0116 0.01024 0.0081 0.004733333 0.0018 0.0015 0.0012 0.001233333 0.0008 0.0004 0.0002 0.0001 0.00015 0.000144 0.0001166667 0.0001 0.0001 0.0001 0.0001037037 0.0001 0.0001012346 0.0001 0.0001004115 0.0001 0.0001 0.0001 0.0001000457 0.0001 0.0001000152 0.0001 0.000100001 0.0001 0.0001 0.0001 0.0001 0.0001000006 0.0001 0.0001000244 0.0001000243 0.0001000182 0.0001 0.0001 0.0001 
0.0002 0.0002 0.0002 0.00015 0.0001 0.0001 0.0001 0.0001 0.0001 0.0001 0.0001 0.0001 0.0001 0.0001 0.0001 0.0001 0.0001 0.0001 0.0001 0.0001 0.00015 0.0002 0.0001333333 0.0001 0.0001 0.0001 0.0001 0.0001 0.0001 0.0001000004 0.0001 0.0001 0.0001 0.0001 0.0001000051 0.0001 0.0001 0.0001000229 0.0001000635 0.0001 0.0001 0.0001010502 0.000103125 0.0001 0.0004179688 0.00056875 0.0006 0.000278125 0.000125 0.0001 0.00085 0.001 0.0031 0.0077 0.0002 0.0033 0.00975 0.0136 0.0073 0.0085 0.0141 0.0216 0.026 0.0273 0.03725714 0.0469 0.0374 0.0349 0.0336 0.0307 0.0181 0.0134 0.0272 0.0844 0.0461 0.04621667 0.0431 0.0086 0.0002 0.00024 0.0001 0.0001 0.00035 0.0003 0.0008 0.0009 0.0006 0.0002 0.000275 0.0001 0.0002 0.0002 0.0024 0.0079 0.0059 0.005833333 0.0044 0.0033 0.0014 0.0007 0.0005 0.0005166667 0.0003 0.0001 0.0001 0.0001333333 0.0001 0.000125 0.0001171333 0.0001055556 0.0001 0.0001 0.0001 0.0001012346 0.0001 0.0001004115 0.0001 0.0001001372 0.0001 0.0001 0.0001 0.0001000152 0.0001 0.0001000051 0.0001 0.0001000003 0.0001 0.0001 0.0001 0.0001 0.0001000002 0.0001 0.0001000122 0.0001000122 0.0001000091 0.0001 0.0001 
0.0002 0.0002 0.00015 0.0001 0.0001 0.0001 0.0001 0.0001 0.0001 0.0001 0.0001 0.0001 0.0001 0.0001 0.0001 0.0001 0.0001 0.0001 0.0001 0.00015 0.0002 0.0001333333 0.0001 0.0001 0.0001 0.0001 0.0001 0.0001 0.0001000001 0.0001 0.0001 0.0001 0.0001 0.0001000017 0.0001 0.0001 0.0001000076 0.0001000216 0.0001 0.0001 0.0001005225 0.0001015625 0.0001 0.0004255859 0.000584375 0.0006 0.0002726562 0.0001125 0.0001 0.0004291667 0.0005333333 0.0004 0.0013 0.0029 0.0001 0.001 0.0016 0.0062 0.0033 0.0042 0.0075 0.0122 0.01566667 0.0168 0.023 0.02911667 0.0244 0.0231 0.02243333 0.0198 0.0123 0.0103 0.0164 0.0563 0.0303 0.0297 0.0258 0.004 0.0001 0.00015 0.000138 0.00017 0.0002 0.0001 0.0005 0.0005 0.0003 0.0001 0.00015 0.0001535714 0.00015 0.0001 0.001 0.0038 0.003916667 0.0029 0.0021 0.0014 0.0008 0.0003 0.0002 0.00024 0.0001 0.00015 0.0001 0.0001 0.0001111111 0.0001 0.0001125 0.0001070378 0.0001018519 0.0001 0.0001 0.0001 0.0001004115 0.0001 0.0001001372 0.0001 0.0001000457 0.0001 0.0001 0.0001 0.0001000051 0.0001 0.0001000017 0.0001 0.0001000001 0.0001 0.0001 0.0001 0.0001 0.0001000001 0.0001 0.0001000061 0.0001000061 0.0001000046 0.0001 
0.0002 0.00015 0.0001 0.0001 0.0001 0.0001 0.0001 0.0001 0.0001 0.0001 0.0001 0.0001 0.0001 0.0001 0.0001 0.0001 0.0001 0.0001 0.00015 0.0002 0.0001333333 0.0001 0.0001 0.0001 0.0001 0.0001 0.0001 0.0001 0.0001 0.0001 0.0001 0.0001 0.0001000006 0.0001 0.0001 0.0001000025 0.0001000073 0.0001 0.0001 0.0001002608 0.0001007813 0.0001 0.0004294433 0.0005921875 0.0006 0.0002697266 0.00010625 0.0001 0.0002489583 0.0003055556 0.0002333333 0.0002 0.0005 0.001 0.0001 0.00056 0.0007 0.0026 0.0014 0.0019 0.0037 0.0064 0.0089 0.0097 0.0151 0.0279 0.0183 0.0142 0.01398333 0.0119 0.0078 0.0069 0.0093 0.035 0.02813333 0.0186 0.0143 0.0017 0.001625 0.0001 0.000125 0.00015 0.0001 0.0003 0.0003666667 0.0004333333 0.0003 0.0002 0.0001 0.000125 0.0001 0.0004 0.0004 0.0017 0.001833333 0.0013 0.0009 0.0006 0.0003 0.0003 0.000175 0.0001 0.0001 0.0001 0.0001125 0.0001 0.0001 0.0001037037 0.0001 0.00010625 0.0001030279 0.0001006173 0.0001 0.0001 0.0001 0.0001001372 0.0001 0.0001000457 0.0001 0.0001000152 0.0001 0.0001 0.0001 0.0001000017 0.0001 0.0001000006 0.0001 0.0001 0.0001 0.0001 0.0001 0.0001 0.0001 0.0001 0.0001000031 0.000100003 0.0001000023 
0.00015 0.0001 0.0001 0.0001 0.0001 0.0001 0.0001 0.0001 0.0001 0.0001 0.0001 0.0001 0.0001 0.0001 0.0001 0.0001 0.0001 0.00015 0.0002 0.0001333333 0.0001 0.0001 0.0001 0.0001 0.0001 0.0001 0.0001 0.0001 0.0001 0.0001 0.0001 0.0001000002 0.0001 0.0001 0.0001000008 0.0001000025 0.0001 0.0001 0.0001001303 0.0001003906 0.0001 0.0004313843 0.0005960938 0.0006 0.0002682129 0.000103125 0.0001 0.0001687211 0.0001972222 0.0001611111 0.00015 0.0001 0.0002 0.0003 0.000375 0.0003 0.0003 0.001 0.0006 0.0008 0.0017 0.002833333 0.0031 0.0052 0.0089 0.0156 0.0148 0.0081 0.00892 0.0068 0.0046 0.0044 0.0071 0.018 0.01626667 0.0106 0.0074 0.0007 0.0009 0.0007479166 0.0001 0.0001 0.0002 0.0002555556 0.0003666667 0.0003666667 0.0003111111 0.0002 0.00015 0.0001 0.0002125 0.00025 0.0001 0.0007 0.0008 0.0006 0.0004 0.0002 0.0001 0.0001 0.0001 0.0001 0.0001 0.0001 0.0001 0.000103125 0.0001 0.0001 0.0001012346 0.0001 0.000103125 0.000101354 0.0001002058 0.0001 0.0001 0.0001 0.0001000457 0.0001 0.0001000152 0.0001 0.0001000051 0.0001 0.0001 0.0001 0.0001000006 0.0001 0.0001000002 0.0001 0.0001 0.0001 0.0001 0.0001 0.0001 0.0001 0.0001 0.0001000015 0.0001000015 
0.0001 0.0001 0.0001 0.0001 0.0001 0.0001 0.0001 0.0001 0.0001 0.0001 0.0001 0.0001 0.0001 0.0001 0.0001 0.0001 0.00015 0.0002 0.0001333333 0.0001 0.0001 0.0001 0.0001 0.0001 0.0001 0.0001 0.0001 0.0001 0.0001 0.0001 0.0001000001 0.0001 0.0001 0.0001000003 0.0001000008 0.0001 0.0001 0.0001000651 0.0001001953 0.0001 0.0004323578 0.0005980469 0.0006 0.0002674439 0.0001015625 0.0001 0.0001321494 0.000146142 0.0001287037 0.000125 0.0001 0.0001333333 0.0001 0.0001 0.0002 0.0002 0.0001 0.0003 0.0002 0.0003 0.0007 0.0013 0.0014 0.0026 0.0048 0.0082 0.0083 0.00796 0.0057 0.0036 0.0025 0.0025 0.0035 0.0098 0.008633333 0.0056 0.0036 0.0003 0.0003666667 0.0004888889 0.0003318056 0.0001333333 0.0001851852 0.0002740741 0.0003296296 0.0003481481 0.0002925926 0.0002203704 0.00015 0.0001475 0.000175 0.0001 0.0003666667 0.0003 0.0003333333 0.0002 0.0001 0.0001 0.0001 0.0001 0.0001 0.0001 0.0001 0.0001 0.0001 0.0001 0.0001007813 0.0001 0.0001 0.0001004115 0.0001 0.0001015625 0.0001006245 0.0001000686 0.0001 0.0001 0.0001 0.0001000152 0.0001 0.0001000051 0.0001 0.0001000017 0.0001 0.0001 0.0001 0.0001000002 0.0001 0.0001000001 0.0001 0.0001 0.0001 0.0001 0.0001 0.0001 0.0001 0.0001 0.0001000008 
0.0001 0.0001 0.0001 0.0001 0.0001 0.0001 0.0001 0.0001 0.0001 0.0001 0.0001 0.0001 0.0001 0.0001 0.0001 0.00015 0.0002 0.0001333333 0.0001 0.0001 0.0001 0.0001 0.0001 0.0001 0.0001 0.0001 0.0001 0.0001 0.0001 0.0001 0.0001 0.0001 0.0001000001 0.0001000003 0.0001 0.0001 0.0001000326 0.0001000977 0.0001 0.0004328453 0.0005990234 0.0006 0.0002670563 0.0001007813 0.0001 0.0001152133 0.0001220422 0.0001137346 0.0001125 0.0001 0.0001111111 0.0001 0.0001 0.0001 0.0001 0.0001 0.0001666667 0.0001 0.0001 0.0001 0.0003 0.00055 0.0006 0.0012 0.0024 0.004 0.0043 0.00422 0.0043 0.0026 0.0013 0.0013 0.0016 0.005 0.004483333 0.0028 0.0016 0.0001 0.0002 0.0002222222 0.000287037 0.0002189537 0.0001975309 0.000262963 0.000317284 0.0003234568 0.000287037 0.0002209877 0.0001510741 0.0001375 0.0001 0.0002555556 0.0003 0.0002 0.0001 0.0001 0.0001 0.0001 0.0001 0.0001 0.0001 0.0001 0.0001 0.0001 0.0001 0.0001 0.0001 0.0001001953 0.0001 0.0001 0.0001001372 0.0001 0.0001007813 0.0001002949 0.0001000229 0.0001 0.0001 0.0001 0.0001000051 0.0001 0.0001000017 0.0001 0.0001000006 0.0001 0.0001 0.0001 0.0001000001 0.0001 0.0001 0.0001 0.0001 0.0001 0.0001 0.0001 0.0001 0.0001 0.0001 
0.0001 0.0001 0.0001 0.0001 0.0001 0.0001 0.0001 0.0001 0.0001 0.0001 0.0001 0.0001 0.0001 0.0001 0.00015 0.0002 0.0001333333 0.0001 0.0001 0.0001 0.0001 0.0001 0.0001 0.0001 0.0001 0.0001 0.0001 0.0001 0.0001 0.0001 0.0001 0.0001 0.0001000001 0.0001 0.0001 0.0001000163 0.0001000488 0.0001 0.0004330893 0.0005995117 0.0006 0.0002668617 0.0001003906 0.0001 0.0001072713 0.0001106096 0.0001066615 0.00010625 0.0001 0.0001037037 0.0001 0.0001 0.0001 0.0001 0.0001 0.0001166667 0.0001 0.0001 0.0001 0.00015 0.0001 0.00026 0.0002 0.0005 0.0011 0.0019 0.0021 0.002466667 0.0021 0.0018 0.0009571429 0.0006 0.0007 0.0024 0.0022 0.0013 0.0007 0.000675 0.0001 0.00015 0.0001574074 0.0001898148 0.0001993463 0.0002592593 0.0003012346 0.0003092593 0.0002771605 0.0001755698 0.00011875 0.0001 0.0002185185 0.0003 0.0002 0.0001 0.0001 0.0001 0.0001 0.0001 0.0001 0.0001 0.0001 0.0001 0.0001 0.0001 0.0001 0.0001 0.0001 0.0001 0.0001000488 0.0001 0.0001 0.0001000457 0.0001 0.0001003906 0.0001001417 0.0001000076 0.0001 0.0001 0.0001 0.0001000017 0.0001 0.0001000006 0.0001 0.0001000002 0.0001 0.0001 0.0001 0.0001 0.0001 0.0001 0.0001 0.0001 0.0001 0.0001 0.0001 0.0001 0.0001 
0.0001 0.0001 0.0001 0.0001 0.0001 0.0001 0.0001 0.0001 0.0001 0.0001 0.0001 0.0001 0.0001 0.00015 0.0002 0.0001333333 0.0001 0.0001 0.0001 0.0001 0.0001 0.0001 0.0001 0.0001 0.0001 0.0001 0.0001 0.0001 0.0001 0.0001 0.0001 0.0001 0.0001 0.0001 0.0001000081 0.0001000244 0.0001 0.0004332113 0.0005997558 0.0006 0.0002667643 0.0001001953 0.0001 0.0001035061 0.0001051447 0.0001032622 0.000103125 0.0001 0.0001012346 0.0001 0.0001 0.0001 0.0001 0.0001 0.0001041667 0.0001 0.0001 0.0001 0.0001125 0.0001 0.0001 0.0001333333 0.0001 0.0002 0.0005 0.0008 0.001 0.001166667 0.001 0.0008 0.0006 0.0003 0.0003 0.00085 0.0011 0.0006 0.0003 0.0003666667 0.0003354167 0.0001 0.000125 0.0001274691 0.0001432613 0.0002032849 0.0002899177 0.0002958848 0.0001942729 0.000109375 0.0001 0.0002061728 0.0003 0.0002 0.0001 0.0001 0.0001 0.0001 0.0001 0.0001 0.0001 0.0001 0.0001 0.0001 0.0001 0.0001 0.0001 0.0001 0.0001 0.0001 0.0001 0.0001000122 0.0001 0.0001 0.0001000152 0.0001 0.0001001953 0.0001000689 0.0001000025 0.0001 0.0001 0.0001 0.0001000006 0.0001 0.0001000002 0.0001 0.0001000001 0.0001 0.0001 0.0001 0.0001 0.0001 0.0001 0.0001 0.0001 0.0001 0.0001 0.0001 0.0001 
0.0001 0.0001 0.0001 0.0001 0.0001 0.0001 0.0001 0.0001 0.0001 0.0001 0.0001 0.0001 0.00015 0.0002 0.0001333333 0.0001 0.0001 0.0001 0.0001 0.0001 0.0001 0.0001 0.0001 0.0001 0.0001 0.0001 0.0001 0.0001 0.0001 0.0001 0.0001 0.0001 0.0001 0.0001000041 0.0001000122 0.0001 0.0004332723 0.0005998779 0.0006 0.0002667155 0.0001000977 0.0001 0.0001017035 0.0001025114 0.0001016082 0.0001015625 0.0001 0.0001004115 0.0001 0.0001 0.0001 0.0001 0.0001 0.0001010417 0.0001 0.0001 0.0001 0.000103125 0.0001 0.0001 0.0001083333 0.0001 0.0001333333 0.0001 0.0002 0.0003 0.0004 0.0005333333 0.0004 0.0004 0.0003 0.0002714286 0.0002 0.00044 0.0004 0.0002 0.0001 0.0002 0.0002222222 0.0002019097 0.0001 0.0001125 0.000113323 0.0001209448 0.0002033113 0.0001969526 0.0001046875 0.0001 0.0002020576 0.0003 0.0002 0.0001 0.0001 0.0001 0.0001 0.0001 0.0001 0.0001 0.0001 0.0001 0.0001 0.0001 0.0001 0.0001 0.0001 0.0001 0.0001 0.0001 0.0001 0.0001 0.0001000031 0.0001 0.0001 0.0001000051 0.0001 0.0001000977 0.0001000338 0.0001000008 0.0001 0.0001 0.0001 0.0001000002 0.0001 0.0001000001 0.0001 0.0001 0.0001 0.0001 0.0001 0.0001 0.0001 0.0001 0.0001 0.0001 0.0001 0.0001 0.0001 
0.0001 0.0001 0.0001 0.0001 0.0001 0.0001 0.0001 0.0001 0.0001 0.0001 0.0001 0.00015 0.0002 0.0001333333 0.0001 0.0001 0.0001 0.0001 0.0001 0.0001 0.0001 0.0001 0.0001 0.0001 0.0001 0.0001 0.0001 0.0001 0.0001 0.0001 0.0001 0.0001 0.000100002 0.0001000061 0.0001 0.0004333028 0.000599939 0.0006 0.0002666911 0.0001000488 0.0001 0.0001008825 0.0001012328 0.0001007965 0.0001007813 0.0001 0.0001001372 0.0001 0.0001 0.0001 0.0001 0.0001 0.0001002604 0.0001 0.0001 0.0001 0.0001007813 0.0001 0.0001 0.0001020833 0.0001 0.0001111111 0.0001 0.0001333333 0.0001 0.0001 0.0002 0.0002333333 0.0002 0.0002 0.0001 0.0001 0.0001333333 0.0002 0.0002 0.0001 0.0001333333 0.0001 0.00015 0.0001574074 0.0001460793 0.0001 0.00010625 0.0001065243 0.000110198 0.0001023438 0.0001 0.0002006859 0.0003 0.0002 0.0001 0.0001 0.0001 0.0001 0.0001 0.0001 0.0001 0.0001 0.0001 0.0001 0.0001 0.0001 0.0001 0.0001 0.0001 0.0001 0.0001 0.0001 0.0001 0.0001 0.0001 0.0001000008 0.0001 0.0001 0.0001000017 0.0001 0.0001000488 0.0001000167 0.0001000003 0.0001 0.0001 0.0001 0.0001000001 0.0001 0.0001 0.0001 0.0001 0.0001 0.0001 0.0001 0.0001 0.0001 0.0001 0.0001 0.0001 0.0001 0.0001 
0.0001 0.0001 0.0001 0.0001 0.0001 0.0001 0.0001 0.0001 0.0001 0.0001 0.00015 0.0002 0.0001444444 0.0001 0.0001 0.0001 0.0001 0.0001 0.0001 0.0001 0.0001 0.0001 0.0001 0.0001 0.0001 0.0001 0.0001 0.0001 0.0001 0.0001 0.0001 0.0001000013 0.0001000031 0.0001 0.0003777574 0.0005999695 0.0006 0.0003222385 0.0001000244 0.0001 0.0001005986 0.0001009132 0.0001005936 0.0001003906 0.0001 0.0001000457 0.0001 0.0001 0.0001 0.0001 0.0001 0.0001000651 0.0001 0.0001 0.0001 0.0001001953 0.0001 0.0001 0.0001005208 0.0001 0.0001037037 0.0001 0.0001111111 0.0001 0.0001 0.0001333333 0.0001333333 0.0001 0.0001 0.0001 0.000125 0.0001 0.0001 0.0001333333 0.0001 0.0001333333 0.0001 0.0001111111 0.0001 0.000125 0.0001412037 0.0001290943 0.0001 0.000103125 0.0001048247 0.0001 0.0002002286 0.0003 0.0002 0.0001 0.0001 0.0001 0.0001 0.0001 0.0001 0.0001 0.0001 0.0001 0.0001 0.0001 0.0001 0.0001 0.0001 0.0001 0.0001 0.0001 0.0001 0.0001 0.0001 0.0001 0.0001 0.0001 0.0001000002 0.0001 0.0001 0.0001000006 0.0001 0.0001000244 0.0001000104 0.0001000001 0.0001 0.0001 0.0001 0.0001 0.0001 0.0001 0.0001 0.0001 0.0001 0.0001 0.0001 0.0001 0.0001 0.0001 0.0001 0.0001 0.0001 
