ncols         184
nrows         108
xllcorner     94.9225650466
yllcorner     29.769995207079
cellsize      0.00033382452783686
NODATA_value  -9999
0.001892708 0.07371224 0.2157 0.1180972 0.03065 0.0001 0.0001 0.0001 0.0002 0.00945 0.0007 0.0023 0.0037 0.07132 0.0002 0.0012 0.0065 0.0314 2.7903 0.1322 0.4858 1.5244 3.5301 4.8124 4.6947 3.8164 11.34865 1.7581 0.9988 5.9273 7.6959 3.4927 1.0022 12.52977 13.98735 11.70933 7.4334 3.7216 2.00575 0.594 1.887731 1.329283 0.57575 0.4618 0.4618 0.2596963 0.0027 0.04772086 0.01294228 0.0002231481 0.0001375 0.0001 0.02178887 0.01226659 0.002967052 0.001690625 0.0001 0.01112138 0.007340432 0.003325617 0.002181327 0.001296296 0.000756713 0.0004160237 0.000315625 0.0002 0.02109865 0.02259815 0.01559351 0.01142588 0.009018313 0.007746159 0.007178064 0.006926372 0.0068625 0.0068 0.006798828 0.006798235 0.00267105 0.0001378492 0.0001058512 0.0001022498 0.0001007711 0.0001003906 0.0001 0.1366985 0.2048983 0.2047 0.1563181 0.1319551 0.1319 0.1319 0.1319 0.1319 0.1319 0.1319 0.1319 0.1319 0.1319 0.1319 0.1896 0.2473 0.08290632 0.0007029261 0.0007004195 0.0007001648 0.0007 0.0004 0.0001 0.0002119901 0.0001583274 0.000109388 0.0001010549 0.0001000656 0.0001000008 0.0001000001 0.0001 0.0001 0.0001 0.0001 0.0001 0.0001 0.0001000019 0.0001000019 0.0001 2.963653 4.445414 4.445407 4.4454 1.485649 0.00320281 0.001407738 0.0006075335 0.0002807393 0.0001590585 0.0001178471 0.0001051039 0.0001014453 0.0001004295 0.0001001392 0.0001000481 0.0001000178 0.0001000059 0.000100003 0.0001 0.0001003035 0.0001002047 0.0001000668 0.0001000228 0.0001000084 0.0001000028 0.0001000014 0.0001 0.0003000944 0.0004000681 0.0004000243 0.000400009 0.000400003 0.0004000015 0.0004 8.083126 12.12699 12.12862 12.12928 12.12954 12.12964 12.12968 12.12969 12.1297 12.1297 12.1297 4.087691 0.04571104 0.02750899 0.01597611 0.008952047 0.004843719 0.002538948 0.001300748 0.0006649789 0.0003538453 0.0002096696 0.0001483207 0.0001292662 
0.001247917 0.0025375 0.07536354 0.2157 0.1079417 0.0612 0.0001 0.033225 0.0156 0.04248333 0.0213 0.007 0.0254 0.0859 0.2414 0.6548 1.7212 4.440117 4.0924 6.9052 10.8856 14.2517 16.336 18.1443 19.5185 15.09918 20.891 18.9291 15.604 23.9521 23.906 23.211 20.3418 13.23714 16.2453 11.7294 7.1533 3.4175 0.594 3.430875 2.7224 0.80365 0.4618 0.4618 0.3145889 0.0027 0.1495316 0.03825741 0.0003944444 0.000175 0.0001 0.05353698 0.02799861 0.005519907 0.00328125 0.0001 0.02563615 0.01409444 0.004654938 0.003271914 0.00205 0.001222068 0.000616821 0.00043125 0.0002 0.03117794 0.0318845 0.02113217 0.01477778 0.01087058 0.008629287 0.007555075 0.007054115 0.006925 0.0068 0.006797656 0.006797641 0.003576855 0.0001975259 0.0001115855 0.000104436 0.000101532 0.0001007813 0.0001 0.1368972 0.2050966 0.2047 0.1566071 0.1320654 0.1319 0.1319 0.1319 0.1319 0.1319 0.1319 0.1319 0.1319 0.1319 0.1319 0.1896 0.2473 0.08291683 0.0007075197 0.000700929 0.0007003296 0.0007 0.0004 0.0001 0.0003759466 0.0002470124 0.0001250015 0.0001029683 0.0001001943 0.0001000021 0.0001000002 0.0001 0.0001 0.0001 0.0001 0.0001 0.0001 0.0001000038 0.0001000038 0.0001 2.963674 4.445427 4.445414 4.4454 1.488707 0.005861519 0.002627392 0.001119519 0.0004763034 0.0002267784 0.0001391361 0.0001112611 0.0001031442 0.0001009065 0.0001002851 0.0001000969 0.0001000356 0.0001000118 0.0001000059 0.0001 0.0001006458 0.0001004307 0.0001001374 0.0001000461 0.0001000168 0.0001000055 0.0001000028 0.0001 0.0003001914 0.0004001375 0.0004000488 0.0004000181 0.000400006 0.000400003 0.0004 8.080011 12.1245 12.12759 12.12888 12.12939 12.12958 12.12966 12.12968 12.12969 12.1297 12.1297 4.109286 0.0691442 0.04263278 0.02535615 0.01453804 0.008034143 0.00428396 0.002213053 0.001119831 0.0005693596 0.0003057465 0.0001864297 0.0001368326 0.0001216997 
0.0007819444 0.001713889 0.005116667 0.07892361 0.2157 0.1547667 0.1834 0.1053333 0.117 0.1343833 0.1001 0.2719 0.5988 1.2962 2.8059 5.5324 8.7919 9.346967 11.9973 15.7608 16.9271 17.7504 18.9562 19.9557 20.6005 19.85852 21.074 21.9784 19.98905 16.444 16.2425 15.8398 14.9588 17.29347 13.6376 11.984 10.993 9.8072 7.6847 4.2993 1.1455 2.024075 0.4618 0.4792667 0.0027 0.4809042 0.1136889 0.0008333334 0.00025 0.0001 0.1365146 0.06753611 0.009997223 0.0064625 0.0001 0.06481498 0.03146482 0.006164815 0.004653704 0.003146296 0.002015741 0.0009879629 0.0006625 0.0002 0.04888276 0.04629321 0.0293358 0.02002449 0.01403621 0.01027263 0.00830288 0.007312346 0.00705 0.0068 0.006795312 0.006795267 0.003803938 0.0003608549 0.000123011 0.000108712 0.0001030335 0.0001015625 0.0001 0.1372958 0.2054932 0.2047 0.1574323 0.1323961 0.1319 0.1319 0.1319 0.1319 0.1319 0.1319 0.1319 0.1319 0.1319 0.1319 0.1896 0.2473 0.08294542 0.0007197721 0.0007021279 0.0007006592 0.0007 0.0003999999 0.0001 0.0007710719 0.0004666093 0.0001661053 0.0001083226 0.0001005765 0.0001000057 0.0001000007 0.0001 0.0001 0.0001 0.0001 0.0001 0.0001 0.0001000076 0.0001000076 0.0001 2.963714 4.445454 4.445427 4.4454 1.493959 0.0105759 0.004893455 0.002115206 0.000873514 0.0003698359 0.0001855603 0.000124939 0.0001069089 0.0001019355 0.0001005882 0.0001001958 0.0001000714 0.0001000237 0.0001000118 0.0001 0.0001013849 0.0001009135 0.0001002848 0.0001000937 0.0001000336 0.0001000111 0.0001000055 0.0001 0.0003003891 0.0004002784 0.000400098 0.0004000362 0.000400012 0.000400006 0.0004 8.074226 12.11981 12.12561 12.12808 12.12908 12.12947 12.12961 12.12967 12.12969 12.12969 12.1297 4.139638 0.1028112 0.06499644 0.03962499 0.02327691 0.01316654 0.007170659 0.003765225 0.001915998 0.0009579377 0.0004855564 0.0002645848 0.0001670983 0.0001276061 0.0001157934 
0.0004583333 0.001105556 0.003577778 0.01066667 0.08575 0.2157 0.2198667 0.1834 0.27734 0.1474 0.4049 0.9256 2.0653 4.4032 7.9514 11.3712 14.0177 15.49622 15.4613 16.3687 17.864 18.8975 18.6548 18.4526 18.669 20.13102 18.3981 17.7741 21.722 20.8457 19.6286 19.1685 19.4088 18.90943 19.1685 18.1066 16.2745 13.6289 11.3661 8.5734 5.5157 5.275167 0.9733 0.0027 1.58025 0.3386667 0.002 0.0004 0.0001 0.356175 0.1727167 0.01706667 0.012825 0.0001 0.1709266 0.08041666 0.007816667 0.006161111 0.004516667 0.003283333 0.001638889 0.001125 0.0002 0.08418782 0.07 0.04114321 0.02773642 0.01912778 0.01320926 0.009771605 0.007837037 0.0073 0.0068 0.006790625 0.006790488 0.004461239 0.0008195073 0.000146022 0.0001170353 0.0001059757 0.000103125 0.0001 0.1380969 0.2062863 0.2047 0.159741 0.1333883 0.1319 0.1319 0.1319 0.1319 0.1319 0.1319 0.1319 0.1319 0.1319 0.1319 0.1896 0.2473 0.0830237 0.0007529326 0.0007050652 0.0007013184 0.0007 0.0003999996 0.0001 0.0017077 0.001003224 0.0002733632 0.0001232404 0.0001017124 0.0001000151 0.0001000019 0.0001000001 0.0001 0.0001 0.0001 0.0001 0.0001 0.0001000153 0.0001000153 0.0001 2.963794 4.445507 4.445454 4.4454 1.50272 0.01871367 0.00900289 0.004011125 0.00166635 0.0006681435 0.0002860489 0.0001553151 0.0001153169 0.0001041849 0.0001012248 0.0001003967 0.0001001432 0.0001000474 0.0001000237 0.0001 0.0001029906 0.0001019537 0.0001005954 0.0001001913 0.0001000677 0.0001000222 0.0001000111 0.0001 0.0003007941 0.000400565 0.0004001974 0.0004000726 0.0004000241 0.000400012 0.0004 8.06362 12.11105 12.12184 12.12653 12.12847 12.12924 12.12953 12.12964 12.12968 12.12969 12.1297 4.181325 0.1501371 0.09738896 0.06090746 0.03669291 0.02127461 0.01186319 0.006361827 0.003286956 0.001646892 0.0008141466 0.0004127749 0.0002297477 0.0001512317 0.0001203157 0.0001112711 
0.00025 0.0006666667 0.0024 0.007666667 0.02193333 0.0977 0.2157 0.2605 0.4641 0.6784 2.0205 3.8744 6.5341 9.757 13.5425 16.9878 17.55585 20.5128 22.1963 23.0991 24.0029 23.7403 22.6143 21.5175 20.85 22.40652 21.1945 25.14475 28.2652 28.4887 28.0038 26.5843 24.2594 22.78287 22.0235 20.0467 18.2522 16.9799 15.7542 14.5174 12.9052 10.93323 10.6495 5.303 1.0101 0.0052 0.0007 0.0001 0.932 0.46705 0.02555 0.02555 0.0001 0.4499562 0.22355 0.0101 0.0076 0.00575 0.005133333 0.002666667 0.00205 0.0002 0.1649809 0.113237 0.05833333 0.03842963 0.02666667 0.01811296 0.0126037 0.008911111 0.0078 0.0068 0.00678125 0.006780839 0.006395052 0.002132133 0.0001932099 0.000133179 0.000111677 0.00010625 0.0001 0.1397149 0.2078727 0.2047 0.1659993 0.1363648 0.1319 0.1319 0.1319 0.1319 0.1319 0.1319 0.1319 0.1319 0.1319 0.1319 0.1896 0.2473 0.08323863 0.0008436023 0.0007125589 0.0007026367 0.0007 0.0003999989 0.0001 0.003885717 0.002294675 0.0005504082 0.0001645893 0.0001050922 0.0001000397 0.0001000053 0.0001000004 0.0001 0.0001 0.0001 0.0001 0.0001 0.0001000305 0.0001000305 0.0001 2.963954 4.445614 4.445507 4.4454 1.516873 0.03234954 0.01625578 0.007535696 0.003217192 0.001280488 0.0005013692 0.0002225736 0.000134204 0.0001091678 0.000102579 0.0001008079 0.0001002875 0.0001000948 0.0001000473 0.0001 0.0001064944 0.0001042114 0.0001012566 0.0001003932 0.0001001364 0.0001000444 0.0001000221 0.0001 0.0003016269 0.0004011509 0.0004003985 0.0004001457 0.0004000482 0.000400024 0.0004 8.044467 12.09493 12.11469 12.12354 12.12728 12.12878 12.12936 12.12957 12.12966 12.12968 12.1297 4.237186 0.2151286 0.1432865 0.09199618 0.05688426 0.03384194 0.01935254 0.01062936 0.00560768 0.002848442 0.001404745 0.0006874868 0.0003502076 0.0002006305 0.0001384049 0.0001146596 0.0001078825 
0.0001 0.0004 0.0015 0.0053 0.0162 0.0443 0.1146 0.3536 0.4703333 1.1613 3.7368 6.6826 11.1362 12.7464 15.289 18.4302 19.01433 24.0154 23.5633 24.3473 24.2075 24.4256 25.5757 26.4363 25.14842 27.3098 28.0177 27.5754 28.7655 28.9019 28.354 27.486 27.3893 26.555 25.282 23.9028 22.4575 21.0533 19.9113 19.0854 18.1724 20.2384 17.3833 16.708 14.6251 10.0348 4.9904 1.9128 0.8831 6.895375 0.051 0.0001 1.352625 0.437 0.0101 1.376627 1.1946 0.0076 0.0039 0.0039 0.0002 0.3731792 0.2015056 0.08503889 0.05316667 0.03679444 0.02532778 0.01787778 0.01113333 0.0088 0.0068 0.0067625 0.006761265 0.0121719 0.005939301 0.0002925926 0.0001645062 0.0001225309 0.0001125 0.0001 0.1430142 0.2110453 0.2047 0.1821028 0.1452944 0.1319 0.1319 0.1319 0.1319 0.1319 0.1319 0.1319 0.1319 0.1319 0.1319 0.1896 0.2473 0.08382899 0.00109313 0.0007324033 0.0007052734 0.0007 0.0003999966 0.0001 0.008837347 0.00534796 0.00125756 0.000278506 0.0001151586 0.0001001033 0.0001000147 0.0001000011 0.0001 0.0001 0.0001 0.0001 0.0001 0.000100061 0.000100061 0.0001 2.964276 4.445828 4.445614 4.4454 1.538955 0.05446201 0.02867437 0.01391224 0.006180726 0.00251412 0.0009567311 0.0003706123 0.0001767644 0.0001203442 0.0001055034 0.0001016557 0.000100578 0.0001001899 0.0001000946 0.0001 0.0001141579 0.0001091406 0.0001026792 0.0001008144 0.000100276 0.000100089 0.0001000442 0.0001 0.0003033477 0.0004023536 0.0004008065 0.0004002925 0.0004000964 0.0004000481 0.0004 8.010492 12.06567 12.10131 12.1178 12.12495 12.12787 12.12902 12.12944 12.12961 12.12966 12.1297 4.310071 0.3021673 0.2068052 0.1364133 0.08664083 0.05293437 0.03107759 0.01751385 0.00946619 0.004908036 0.002448814 0.001188477 0.0005769453 0.0002970381 0.0001766394 0.0001282139 0.0001103614 0.0001054036 
0.00025 0.0006666667 0.0024 0.007666667 0.02193333 0.0453 0.0061 0.13035 0.0471 0.3211 2.0627 8.8274 13.9108 15.1342 16.2484 16.763 18.28587 17.3768 19.4882 21.8404 23.6412 25.1391 26.3153 27.2364 26.93327 27.5405 27.5399 28.2197 28.6063 29.0566 29.358 29.6317 29.58812 29.8194 29.288 28.4748 27.2082 25.531 23.6267 24.3766 25.78383 28.2363 34.0837 36.8293 36.2702 33.6194 29.9291 24.4123 16.385 11.31475 10.2624 4.5364 0.8639 0.0101 3.306775 1.633933 0.5557 2.581167 0.0076 0.0002 0.96415 0.3996 0.1287667 0.07615 0.0502 0.03315 0.02703333 0.0158 0.0108 0.0068 0.006725 0.006721296 0.02972502 0.01708272 0.0005092592 0.0002259259 0.0001425926 0.000125 0.0001 0.1498662 0.2173906 0.2047 0.2197278 0.1720833 0.1319 0.1319 0.1319 0.1319 0.1319 0.1319 0.1319 0.1319 0.1319 0.1319 0.1896 0.2473 0.08544712 0.001782181 0.000786663 0.0007105469 0.0007 0.0003999898 0.0001 0.01979559 0.01241637 0.003037428 0.0005900828 0.0001451693 0.0001002659 0.0001000406 0.0001000034 0.0001 0.0001 0.0001 0.0001 0.0001 0.0001001221 0.0001001221 0.0001 2.964917 4.446257 4.445828 4.4454 1.572134 0.08905622 0.04923123 0.02509859 0.01169328 0.004944849 0.001904043 0.0006934674 0.000272683 0.0001456865 0.0001119236 0.0001034225 0.0001011643 0.0001003804 0.0001001892 0.0001 0.0001309131 0.0001199452 0.0001057731 0.0001017036 0.000100561 0.0001001786 0.0001000885 0.0001 0.0003069181 0.0004048343 0.0004016381 0.0004005885 0.000400193 0.0004000961 0.0004 7.951458 12.0135 12.07661 12.10689 12.12043 12.12608 12.12834 12.12919 12.12953 12.12961 12.1297 4.402466 0.4156112 0.2925074 0.1983833 0.1295248 0.08133187 0.0490658 0.02840545 0.0157615 0.008374584 0.004262484 0.002087042 0.000996916 0.0004814731 0.0002524467 0.0001571946 0.000120277 0.0001071702 0.000103637 
0.0004583333 0.001105556 0.003577778 0.01066667 0.02025 0.0061 0.0061 0.0266 0.1841 0.79606 0.5161 6.7423 14.1378 19.1766 17.9739 17.10867 17.2599 15.8699 17.3574 19.3781 21.491 23.6009 24.974 26.0827 26.34129 26.9939 28.0669 28.5428 29.2219 30.4561 31.8099 32.1841 31.25897 31.8525 32.0245 31.8403 31.0692 29.8475 33.1867 33.5117 28.77002 31.3206 26.0162 22.7219 21.562 21.2001 21.1103 20.7828 19.371 21.0158 19.2912 16.7864 13.2299 8.4662 3.7904 0.9604 0.151 5.99044 7.5849 2.75 0.8724 0.234 0.0924 0.0599 1.018875 0.0405 0.0258 0.0148 0.0068 0.00665 0.006638889 0.08424313 0.04989815 0.001 0.00035 0.0001777778 0.00015 0.0001 0.1645836 0.2300812 0.2047 0.2898613 0.25245 0.1319 0.1319 0.1319 0.1319 0.1319 0.1319 0.1319 0.1319 0.1319 0.1319 0.1896 0.2473 0.08986303 0.003686553 0.0009388953 0.0007210937 0.0007 0.0003999695 0.0001 0.04326811 0.02837154 0.007442712 0.001434852 0.0002347203 0.0001006757 0.0001001118 0.0001000102 0.0001 0.0001 0.0001 0.0001 0.0001 0.0001002443 0.0001002441 0.0001 2.966199 4.447113 4.446257 4.4454 1.620017 0.1411089 0.08200846 0.0440513 0.02163393 0.00961056 0.003835367 0.001388619 0.0004881428 0.0002036401 0.0001262661 0.0001071531 0.0001023515 0.0001007629 0.0001003784 0.0001 0.0001674217 0.0001436636 0.0001125673 0.0001036048 0.0001011471 0.0001003589 0.000100177 0.0001 0.000314356 0.0004099753 0.0004033411 0.0004011865 0.0004003868 0.0004001922 0.0004 7.851337 11.92237 12.03173 12.0864 12.1117 12.12257 12.127 12.12867 12.12936 12.12953 12.1297 4.515986 0.559177 0.4050018 0.2826548 0.1898658 0.1226294 0.07607929 0.04528699 0.02583113 0.01409824 0.007355138 0.00367037 0.001761943 0.0008288123 0.0003999926 0.0002156144 0.0001417329 0.0001142364 0.0001048616 0.0001024124 
0.0007819444 0.04598833 0.1124 0.1039 0.077325 0.05919 0.07197857 0.1454 0.4554 0.68384 1.0333 6.4614 12.5929 17.1513 17.6893 17.9672 16.7175 17.4915 16.4159 17.4543 19.1047 20.6482 22.6621 24.00592 24.6648 25.52945 26.2722 28.8662 30.3724 30.6528 30.8712 31.00148 31.5738 32.4923 32.9811 33.2175 34.1961 37.8207 38.9516 30.6247 30.41495 24.5502 20.5148 17.7078 16.1062 15.8082 16.0358 16.5662 16.6513 17.0639 17.6399 18.1799 18.8406 18.8644 17.6199 15.1862 7.68585 11.3832 10.8255 11.6395 9.958 7.4725 4.8947 2.6196 2.00325 1.3555 0.8257 0.3407 0.0065 0.006466667 0.258774 0.1469278 0.00215 0.0006166667 0.0002333333 0.0002 0.0001 0.1980719 0.2554625 0.2047 0.2918839 0.373 0.3043765 0.1319 0.1319 0.1319 0.1319 0.1319 0.1319 0.1319 0.1319 0.1319 0.1896 0.2473 0.1018347 0.008942974 0.001374498 0.0007421875 0.0007 0.0003999085 0.0001 0.09155849 0.06328866 0.01812527 0.003700701 0.0005021643 0.0001016918 0.0001003048 0.0001000305 0.0001 0.0001 0.0001 0.0001 0.0001 0.0001004889 0.0001004883 0.0001 2.96876 4.448823 4.447114 4.4454 1.686271 0.2162317 0.1321657 0.07492924 0.0389304 0.01829425 0.007677131 0.0028603 0.0009686699 0.0003368878 0.0001588707 0.0001151618 0.0001047659 0.0001015317 0.0001007568 0.0001 0.0002464231 0.0001956535 0.0001276102 0.0001077271 0.0001023647 0.0001007226 0.000100354 0.0001 0.0003298973 0.0004206784 0.0004068485 0.0004023991 0.0004007758 0.0004003845 0.0004 7.68629 11.76696 11.9517 12.04845 12.09504 12.11571 12.12435 12.12765 12.12901 12.12936 12.1297 4.650816 0.7351289 0.5482981 0.394104 0.2726033 0.181257 0.115737 0.07089408 0.04160678 0.02336011 0.01252649 0.006408127 0.003130797 0.001472187 0.0006828454 0.0003314044 0.000185728 0.0001297109 0.0001097599 0.0001032385 0.0001015864 
0.06789257 0.1124 0.1124 0.1124 0.0954 0.0954 0.09295 0.1313 0.1454 0.7654 0.959 4.0744 9.615 15.117 19.134 17.89722 19.0286 18.3135 17.8623 18.318 19.2329 20.8818 22.2609 22.21407 23.391 23.1342 24.233 24.7184 25.7529 27.3666 29.1066 30.29322 30.4633 33.0671 33.3477 37.0105 44.8969 40.9058 36.504 35.21428 32.7543 29.7282 26.6508 22.88 19.1851 16.2676 14.104 12.4377 13.46112 12.0414 12.1322 12.2599 11.8197 11.0815 11.3553 11.5019 9.453314 6.9324 6.5549 6.1592 5.7658 5.3586 4.9419 4.5067 3.634783 3.4373 2.0043 0.8777 0.0061 0.84122 0.4346333 0.0049 0.00125 0.0003 0.0003 0.0001 0.2812625 0.306225 0.2047 0.2979518 0.373 0.399246 0.3585975 0.2591386 0.1319 0.1319 0.1319 0.1319 0.1319 0.1319 0.1319 0.1896 0.2473 0.1339941 0.02340543 0.00263912 0.000784375 0.0007 0.0003997257 0.0001 0.1859644 0.1367917 0.04337787 0.009696433 0.001301509 0.000104161 0.000100823 0.0001000914 0.0001 0.0001 0.0001 0.0001 0.0001 0.0001009789 0.0001009766 0.0001 2.973871 4.45224 4.448828 4.4454 1.77408 0.3200153 0.2055889 0.1230908 0.06781755 0.03387941 0.01509425 0.005909098 0.002028048 0.0006437537 0.0002342081 0.0001327015 0.0001097024 0.0001030815 0.0001015137 0.0001 0.0004155268 0.0003090564 0.0001611092 0.000116795 0.0001049264 0.0001014599 0.000100708 0.0001 0.0003624238 0.0004430482 0.0004141171 0.00040487 0.0004015584 0.000400769 0.0004 7.423216 11.50936 11.81219 11.97932 12.0636 12.10242 12.11911 12.12561 12.12833 12.12901 12.1297 4.805245 0.9433911 0.7249303 0.5370651 0.3828987 0.2623482 0.1725631 0.1088596 0.06578831 0.03803432 0.02099771 0.01104829 0.005533465 0.002642619 0.001216306 0.0005576357 0.000274594 0.0001619835 0.0001206065 0.0001065426 0.0001021306 0.0001010422 
0.1124 0.1124 0.1124 0.1124 0.1124 0.0784 0.09295 0.1075 0.141 0.4115 0.5649 2.3666 6.5032 11.1036 15.326 16.1277 19.4879 20.5696 20.4679 20.6298 20.3161 20.0855 20.5381 19.46545 19.7675 18.0819 18.9003 20.6743 22.3349 23.563 26.659 28.84828 33.0854 32.6937 38.2747 42.3751 39.5073 37.4862 36.3472 35.64933 36.1039 35.5116 33.4963 30.4713 25.9635 20.5326 15.2748 17.10647 12.163 10.4945 10.3388 9.5767 8.5755 7.6401 7.0918 6.7981 6.9773 7.3941 7.0276 6.6695 6.3561 6.0198 5.6274 5.1817 4.96425 4.7079 4.1705 3.587 2.8916 1.2941 0.0078 0.002 1.048 0.0005 0.0001 0.5125 0.40775 0.2047 0.3161556 0.373 0.4578063 0.4213852 0.3447926 0.3096148 0.2502472 0.1319 0.1319 0.1319 0.1319 0.1319 0.1896 0.2473 0.2193288 0.06299892 0.006348611 0.00086875 0.0007 0.000399177 0.0001 0.3586697 0.2839338 0.1011543 0.02528697 0.003692318 0.0001100137 0.0001021948 0.0001002744 0.0001 0.0001 0.0001 0.0001 0.0001 0.0001019623 0.0001019531 0.0001 2.984064 4.459065 4.452257 4.4454 1.885597 0.4571475 0.3081748 0.1947236 0.1138683 0.06068039 0.02890395 0.01205389 0.004324907 0.001348499 0.000410737 0.0001720247 0.0001198626 0.0001062173 0.0001030273 0.0001 0.00077196 0.0005542411 0.0002359063 0.0001370217 0.0001103996 0.0001029636 0.000101416 0.0001 0.0004304856 0.0004899301 0.0004292795 0.0004099349 0.0004031369 0.0004015381 0.0004 7.020383 11.09662 11.57546 11.856 12.0051 12.07686 12.10883 12.12156 12.12695 12.12832 12.1297 4.975492 1.180827 0.9349617 0.7143849 0.5254444 0.371366 0.2518857 0.1637928 0.1020109 0.06077508 0.03457895 0.01874894 0.009665252 0.004730694 0.002204451 0.0009927133 0.0004517552 0.0002284386 0.0001435882 0.0001139238 0.0001043076 0.0001013965 0.0001006879 
0.1002222 0.1124 0.1124 0.1124 0.0954 0.0954 0.09295 0.299 0.2683 0.1028 0.825 0.6359 2.5094 6.6213 7.574483 10.5461 13.2436 16.5556 18.6857 19.3294 18.6292 17.2833 17.6384 16.00829 13.1968 13.8085 14.4348 16.1696 19.2623 24.9919 28.8349 25.79487 24.9405 35.285 34.6207 34.3258 33.3952 34.7891 35.8956 34.61702 36.291 36.023 35.5296 34.5417 33.0612 30.4876 26.7774 26.55432 21.8819 16.8626 12.7739 10.9324 9.9702 8.0361 6.9074 10.2744 9.2459 7.5978 7.4539 7.0158 6.8208 6.6821 6.4941 6.184533 6.1539 5.798 5.4872 5.1167 4.7407 4.3316 3.8418 2.3275 1.657367 1.862 1.2344 0.6108 0.2047 0.3707667 0.373 0.538325 0.5106 0.4093 0.3442556 0.2808222 0.3037667 0.2845 0.1319 0.1319 0.1319 0.1896 0.2473 0.4420559 0.1706509 0.01730833 0.0010375 0.0007 0.0003975309 0.0001 0.6476671 0.559186 0.2277255 0.06488971 0.01084774 0.0001234568 0.0001057613 0.000100823 0.0001 0.0001 0.0001 0.0001 0.0001 0.0001039429 0.0001039062 0.0001 3.004364 4.472681 4.459114 4.4454 2.021614 0.6304976 0.4448745 0.2960704 0.1835794 0.1045211 0.0535044 0.02401567 0.009191765 0.002954223 0.0008287341 0.0002625408 0.0001409362 0.0001125971 0.0001060547 0.0001 0.001507815 0.001077313 0.0004027123 0.0001826984 0.0001223081 0.0001060587 0.000102832 0.0001 0.0005725457 0.0005882864 0.00046111 0.0004203938 0.0004063347 0.0004030762 0.0004 6.4327 10.46173 11.1867 11.64144 11.89823 12.02833 12.08875 12.11352 12.12421 12.12695 12.1297 5.156093 1.441045 1.175129 0.9263067 0.7034497 0.5133984 0.3594854 0.2412143 0.1549574 0.09520676 0.05586848 0.03125002 0.01661836 0.008378445 0.003998954 0.001814681 0.000799717 0.0003637419 0.0001918068 0.0001297672 0.0001091906 0.0001028137 0.0001009185 0.0001004573 
0.07586667 0.07586667 0.1124 0.1039 0.107675 0.1324583 0.2394 0.3285667 0.6485 0.1985 0.2205 0.2453 0.298 0.4785 3.293417 1.3714 4.0227 7.0001 10.425 12.8674 13.6803 13.7861 13.99719 12.73065 12.1783 12.7018 17.0265 20.534 22.6288 21.6591 20.24642 17.9239 23.3255 21.6748 21.0833 21.512 24.3482 27.2029 30.276 30.36262 32.7884 35.2567 37.5657 39.5442 41.1144 42.2004 42.4468 36.45528 40.782 37.0562 30.7316 23.9007 17.3115 14.4773 17.174 18.47427 17.7263 10.3318 7.7787 6.7237 6.446 6.574 7.0139 7.140783 6.6362 6.1327 5.8679 5.3769 4.918 4.441 3.965 3.859383 3.49 2.2622 1.5076 1.0052 0.5346 0.373 0.671 0.6384 0.4709 0.4225 0.3345 0.2757667 0.2322 0.4033333 0.3705667 0.1319 0.1896 0.2473 1.010346 0.4607278 0.04985 0.001375 0.0007 0.0003925926 0.0001 1.075251 1.026657 0.4886605 0.1622407 0.03227531 0.0001530864 0.0001148148 0.0001024691 0.0001 0.0001 0.0001 0.0001 0.0001 0.000107959 0.0001078125 0.0001 3.044712 4.499814 4.472827 4.4454 2.182064 0.8403402 0.6186519 0.4325006 0.283471 0.1722396 0.09502769 0.04629597 0.01918955 0.006561485 0.001824262 0.0004769233 0.0001850172 0.0001256819 0.0001121094 0.0001 0.002986156 0.002172549 0.0007725536 0.0002868349 0.0001487484 0.0001125119 0.0001056641 0.0001 0.0008675013 0.0007943809 0.0005283008 0.0004421775 0.0004128517 0.0004061523 0.0004 5.624696 9.532427 10.57328 11.2795 11.70733 11.93748 12.04988 12.09762 12.11874 12.12419 12.1297 5.340994 1.715137 1.438541 1.169456 0.9173898 0.6920744 0.5008847 0.3472361 0.2303353 0.1460716 0.08846535 0.05108336 0.02805672 0.01460997 0.007188375 0.003336992 0.001471496 0.0006355545 0.0002921005 0.0001635706 0.0001197492 0.0001059817 0.0001018408 0.0001006185 0.0001002961 
0.03933333 0.03933333 0.0028 0.0028 0.04425 0.1275 0.1441 0.2394 0.0978 0.1178 0.1373 0.1592 0.1941 0.2707 0.4986 0.4725 1.1206 2.5212 5.944 9.3591 11.1188 12.0113 11.69771 10.5334 14.4737 19.3605 18.8294 16.2084 14.0215 12.2612 14.39645 15.8075 15.1186 15.7761 16.8056 17.0965 18.704 20.2416 21.10523 22.1305 24.7942 27.6739 30.7014 33.8034 36.8176 39.9283 37.76993 42.9355 43.9081 43.1908 41.0154 37.0184 32.7477 27.575 27.5908 32.808 26.984 22.7028 16.594 12.9903 10.8915 9.8949 8.12 8.44055 8.4266 8.3681 7.7024 7.1902 6.6506 6.031 5.2425 6.34635 4.2895 3.324 2.6124 2.0278 1.582 0.8986 0.7414 4.204125 0.5354 0.4064 0.3257 0.2714 0.2302 0.195 0.7848 2.81092 0.2473 2.41395 1.233333 0.1468 0.00205 0.0007 0.0003777778 0.0001 1.610968 1.710463 0.9794741 0.3900333 0.09647407 0.0002148148 0.000137037 0.0001074074 0.0001 0.0001 0.0001 0.0001 0.0001 0.0001162109 0.000115625 0.0001 3.124707 4.553788 4.500255 4.4454 2.369607 1.084273 0.8289737 0.6077737 0.4192083 0.2705199 0.1606848 0.08551413 0.03888413 0.01448967 0.004194843 0.0009999372 0.0002780057 0.0001528271 0.0001242188 0.0001 0.005852564 0.004408697 0.001583364 0.0005255878 0.0002087095 0.0001262075 0.0001113281 0.0001 0.00147484 0.001224491 0.0006706747 0.0004879774 0.0004262504 0.0004123047 0.0004 4.593045 8.25333 9.65201 10.69194 11.37588 11.77067 11.97546 12.06633 12.10785 12.11869 12.1297 5.525264 1.993588 1.715424 1.436398 1.163803 0.9081672 0.6801998 0.4878562 0.3345981 0.2192538 0.1371539 0.08180698 0.04643517 0.02500793 0.01272708 0.006094898 0.002743151 0.001172928 0.0004984094 0.0002353265 0.0001425657 0.0001128196 0.0001038622 0.0001012633 0.0001003968 0.0001001953 
0.01497778 0.0028 0.0028 0.0028 0.0028 0.0439 0.1275 0.0654 0.0849 0.1043 0.1222 0.1382 0.1533 0.1338 0.1751 0.2234 0.3754 1.387 3.0753 5.0646 7.4859 8.5498 10.7405 13.5322 13.5615 11.2292 8.8966 8.6004 8.4398 9.5967 11.20283 9.1303 9.9306 10.1922 10.2302 11.8779 12.1151 12.8034 14.61245 13.977 15.6696 17.641 19.8961 22.4346 25.1844 28.1689 29.9801 30.9397 34.0345 36.9557 39.4592 41.2626 40.8649 37.0468 31.33572 36.4637 35.6952 34.1672 30.17 23.8812 17.9543 11.3809 13.41993 10.4458 10.0008 10.5019 10.7303 10.6201 10.5123 10.626 10.5752 9.017716 10.5159 10.8366 10.9503 11.7432 12.87 10.7989 8.9561 6.462683 6.5836 5.8628 5.538 5.1394 3.8732 2.8314 7.1787 4.47655 5.7119 3.2603 0.4363 0.0034 0.0007 0.0003333333 0.0001 2.19325 2.481867 1.768656 0.8808666 0.2889 0.0003333333 0.0001888889 0.0001222222 0.0001 0.0001 0.0001 0.0001 0.0001 0.0001335938 0.00013125 0.0001 3.282764 4.660854 4.55511 4.4454 2.602776 1.361649 1.068603 0.8225682 0.5957499 0.4050028 0.2568721 0.1496848 0.07549758 0.03136003 0.009794761 0.002314232 0.0004755358 0.0002100437 0.0001484375 0.0001 0.01115746 0.008823506 0.003329294 0.001073291 0.0003475058 0.0001559664 0.0001226562 0.0001 0.002711069 0.00211559 0.0009727014 0.000585181 0.0004541418 0.0004246094 0.0004 3.395048 6.624719 8.352014 9.783258 10.82076 11.4718 11.83507 12.00513 12.08617 12.10767 12.1297 5.706961 2.269155 1.995241 1.71637 1.43466 1.158163 0.8985844 0.6677547 0.4742602 0.3215537 0.2079804 0.1282274 0.07525389 0.04193969 0.02211193 0.01097216 0.00509714 0.002215392 0.0009169207 0.0003864698 0.0001918377 0.000127672 0.0001081874 0.0001025995 0.0001007999 0.0001003906 0.0001 
0.0028 0.0028 0.0028 0.0028 0.0028 0.0439 0.0014 0.0018 0.0021 0.0023 0.0023 0.0023 0.0036 0.0845 0.006 0.0122 0.032 0.1094 0.4327 1.8026 5.1424 5.613457 4.8214 5.5115 5.1668 5.6435 7.9153 7.6021 9.1042 8.807734 10.219 10.2023 9.2304 7.9059 7.6688 7.722 8.2733 8.8986 10.04147 9.6236 10.4776 11.4913 12.6964 14.1265 15.8199 17.817 20.27922 20.0912 22.6537 25.5088 28.6634 31.9941 34.9092 25.7759 27.80713 28.3449 30.3801 31.1489 30.4689 29.4966 25.4704 23.1444 19.26778 17.5336 12.7869 10.4925 10.2768 10.2967 10.0024 10.5772 10.10552 11.3911 12.0921 12.3887 12.2999 12.0409 11.0017 11.8475 11.292 9.313833 10.6676 9.3223 7.686 6.3907 6.5652 6.29375 6.3832 6.752917 6.5534 6.5684 6.3199 3.4884 0.0002 0.0001 3.1035 3.0055 2.6639 1.7762 0.8658667 0.0005333333 0.0003 0.0001666667 0.0001 0.0001 0.0001 0.0001 0.0001 0.000171875 0.0001625 0.0001 3.593792 4.872345 4.664819 4.4454 2.948365 1.696715 1.320622 1.067609 0.8175778 0.5825179 0.3871541 0.2453364 0.1381256 0.06559228 0.02277485 0.005712963 0.0008964763 0.0003332562 0.000196875 0.0001 0.02038198 0.01715725 0.006990595 0.002322668 0.0006746185 0.0002225866 0.0001453125 0.0001 0.005190625 0.003941871 0.00161178 0.0007931177 0.0005132066 0.0004492188 0.0004 2.168611 4.751543 6.659637 8.462976 9.933427 10.95337 11.57548 11.88656 12.04318 12.08564 12.1297 5.888334 2.539809 2.269999 1.997657 1.718066 1.433387 1.152528 0.8885725 0.6546527 0.4600389 0.3080891 0.1965331 0.1193191 0.06882995 0.03761262 0.01937649 0.009346684 0.004193311 0.001751425 0.0007014413 0.0002978957 0.0001600723 0.000117545 0.0001053988 0.0001016184 0.0001007813 0.0001 0.0001 
0.0028 0.0028 0.0028 0.0028 0.0028 0.0021 0.0016 0.001766667 0.002066667 0.002233333 0.0023 0.002733333 0.00295 0.0048 0.0091 0.01673333 0.0512 0.1913667 0.5931 1.60565 1.8863 2.1834 0.6679 1.2929 3.3635 5.1127 4.3025 6.5625 7.4949 8.14085 7.9918 7.0894 5.7584 5.9179 6.1583 6.5151 6.8842 7.284833 7.2678 7.6784 8.1316 8.645 9.2386 9.9344 10.759 11.7444 13.50675 12.9141 14.302 15.9542 17.9407 20.3094 19.2733 18.056 19.51523 21.1555 24.5719 27.3353 25.7214 27.4288 29.168 27.9325 22.14822 25.1695 20.8587 14.7614 9.1357 8.9818 9.1579 8.5079 9.089967 8.9557 9.5041 9.1235 8.9442 8.6823 8.2939 8.2008 8.6316 8.7759 9.6078 9.3757 8.9015 8.0209 6.428 8.5233 6.256492 7.0201 7.6702 8.33 8.8801 9.2862 9.6704 6.0309 3.2795 6.564125 2.7315 2.5963 0.0008 0.0005 0.0003 0.0001 0.0001 0.0001 0.0001 0.0001 0.0002625 0.000225 0.0001 4.203435 5.287397 4.884237 4.4454 3.563701 2.206883 1.577475 1.305788 1.078604 0.8184346 0.5556951 0.3734241 0.2323432 0.130242 0.05179167 0.01474321 0.001789661 0.0006060185 0.00029375 0.0001 0.03509094 0.03195607 0.01438092 0.005134773 0.001456096 0.0003771348 0.000190625 0.0001 0.01007662 0.007631456 0.002954424 0.001239733 0.0006411823 0.0004984375 0.0004 1.116408 2.875711 4.681925 6.696992 8.599995 10.09194 11.10835 11.65983 11.95825 12.04159 12.1297 6.075634 2.810354 2.537647 2.271425 2.000925 1.720619 1.432654 1.146888 0.8780422 0.640787 0.4451289 0.2942008 0.1849376 0.1104608 0.06255886 0.03347024 0.01680876 0.007850469 0.003380826 0.001348638 0.0005248114 0.0002308747 0.0001380011 0.0001113412 0.0001032927 0.0001015625 0.0001 0.0001 0.0001 
0.00235 0.0028 0.0028 0.0028 0.002566667 0.002166667 0.001822222 0.001811111 0.002022222 0.0022 0.002422222 0.002661111 0.003494445 0.005616667 0.01021111 0.2086083 0.4953833 1.2152 0.5136667 0.0277 0.3422 0.6556 0.2402 0.4776 0.8284 1.7559 4.7957 6.6621 7.2207 6.623017 6.8145 6.4185 5.6088 5.2248 5.4097 5.715 6.0352 6.2503 6.3499 6.6623 6.9794 7.3092 7.6603 8.0424 8.4677 9.1796 8.9526 9.5212 10.2102 11.0721 12.1808 13.6362 9.965 12.26812 10.9532 12.8059 15.8382 26.6262 17.1878 18.331 19.2384 19.6724 21.49005 19.4369 18.5727 16.7277 16.9953 14.5436 11.9063 8.7491 9.1823 6.3588 5.2867 5.2779 5.8166 5.8859 5.3319 5.6496 5.874883 6.0238 6.4584 6.9518 7.5137 8.1623 6.6723 4.548 5.358333 4.7706 5.3334 6.3849 7.0815 7.9864 9.1253 10.6139 7.17585 11.1031 9.1424 6.4471 6.037 3.3019 1.187 0.0047 0.0001 0.75124 0.0001 0.0005 0.00035 0.0001 5.39685 6.093717 5.323075 4.4454 4.656121 3.204352 1.94893 1.467368 1.316126 1.13387 0.7858148 0.5356185 0.3456519 0.2390019 0.1123759 0.03934815 0.003650926 0.001230556 0.0004875 0.0001 0.05571285 0.05606234 0.02848858 0.01131728 0.003336883 0.0007501543 0.00028125 0.0001 0.01950777 0.01495777 0.005740947 0.002195653 0.0009266718 0.000596875 0.0004 0.4281038 1.339973 2.697156 4.590004 6.758615 8.742357 10.29901 11.23446 11.79157 11.95348 12.1297 6.277448 3.091594 2.803796 2.535671 2.273475 2.005131 1.724169 1.432557 1.141236 0.8668712 0.6260195 0.4294704 0.2798969 0.1732352 0.1016807 0.05646639 0.02952945 0.01441488 0.006481939 0.002654584 0.001005956 0.0003853738 0.0001831047 0.0001241455 0.000106753 0.000103125 0.0001 0.0001 0.0001 0.0001 
0.00145 0.00145 0.00145 0.001414815 0.001325926 0.001212963 0.0012 0.0014 0.00179537 0.002409259 0.003308333 0.00472037 0.04050337 0.1878 0.163775 0.3434875 0.7574 0.7404 1.2152 0.2981 0.2266667 0.3119 0.4851 0.4104 0.331 0.7894 1.8685 3.6918 4.166633 4.6946 5.5216 6.1481 5.8557 4.9353 4.7634 5.0107 5.3266 5.478433 5.6381 5.9398 6.2348 6.5277 6.8219 7.1202 7.4233 7.73185 7.7306 8.0377 8.3435 8.6526 8.9836 9.3846 7.9486 9.040967 7.4126 6.3023 25.8001 12.8835 13.9479 15.1871 16.5378 16.76317 17.9406 18.7884 19.9546 21.7771 20.1523 17.1981 14.8687 12.9432 9.4773 9.5791 5.8383 3.8402 3.4222 3.1292 3.1578 3.2417 3.905817 3.3575 3.5292 3.7309 3.9536 4.1965 3.3112 3.5201 3.683983 3.7679 4.3045 4.1148 4.5766 4.9748 5.3785 5.7902 7.308017 6.2375 6.758 7.4053 8.2164 8.6366 8.3503 6.9178 4.884567 3.7547 0.0012 0.0006 0.0001 7.75155 7.635 6.20075 4.4454 6.157583 5.104733 2.916767 1.591556 1.338467 1.472083 1.137828 0.7917 0.4279167 0.3872389 0.2218 0.1079667 0.007361111 0.002716667 0.000875 0.0001 0.07896806 0.09058148 0.05320185 0.0244037 0.007860186 0.001687963 0.0004625 0.0001 0.03726473 0.02923673 0.01142963 0.004206944 0.001586265 0.00079375 0.0004 0.1571953 0.4355821 1.119238 2.465099 4.507131 6.797781 8.970931 10.45836 11.46775 11.77726 12.1297 6.502287 3.397271 3.080533 2.796978 2.533877 2.276156 2.01039 1.728848 1.43327 1.135554 0.8548833 0.6101761 0.412999 0.2652359 0.1614558 0.09301372 0.0505727 0.02581276 0.01220288 0.005229013 0.002013923 0.0007208162 0.0002831276 0.0001521776 0.0001140089 0.00010625 0.0001 0.0001 0.0001 0.0001 0.0001 
0.00055 0.0001 0.0001 0.0001 0.0001222222 0.0002 0.0004 0.0008 0.001544444 0.002394445 0.003872222 0.0063 0.009572222 0.06807917 0.1878 0.13975 0.289 0.7574 0.2486 0.1763 0.19115 0.2038 0.2334 0.3406 0.4942 0.508 0.5646 0.7878 2.0427 1.9428 3.6798 5.1439 5.6162 5.1953 4.2296 4.2889 4.4291 4.5986 4.9222 5.2378 5.5439 5.8447 6.1443 6.4461 6.7522 6.902633 7.0647 7.3727 7.6625 7.9119 8.0856 8.2341 8.7699 8.249984 9.1965 9.5564 10.008 10.4969 11.0501 11.7113 12.4761 14.03713 14.7137 14.3203 13.2528 13.6496 13.5322 12.3591 10.9905 11.66873 9.9895 9.2441 8.4441 6.5571 3.5838 2.5712 2.5624 2.595 2.714233 2.5673 2.6579 2.7994 2.9559 2.7813 2.5631 2.6736 2.8029 2.8237 2.2954 2.8319 3.5613 3.9935 4.4477 4.8549 4.899433 5.2485 5.6449 6.0645 6.5177 7.0368 7.7164 8.7191 9.707717 9.911 23.8739 14.1882 12.5465 10.5035 7.9561 4.4454 7.178733 7.6023 5.4039 2.308 1.0384 1.428267 1.548733 1.43925 0.4255 0.51035 0.3479 0.3034667 0.01403333 0.0064 0.00165 0.0001 0.09448333 0.1307556 0.09053333 0.05045556 0.01861667 0.004138889 0.000825 0.0001 0.06951077 0.05659259 0.02285556 0.008262037 0.003171296 0.0011875 0.0004 0.1580773 0.1786167 0.291687 0.8364426 2.229584 4.329271 6.962537 9.101537 10.84872 11.42482 12.1297 6.756557 3.740003 3.382889 3.068921 2.789788 2.532226 2.279617 2.016626 1.734927 1.434989 1.129893 0.8417808 0.5929766 0.3957708 0.2502498 0.1496872 0.08443046 0.04492346 0.0223642 0.01015062 0.004093827 0.001442593 0.0005053498 0.0002145062 0.0001295267 0.0001125 0.0001 0.0001 0.0001 0.0001 0.0001 0.0001 
0.0001 0.0001 0.0001 0.0001 0.0001 0.0001666667 0.0003333333 0.0007 0.001366667 0.002566667 0.00325 0.0058 0.00985 0.01306667 0.0616 0.1878 0.0917 0.1191 0.10285 0.0718 0.10435 0.085 0.0811 0.127 0.1635 0.205 0.2668 0.3931 0.7498167 0.7461 1.8001 3.3478 4.5744 4.8275 4.1862 3.5486 3.693567 3.8012 4.1331 4.4694 4.7948 5.1118 5.4247 5.7374 5.866734 6.0537 6.3913 6.7468 7.1205 7.5115 7.919 7.4662 7.679433 7.885 8.2873 8.6737 9.0409 9.3847 9.699 9.9833 10.2547 11.45867 12.2999 15.9796 11.761 11.7565 11.6413 11.372 10.9281 10.85108 10.2924 9.4581 8.4424 7.3352 6.0685 3.3608 2.0952 3.041533 2.4208 2.1031 2.0494 2.1655 2.3012 1.9193 2.1254 2.296433 2.0717 1.9604 2.2116 2.1332 2.0355 2.4911 3.1168 3.273333 3.4476 3.8179 4.1354 4.4501 4.7382 4.943 4.9908 5.7271 9.519567 23.2166 4.7565 5.1285 5.5374 6.0197 6.5547 7.4627 7.609 9.6281 5.5765 1.0071 0.3404 1.7677 2.1767 0.7018 0.4566 0.1492 0.8715 0.023 0.0159 0.0032 0.0001 0.08263333 0.1642 0.131 0.09706666 0.04353333 0.01076667 0.00155 0.0001 0.1238375 0.10835 0.04575555 0.01567222 0.007138889 0.001975 0.0004 0.2195722 0.2498796 0.1624574 0.123513 0.5890908 1.796724 4.302937 6.888151 9.696523 10.71994 12.1297 7.045185 4.127713 3.723631 3.368665 3.056372 2.781725 2.531268 2.283684 2.0239 1.742294 1.438587 1.124087 0.8270037 0.5742518 0.3776741 0.2353864 0.1376889 0.07598642 0.03961605 0.0191679 0.008308642 0.002975309 0.0009975309 0.0003549383 0.0001635802 0.000125 0.0001 0.0001 0.0001 0.0001 0.0001 0.0001 0.0001 
0.0001 0.0001 0.0001 0.0001 0.0001 0.0001 0.0003 0.0006 0.0012 0.0023 0.0042 0.004025 0.0074 0.0123 0.0195 0.0268 0.0332 0.0448 0.0403 0.05064167 0.0442 0.045 0.0708 0.0812 0.1232 0.1602 0.2052 0.2647 0.36775 0.3644 0.6303 1.5099 2.8049 3.815 3.8365 3.0052 3.015883 2.9189 3.2329 3.5942 3.9482 4.2913 4.6261 4.9489 5.086967 5.2621 5.5887 5.9319 6.2937 6.6698 6.64235 6.6465 6.79745 7.0749 7.529 7.9676 8.3865 8.7852 9.1442 9.4278 9.692317 9.5813 9.4263 16.0114 11.5268 11.7165 11.813 11.7866 11.618 11.28767 11.288 10.775 10.0179 9.0881 8.2637 7.4043 5.6006 4.179733 2.9752 2.0659 1.4838 1.5359 1.91735 2.0931 2.1156 1.904767 2.2292 2.3435 2.0504 1.9757 1.8989 1.8177 1.6991 2.226133 2.0739 2.5932 2.9112 3.2664 3.6869 4.1326 25.3401 7.790433 5.7678 3.7758 4.1455 4.5539 5.0252 5.5554 6.1489 7.0991 7.690217 9.4097 9.9686 7.4803 1.9615 6.6832 0.7309 0.3502 0.6076 0.6252 1.1445 1.107 1.0748 2.2924 0.083 0.1648 0.305775 0.1636 0.0984 0.0292 0.003 0.0001 0.1962 0.20525 0.0938 0.026 0.01746667 0.00355 0.0004 0.28605 0.34395 0.2478889 0.1578 0.08168333 0.1310555 1.554533 3.704583 7.649694 9.310175 12.1297 7.37752 4.568535 4.104985 3.709619 3.356289 3.040087 2.772741 2.532348 2.288715 2.029989 1.752996 1.443898 1.118867 0.8094963 0.5526481 0.3606111 0.219763 0.1257852 0.06751852 0.03465556 0.01667407 0.006174074 0.002077778 0.0006740741 0.0002407407 0.00015 0.0001 0.0001 0.0001 0.0001 0.0001 0.0001 0.0001 0.0001 
0.0001 0.0001 0.0001 0.0001 0.0001 0.0001666667 0.0003333333 0.0007 0.001225 0.00195 0.0024 0.00305 0.0021 0.0036 0.006 0.0121 0.0233 0.02325 0.0194 0.03236667 0.0253 0.0417 0.05 0.0569 0.063 0.0923 0.1341 0.1711167 0.1943 0.2439 0.3261 0.5192 1.0934 2.2928 3.0581 2.8398 2.3723 1.9816 2.1846 2.5594 2.9497 3.3342 3.6905 4.099 4.219666 4.4207 4.7442 5.0801 5.4483 5.837 5.2352 5.6203 5.78715 6.0918 6.6148 7.1257 7.6092 8.1078 8.6311 9.174 9.1074 9.7328 10.2092 10.6486 11.0494 11.391 11.659 11.8217 11.7767 11.8563 11.7432 11.4768 10.8816 9.8649 8.9287 7.8289 6.6189 6.155033 5.3677 3.9809 2.734 2.165 2.0502 1.8917 1.3873 1.7558 1.4994 1.6739 1.8892 1.8072 1.7239 1.6383 1.5514 1.27765 1.468 1.3535 1.613 1.8922 2.3792 8.7946 2.2776 6.5126 2.6392 3.0594 3.4504 3.8624 4.2164 4.5921 5.0472 5.4339 5.6782 6.8635 8.923 9.7572 10.67555 12.2355 0.7046 0.6979333 0.3734 1.4458 2.0949 2.3247 2.3324 5.3632 0.1738 0.3983 0.3814 0.4964 0.5078 0.4837 0.4429 0.3742 0.2682 0.1423 0.350125 0.0453 0.0067 0.0004 0.3808 0.4344333 0.3285667 0.26885 0.14625 0.0583 0.0405 0.2943667 4.328733 6.49065 12.1297 7.748875 5.108284 4.523222 4.0741 3.717633 3.337122 3.014111 2.769028 2.535083 2.292933 2.038128 1.758906 1.461956 1.110833 0.7838111 0.5338445 0.3402889 0.2077 0.1113 0.05835555 0.0329 0.01271111 0.004411111 0.0014 0.0004222222 0.0002 0.0001 0.0001 0.0001 0.0001 0.0001 0.0001 0.0001 0.0001 0.0001 
0.0001 0.0001 0.0001 0.0001 0.0001222222 0.0002 0.0004 0.0006316667 0.00045 0.0008 0.0008 0.001216667 0.0014 0.0024 0.0043 0.0071 0.0102 0.012 0.023 0.03782 0.042 0.0572 0.0734 0.0886 0.1008 0.1086 0.1122 0.1207667 0.1162 0.1727 0.2252 0.2843 0.5 1.0985 2.2687 2.433183 2.3068 1.1815 1.0123 1.3205 1.7182 2.2091 2.4048 3.1125 3.211767 3.4748 3.8125 4.0986 4.4538 4.44745 4.2122 4.458 4.600783 4.8314 5.4362 6.0668 6.5461 7.0229 7.5369 8.0814 8.307317 8.6471 9.2214 9.7898 10.3353 10.8271 11.2765 11.6519 11.65972 11.9257 12.0599 11.9809 12.3009 11.3117 10.675 9.8194 9.144217 8.7722 7.5956 6.3821 5.1996 4.45475 4.1137 2.4843 2.662217 1.6941 1.6092 1.5079 1.3726 1.1904 0.9908 0.7742 0.547 1.321467 0.3265 0.14 0.0167 7.1439 1.3219 1.1203 1.3414 1.7915 1.7095 2.2922 2.6399 3.0331 3.2866 3.6023 4.0063 4.280833 4.6237 5.7399 7.581 8.197 5.9162 4.2707 1.573 2.349533 0.4555 1.2407 3.0133 4.1562 4.5367 6.1129 15.1281 6.432267 0.3646 0.7007 0.8356 0.8669 0.8452 0.7868 0.7045 0.6281 2.221867 0.5848 0.5686 0.5547 0.5201 0.448 0.3352 0.2025 1.19885 0.09 0.0266 0.0049 0.8516 12.1297 7.92865 5.90075 5.0364 4.3877 4.145566 3.689033 3.3183 3.004033 2.72 2.58305 2.3022 1.99355 1.818633 1.464533 1.1027 0.7652667 0.4834667 0.3528 0.1846 0.0857 0.0636 0.02576667 0.009333333 0.003033333 0.0008666667 0.0003 0.0001 0.0001 0.0001 0.0001 0.0001 0.0001 0.0001 0.0001 0.0001 0.0001000816 
0.0001 0.0001 0.0001 0.0001074074 0.0001407407 0.0002407407 0.000368 0.0003333333 0.00045 0.0001 0.000475 0.0002 0.0004 0.0009 0.0017 0.0029 0.006 0.0128 0.03956667 0.05544 0.0794 0.0399 0.0512 0.0614 0.0692 0.0743 0.0789 0.13125 0.0889 0.121 0.2627 0.1649 0.3657 0.8746 1.8764 4.659217 2.2493 1.7367 1.7671 1.6945 1.6138 1.5522 1.9243 2.660067 1.8413 2.3223 2.9065 3.0277 3.1274 3.3067 3.5276 3.983283 3.4514 3.1518 3.7511 4.9086 5.4041 5.8226 6.2942 6.8183 7.03375 7.3903 8.0002 8.6356 9.2784 9.9051 10.512 11.0868 11.16562 11.6159 12.07 12.3467 12.3286 12.2456 11.9298 11.346 11.08668 10.4799 9.3612 8.1036 6.8639 8.3811 6.2773 4.5872 5.333333 3.9287 3.6172 3.5455 2.9731 2.3313 1.8563 1.8817 1.833933 1.9526 2.0833 2.2942 2.5488 2.9834 1.4986 1.4531 1.4266 1.571067 1.3547 1.1823 1.4805 2.1312 2.3178 2.5708 2.865 3.297467 3.4646 4.0654 4.5821 3.8556 10.6244 5.8069 7.6715 3.2197 3.3192 1.1982 3.3378 5.355 6.7955 9.0549 21.9233 12.37897 0.6055 2.8015 4.4545 5.4907 6.1972 6.6527 6.9438 3.74465 6.3902 5.5405 4.5449 3.825 3.3066 2.9246 2.6193 2.3606 3.15725 2.1423 1.9629 1.8182 6.8817 7.7834 6.398 5.4035 5.976325 4.6693 4.1061 3.6613 3.2997 2.9939 2.7185 2.4476 3.14 2.1568 1.8303 1.4688 1.0945 0.7448 0.4565 0.2491 0.215575 0.1201 0.0513 0.0194 0.0066 0.002 0.0005 0.0001 0.0001 0.0001 0.0001 0.0001 0.0001 0.0001 0.0001 0.0001 0.0001001309 0.0001001953 
0.0001 0.0001 0.0001024691 0.0001160494 0.000162963 0.0002346185 0.0002361111 0.000275 0.0001 0.0001 0.00015 0.0003 0.0005 0.001 0.001833333 0.003533333 0.0133 0.0185 0.047 0.0837 0.0491 0.0673 0.0866 0.1052 0.1218 0.1381 0.1426333 0.1632 0.2281 0.4278 1.0137 2.9039 5.7699 8.7577 10.1321 6.76105 9.122 7.0084 5.1503 4.8225 4.5965 3.5596 3.4107 3.218883 3.2668 3.1306 3.034 3.5701 3.4217 3.2676 3.6789 3.685233 4.5716 5.6506 5.1661 4.1938 4.2618 4.572 4.9402 5.14755 5.3762 5.8892 6.4759 7.1308 7.8276 8.547 9.2658 9.988 10.07955 10.7254 11.4458 12.1076 12.6018 13.0159 13.2452 13.2255 12.84142 12.8771 12.1054 10.9463 11.99935 15.2793 11.297 10.2499 8.871834 9.0558 8.2152 7.5059 6.848 5.6237 4.4941 3.5086 5.490217 2.3395 2.3547 2.3538 2.3014 2.1649 1.8228 1.8058 1.589167 1.7965 1.7977 1.8406 2.092 1.3304 1.5149 1.8326 2.1204 2.423033 2.7048 3.0551 3.0497 3.1161 1.7929 1.8844 3.2389 3.091883 3.0601 1.2492 1.8716 2.8604 3.743 5.2546 11.4628 14.40647 24.7895 0.992 1.7614 2.49 2.8953 3.0507 3.296 4.055017 4.5053 6.0845 5.3379 7.0307 7.677 7.8166 7.5079 5.834067 7.1311 7.017 7.1079 7.84175 7.5835 7.8116 7.5715 7.11365 7.1489 6.6836 6.2309 5.8091 5.4177 5.0425 4.6579 4.2299 3.625933 3.7257 3.1299 2.4611 1.7769 1.1561 0.6664 0.3396 0.1981667 0.1535 0.0617 0.0221 0.0071 0.0021 0.0005 0.0001 0.0001 0.0001 0.0001 0.0001 0.0001 0.0001 0.0001 0.000100264 0.0001003906 0.0001 
0.0001 0.000100823 0.0001061728 0.0001271605 0.0001663836 0.000174537 0.0001875 0.0001 0.0001 0.0001166667 0.0001833333 0.0002875 0.0003777778 0.0001 0.0005 0.001 0.009525 0.031 0.03072 0.0263 0.0429 0.0655 0.0937 0.1254 0.1576 0.1872 0.1672833 0.2141 0.2468 0.3172 0.5271 1.1696 2.8319 5.6667 7.302 8.3225 8.864 7.3098 5.7287 4.3525 4.193 4.8279 4.5653 4.049567 4.3049 4.0559 3.8239 3.5788 4.0094 3.8489 3.7275 3.256083 3.1544 2.9871 3.0011 3.1172 3.2523 3.4123 3.6069 3.831933 3.8495 4.1698 4.6115 5.2123 5.9094 6.6491 7.3755 7.52425 8.1143 8.9469 9.8403 10.7691 11.7085 12.6275 13.4889 12.97952 14.2552 14.8648 15.0373 13.9829 20.5835 12.656 12.6174 11.12007 13.0155 12.3939 10.1843 7.7242 5.8749 4.7744 3.7797 4.6706 8.172684 18.5883 4.493 2.1411 2.0174 1.8699 1.7057 1.5967 1.564533 1.4563 1.2624 0.9595 0.4919 0.5663 0.7343 1.2038 1.3642 1.302 2.0814 2.4872 2.4704 1.1176 0.6109 0.2609 1.066483 0.6799 0.5817 0.7143 1.7841 2.3281 2.6675 3.2716 6.7959 13.511 20.8618 0.181 0.6885 1.147 1.387 1.5013 1.5588 2.06235 1.636 1.7135 4.1494 4.1523 4.8319 5.7832 7.0578 5.4627 8.3277 9.2247 9.8533 2.9744 5.0821 7.1369 8.2061 5.996517 7.9539 7.5527 7.1512 6.7822 6.4176 6.0239 5.5581 4.956167 4.9713 4.2243 3.3462 2.4283 1.5909 0.933 0.4904 0.2303 0.1656667 0.0964 0.036 0.0121 0.0036 0.001 0.0002 0.0001 0.0001 0.0001 0.0001 0.0001 0.0001 0.0001 0.0001005386 0.0001007813 0.0001 0.0001000152 
0.0001004115 0.000102332 0.0001113855 0.0001322042 0.000139429 0.00014375 0.0001 0.0001 0.0001055556 0.0001333333 0.0001975 0.0002 0.0002 0.0001666667 0.0001 0.0009 0.002 0.0042 0.01198333 0.0084 0.0157 0.0276 0.0456 0.0681 0.0941 0.1296 0.14025 0.1715 0.204 0.2811 0.4149 0.8548 1.9575 4.1003 4.8276 6.8327 8.6282 8.4261 7.2594 5.8832 4.7545 4.6094 4.1803 4.456 4.2937 4.1235 3.9342 3.012 2.4066 2.2337 2.8799 2.0903 2.3138 2.1756 2.453 2.5189 2.5762 2.6164 2.6267 3.032617 2.5921 2.5222 2.4326 2.783 3.4141 4.2362 4.9116 5.2374 5.4903 6.1777 6.9913 7.915 8.938 10.0451 11.2117 10.79815 12.4506 14.042 16.5271 11.75865 10.9274 10.2326 9.8751 10.48802 9.6655 9.5433 9.4462 9.2544 9.0938 8.8025 39.6675 12.48937 11.4074 8.5217 7.3837 7.099 5.8368 4.13 1.5749 1.4377 1.927567 1.2942 1.1399 1.0084 0.9063 0.903 0.8602 0.6463 1.27335 1.0801 1.1215 1.8672 0.7951 0.8322 0.1944 0.0996 0.4052 0.2352 0.8449 1.3046 2.0517 2.6669 3.0754 3.5045 4.527184 5.3583 11.7977 16.4233 0.2512 0.6119 0.6521 0.5901 0.5622 1.085183 0.8158 0.9724 1.0888 1.1783 1.248 1.3043 1.3524 3.225833 1.3993 1.2874 1.34035 1.3774 1.2738 1.0414 1.5839 3.717967 3.5148 5.441 7.1017 8.3614 8.1762 6.8815 5.7046 4.419183 4.6152 3.5837 2.619 1.7657 1.0797 0.5919 0.2891 0.2197833 0.1256 0.0486 0.0168 0.0052 0.0015 0.0004 0.0001 0.0001333333 0.0001 0.0001 0.0001 0.0001 0.0001 0.0001011306 0.0001015625 0.0001 0.0001000457 0.0001 
0.0001013717 0.0001047096 0.0001154588 0.0001204347 0.000121875 0.0001 0.0001 0.0001018519 0.000112963 0.0001672778 0.0002 0.0002 0.0002 0.0002 0.0002 0.0001 0.0002 0.00142 0.0006 0.0014 0.0029 0.0058 0.0107 0.0211 0.0388 0.0571 0.08368333 0.082 0.1241 0.148 0.2325 0.3269 0.5653 1.2471 2.764367 2.7963 5.089 7.0846 7.7641 7.0334 4.0269 3.4042 3.967033 3.219 3.0292 2.831 2.3932 3.1891 3.0639 2.9255 2.777683 2.4535 2.3321 2.2007 2.0682 2.1924 2.3438 2.531 2.648667 2.7573 2.7632 2.7542 3.1221 3.0312 2.7411 2.4643 2.6383 3.04755 2.8944 3.246 3.6939 4.2697 4.9667 5.745 6.512 8.407833 6.8705 6.6284 22.4742 9.8439 10.7265 9.8227 9.1246 8.966833 8.63 8.4909 8.582 8.4879 8.6868 38.4468 9.223 12.63378 6.188 6.4637 6.8576 7.3861 6.5257 6.0242 6.5275 4.087917 4.1094 1.6711 1.8099 2.3271 1.2249 1.2543 1.3248 1.4978 1.6451 1.9101 2.1949 1.3686 1.0912 0.9706 0.357 0.4388 0.5643 0.7168 1.2294 1.7778 2.4208 2.9739 3.2816 3.5719 4.155033 4.6609 7.6179 20.3065 0.0941 0.2577 0.647 0.9221 0.8223667 1.0468 0.8915 0.8122 0.7517 0.702 0.661 0.6278 0.6022 0.98965 0.6156 1.0546 0.799 0.7263 0.8287 0.7857 0.8486 0.6283 0.4208 0.2282 0.0971 0.0315 0.9608 2.4867 3.0243 2.830617 2.6416 2.0916 1.5029 0.9717 0.5607 0.2874 0.1306 0.1102 0.0527 0.019 0.0061 0.0018 0.0005 0.0001 0.0002 0.0001 0.0001111111 0.0001 0.0001 0.0001 0.0001025278 0.000103125 0.0001 0.0001001372 0.0001 0.0001001372 
0.0001030407 0.0001074933 0.0001104574 0.0001109375 0.0001 0.0001 0.0001006173 0.0001049383 0.0001597519 0.0002 0.0002 0.0002 0.0002 0.0002 0.0001666667 0.0001666667 0.00015 0.0003 0.0001 0.0002 0.0004 0.0011 0.0026 0.0057 0.012 0.0224 0.0234 0.0385 0.0674 0.1124 0.1575 0.2187 0.3193 0.5336 1.069333 1.0762 2.2841 4.099 5.4923 5.6535 5.9662 4.3484 4.504583 3.7652 3.6142 3.1745 3.5928 3.6924 3.5235 3.3813 3.6007 3.5818 3.4613 3.3414 3.2189 3.0902 2.9426 2.7729 2.96645 2.5877 2.6484 2.3348 2.0827 1.8141 1.5574 1.3143 2.65155 1.1048 1.2459 1.4653 1.7917 2.2679 2.9604 4.0012 6.0135 6.834167 7.3887 8.1536 8.90805 9.2994 9.6664 9.5612 8.7096 8.917216 7.7962 6.9842 7.1843 6.5361 32.4715 5.9405 4.7019 5.709967 4.6149 4.5746 4.6045 4.6707 4.7263 4.8196 5.1385 4.8978 5.7395 6.6849 4.4748 1.0364 1.4898 1.57 1.7666 1.905117 2.1299 2.6064 1.5325 1.7551 1.1571 0.3629 0.3671 0.5396833 0.7481 1.1473 1.6596 2.2172 2.7772 3.1985 3.3647 3.5534 3.9093 4.2812 6.0539 11.8477 10.5409 0.2213 0.5306 0.812 0.8679833 1.001 1.0535 1.0585 1.0405 1.0143 0.9901 0.9758 1.134583 0.9774 0.991 0.9629 1.105 1.0953 0.8437 0.6261 0.6436833 0.4262 0.2992 0.1664 0.0738 0.0258 0.0071 0.0015 0.9632 0.2659 0.7321 0.8329 0.6912 0.4653 0.2386 0.1105 0.046 0.04303333 0.0172 0.0057 0.0017 0.0005 0.0001 0.0002333333 0.0001 0.0001333333 0.0001 0.0001037037 0.0001 0.0001063889 0.00010625 0.0001 0.0001004115 0.0001 0.0001004115 0.0001 
0.0001046443 0.0001053087 0.0001054688 0.0001 0.0001 0.0001002058 0.0001018519 0.0001675059 0.0002222222 0.0002166667 0.0002 0.0002 0.0002 0.0001888889 0.0001777778 0.0001611111 0.0001791667 0.0001 0.00015 0.0002333333 0.0005666667 0.00105 0.0001 0.0003 0.0009 0.0065 0.0022 0.005 0.0104 0.0203 0.0375 0.0668 0.1205 0.2415833 0.2329 0.5299 1.3087 2.8404 4.8959 6.7253 7.4068 6.8761 6.005833 5.4146 3.9197 4.0389 5.2723 5.0629 4.8764 4.7079 4.594033 4.5542 4.3806 4.1112 3.9721 3.8436 3.7257 3.6202 3.855767 3.5296 3.4687 3.84 3.8457 3.8931 3.9883 4.1201 4.008117 4.2675 4.4227 4.5826 4.74 4.8893 5.3959 6.1887 6.53465 6.8331 7.3872 8.2972 9.1998 9.3983 9.8993 10.3746 10.0862 9.9481 9.2948 7.0454 8.5485 32.8971 5.1677 5.0859 4.9292 4.871666 4.6028 4.0969 3.9073 3.8874 3.9083 3.9257 3.9228 4.372567 3.9491 4.0551 4.4223 6.0692 4.5809 3.1201 2.1087 2.317067 2.6029 1.747 2.1417 1.9928 1.3877 0.7562 0.3791 0.6485667 0.948 1.4782 2.0348 2.5794 3.0378 3.2832 3.3573 3.376117 3.4551 3.9333 5.0775 8.2839 15.3808 0.1439 0.37 0.6117 0.7245833 0.8143 0.9445 1.0226 1.0671 1.0922 1.1096 2.9308 1.227033 0.6935 0.9195 1.1041 1.1873 1.1887 1.0498 0.8267 0.6449333 0.5691 0.2933 0.1291 0.0465 0.0135 0.0033 0.0007 0.05374 0.0001 0.45775 0.7520667 0.6631333 0.3552 0.0257 0.0175 0.03078333 0.0084 0.0033 0.0011 0.0003 0.0001 0.0002333333 0.0001 0.0001444444 0.0001 0.0001305555 0.00013125 0.0001194444 0.0001125 0.0001 0.0001012346 0.0001 0.0001012346 0.0001 0.0001009476 
0.000102681 0.0001027344 0.0001 0.0001 0.0001400412 0.0002 0.000203125 0.0002239944 0.00025 0.00025 0.00025 0.00025 0.0002518519 0.0002574074 0.0002824074 0.0003232143 0.0001 0.000125 0.0001611111 0.0003166667 0.0004875 0.0001 0.0001666667 0.0003 0.0001 0.00075 0.0004 0.001 0.0026 0.0064 0.0149 0.0334 0.0739 0.14135 0.1693 0.3865 0.9491 2.3013 4.8919 7.3192 9.4076 8.970484 9.3259 6.3048 5.8103 6.67775 7.5653 7.4037 7.1856 5.977016 5.7739 5.5651 5.39 5.3518 5.249 5.2052 5.209 5.493166 5.2622 5.362 5.4102 5.5523 5.6839 5.8646 6.1069 6.4219 5.5724 6.8201 7.3294 8.2337 10.3506 9.224 11.1346 9.579 7.892917 6.5924 7.8836 8.44645 8.0678 8.5131 9.3602 10.8721 10.78563 11.0516 12.2164 6.1178 43.8548 6.7194 5.3645 5.3137 4.956284 5.2828 5.0984 4.65 3.9161 3.7623 3.7745 3.7971 3.7647 3.825017 3.7208 3.6762 3.6281 3.6772 4.5734 4.2872 3.4833 2.925 1.811 2.234 3.1086 3.2167 3.3763 0.9843 0.3796 0.7144333 1.0695 1.7025 2.2985 2.8052 3.1336 3.2214 3.2682 3.22945 3.258 3.5587 4.4052 6.73 17.8796 0.0786 0.2398 0.3584 0.4493 0.6592 0.8326 0.9637 1.0595 1.1307 4.5672 0.9106 1.34105 0.8741 1.0902 1.2366 1.2667 1.2314 1.0862 0.8487 0.7118833 0.5728 0.3188 0.1448 0.0525 0.015 0.003 0.0005 0.00634 0.007433333 0.00755 0.007866667 0.0056 0.009125 0.008483334 0.0014 0.00495 0.0009 0.0004 0.0001 0.00034 0.0002 0.0001 0.0001527778 0.0001375 0.00015 0.0001666667 0.0001333333 0.000125 0.0001 0.0001037037 0.0001 0.0001037037 0.0001 0.000101917 0.0001009259 
0.0001013672 0.0001 0.0001 0.0001480082 0.0002 0.0002 0.0002 0.00020625 0.0002415 0.0002833333 0.0003 0.0003 0.0003 0.0003222222 0.0003555556 0.0004888889 0.0008 0.001277778 0.002111111 0.003488889 0.004475 0.004427778 0.0001 0.0001 0.000125 0.0002 0.0007 0.0018 0.0043 0.0093 0.0194 0.039 0.0795 0.1093333 0.172 0.3989 0.9467 2.1469 4.2616 8.089 10.8595 10.06195 9.947 9.6207 8.0717 7.7108 7.3539 6.8174 6.3066 6.97785 7.0117 6.7624 6.5832 6.6752 6.8457 7.0686 7.3746 6.405633 7.7673 8.162 6.1553 6.1517 6.197 6.1975 6.0828 6.125017 5.9129 5.8919 6.0541 6.5738 7.5778 10.2364 7.6844 8.1452 7.347533 10.0191 8.9343 5.9647 6.5064 7.2207 8.4793 10.4968 17.0554 11.9706 50.9882 34.3199 13.7415 4.5211 4.4 4.4671 4.207167 4.659 4.8909 4.8786 4.4296 3.9179 3.8545 3.8801 3.87685 3.7972 3.7955 3.7933 3.6989 3.3508 3.2862 3.7978 4.203 3.9229 3.3411 4.08685 3.7547 2.5248 0.7295 1.1054 0.3746 0.7625667 1.1358 1.826 2.4236 2.8542 3.0348 3.0761 3.0758 3.00205 2.9623 3.1809 3.9224 5.7508 12.0015 10.532 0.1414 1.88095 0.3382 0.5549 0.7538 0.9188 1.0498 3.6917 1.7434 2.0317 1.4028 1.2345 1.5114 1.4651 1.4158 1.3132 1.1251 1.019233 0.866 0.588 0.3499 0.1869 0.0953 0.0504 0.0293 0.0184 0.03574 0.012 0.0102 0.0079 0.0055 0.0034 0.0019 0.001 0.0029 0.0005 0.0002 0.0001 0.00064 0.0005 0.0002333333 0.00015 0.0001 0.0002 0.00015 0.00015 0.0001 0.0001111111 0.0001 0.0001111111 0.0001 0.000105816 0.0001018519 0.0001 
0.0001 0.0001 0.0001496016 0.0002 0.0002 0.0002 0.0002 0.0002 0.0002125 0.0002616667 0.0003 0.0003 0.0003 0.0003 0.0003666667 0.0004 0.0007 0.0013 0.001833333 0.0032 0.005433333 0.009166666 0.0116 0.01266667 0.01286 0.0001 0.0002 0.0005 0.0014 0.0036 0.0085 0.0198 0.2642333 0.0466 0.1147 0.2954 0.7631 1.8558 3.997 7.2452 9.4743 10.37637 11.3574 10.6156 9.46365 8.7581 8.4237 8.1482 7.9012 7.6581 7.6881 7.5606 7.6265 7.6862 7.5985 7.3083 6.8052 7.249784 6.0155 5.0781 6.5727 6.4448 6.3364 6.2045 6.0939 5.6599 6.1317 6.4789 7.5316 9.1365 6.8854 5.6687 5.3149 5.821267 4.7924 4.9571 5.454 4.3565 5.1812 6.1988 7.8561 14.04675 10.3425 47.5988 19.8616 4.6638 2.821 2.6484 2.582 2.6358 2.8207 2.8846 3.366 3.939 4.2165 4.0336 3.9674 4.0585 3.712083 3.9635 4.0448 4.2077 4.3904 3.7048 3.4621 5.1832 4.50465 5.1461 5.5529 5.1064 3.8806 4.2852 1.2765 1.1314 0.7825 0.4267 1.1892 1.8682 2.4109 2.7329 2.8263 2.8629 2.7969 2.735667 2.6511 2.8795 3.5379 5.0396 9.9087 45.3595 6.545 3.170717 3.572 2.2682 1.6782 1.4449 3.7637 1.6465 1.836 1.898217 1.7302 1.8307 1.9062 1.7733 1.6367 1.4613 1.2299 1.1337 0.9595 0.6925 0.4702 0.3112 0.2093 0.1473 0.1089 0.1208 0.0833 0.0645 0.0481 0.0357 0.0261 0.0186 0.0128 0.0084 0.01511667 0.0052 0.0031 0.0017 0.0009 0.0004 0.0002 0.0001 0.0004666667 0.0004 0.0002 0.0001 0.0001333333 0.0001 0.0001333333 0.0001 0.0001177083 0.0001055556 0.0001 0.0001 
0.0001 0.0001499203 0.0002 0.0002 0.0002 0.0002 0.0002 0.0002 0.0002 0.000225 0.0002833333 0.0003 0.0003 0.0003 0.0003 0.0005 0.001425 0.0009 0.0017 0.0029 0.005 0.0084 0.0141 0.0238 0.0506 0.0401 0.0676 0.113 0.1846 0.2901 0.4326 0.6059 0.9063666 0.7946 0.9848 1.1946 1.5175 2.2338 3.2249 5.3577 7.776067 9.075 11.545 11.6713 12.251 10.3943 9.7051 9.4817 9.168716 8.4502 8.5908 8.619 8.8351 8.9075 8.7636 8.4266 8.119 12.05467 7.4171 7.1256 6.8264 6.328 5.8709 5.4094 4.9947 4.769667 4.7434 4.5305 4.0945 3.2442 4.4739 4.3795 4.5748 4.445766 4.4159 2.8347 3.8347 3.7994 3.7555 4.8287 6.8512 16.59075 40.2546 6.9912 1.4693 1.3716 1.2602 1.1673 1.0977 1.413867 1.089 1.1887 1.4522 1.9529 2.6323 3.0412 3.088 3.2189 2.914867 3.3543 3.4672 3.9364 4.6239 3.8724 3.8891 3.6013 3.760483 5.0965 3.806 2.0402 2.336 0.8402 1.4048 0.8847 0.87855 0.7722 1.3139 1.8777 2.3097 2.5208 2.6076 2.6143 2.57345 2.5036 2.4243 2.6631 3.2176 4.4787 26.4373 4.1338 4.5873 5.053767 3.8404 3.0705 2.4959 2.1221 3.0357 2.5998 2.4293 2.345658 2.2476 2.5204 2.3245 2.1337 1.9339 1.7072 1.4482 1.3423 1.1735 0.9133 0.6939 0.5262 0.4063 0.3229 0.2642 0.2234667 0.2207 0.186 0.1559 0.129 0.1044 0.082 0.062 0.06828333 0.0448 0.0308 0.02 0.0122 0.007 0.0038 0.0019 0.0009 0.00158 0.0004 0.0006 0.0002 0.0001 0.0002 0.0001 0.0001541667 0.0001166667 0.0001 0.0001 0.0001037037 
0.0001624801 0.0002 0.0002 0.0002 0.0002 0.0002 0.0002 0.0002 0.0002 0.0002 0.00025 0.0003666667 0.0003 0.0003 0.0003666667 0.00155 0.0023 0.002 0.0035 0.0062 0.0109 0.0195 0.0354 0.0657 0.4341667 0.1233 0.2304 0.3988 0.6589 0.9932 1.3462 1.7683 3.771517 2.203 2.4958 2.5553 2.403 2.6455 3.2111 6.1388 8.10535 9.3654 12.1603 13.44985 13.0052 11.0338 9.5824 9.5545 12.03302 11.4765 13.4584 15.1159 16.5026 19.1042 22.6383 24.1021 21.3755 23.5669 20.4043 9.6122 6.6773 5.1799 4.3903 3.7647 3.3869 4.12665 3.2674 3.2273 3.0699 2.7297 1.9783 2.6737 3.327 3.0647 4.2496 5.453 1.9213 1.7728 1.8889 2.2025 32.701 13.74063 1.5391 0.6975 0.6747 0.6393 0.5982 0.5648 0.5412 0.7068334 0.5375 0.571 0.621 0.6891 0.8804 1.2001 1.2961 1.64975 1.3754 1.5186 1.5173 1.8956 3.2183 4.886 1.6839 1.7245 2.36505 1.8113 1.1901 1.1112 2.0876 1.2586 1.0782 0.9261 1.027067 1.1302 1.4954 1.8995 2.1973 2.3415 2.4157 2.3805 2.351483 2.2825 2.2768 2.5002 2.9523 10.9419 53.1728 10.1916 6.49165 6.556 5.2219 4.2455 3.5124 3.0251 3.1765 3.0484 2.96335 2.8969 2.93395 2.9523 2.7411 2.5209 2.287 2.0326 1.911933 1.7598 1.4829 1.2233 0.9988 0.8176 1.4381 0.3143 0.333 0.43365 0.3307 0.3166 0.2944 0.2661 0.2332 0.1969 0.1592 0.1604667 0.1225 0.0891 0.0611 0.0392 0.0235 0.0132 0.0069 0.00715 0.0033 0.0032 0.0022 0.0009 0.0004 0.0001 0.0002666667 0.00015 0.0001 0.0001 0.0001111111 0.0001 
0.0002 0.0002 0.0002 0.0002 0.0002 0.0002 0.0002 0.0002 0.0002 0.0002 0.0002 0.0003 0.0007333333 0.002466667 0.0035 0.007025 0.0031 0.0062 0.0175 0.0459 0.1123 0.2545 0.5257 0.9736834 0.9435 1.4086 2.1881 3.3006 4.6087 5.9416 7.2095 7.312716 8.389 8.8683 8.5286 8.5679 8.8085 6.2833 7.5545 8.4625 10.44763 10.2327 12.4195 16.471 16.1324 15.6665 15.8176 14.846 15.85958 18.3892 23.5389 29.9842 35.0936 36.9207 35.7064 33.5556 24.54073 30.4828 27.13 30.5548 25.5607 19.8667 14.3859 10.0384 6.848134 5.9389 2.4286 1.6503 1.5601 0.634 0.8067 0.6596 0.8158 2.39675 1.0051 1.5712 1.1959 0.7518 0.923 1.1991 0.5513 6.089967 0.5466 0.539 0.524 0.506 0.4941 0.4913 0.4899 0.5176333 0.4857 0.5033 0.4942 0.3669 0.2996 0.3629 0.421 0.7692 0.4991 0.5195 0.4998 0.5669 2.8101 0.7494 1.0408 1.061383 1.1072 0.8495 0.8444 1.6086 1.9061 1.2686 0.677 0.89745 1.0856 1.3636 1.652 1.9284 2.1115 2.2266 2.2605 2.1907 2.184083 2.1373 2.1883 2.379 5.3199 34.9626 7.035 7.4666 7.048867 6.0146 5.3946 4.7781 4.283 3.7778 3.6227 3.4795 3.385717 3.3262 3.5358 3.346 3.136 2.9083 2.663 2.3998 2.26515 2.124 1.8482 1.5883 1.3576 1.1636 1.2557 0.9556 0.8090166 0.7804 0.6729 0.5998 0.5425 0.4904 0.4371 0.3799 0.3186 0.3102667 0.2557 0.1948 0.1402 0.0948 0.0601 0.0356 0.0197 0.02206667 0.0102 0.014 0.0068 0.0031 0.0013 0.0005 0.0002 0.000275 0.0001 0.0001333333 0.0001 0.0001 
0.0002 0.0002 0.0002 0.0002 0.0002 0.0002 0.0002 0.0002 0.0002 0.0002 0.0002 0.0002 0.0004 0.0016 0.0054 0.01342 0.0173 0.0514 0.1386 0.3312 0.6809 1.139 1.7007 2.1484 2.5711 3.857 5.5923 7.4882 9.4605 11.0687 12.4575 13.47737 12.7058 13.1317 13.6079 13.1718 9.4771 11.8099 12.5845 13.76022 13.5257 14.9607 17.297 18.3725 18.8786 18.3973 16.889 17.02543 19.0257 21.8656 26.0435 29.3091 29.5399 25.7781 21.4886 18.5223 18.41758 17.0147 17.4434 17.3266 16.6361 14.9818 12.6949 9.9288 7.4757 8.0311 6.9009 4.2511 2.0034 3.0146 3.0542 2.933 2.211933 2.6702 2.3128 1.0798 0.7385 0.6259 0.604 0.6003 0.71615 0.6006 0.6012 0.5992 0.5872 0.5642 0.5447 0.5392 0.5383 0.5347334 0.5132 0.4985 0.5351 0.4439 0.4597 0.5125 0.5751 0.83655 0.4485 0.285 0.3128 0.3934 0.7398 0.3563 0.3805 0.855525 0.4314 1.0701 1.3312 1.7121 1.7399 1.1888 0.5091 0.97255 1.1087 1.4751 1.7433 1.9404 2.063 2.1532 2.1346 2.11075 2.0656 2.0479 2.13 2.291 8.2232 5.8028 6.4033 6.4815 6.046583 5.5829 5.2558 5.0299 4.6422 4.2534 4.0264 3.8593 3.765458 3.704 3.8466 3.6776 3.4842 3.2674 3.0288 2.7717 2.6306 2.503 2.2337 1.9767 1.743 1.5396 1.4541 1.3067 1.225483 1.1641 1.0446 0.9471 0.8649 0.7899 0.7151 0.6355 0.6092333 0.5489 0.4567 0.3632 0.2745 0.1959 0.1315 0.0828 0.0489 0.05176667 0.0434 0.0327 0.0167 0.008 0.0036 0.0015 0.0006 0.0004166667 0.0002 0.0001 0.0001 0.00010625 
0.0002 0.0002 0.0002 0.0002 0.0002 0.0002 0.0002 0.0002 0.0002 0.0002 0.0002 0.0002 0.0007 0.0026 0.006666667 0.0096 0.0317 0.0942 0.2461 0.5531 1.043 1.6853 2.7367 3.252117 4.4127 6.8697 8.6584 11.8985 15.2909 18.2529 19.4588 18.52405 20.6436 21.5322 21.6721 18.0841 20.4889 20.7468 20.4567 18.4536 19.9774 19.2456 16.9877 17.286 18.3011 18.6509 17.7566 16.58133 17.8177 18.5908 17.5523 13.04 8.5336 6.8703 6.0203 9.788883 5.5746 5.3555 5.2163 5.0645 4.9584 4.9817 5.148 5.3853 6.209583 5.5317 5.4371 4.6848 4.9627 4.5137 4.1941 3.5448 2.531483 2.6482 1.44925 0.9562 0.904 11.9604 0.9594 0.6726 0.65725 0.673 0.6718 0.6779 0.6821 0.6582 0.6211 0.5956 0.6070333 0.5954 0.5859 0.4423 0.5775 1.0015 1.7419 1.8194 1.7427 0.8406 1.3329 0.5685 0.3232 0.4934 0.5768 0.8574 0.9618 1.012025 1.21145 1.3559 1.2148 0.9272 1.583 2.0058 1.1119 1.21035 1.343 1.6057 1.8099 1.9411 2.0515 2.098 2.0337 2.01945 1.9794 2.0035 2.0939 2.3025 22.1267 3.5994 5.3637 5.693984 5.5784 5.1555 5.1476 4.9671 4.7442 4.4871 4.289 4.1345 4.059758 4.08925 4.0671 3.9297 3.7657 3.5741 3.3569 3.1186 2.978733 2.8665 2.6107 2.3621 2.1306 1.9231 1.7734 1.6365 1.573367 1.5096 1.3959 1.2956 1.2056 1.1204 1.0334 0.939 1.096017 0.8335 0.7167 0.5934 0.4684 0.3506 0.2477 0.1645 0.1335917 0.1025 0.0859 0.0483 0.0254 0.0125 0.0057 0.0025 0.001916667 0.001 0.0004 0.0001 0.000125 0.0001 
0.0002 0.0002 0.0002 0.0002 0.0002 0.0002 0.0002 0.0002 0.0002 0.0002 0.0002 0.00045 0.0052 0.006 0.01483333 0.0148 0.0452 0.1249 0.3068 0.6565 1.1808 1.9331 3.17155 3.178 4.9135 7.1986 11.4952 15.6888 19.7411 21.2724 22.1992 21.53053 23.6794 25.0399 24.1682 28.8606 28.3206 26.2055 23.4761 20.86112 20.7012 18.4979 16.7841 14.7296 14.2928 15.4746 13.7405 13.97575 14.2585 12.9969 9.2099 5.751 4.4483 4.0407 3.6776 3.797483 3.4499 3.3962 3.4594 3.4171 3.272 3.2109 3.3574 3.2449 3.8395 4.5411 6.4831 3.6347 3.957 2.8301 2.3487 1.9072 1.774825 1.4855 0.5836 0.5917 1.1122 0.7637 0.6288 0.7005 0.6945667 0.6965 0.6722 0.6727 0.7462 0.7856 0.7797 0.7322 0.9967833 0.6415 0.9995 1.509 1.7094 1.5136 1.0906 0.728 1.0701 0.5309 0.4135 0.5627 0.6202 0.7279 1.5439 1.105 1.356 1.488792 1.731 1.6399 1.4986 1.2271 0.9287 1.8346 1.5696 1.34255 1.6198 1.754 1.871 1.9682 2.0587 2.048 1.9722 2.097617 1.9312 2.0477 2.4228 13.3948 5.3604 4.4504 5.2464 5.915933 5.0906 4.8689 4.8131 4.7685 4.679 4.5411 4.4082 4.31315 4.2924 4.2791 4.1993 4.0991 3.9718 3.8149 3.6295 3.504717 3.4198 3.1928 2.9576 2.724 2.5011 2.2957 2.1236 1.9761 1.9103 1.8472 1.7339 1.6335 1.5421 1.4543 1.3636 1.2631 1.474967 2.3561 0.6302 0.6089 0.5314 0.4268 0.318 0.2205 0.2236417 0.18235 0.1346 0.0765 0.0408 0.0204 0.0095 0.0042 0.00325 0.0017 0.0007 0.0002 0.0001 0.0001 
0.0002 0.0002 0.0002 0.0002 0.0002 0.0002 0.0002 0.0002 0.0002 0.0002 0.000325 0.00672 0.01125 0.0165 0.1404667 0.0395 0.1179 0.3141 0.726 1.4168 2.5333 3.7848 6.083233 5.7114 8.5852 11.7199 15.2142 18.3948 20.3064 21.1591 21.20878 21.664 21.5382 19.6948 22.5261 22.8399 22.4718 21.4484 20.6115 22.43681 19.9438 24.8646 22.247 17.0298 11.6255 8.5132 11.0471 13.27883 9.2341 5.023 1.8858 2.1094 2.4038 2.3471 2.1639 2.42025 1.8986 1.6022 1.8694 2.1266 1.9447 1.6262 1.1658 2.100833 0.5734 8.9113 1.9357 1.8658 1.8385 1.8046 1.1076 1.235333 0.6645 0.39875 14.8457 0.2789 0.2981 0.3201 0.4832 0.6198334 0.6953 0.7295 0.6641 0.4881 0.6756 0.9173 1.2101 1.5768 1.334817 1.8392 1.8783 1.8806 1.7809 1.474 1.0436 0.8334 0.8227 0.7662 0.7813 0.7819 0.7896 0.8429 2.4216 1.3827 1.544142 1.667 2.0055 1.9763 1.9115 1.8393 1.8023 1.9102 1.624917 1.3243 1.0867 1.6613 1.984 2.1872 2.2802 2.2732 2.4507 2.2336 2.4356 2.935 6.2977 3.315 6.4263 6.3101 10.7762 5.933116 3.4403 4.2026 4.4082 4.4964 4.5158 4.477 4.4148 4.355516 4.34 4.3005 4.2571 4.1943 4.1056 3.9872 3.8391 3.73165 3.6644 3.4689 3.2605 3.0481 2.84 2.6432 2.4671 2.3832 2.3131 2.1793 2.063 1.9611 1.8693 1.7819 1.6917 1.591 1.5664 1.8671 1.4746 1.1739 0.9218 0.6988 0.5048 0.345 0.36645 0.327 0.2041 0.1192 0.0651 0.0332 0.0159 0.0071 0.00505 0.003 0.0012 0.0004 0.0001 0.0001 
0.0002 0.0002 0.0002 0.0002 0.0002 0.0002 0.0002 0.0002 0.0002 0.039675 0.0891 0.0514875 0.0165 0.2564 0.3164 0.4496 0.9152 1.8035 2.9591 4.6629 6.9137 9.5923 8.4805 12.2998 14.9668 16.9126 19.6306 20.7256 20.3052 20.4397 21.49642 20.5183 19.4116 21.1235 20.6559 19.5419 19.785 20.6595 24.42208 21.8287 28.05955 32.3311 33.5978 32.5346 28.5717 22.1483 20.56572 17.7387 13.6541 9.5455 5.8712 2.5365 1.1791 1.38 1.5595 4.495 1.772 1.9949 1.5509 1.2375 1.4273 1.6499 1.8928 1.330217 1.7761 1.6304 1.4582 1.2916 1.1233 0.959 0.7925 2.714775 0.5915 23.8208 0.9791 0.5216 0.5433 0.566 0.5892 0.9393666 0.622 0.8953 1.2435 1.6602 1.5804 1.4969 1.4584 1.268667 1.4943 1.7249 1.6939 1.6417 1.5453 1.3148 1.0381 0.9607 1.107583 1.117 1.2019 1.1641 1.2426 1.3833 1.7749 1.5862 2.295858 2.16795 2.0856 1.8634 1.3983 3.7124 2.1987 1.9239 1.6774 1.1869 0.5995 0.8045 1.1503 1.7011 2.2384 2.8494 2.42465 3.3278 3.2774 3.1168 12.2655 1.3118 4.3164 15.9088 7.681067 5.1332 5.912 5.8044 5.0438 4.493 4.3966 4.3739 4.3557 4.8484 4.322 4.2852 4.263 4.231 4.1776 4.097 3.9872 3.900483 3.8499 3.6895 3.5123 3.3261 3.1384 2.956 2.7862 2.699583 2.6331 2.4979 2.3799 2.277 2.1854 6.2765 0.6218 1.35795 1.0003 1.3208 1.3804 1.2914 1.1194 0.9072 0.689 0.4904 0.5913 0.4086 0.2632 0.1579 0.0882 0.0459 0.0222 0.0101 0.006916667 0.0042 0.0017 0.0006 0.0002 0.0001 
0.0002 0.0002 0.0002 0.0002 0.0002 0.0002 0.0002 0.0002 0.04228125 0.073525 0.069075 0.0891 0.0891 0.2467 0.4363 0.5575 1.134 2.1486 3.3363 4.6112 6.3299 7.288434 8.6018 10.8929 13.0178 16.8103 18.818 19.9698 20.9579 22.3243 21.79702 22.8731 25.0591 25.8835 26.1739 25.1983 27.2572 29.9735 28.44246 32.0109 32.2587 32.5502 33.5865 32.8485 33.1883 33.3228 30.39035 30.6242 28.8566 29.2805 29.4293 25.4584 18.7514 13.8648 12.63837 11.129 8.447 6.3163 4.8411 3.632 2.6805 1.9644 1.177 1.457333 1.3962 1.5647 1.5687 1.5095 1.4515 1.38 1.2939 2.927742 11.83865 1.4972 1.5494 1.9124 1.9102 1.5564 1.6045 1.225183 1.642 1.6766 1.6741 1.5729 1.3877 1.1583 0.9696 0.992 0.9028 0.8844 0.8838 0.8851 0.8384 6.9801 1.0579 1.708067 1.8322 1.136 1.0437 1.188 0.8289 0.8035 0.7739 4.08 3.240892 2.8913 2.2646 2.2347 2.3187 2.8799 2.2676 2.6255 2.190717 1.0936 0.2395 0.377 0.5815 0.8477 1.2132 1.6478 2.029167 2.2161 2.8627 12.9176 2.5881 2.1212 14.6402 3.3226 5.827167 4.6355 6.4793 8.0145 8.2212 7.1762 5.8389 4.775 6.516117 5.8229 5.835 4.7562 4.3922 4.2778 4.2169 4.1585 4.147433 4.0818 3.9805 3.8556 3.7116 3.5547 3.3915 3.2284 3.0717 2.987317 2.9263 2.7951 2.6792 2.5777 7.09 2.3423 1.7576 1.549433 1.4853 1.4248 1.3957 1.3241 1.1914 1.0079 0.7986 0.6989143 0.6577 0.4613 0.3014 0.1831 0.1034 0.0542 0.0265 0.01881667 0.012 0.0051 0.002 0.0007 0.0003 0.0001 
0.0002 0.0002 0.0002 0.0002 0.0002 0.0002 0.0002 0.03514531 0.05720833 0.055725 0.0624 0.04905 0.0891 0.13966 0.145 0.3294 0.6702 1.2787 2.045 3.347 5.1057 5.7665 7.1872 9.7671 11.763 14.54 16.9776 18.7011 20.071 19.30647 20.3928 24.2339 27.2158 28.6605 29.4565 34.2607 36.673 36.7903 28.03616 29.39185 26.5328 28.6248 29.306 31.1884 34.6413 38.252 33.95185 40.2561 41.4763 42.7731 43.11 41.4206 36.039 27.7387 19.46697 20.1582 10.7503 7.1809 4.9857 3.7356 2.7658 1.1533 2.026383 1.3283 1.1736 1.2485 1.5791 1.5578 1.5654 1.558 1.6437 5.608467 1.4062 1.4781 1.632 1.5604 1.419 1.6685 1.4905 1.112733 1.4029 1.3033 1.1863 1.0067 0.8027 0.6513 0.58 0.5311334 0.5469 0.5192 0.4915 0.4668 0.4631 0.4997 2.2281 2.629033 3.1314 7.3081 0.8725 0.7681 0.4986 0.2859 1.1204 3.725867 5.9126 2.8073 2.439 2.0856 1.6237 1.8501 2.2748 2.701017 4.0647 2.2497 0.5612 0.219 0.3338 0.4627 0.6339 0.8266 1.199433 1.3073 11.477 2.5126 2.3384 13.5264 2.514 2.58 3.0623 3.3829 4.9872 7.039 8.7705 9.7935 9.7437 8.7389 8.675817 11.0303 10.336 9.0366 7.4539 6.0434 4.9538 4.3664 5.1347 4.1937 4.0825 3.9774 3.8626 3.7353 3.5988 3.4583 3.375667 3.3195 3.1871 3.0651 2.9556 7.7399 2.7711 2.6954 2.3738 2.192717 2.0578 1.8228 1.6451 1.482 1.3029 1.0982 0.9315 0.8940333 0.7339 0.5125 0.334 0.2025 0.1141 0.0597 0.029 0.02118333 0.0131 0.0055 0.0022 0.0008 0.0004 0.0003 
0.0002 0.0002 0.0002 0.0002 0.0002 0.0002 0.02665543 0.04225139 0.04089167 0.042375 0.0357 0.04905 0.009 0.04373333 0.0189 0.0534 0.14 0.3383 0.7863 1.5697 2.8154 3.536817 4.559 6.4521 9.1937 10.6619 12.2644 13.4289 14.3945 14.71413 17.6983 20.0727 22.6777 26.2809 28.3659 27.9005 26.4249 24.04827 24.6834 15.367 17.3625 18.6028 19.9686 22.5305 25.5275 26.72777 28.8313 32.4247 35.9 37.6931 37.6424 36.1123 32.8444 26.5638 22.44068 17.3473 14.3923 10.631 7.9816 5.8109 3.5949 3.6962 2.09145 2.8391 2.3383 2.077 1.5864 1.4785 1.5797 1.4111 8.879808 16.47285 0.9955 0.8153 0.6696 0.5972 0.519 0.426 0.79575 0.3159 0.2206 0.1312 0.0609 0.0193 0.0031 5.3028 0.115 0.291 0.0725 0.039 0.0179 0.0079 0.0024 1.7267 3.424 3.662233 4.1006 11.8558 0.8181 0.7367 0.6624 0.8887 5.6586 4.2433 4.8097 2.8587 2.6841 2.2794 1.8529 1.1419 1.9546 2.487783 3.0189 5.5762 0.9668 0.0289 0.0793 0.1542 0.261 0.3939667 0.4302 0.7686 19.1163 0.2895 6.6415 2.0558 2.1067 2.0772 2.1444 2.3756 3.2788 4.9461 7.0039 8.8958 10.226 10.5278 9.83405 11.16 11.68 11.8378 11.5245 10.6568 9.3117 7.7366 7.470417 6.2712 5.0919 4.2937 4.0316 3.8881 3.7665 3.6474 3.583517 3.5287 3.4133 3.3047 7.6137 3.2655 3.2328 3.1086 2.992017 2.8826 2.5992 2.3116 2.0401 1.7799 1.5193 1.2529 1.467817 1.4777 0.7648 0.5344 0.3662 0.2267 0.1278 0.0665 0.0321 0.02343333 0.0144 0.006 0.0023 0.0009 0.0004 0.0004333333 
0.0002 0.0002 0.0002 0.0002 0.0002 0.01954216 0.03044653 0.029025 0.02865417 0.024575 0.029025 0.009 0.00455 0.0001 0.0003 0.0012 0.0048 0.0175 0.0586 0.1869 0.5139 1.492483 1.0397 1.7733 2.7031 3.617 4.5404 6.0297 7.5242 8.2788 8.204 8.0033 7.5996 7.4363 8.9867 10.1416 11.3112 12.3238 8.4068 5.6182 7.5864 9.4114 11.3763 13.3176 15.4044 17.59865 17.7101 20.2641 22.8943 25.2636 26.8802 27.1384 25.655 22.44667 23.0537 19.7824 14.7538 9.1244 5.821 3.128 2.7414 1.9478 2.254483 1.584 1.4724 1.5199 1.9597 2.0864 1.8772 30.4399 7.957179 1.7533 1.5895 1.2726 0.8717 0.7549 0.6151 0.4905 0.45745 0.3831 0.2577 0.1397 0.0544 0.0114 5.231 15.1792 7.547083 0.2572 0.1744 0.1073 0.0565 0.0018 0.0002 2.9016 3.088867 4.2719 4.8174 16.7572 1.512 1.5357 1.8097 2.5241 4.1314 4.4885 3.5819 2.8916 2.954 2.455 1.7395 1.0762 1.4036 1.990333 2.2101 7.0569 3.1824 0.7327 0.0067 0.0246 0.0634 1.3138 0.1487 6.934 4.1409 15.7127 0.7792 0.9864 1.0851 1.578633 1.1497 1.301 1.8049 2.8752 4.506 6.4786 8.4389 8.06765 7.9602 9.5871 10.8855 11.7558 12.2148 12.2939 12.1018 11.6071 10.23608 10.6475 9.2498 7.5881 6.0233 4.7931 4.0588 3.8364 4.092683 3.7108 3.6072 6.559 3.8996 3.7735 3.6611 3.5375 3.388667 3.3542 3.1071 2.8165 2.5017 2.1731 1.835 1.885 2.053767 2.1616 0.9112 0.5376 0.3624 0.2324 0.1363 0.073 0.0544 0.0358 0.0162 0.0068 0.0026 0.001 0.0005 0.0004666667 
0.0002 0.0002 0.0002 0.0002 0.01439973 0.02211308 0.02086667 0.02006319 0.01752917 0.0190125 0.009 0.00455 0.0001 0.0002 0.0005333333 0.0021 0.007833334 0.02025 0.0001 0.0006 0.176425 0.0043 0.0226 0.0662 0.1129 0.1079 0.0335 0.0177 1.3768 2.930883 0.475 0.2517 0.2764 0.3883 0.7109 1.271 2.2057 3.3628 0.9108 1.7928 2.9452 4.2103 5.4952 6.826 8.2592 9.782733 9.8594 11.5654 13.2013 14.5223 15.2488 15.1489 14.1513 14.21773 12.4118 10.2507 7.998 5.9951 3.8426 3.2683 2.2981 1.7573 1.8109 1.6489 1.6767 1.7968 1.6944 1.9466 25.2176 1.9831 1.6264 2.0136 2.4392 2.8097 1.4686 1.2345 0.9264 0.6541 1.1178 0.4751 0.4472 0.3474 0.2 0.0641 12.3688 19.0386 12.11892 5.3897 1.1595 1.1596 1.2314 5.3789 2.8951 2.716 4.2801 3.493 13.3593 9.3967 2.0689 2.1213 2.2164 2.4151 4.190436 6.0519 2.7704 2.807 3.153 2.6887 1.9665 1.6343 1.781767 1.7299 1.6249 5.5988 5.2889 0.8316 0.6999 0.6925 0.6496 2.200167 6.3299 5.2749 10.2345 2.8551 2.2021 1.8096 1.5962 1.324117 1.4569 1.384 1.5202 1.99 2.9605 4.41 5.2924 5.831967 5.9606 7.5512 9.0448 10.2912 11.3005 12.0409 12.5016 12.12342 12.6483 12.5058 12.1479 11.5007 10.3109 8.6446 6.8883 5.3986 6.8731 4.4342 8.6967 2.8725 3.4064 3.6491 3.7546 3.7651 3.681467 3.684 3.5137 3.2657 2.9555 2.5979 2.2083 2.9926 2.641617 2.5528 1.0024 0.5187 0.3434 0.2294 0.1414 0.079 0.05916667 0.04 0.0184 0.0078 0.003 0.0011 0.0005 0.000425 
0.0002 0.0002 0.0002 0.01100057 0.01668735 0.01574367 0.01502604 0.01351181 0.01400625 0.009 0.00455 0.0001 0.00015 0.0002777778 0.0009444444 0.003488889 0.007570833 0.0001 0.00035 0.00035 0.00245 0.01345 0.023325 0.0002 0.0008 0.001 0.0006 0.001 0.2330333 0.0018 0.0035 0.0073 0.0149 0.0304 0.0659 0.1568 0.391 0.087 0.2271 0.4916 0.9001 1.4234 2.0254 2.6881 3.3774 4.60185 4.0859 4.7741 5.3542 5.7347 5.8389 5.6493 5.2505 6.534733 4.7841 4.3223 3.8625 2.1712 1.8835 1.2223 0.9269 1.126917 0.8187 0.8014 0.8333 0.8597 1.0972 31.458 1.2876 4.42535 0.2565 0.2117 0.1219 10.2136 2.4313 2.6918 2.7776 1.222283 2.5927 2.1113 1.2779 0.6485 0.234 3.7356 15.3366 27.4274 16.16693 5.4214 2.9439 2.9601 3.5603 7.0993 4.9868 5.6885 4.909383 6.6096 7.8398 4.5622 1.9065 1.7022 1.4442 5.85715 4.969242 3.8649 2.5881 2.8227 3.3271 3.1281 2.5313 2.3995 2.405233 2.4471 2.717 4.7449 4.7576 3.5129 0.1418 0.1609 0.5211667 0.1791 5.8303 13.7615 1.6611 1.7975 1.6935 1.5424 1.3925 1.222617 1.2643 1.1863 1.2715 1.5612 2.1373 3.1002 3.0459 4.03315 4.2938 5.6649 7.0674 8.398 9.6343 10.7135 11.6043 11.68097 12.2774 12.7281 12.9451 12.8853 12.5393 11.9416 10.9823 11.07997 9.529 14.3296 5.5216 4.1801 3.6439 3.6271 3.7692 3.8661 3.866783 3.8819 3.8012 3.6217 3.3499 2.9979 2.7626 3.3968 3.124883 2.8609 1.1403 0.5131 0.3307 0.2256 0.1444 0.0836 0.06316666 0.0436 0.0206 0.0088 0.0035 0.0013 0.0005 0.0002 
0.0002 0.0002 0.008889895 0.01335949 0.0127152 0.0122053 0.01133831 0.01150312 0.009 0.00455 0.0001 0.000125 0.0001759259 0.0004574074 0.00157037 0.003026042 0.0001 0.000225 0.0002666667 0.00105 0.005416667 0.00985625 0.0002 0.0005 0.00044 0.0001 0.0001 0.0003 0.0007666667 0.0006 0.0011 0.0017 0.002 0.0027 0.0075 0.0273 0.1098857 0.0307 0.0562 0.1082 0.203 0.3501 0.5485 0.7817 1.396433 0.9522 1.077 1.1524 1.1783 1.1646 1.1504 1.1633 1.2311 2.208817 1.3796 1.5325 6.3539 1.0181 0.8917 0.7335 0.5493 0.8139667 0.3576 0.1783 0.0691 0.109 0.1653 0.237 0.25835 1.065492 0.3479 0.4513 0.5527 0.6135 0.2769 0.2656 0.2234 1.962667 0.1595 0.0912 0.0372 0.008 38.3701 17.1304 29.4838 20.67852 34.504 5.2205 4.3088 4.4515 4.6173 5.648 5.1857 5.4803 5.91215 5.4689 4.8382 3.1422 2.0647 1.87 1.7589 6.8585 4.520958 4.7679 2.9738 3.087 3.3834 3.538 3.3849 3.1222 3.0944 3.0984 3.4551 4.5946 4.6069 1.1065 0.8078 0.7541 1.548233 0.6908 12.2619 9.886 0.8411 0.7981 0.8836 0.8695 1.0787 0.8231 0.8027 0.8295 0.9127 1.057 1.427 1.87695 2.491942 2.3553 3.2509 4.3341 5.4944 6.7018 7.9 9.0364 10.0729 10.53128 10.9813 11.7492 12.3608 12.7825 13.0147 13.0247 12.8013 15.06683 20.8803 11.6195 9.4605 7.3353 5.7731 4.6687 4.0506 4.3682 3.9799 4.0237 4.0071 3.8926 3.67 3.3424 3.2426 3.85905 3.7824 3.1638 1.2862 0.5194 0.3242 0.2227 0.1458 0.0866 0.06576667 0.0462 0.0222 0.0096 0.0038 0.0014 0.0005 0.0002 
0.0002 0.00763882 0.01140814 0.01099952 0.0106759 0.01019662 0.01025156 0.009 0.00455 0.0001 0.0001125 0.000133642 0.0002527778 0.0007345679 0.001288455 0.0001 0.0001625 0.0001972222 0.0005138889 0.002244444 0.004130729 0.0002 0.00035 0.000268 0.0001 0.0001 0.0002 0.0003 0.0004 0.0006 0.001 0.0017 0.0028 0.0048 0.0095 0.0211 0.03941667 0.0553 0.1024 0.1611 0.2032 0.1867 0.2308 0.2534 0.6155667 0.3258 0.3958 0.4651 0.5359 0.5235 0.502 0.4617 0.8030667 0.3809 0.2267 6.3387 1.4372 1.4877 1.4824 1.4018 1.2376 1.335933 0.9937 0.6119 0.1341 0.151 0.1655 0.1798 2.0893 2.208942 2.1533 2.2155 2.3185 2.4171 2.2991 2.5637 2.8618 2.684967 3.161 3.5289 4.0376 8.4401 16.1657 15.3796 15.3726 15.70368 1.9467 0.0971 0.0962 0.1 34.1939 8.5983 8.0981 4.929183 6.5471 5.6785 4.6016 4.1249 4.3215 4.7474 4.78855 3.884908 3.467 2.3103 2.9033 3.6726 3.9612 3.9831 4.102 3.9027 3.662233 3.5965 3.5874 3.7862 4.0463 0.9988 0.9625 0.8802 1.75375 6.6243 7.6209 8.6154 1.5234 1.2521 1.0426 0.9462 1.117067 0.8985 0.8668 0.8325 0.8277 0.9275 1.2002 2.0562 2.392725 2.5171 3.0991 3.8225 4.6626 5.6155 6.6258 7.6516 8.3266 8.6535 9.5983 10.4722 11.2636 11.9597 12.5172 12.9611 22.3598 16.21513 13.8483 13.3777 12.2309 10.7731 9.1157 7.3353 5.8046 5.6576 4.7388 4.2606 4.1921 4.1121 3.9303 4.23035 5.0265 4.841983 4.9434 3.543 1.4058 0.5514 0.3345 0.2264 0.1475 0.1171833 0.0877 0.0469 0.0226 0.0098 0.0039 0.0014 0.0005 0.0002 
0.006923273 0.01030276 0.01005724 0.009865421 0.009607469 0.009625781 0.009 0.00455 0.0001 0.00010625 0.0001153807 0.0001663066 0.0003736626 0.0005939502 0.0001 0.00013125 0.0001532407 0.0002912037 0.0009851852 0.001772266 0.0002 0.000275 0.0002036 0.0001 0.0001 0.0001 0.0001 0.0001666667 0.0002 0.0004 0.0006 0.0009 0.0017 0.004 0.0098 0.02214167 0.0308 0.0713 0.1463 0.2678 0.4353 0.6163 0.6056 0.6857 0.7321 0.6946 0.6362 0.3865 0.3394 0.4146 0.5242 0.6824 0.58325 0.899 1.0824 1.2911 1.5255 1.7779 2.0261 2.2328 2.010483 2.3721 2.5053 2.6422 2.7283 1.9569 1.9555 3.13185 2.865242 4.2286 4.1762 4.2127 4.2035 4.242 4.5503 4.6282 4.201883 4.7735 4.9306 5.1576 5.4416 11.9229 20.2404 15.794 7.9896 6.752417 4.9254 5.3661 6.0839 7.4657 12.0091 3.0506 2.6564 4.313817 1.6075 1.5862 1.5996 1.0696 18.8784 5.673 3.5134 3.412708 2.9231 2.6118 3.3367 4.4484 4.7598 4.7122 4.7068 4.4916 4.41 3.8436 3.3614 2.6946 2.8609 1.3599 7.01 0.0953 1.953017 1.4778 4.4635 6.2686 2.6824 2.3346 2.0416 1.7296 1.465333 1.4355 1.2326 1.1486 1.205 1.4054 2.01105 2.6074 2.74155 2.9434 3.3494 3.8452 4.4472 5.1711 5.9752 6.8326 7.4335 7.7126 8.5843 9.4347 10.251 11.0213 11.7127 20.2215 15.70723 13.4434 13.9577 14.0768 13.6841 12.8822 11.8167 10.4536 8.6146 7.863367 6.7571 5.3681 4.5794 4.3508 4.2754 6.7852 6.5184 5.691767 5.5386 3.6572 1.6063 0.6447 0.3774 0.2414 0.1496 0.1162167 0.0859 0.0449 0.0213 0.0092 0.0036 0.0013 0.0006 0.00035 
0.009693148 0.009551513 0.009442884 0.009306787 0.00931289 0.009 0.00455 0.0001 0.000103125 0.0001072102 0.0001293124 0.0002184499 0.0003084798 0.0001 0.000115625 0.0001281636 0.0001918981 0.0004765432 0.0008121636 0.0002 0.0002375 0.00017572 0.0001 0.0001 0.0001 0.0001 0.0001 0.000125 0.0001 0.0001 0.0002 0.0006 0.0016 0.0046 0.01445 0.03530833 0.0472 0.1171 0.235 0.4231 0.6891 1.0146 1.3321 1.208733 1.3209 1.1122 0.7623 0.8829 0.8128 0.7462 0.6931 0.6496 0.9635 0.4259 0.5761 0.776 1.0365 1.3686 1.7909 2.3051 2.352483 2.5135 2.6599 2.7746 3.6032 4.5291 4.2304 3.7941 3.993425 3.7678 3.7783 3.744 3.8016 4.0225 4.7774 5.0108 5.5525 5.3733 5.871 6.632 7.6364 13.9574 14.5729 8.4956 8.036183 5.4887 4.7915 4.6089 9.6657 11.463 8.2455 4.2829 3.6026 3.323267 3.3712 3.83 4.5301 5.7374 9.2173 3.4339 2.9732 3.005917 2.811 2.9903 4.2106 5.0526 5.2762 5.3182 5.1873 4.86555 4.6408 3.9121 3.2293 2.3249 2.183 6.9676 1.7732 2.418567 1.2396 1.4009 2.1268 2.7362 2.4867 2.5182 2.1061 1.9526 1.684 1.8296 1.7901 1.8223 1.9335 2.105 2.7017 3.0006 3.1309 3.3246 3.6797 4.0753 4.5692 5.1519 5.8023 6.5064 6.96975 7.2443 7.9942 8.7493 9.4913 10.2297 13.7718 12.2434 13.66128 13.0142 13.7523 14.2923 14.5012 14.3377 13.8128 12.9118 12.05263 11.5791 9.686 7.784 6.7652 6.374 7.5584 8.2181 7.333283 6.9426 5.1811 3.2892 1.717 0.773 0.4338 0.2562 0.147 0.1111667 0.0796 0.04 0.0185 0.0079 0.0031 0.0015 0.0001 0.0002666667 
0.009284743 0.009225173 0.00915441 0.009156445 0.009 0.00455 0.0001 0.0001015625 0.0001034451 0.0001132159 0.0001516575 0.0001890605 0.0001 0.0001078125 0.0001145962 0.0001452289 0.000265535 0.0004201512 0.0002 0.00021875 0.000162644 0.0001 0.0001 0.0001 0.0001 0.0001 0.0001 0.0001 0.0001 0.0001 0.0002 0.0008 0.0023 0.0063 0.0329 0.05130833 0.0767 0.1615 0.3301 0.5624 0.8621 1.1952 1.5165 1.69455 1.7916 2.1905 2.6555 2.6787 2.6158 2.4788 1.9475 1.943717 1.4526 1.6715 1.6855 1.73 1.7947 1.8708 1.9537 2.067 3.04675 2.6244 3.2563 3.1206 3.2066 3.3206 4.38745 4.6847 4.252183 4.3535 4.022 3.7446 3.5667 3.5241 3.4653 8.6428 6.5295 4.8864 4.5583 5.0284 7.5438 16.1475 7.39 5.2384 6.47765 5.2108 5.1352 9.3436 11.5232 9.7879 6.4744 4.3546 4.309433 4.2817 4.4202 4.797 5.2297 5.7022 5.9508 2.9179 3.004917 2.8605 2.9543 3.4904 4.8695 5.5485 5.7382 5.7861 5.4865 5.109717 4.7619 3.9221 3.5734 2.9639 8.0373 2.0791 2.432 2.0793 1.9613 1.7515 1.773 1.8481 1.8171 3.2534 1.7961 1.581233 1.5333 1.6234 1.7685 1.9491 2.1765 2.518 2.9482 3.063083 3.2869 3.6225 3.961 4.3304 4.7959 5.3166 5.872 6.4573 6.754283 7.0653 7.6896 8.3333 8.9918 10.2748 10.3862 11.1141 11.59337 11.9311 12.7807 13.5898 14.2511 14.6743 14.8052 14.6326 14.30575 14.1241 13.1594 11.6122 10.2864 9.2991 10.7859 8.8562 7.42245 6.6792 4.5818 2.8935 1.6935 0.8735 0.4789 0.2599 0.1881833 0.1363 0.0686 0.0328 0.0147 0.0062 0.0033 0.0003 0.0001 0.0001 
0.009113942 0.009077544 0.009078222 0.009 0.00455 0.0001 0.0001007813 0.0001016692 0.0001060745 0.0001227728 0.0001384835 0.0001 0.0001039062 0.0001074696 0.0001225459 0.00017512 0.0002577288 0.0002 0.000209375 0.0001562788 0.0001 0.0001 0.0001 0.0001 0.0001 0.0001 0.0001 0.0001180556 0.0001333333 0.0001 0.0004 0.0014 0.0042 0.0152 0.0453 0.08351666 0.0913 0.1807 0.3223 0.5637 0.8993 1.3222 1.8242 2.185633 2.382 2.7707 3.016 3.1927 3.2706 2.8161 3.2386 3.70455 3.6809 3.6794 3.7263 3.8198 3.9423 4.0751 4.2065 4.3848 4.3294 4.4411 4.5857 5.4798 5.365 5.2039 4.8978 5.002225 4.6005 4.3125 4.0501 3.8518 3.7546 3.7952 4.4042 8.9815 7.01895 6.2822 5.9868 7.5528 9.1198 16.4351 6.7779 7.0282 7.114683 7.4042 7.9827 10.2164 8.8897 6.935 5.4457 4.746 4.659883 4.5888 4.556 4.5514 4.5584 4.4847 3.75825 2.9207 2.989917 2.9233 3.1388 3.9636 5.2337 5.8324 6.1168 6.1489 5.92845 5.7215 4.8603 4.4326 4.5744 7.5974 4.9929 2.0407 2.8328 2.563983 2.2369 1.8308 2.934 3.1215 3.0988 3.5576 0.9638 1.082267 1.1355 1.3579 1.6373 1.9459 2.2768 2.6537 3.037 3.230483 3.4041 3.756 4.0687 4.4568 4.911 5.3971 5.8865 6.144383 6.3783 6.8741 7.3821 7.9145 8.9561 8.9627 9.5636 10.2499 10.85352 11.0075 11.8432 12.7391 13.6468 14.5106 15.3096 16.0111 16.78143 16.5758 16.7321 16.1927 14.7769 13.6306 11.1922 8.2152 6.748867 5.6234 3.5673 2.2344 1.4289 0.8143 0.4361 0.2212 0.1563333 0.1085 0.0519 0.024 0.0106 0.0061 0.0006 0.0003 0.00025 0.0001 
0.009113942 0.009077544 0.009078222 0.009 0.00455 0.0001 0.0001007813 0.0001016692 0.0001060745 0.0001227728 0.0001384835 0.0001 0.0001039062 0.0001074696 0.0001225459 0.00017512 0.0002577288 0.0002 0.000209375 0.0001562788 0.0001 0.0001 0.0001 0.0001 0.0001 0.0001 0.0001 0.0001180556 0.0001333333 0.0001 0.0004 0.0014 0.0042 0.0152 0.0453 0.08351666 0.0913 0.1807 0.3223 0.5637 0.8993 1.3222 1.8242 2.185633 2.382 2.7707 3.016 3.1927 3.2706 2.8161 3.2386 3.70455 3.6809 3.6794 3.7263 3.8198 3.9423 4.0751 4.2065 4.3848 4.3294 4.4411 4.5857 5.4798 5.365 5.2039 4.8978 5.002225 4.6005 4.3125 4.0501 3.8518 3.7546 3.7952 4.4042 8.9815 7.01895 6.2822 5.9868 7.5528 9.1198 16.4351 6.7779 7.0282 7.114683 7.4042 7.9827 10.2164 8.8897 6.935 5.4457 4.746 4.659883 4.5888 4.556 4.5514 4.5584 4.4847 3.75825 2.9207 2.989917 2.9233 3.1388 3.9636 5.2337 5.8324 6.1168 6.1489 5.92845 5.7215 4.8603 4.4326 4.5744 7.5974 4.9929 2.0407 2.8328 2.563983 2.2369 1.8308 2.934 3.1215 3.0988 3.5576 0.9638 1.082267 1.1355 1.3579 1.6373 1.9459 2.2768 2.6537 3.037 3.230483 3.4041 3.756 4.0687 4.4568 4.911 5.3971 5.8865 6.144383 6.3783 6.8741 7.3821 7.9145 8.9561 8.9627 9.5636 10.2499 10.85352 11.0075 11.8432 12.7391 13.6468 14.5106 15.3096 16.0111 16.78143 16.5758 16.7321 16.1927 14.7769 13.6306 11.1922 8.2152 6.748867 5.6234 3.5673 2.2344 1.4289 0.8143 0.4361 0.2212 0.1563333 0.1085 0.0519 0.024 0.0106 0.0061 0.0006 0.0003 0.00025 0.0001 
0.009038885 0.009039111 0.009 0.00455 0.0001 0.0001003906 0.0001008168 0.0001028416 0.0001101722 0.0001168327 0.0001 0.0001019531 0.0001037919 0.0001113072 0.0001350451 0.0001888487 0.0002 0.0002046875 0.0001531308 0.0001 0.0001 0.0001 0.0001 0.0001 0.0001 0.0001 0.0001 0.0001 0.000175 0.0002 0.0006 0.002 0.0064 0.0315 0.04973333 0.077 0.1779 0.3517 0.6252 1.0023 1.4605 1.9746 2.5204 2.731433 3.0791 3.649 4.2291 4.7668 4.6917 5.6319 5.9948 6.070384 5.9129 6.1724 6.4229 6.6477 6.8216 6.9193 6.9244 7.31275 6.8278 6.6139 6.2906 5.8604 5.5017 5.92385 5.7442 5.4035 5.6987 5.6456 5.5903 5.5729 5.713 5.976 6.3021 6.2572 6.7163 6.6045 6.9065 10.2505 12.7163 9.267 8.4132 8.8494 8.7328 8.9571 8.9607 8.8013 7.5569 6.4118 5.6432 5.1681 5.044367 4.8201 4.5681 4.2592 4.0011 3.7171 3.3739 3.1582 3.196833 3.1589 3.3309 4.0373 5.0199 5.8078 6.0339 6.1151 6.3922 6.3126 6.1179 6.896 8.445 4.6029 6.6969 3.2138 3.316417 3.2805 2.6404 3.0076 4.5701 5.2671 4.7972 4.0616 0.3281 0.9954 0.7368 1.0493 1.4228 1.8363 2.35575 2.8237 3.1781 3.447133 3.5286 3.8591 4.144 4.5302 4.9787 5.4506 5.9118 6.211333 6.3604 6.8022 7.2514 8.131 8.226 8.7234 9.328 9.86755 10.0122 10.8063 11.7513 12.9053 14.3253 15.9162 17.5471 19.0645 19.54313 20.2805 20.6604 19.8352 17.6827 14.2792 10.1904 6.8143 5.545967 4.3049 2.6089 1.6263 1.0477 0.5794 0.2932 0.1431 0.1089 0.069 0.0329 0.0219 0.002 0.0017 0.0006 0.0003 0.0002666667 0.0002166667 
0.009019556 0.009 0.00455 0.0001 0.0001001953 0.0001004025 0.0001013497 0.0001046102 0.0001074616 0.0001 0.0001009766 0.000101915 0.0001056841 0.0001167148 0.0001588003 0.0002 0.0002023438 0.0001515637 0.0001 0.0001 0.0001 0.0001 0.0001 0.0001 0.0001 0.0001 0.0001 0.0001 0.0001 0.0003 0.0012 0.004 0.01285 0.0377 0.04381667 0.0917 0.2012 0.3978 0.7086 1.1347 1.6307 2.2299 2.097117 2.911 3.6719 4.5029 5.3666 5.9521 7.2953 7.9528 6.73725 8.4424 9.1527 9.405 9.6307 9.8796 10.1508 10.4251 10.6819 7.85955 10.9065 11.016 9.9346 9.3722 7.9502 6.1143 5.9027 5.641016 5.5771 5.5263 5.4937 5.4888 5.5606 5.6233 5.5948 5.779483 5.5443 5.5922 5.7501 14.0591 7.8578 16.9634 10.0151 10.12862 10.178 9.9799 9.5287 8.7842 7.8085 6.9445 6.2697 5.7142 5.5933 5.229 4.8499 4.3667 3.9921 3.8233 3.7043 3.5329 3.492583 3.487 3.5993 3.9581 4.6982 5.4666 5.8199 6.4126 7.377517 7.6425 8.9714 12.5911 4.7255 5.6464 5.1378 4.5418 4.104567 3.9889 3.4979 3.6683 5.8449 6.7687 6.278 5.086 3.745083 2.2622 0.546 1.0581 1.5617 2.0332 3.0343 3.3307 3.628 3.616 3.919 4.1885 4.4315 4.8082 5.2568 5.7208 6.159 6.4144 6.572 6.9725 7.8054 7.9199 8.3354 8.8715 9.5785 10.21352 10.4731 11.5184 12.7478 14.246 16.0392 18.1292 19.6168 21.9161 21.8672 23.4597 23.5544 21.8065 18.26045 12.8654 8.4721 7.304167 5.2218 3.0962 1.8242 1.1096 0.6213 0.3137 0.1524 0.1276667 0.0746 0.037 0.0265 0.004 0.0016 0.0008 0.0003 0.0002 0.00025 0.0002388889 
0.009 0.00455 0.0001 0.0001000977 0.0001001993 0.0001006492 0.0001021208 0.0001033554 0.0001 0.0001004883 0.0001009639 0.0001028586 0.0001081046 0.0001452998 0.0002 0.0002011719 0.0001507815 0.0001 0.0001 0.0001 0.0001 0.0001 0.0001 0.0001 0.0001 0.0001 0.0001 0.0001 0.0001 0.0004 0.0015 0.0047 0.0019 0.0063 0.02666667 0.0187 0.0499 0.1194 0.2545 0.4826 0.8378 1.2442 1.628617 1.7026 2.2342 2.8546 3.514 4.5681 5.3566 5.9819 5.948333 6.4197 6.6234 6.6308 6.5597 6.4603 6.3382 6.1886 6.75085 6.0099 5.8068 5.6585 6.5209 6.0695 5.7126 5.3368 5.573817 5.3926 5.5308 5.5052 5.5339 5.6032 5.6415 5.608 5.4155 5.397117 5.1039 4.7745 4.3397 3.8284 25.8258 24.2652 11.7813 11.63678 11.5347 11.1655 10.5212 9.6746 8.7663 7.9238 7.1962 6.9179 6.5751 6.0533 5.4261 4.8484 4.3743 4.4256 4.0897 3.99295 3.8717 3.7468 3.8887 4.0607 4.7003 5.4224 6.1756 7.5652 9.49845 10.2171 14.5962 6.3369 5.9322 6.2068 5.3024 5.1103 4.831634 4.4921 4.4385 4.3704 6.537 7.788 7.2507 9.2597 5.425267 1.4729 1.1706 1.7179 2.2291 3.28465 4.1546 4.3257 4.542634 4.4938 4.7031 4.8471 5.0376 5.3641 5.7721 6.1847 6.485167 6.5623 6.9209 7.772 7.8424 8.2245 8.8036 9.5691 10.4412 10.79443 11.4481 12.703 14.3346 16.4271 19.0925 22.0467 25.643 25.19905 27.758 28.378 26.8559 23.1394 20.4442 14.1289 8.4793 5.76025 4.6471 2.4285 1.2846 0.6549 0.3062 0.141 0.0679 0.0637 0.0348 0.0269 0.0049 0.0023 0.001 0.0004 0.0002 0.0002 0.0002 0.000225 
0.00455 0.0001 0.0001000488 0.000100099 0.0001003154 0.0001009897 0.0001015313 0.0001 0.0001002441 0.000100484 0.0001014369 0.0001039757 0.0001390657 0.0002 0.0002005859 0.0001503907 0.0001 0.0001 0.0001 0.0001 0.0001 0.0001 0.0001 0.0001 0.0001 0.0001 0.0001 0.0001 0.00025 0.000525 0.0001 0.0003 0.0004 0.001983333 0.0013 0.0043 0.0129 0.0357 0.0886 0.1974 0.3905 0.6753 0.9813 1.0087 1.3225 1.6402 2.1126 2.5821 3.0418 3.4273 4.107517 3.4659 3.5581 3.5616 3.5436 3.5338 3.5409 3.5722 4.43615 3.6274 3.7122 3.868 4.0533 4.6929 4.4108 5.0773 5.816333 5.6192 5.566 5.5799 5.6825 5.829 6.8768 5.8851 7.02165 5.6125 5.1117 5.5827 2.9581 22.3515 38.1884 22.9205 13.4399 13.0749 12.8717 12.4143 11.6923 10.8218 9.8792 8.9743 8.1889 7.829617 7.5633 7.0133 6.1266 5.4392 5.14995 4.9339 4.5203 4.421367 4.2388 4.1657 4.0987 4.1253 4.8101 5.8072 7.357 9.1929 9.9597 15.1936 7.7457 7.1878 6.9347 6.6952 6.1781 5.6918 5.538133 5.1649 4.9522 5.181 7.1396 8.2909 7.927 11.133 7.210467 3.3378 2.9077 3.254 3.5723 5.6043 5.6957 5.7373 5.80415 5.7523 5.8483 5.8636 6.0103 6.2913 6.63 6.9531 8.610817 7.3311 10.0322 8.0395 8.3887 8.8825 9.4702 10.1545 10.19195 10.9427 11.883 13.0843 14.6987 17.0384 20.1405 21.8952 26.3139 27.2039 29.9954 31.5559 30.3178 23.6573 15.3152 9.5903 5.2158 4.284867 2.5254 1.1549 0.5182 0.2327 0.1074 0.053 0.0285 0.0296 0.024 0.0051 0.0026 0.0012 0.0005 0.0002 0.0001 0.0001333333 0.0001583333 0.0002 
0.0001 0.0001000244 0.0001000493 0.0001001544 0.000100468 0.0001007091 0.0001 0.0001001221 0.0001002427 0.0001007217 0.0001019655 0.0001361196 0.0002 0.000200293 0.0001501953 0.0001 0.0001 0.0001 0.0001 0.0001 0.0001 0.0001 0.0001 0.0001 0.0001 0.0001 0.0001 0.000175 0.00024375 0.0001 0.00015 0.0001 0.0005 0.0009 0.0015 0.0044 0.0119 0.03 0.0691 0.146 0.2815 0.4076333 0.492 0.765 1.0256 1.3136 1.591 1.8936 2.1927 2.464 2.868483 2.8863 3.0402 3.1385 3.2272 3.3193 3.4207 3.5401 3.794217 3.6787 3.8276 3.5986 3.8451 5.1013 6.4531 6.6944 7.063117 6.7777 6.781 6.9299 7.3002 7.8728 9.3325 10.0836 9.284467 9.5252 9.8969 9.8934 18.7665 29.3576 32.7235 16.5629 16.63577 14.6957 14.1261 13.5456 12.8504 11.9542 10.9086 9.9077 9.0529 8.705617 8.4013 7.8985 6.8053 6.0621 5.9895 5.4516 5.0025 4.90655 4.8052 4.5014 4.2756 4.0317 5.2986 6.9276 9.6251 10.48047 14.4748 8.2248 8.1716 7.7871 7.65 7.8375 7.3608 7.115217 6.5791 6.1906 5.7377 5.9134 8.1549 8.7491 8.7488 11.8846 8.692533 6.1748 5.6103 5.3139 6.5236 7.457 7.3864 7.3236 7.267533 7.1922 7.1811 7.1159 7.2783 7.5304 7.8016 8.2302 11.66972 16.4035 8.04 8.3902 8.7625 9.0688 9.3613 9.7314 10.4172 10.3128 11.0627 12.0585 13.4646 15.4057 18.05 23.1177 23.15782 25.8713 27.6418 27.6619 25.3947 15.7685 10.8752 6.4594 5.21445 3.3776 1.464 0.5834 0.2164 0.0854 0.0399 0.022 0.0131 0.01425 0.0093 0.0042 0.0018 0.0008 0.0003 0.0001 0.0001 0.0001 0.0001111111 0.0001423611 
0.0001000122 0.0001000246 0.000100076 0.0001002239 0.0001003329 0.0001 0.000100061 0.0001001216 0.0001003622 0.0001009767 0.0001347017 0.0002 0.0002001465 0.0001500977 0.0001 0.0001 0.0001 0.0001 0.0001 0.0001 0.0001 0.0001 0.0001 0.0001 0.0001 0.0001 0.0001375 0.0001546875 0.0001 0.0001125 0.0001 0.0001 0.0004 0.0009333334 0.0013 0.0037 0.01 0.0247 0.0558 0.1158 0.2209 0.3240167 0.3856 0.5964 0.9002 1.1628 1.4167 1.7049 2.0173 2.236917 2.3381 2.6293 2.8788 3.1073 3.3406 3.5764 3.817 4.0562 4.442917 4.2907 4.5797 5.3527 5.7292 7.8549 8.4602 8.9609 9.240483 9.2492 9.2657 9.4053 9.8907 10.6164 11.5052 12.0008 12.32663 12.5996 11.3495 18.3023 28.3016 31.2947 23.4923 16.4066 16.20103 15.789 15.1667 14.5391 13.8283 12.855 11.7485 10.7092 10.17683 9.7877 9.2396 8.4478 7.4251 6.9119 6.4637 5.966 5.80475 5.6464 5.2261 4.8338 4.0618 4.7482 6.2954 8.9302 13.9156 9.995334 7.5506 8.1171 8.487 8.3866 8.6011 9.0505 8.7924 8.4916 8.0891 7.6348 7.2806 7.4844 9.0222 9.8586 11.3778 11.1311 10.6508 8.9742 8.2951 7.6696 9.4602 9.2095 9.0297 9.086817 8.8835 8.7163 8.4469 8.3959 8.5931 8.8354 9.3391 22.5068 12.51782 8.5936 8.8567 9.1603 9.4937 9.8335 10.2081 10.5441 10.76118 10.8177 11.3394 12.1407 13.2916 14.91 16.9726 19.662 21.00625 22.0868 23.3418 22.7471 17.18945 10.7984 7.2371 4.3427 3.667133 2.3009 1.0605 0.393 0.1345 0.047 0.0196 0.0105 0.01035 0.0064 0.0042 0.0022 0.001 0.0004 0.0002 0.0001 0.0001 0.0001 0.0001 0.0001037037 
0.0001000184 0.0001000376 0.0001001082 0.0001001582 0.0001 0.0001000305 0.0001000609 0.0001001816 0.0001004868 0.0001340101 0.0002 0.0002000732 0.0001500488 0.0001 0.0001 0.0001 0.0001 0.0001 0.0001 0.0001 0.0001 0.0001 0.0001 0.0001 0.0001 0.00011875 0.0001230469 0.0001 0.000103125 0.0001 0.0001 0.0001 0.0002333333 0.0005 0.0014 0.004 0.0104 0.0251 0.0555 0.1129 0.2107 0.2723333 0.3534 0.5853 0.8467 1.1177 1.3885 1.6956 2.0297 2.204967 2.3797 2.727 3.0747 3.4394 3.8417 4.2848 4.7719 4.964833 5.2865 5.8053 6.0643 6.6346 7.8775 9.4882 10.5061 11.54905 11.5208 12.2399 14.3251 12.7833 13.2532 13.9219 14.7212 15.0996 15.36983 14.651 17.874 21.85 32.9119 33.2071 19.4345 17.1787 16.8625 16.5733 16.0478 15.3417 14.5642 13.5259 12.3613 11.2879 10.76817 10.3156 9.8953 8.812 7.9037 7.6251 7.0606 6.63 6.3549 6.132 5.6414 5.2756 4.4342 5.8454 8.1859 12.5636 9.2845 7.1754 7.2305 7.9705 8.6462 8.9781 10.0566 10.3545 10.3191 10.04042 9.8091 9.3234 9.0213 8.9752 10.1425 11.0388 12.4827 11.86127 11.6419 10.7119 10.1599 10.6172 11.0517 10.721 10.4529 10.506 11.4448 9.8606 9.5346 9.5726 9.8508 10.3183 26.2599 15.0677 9.598 9.7748 9.9661 10.2122 10.439 10.7224 11.0491 11.3984 11.54482 11.7627 12.176 12.8014 13.7096 14.9096 15.7869 17.1614 18.30202 18.1383 18.2239 16.9592 11.32 8.4771 5.7803 3.5593 3.130417 1.9629 0.9712 0.4107 0.1517 0.0517 0.0176 0.0068 0.0063 0.0033 0.0019 0.0011 0.0005 0.0002 0.0001 0.0001333333 0.0001 0.0001 0.0001 0.0001 
0.000100028 0.0001000547 0.000100076 0.0001 0.0001000153 0.0001000305 0.000100091 0.0001002431 0.0001336696 0.0002 0.0002000366 0.0001500244 0.0001 0.0001 0.0001 0.0001 0.0001 0.0001 0.0001 0.0001 0.0001 0.0001 0.0001 0.0001 0.000109375 0.0001104492 0.0001 0.0001007813 0.0001 0.0001 0.0001 0.0001 0.0002 0.0002 0.0008 0.0024 0.0066 0.0169 0.0387 0.0831 0.134 0.1608 0.3026 0.5008 0.7601 1.0539 1.3488 1.674 2.0382 2.134967 2.4268 2.8462 3.3095 3.8387 4.4428 4.9687 5.5103 5.711033 6.3471 7.2498 7.5835 7.9564 11.3601 12.489 14.0356 14.54232 15.8107 17.4046 18.5668 17.8524 17.1898 17.5841 18.0996 18.00845 18.2641 19.6039 22.7368 27.0252 30.8896 29.1456 24.5115 17.8783 17.52168 17.3491 16.8607 16.0107 15.1636 14.0401 12.8091 11.5947 11.27485 10.9139 10.1445 9.1265 8.54015 8.3186 7.785 7.166 6.889367 6.589 6.1444 5.8773 5.2323 7.4457 11.225 6.4479 7.4204 6.6743 6.9002 7.7095 8.8865 9.8686 11.4795 11.8397 11.7748 11.7536 11.4792 11.0758 10.2058 10.3599 10.9149 11.8379 12.336 12.49712 12.6784 12.3348 11.8753 12.569 12.1886 11.8382 11.582 11.62405 11.6431 11.4518 10.9646 11.3679 12.0456 28.9621 11.3363 13.99623 11.3661 11.395 11.4671 11.5524 11.5982 11.7427 11.9435 12.05022 12.2098 12.5362 12.8386 13.1729 13.6679 14.388 15.7465 16.16692 16.3441 16.4195 15.6107 13.58585 11.1115 8.646 6.2375 4.946767 4.1376 2.4791 1.3095 0.5983 0.238 0.0836 0.0268 0.0082 0.006566667 0.0026 0.001 0.0005 0.0002 0.0001 0.0001333333 0.0001 0.0001111111 0.0001 0.0001 0.0001 
0.0001000414 0.0001000397 0.0001 0.0001000076 0.0001000152 0.0001000456 0.0001001215 0.0001335009 0.0002 0.0002000183 0.0001500122 0.0001 0.0001 0.0001 0.0001 0.0001 0.0001 0.0001 0.0001 0.0001 0.0001 0.0001 0.0001 0.0001046875 0.0001049561 0.0001 0.0001001953 0.0001 0.0001 0.0001 0.0001 0.0001 0.00015 0.0002 0.0007 0.0021 0.0058 0.015 0.0362 0.0781 0.11915 0.1584 0.2856 0.4704 0.7093 0.9771 1.2355 1.4998 1.716083 1.8023 2.1331 2.5161 2.9499 3.4631 4.0683 4.8748 5.7621 6.380917 6.5883 7.4897 9.2496 10.87195 13.2987 15.0797 16.8352 17.1073 18.5455 19.8991 20.601 20.1146 20.2 20.2528 20.4412 20.34725 21.425 22.3973 23.2501 23.4902 25.7876 26.3617 35.5199 24.54922 17.9946 18.1561 17.5392 16.6957 15.7095 14.5089 13.2373 11.9754 11.77303 11.5616 10.4029 9.4707 9.5724 9.045 8.4001 7.6429 7.4066 7.1763 6.9422 5.7577 7.0366 10.0311 5.8983 5.7523 5.926967 5.9089 6.5704 7.5839 9.1143 10.601 12.6586 12.9672 13.44762 13.4147 13.0975 12.1766 10.9424 10.8829 10.9083 12.0001 12.14623 12.654 13.1897 13.1342 13.079 13.1233 12.8431 12.5582 12.34023 12.3528 12.2687 12.2133 11.9953 29.3241 8.3851 12.8349 12.7272 12.36203 12.6899 12.6697 12.6495 12.6182 12.5616 12.6241 12.7487 12.69483 12.9518 13.2397 13.603 14.056 14.6235 15.2554 15.8276 15.88185 16.135 15.9191 14.987 12.4412 10.3257 8.0598 5.9101 4.834267 4.0558 2.577 1.4869 0.7576 0.3376 0.1322 0.046 0.03213333 0.0144 0.0041 0.0011 0.0003 0.0001 0.000125 0.0001 0.0001111111 0.0001 0.0001037037 0.0001 0.0001 
0.000100027 0.0001 0.0001000038 0.0001000076 0.0001000228 0.0001000608 0.000133417 0.0002 0.0002000091 0.0001500061 0.0001 0.0001 0.0001 0.0001 0.0001 0.0001 0.0001 0.0001 0.0001 0.0001 0.0001 0.0001 0.0001023438 0.0001024109 0.0001 0.0001000488 0.0001 0.0001 0.0001 0.0001 0.0001 0.0001 0.00014 0.0002 0.0006 0.002 0.0056 0.0148 0.0355 0.0782 0.1091667 0.1563 0.2845 0.472 0.7123 0.9784 1.2365 1.5003 1.63855 1.7819 2.1179 2.5219 3.0115 3.5966 4.2997 5.2099 5.531167 6.3983 7.6794 8.1951 9.5745 12.3209 14.0758 15.8892 16.35533 17.7488 19.668 21.5076 22.1001 21.7421 21.7871 21.7678 21.7529 21.74095 22.1007 22.3133 22.5863 21.3368 26.5844 48.733 32.8615 26.37838 18.5295 18.773 18.1773 17.4895 16.3559 15.0721 13.741 13.09637 12.3887 12.2039 10.7852 10.37495 10.3541 9.6811 8.9922 8.546866 8.092 7.7734 7.8813 6.5452 9.1928 5.4442 5.2776 5.4012 5.40165 5.3772 5.9706 7.8122 10.1699 9.7451 12.1577 14.5841 16.09667 16.1264 14.3171 12.4528 11.0188 10.2392 10.755 11.7637 11.8566 12.2857 13.1021 13.3205 13.1979 13.2681 13.1035 12.9053 12.78298 12.8049 12.8423 12.7267 27.9532 13.0221 12.0038 12.5053 12.88692 12.8977 13.155 13.2311 13.2262 13.0805 13.0008 13.0033 13.0789 12.90763 13.2363 13.4802 13.8068 14.2201 14.7168 15.2215 15.5849 15.1662 15.653 15.2068 13.03165 10.3595 8.561 6.7378 5.0547 4.079233 3.6099 2.4357 1.5272 0.8594 0.4268 0.1869 0.0724 0.04143333 0.025 0.0077 0.0021 0.0005 0.0001 0.0001 0.00010625 0.0001 0.0001037037 0.0001 0.0001012346 0.0001 
0.0001 0.0001000019 0.0001000038 0.0001000114 0.0001000304 0.0001333752 0.0002 0.0002000046 0.000150003 0.0001 0.0001 0.0001 0.0001 0.0001 0.0001 0.0001 0.0001 0.0001 0.0001 0.0001 0.0001 0.0001011719 0.0001011887 0.0001 0.0001000122 0.0001 0.0001 0.0001 0.0001 0.0001 0.0001 0.0001 0.0001333333 0.0001 0.0003 0.0011 0.0035 0.0097 0.0249 0.0586 0.0821 0.1254 0.243 0.4248 0.6688 0.9491 1.2184 1.4851 1.5644 1.7619 2.0915 2.4988 2.9889 3.5653 4.242 5.0263 5.642334 5.9156 6.9531 9.0213 10.4822 11.9501 13.6173 15.3804 16.07058 17.1987 19.062 20.8953 23.4647 21.4032 21.2913 21.7583 22.11482 22.2357 22.4902 22.7927 23.6652 23.7836 33.3292 52.8477 34.6138 27.70003 18.751 19.686 19.1126 18.4279 17.1071 15.6127 13.9865 13.68787 13.2493 12.6827 11.351 11.7306 11.0053 10.1959 9.4942 9.06215 8.6598 8.8362 7.2645 9.2695 5.0843 4.6826 5.0194 5.0841 5.6143 4.356 6.0767 9.0655 13.9963 5.3671 10.1122 18.2663 19.83562 21.2213 15.1328 9.7505 8.8512 9.4477 9.976 10.7269 10.91622 11.7092 12.5225 12.52405 12.6187 12.9638 13.0322 12.9888 12.91718 13.0879 13.0377 27.6336 13.0694 13.0566 12.951 13.0898 12.99705 13.2666 13.4041 13.3649 13.2316 12.965 12.8021 12.7051 12.39697 12.6844 12.7457 12.8841 13.0914 13.3623 13.6837 13.9392 14.0131 13.3235 13.7836 13.1059 8.3229 7.0821 5.7704 4.5095 3.3924 2.988783 2.4525 1.713 1.1323 0.6739 0.3538 0.1636 0.0667 0.03875 0.0241 0.0077 0.0022 0.0006 0.0001 0.0001 0.0001 0.0001015625 0.0001 0.0001012346 0.0001 0.0001004115 
0.000100001 0.0001000019 0.0001000057 0.0001000152 0.0001333542 0.0002 0.0002000023 0.0001500015 0.0001 0.0001 0.0001 0.0001 0.0001 0.0001 0.0001 0.0001 0.0001 0.0001 0.0001 0.0001 0.0001005859 0.0001005901 0.0001 0.0001000031 0.0001 0.0001 0.0001 0.0001 0.0001 0.0001 0.0001 0.0001083333 0.0001 0.0001666667 0.0001 0.0002 0.0008 0.0026 0.0078 0.02101667 0.0213 0.0528 0.1188 0.241 0.4379 0.7108 1.0254 1.2832 1.465967 1.574 1.922 2.3556 2.8856 3.5166 4.2629 5.1356 5.562583 6.1683 7.4215 8.8346 9.6298 11.1652 12.7111 14.2799 14.78407 15.9265 17.6836 19.6615 21.0602 20.7511 21.3303 22.1608 22.20987 23.0134 23.5713 24.4064 25.9431 28.8989 35.9125 52.1795 45.76035 40.6733 20.7711 20.7161 20.8539 19.8868 17.9179 16.2928 14.46 14.5769 14.3017 13.3082 12.85185 12.5957 11.6427 10.6446 9.911 9.81425 9.2237 9.5817 8.2219 5.1134 3.4665 3.4252 4.2496 4.54555 4.9425 4.779 6.7692 9.9289 14.354 4.8202 9.0269 16.03625 23.2038 25.6118 13.2238 7.1849 5.8387 7.1214 8.0955 8.9242 9.012584 10.0876 11.2306 10.0535 11.297 12.1249 12.5608 12.3718 12.8037 12.9125 26.911 13.0156 12.8264 12.8579 12.9956 13.0914 12.92787 13.1315 13.0723 12.8291 12.4977 12.0906 11.7935 11.5474 11.08772 11.3627 11.2429 11.1799 11.1506 11.1476 11.1457 11.0258 10.51177 10.7251 10.1813 7.39985 4.7278 3.977 3.231 2.5457 2.487983 1.9562 1.467 1.0642 0.6891 0.3901 0.1941 0.0851 0.033 0.0247 0.0113 0.0035 0.0009 0.0002 0.0001 0.0001 0.0001 0.0001 0.0001003906 0.0001 0.0001004115 0.0001 
0.0001000014 0.0001000029 0.0001000076 0.0001333438 0.0002 0.0002000011 0.0001500008 0.0001 0.0001 0.0001 0.0001 0.0001 0.0001 0.0001 0.0001 0.0001 0.0001 0.0001 0.0001 0.000100293 0.000100294 0.0001 0.0001000008 0.0001 0.0001 0.0001 0.0001 0.0001 0.0001 0.0001 0.0001020833 0.0001 0.0001222222 0.0001 0.0001333333 0.0001 0.0003 0.001 0.0034 0.0073 0.0101 0.0276 0.0686 0.1539 0.3089 0.5473 0.8496 0.8118 1.191 1.5006 1.8015 2.1438 2.5793 3.1911 3.9682 4.9618 4.863733 6.1679 6.8255 7.2675 7.7263 9.182 10.6746 12.1793 12.8575 13.7396 15.2736 16.7959 27.3051 22.7172 20.8598 21.5327 22.28215 22.5583 23.7297 25.6551 28.0836 30.8102 37.6841 49.884 46.17788 44.3638 24.1796 21.5255 22.6616 21.719 19.0453 17.58 16.43058 15.7495 15.7144 14.4373 14.7584 13.7488 12.5699 11.4943 11.3798 10.9876 10.6092 13.0555 4.7733 3.9645 2.5403 2.874 3.4626 3.821567 3.9849 4.0539 7.3994 10.7528 8.4008 6.4411 8.3898 17.333 27.2185 24.7276 11.801 8.2009 2.9528 3.5517 4.6254 5.223417 5.6825 6.9451 6.6865 6.6177 8.5296 10.1001 11.1804 12.81887 11.6649 22.0572 13.2262 12.9466 12.7088 12.6499 12.6556 12.26882 12.5876 12.4003 12.0824 11.5676 10.9531 10.374 9.8442 9.3439 8.96215 8.8828 8.4715 8.1082 7.7768 7.4733 7.1906 6.8728 7.043083 6.4946 6.0154 2.7983 2.4415 2.0767 1.7264 1.4071 1.362517 1.117 0.8139 0.5255 0.3014 0.1534 0.0693 0.0278 0.02731667 0.0099 0.0032 0.0009 0.0002 0.0001 0.0001333333 0.0001 0.0001 0.0001 0.0001 0.0001000977 0.0001 0.0001001372 
0.0001000021 0.000100004 0.0001333386 0.0002 0.0002000006 0.0001500004 0.0001 0.0001 0.0001 0.0001 0.0001 0.0001 0.0001 0.0001 0.0001 0.0001 0.0001 0.0001 0.0001001465 0.0001001467 0.0001 0.0001000002 0.0001 0.0001 0.0001 0.0001 0.0001 0.0001 0.0001 0.0001005208 0.0001 0.0001074074 0.0001 0.0001111111 0.0001 0.0002 0.000375 0.0001 0.0003 0.00296 0.0009 0.0028 0.0078 0.0197 0.0456 0.0964 0.1871 0.44 0.3345 0.5559 0.88 1.2274 1.5759 2.0258 2.5994 2.94285 3.1423 3.6065 5.1743 4.1599 5.2529 6.5409 7.9971 9.174533 9.6076 11.4121 13.3275 15.1881 31.0097 24.3854 20.8751 21.7141 21.68865 22.7136 23.9795 25.4408 27.2558 29.6976 35.7884 47.342 44.6312 42.6247 25.5699 21.3849 22.8021 25.8421 19.5421 17.7231 17.37375 16.7781 16.9326 16.455 16.1873 15.2576 13.9761 12.8866 11.96473 12.3547 11.8333 5.2347 3.5522 2.8952 2.4873 2.702 2.886467 3.0389 3.2509 2.891 4.3193 7.1061 7.0797 5.4638 10.5779 17.2061 25.5811 22.2028 10.1603 7.2192 2.6776 3.6408 1.5192 2.65 2.4937 3.5166 2.3892 4.5614 4.9103 6.7558 8.0933 12.15923 20.6101 9.4568 10.3379 10.8199 11.0722 11.1943 11.2175 10.65725 11.0652 10.7061 10.1814 9.4827 8.7277 7.9883 7.2814 6.955534 6.6189 6.0172 5.4904 5.0379 4.6447 4.2994 3.9874 3.7092 4.026283 3.431 2.3666 1.4494 1.284 1.1041 0.8939 0.676 0.6683834 0.4731 0.2993 0.1705 0.0873 0.0401 0.0165 0.0061 0.00785 0.002 0.0006 0.0002 0.00035 0.00015 0.0001 0.0001111111 0.0001 0.0001 0.0001 0.0001 0.0001000244 0.0001 
0.0001000031 0.0001333362 0.0002 0.0002000003 0.0001500002 0.0001 0.0001 0.0001 0.0001 0.0001 0.0001 0.0001 0.0001 0.0001 0.0001 0.0001 0.0001 0.0001000732 0.0001000733 0.0001 0.0001 0.0001 0.0001 0.0001 0.0001 0.0001 0.0001 0.0001 0.0001001302 0.0001 0.0001024691 0.0001 0.0001037037 0.0001 0.00015 0.00019375 0.0001 0.0002 0.0002 0.0004333333 0.0001 0.0002 0.0007 0.002 0.0052 0.0122 0.0259 0.10085 0.0519 0.0983 0.2041 0.3895 0.6792 0.9704 1.2616 1.719883 1.7238 2.4561 2.6935 2.8513 3.7689 4.931 6.3925 7.216467 8.1961 10.4696 13.0597 16.2341 27.2125 18.9904 19.2489 19.33708 20.3228 21.2904 22.6923 24.065 25.2914 28.5065 31.5245 43.2876 42.07013 40.2851 25.6471 20.3837 21.9549 30.2907 21.1624 18.0509 18.04798 18.3609 18.0188 17.6028 16.8794 15.8998 13.7877 11.9972 11.32593 12.068 7.7488 3.2175 2.2248 2.3072 2.2641 2.5408 2.577017 2.7005 2.5736 2.1975 2.5997 3.8516 3.9596 3.174 6.4671 10.5021 20.9672 19.4428 7.9368 5.9638 2.1921 3.5118 0.5183 1.024717 1.0609 1.10165 1.1351 4.9648 2.0093 6.0646 16.1202 9.8157 5.2865 6.0616 6.7889 7.3837 7.8102 8.2565 8.5001 8.229533 7.9175 7.6165 7.1388 6.5069 5.8546 5.2036 4.5961 4.527966 4.0487 3.5718 3.1695 2.8333 2.5415 2.2874 2.0695 2.311767 1.8999 1.7502 0.7984 0.6757 0.5488 0.4206 0.3039 0.36725 0.207 0.1301 0.0743 0.0385 0.018 0.0076 0.0029 0.001 0.0019 0.0003 0.0001 0.0003 0.0002 0.0002 0.000125 0.0001 0.0001037037 0.0001 0.0001 0.0001 0.0001 0.0001000061 
0.0001444464 0.0002 0.0002000001 0.0001500001 0.0001 0.0001 0.0001 0.0001 0.0001 0.0001 0.0001 0.0001 0.0001 0.0001 0.0001 0.0001 0.0001000366 0.0001000366 0.0001 0.0001 0.0001 0.0001 0.0001 0.0001 0.0001 0.0001 0.0001 0.0001000326 0.0001 0.000100823 0.0001 0.0001012346 0.0001 0.000125 0.0001359375 0.0001 0.00015 0.0001666667 0.0002333333 0.0001 0.00015 0.0003333333 0.00075 0.0001 0.0003 0.0006 0.01015 0.0019 0.0038 0.0073 0.0211 0.0562 0.1363 0.2984 0.5832 0.90725 1.009 1.5513 1.5205 2.0578 2.7341 3.5954 4.744 5.279683 6.3615 8.4984 11.3128 14.237 16.5905 15.0215 16.1503 16.60823 17.7113 18.8669 20.2976 21.5671 22.1593 24.6128 26.7861 33.14357 39.542 39.3394 27.058 20.576 22.6754 29.0818 21.4443 18.3209 18.6358 19.054 18.62505 17.8906 17.0008 15.0678 12.2587 10.3231 9.365183 8.326 5.2988 1.6422 1.5525 1.7679 1.8986 2.1876 2.21755 2.2923 2.0699 1.7491 1.774 2.1198 2.0522 1.7923 4.589533 7.2925 15.3955 14.6792 5.6837 2.8408 1.4301 2.1844 1.33345 0.2973 0.2589 0.1832 0.4218 1.5791 1.9316 7.7687 7.151067 5.2104 3.5737 3.9773 4.3687 4.6834 5.3158 6.31 5.9755 5.552567 4.7014 4.0494 3.8145 3.4733 3.119 2.7678 2.4505 2.610783 2.1722 1.9341 1.7348 1.566 1.4108 1.266 1.1568 1.186317 1.0478 0.6275 0.2667 0.2082 0.1559 0.1111 0.0751 0.1106333 0.0476 0.0278 0.0148 0.0072 0.0032 0.0013 0.0005 0.00092 0.0001 0.0001666667 0.0002 0.0001 0.0002 0.0002 0.00015625 0.0001125 0.0001 0.0001012346 0.0001 0.0001 0.0001 0.0001 
0.0002 0.0002000001 0.0001500001 0.0001 0.0001 0.0001 0.0001 0.0001 0.0001 0.0001 0.0001 0.0001 0.0001 0.0001 0.0001 0.0001000183 0.0001000183 0.0001 0.0001 0.0001 0.0001 0.0001 0.0001 0.0001 0.0001 0.0001 0.0001000081 0.0001 0.0001002744 0.0001 0.0001004115 0.0001 0.0001125 0.0001152344 0.0001 0.000125 0.0001388889 0.0001625 0.0001 0.000125 0.0001944444 0.0003333333 0.0001 0.0002 0.0003333333 0.00045 0.00125 0.001966667 0.0002 0.0008 0.0035 0.013 0.0423 0.1192 0.2345167 0.2793 0.5866 0.76255 0.7738 1.1429 1.5211 1.9532 2.492633 2.5451 3.4389 4.7929 6.671 8.6729 10.1589 10.5807 12.1137 12.7096 14.1024 15.708 17.3251 18.8502 19.9465 20.6057 22.484 30.81223 35.2372 38.5622 32.6328 24.1707 24.6766 26.3481 19.2768 19.25802 18.8101 19.218 18.6004 17.6407 16.4678 13.8301 10.3625 9.091634 7.9697 5.5071 2.7427 1.3454 1.2469 1.4386 1.5934 1.670467 1.7749 1.8092 1.6232 1.3933 1.339 1.393 1.3069 1.4099 2.6589 3.3664 6.8637 9.8855 2.7548 1.5037 1.0355 1.3906 0.81835 0.0983 0.05395 0.0515 0.102 0.5411 1.6924 4.2322 4.16265 3.5103 1.0605 1.6971 2.1247 2.4028 3.7776 5.229 4.505617 3.9375 2.2834 1.245 1.2086 1.3584 1.3641 1.308 1.2374 1.341217 1.1598 1.0811 0.9872 0.8773 0.761 0.643 0.5258 0.5668584 0.4181 0.1259 0.0897 0.0618 0.0427 0.0289 0.0188 0.02791667 0.0114 0.0064 0.0033 0.0016 0.0007 0.0003 0.0001 0.0002333333 0.0001 0.0001 0.0001416667 0.00015 0.0001 0.0001666667 0.0002 0.0001421875 0.00010625 0.0001 0.0001004115 0.0001 0.0001 0.0001 
0.0002 0.00015 0.0001 0.0001 0.0001 0.0001 0.0001 0.0001 0.0001 0.0001 0.0001 0.0001 0.0001 0.0001 0.0001000092 0.0001000092 0.0001 0.0001 0.0001 0.0001 0.0001 0.0001 0.0001 0.0001 0.0001 0.000100002 0.0001 0.0001000914 0.0001 0.0001001372 0.0001 0.00010625 0.0001069336 0.0001 0.0001125 0.0001212963 0.0001315972 0.0001 0.0001125 0.0001398148 0.0001881944 0.0001 0.00015 0.0002111111 0.0003277778 0.0006777778 0.0009666667 0.0002 0.0003666667 0.0001 0.0006 0.0026 0.0094 0.0303 0.09036667 0.0967 0.2253 0.1025 0.2086 0.3731 0.5966 0.8888 1.21345 1.2293 1.6412 2.2444 3.1949 4.2847 5.2402 6.0151 7.058033 7.3337 8.8462 10.0575 10.9041 11.1188 10.2792 13.7562 26.5351 28.79003 34.289 37.8267 35.7982 29.0803 28.0723 24.7652 19.5296 18.5502 18.1664 17.9466 16.4482 15.3194 13.7743 12.3104 8.0306 6.825366 5.6052 3.6472 1.4797 1.0459 1.0174 1.1284 1.2349 1.346567 1.3334 1.3548 1.2718 1.1742 1.1475 1.1172 1.0586 0.82265 0.5806 1.5117 2.5956 5.3226 1.0934 0.7946 0.3942 0.9047 0.4603917 0.0348 0.0343 0.0375 0.0388 0.262 1.1614 2.3163 2.440383 1.938 0.294 0.6457 0.9566 1.1564 1.5992 3.6356 2.867267 1.9461 0.8982 0.6917 0.5763 0.5567 0.5571 0.5506 0.6566333 0.5307 0.4967 0.447 0.391 0.3328 0.2722 0.2149 0.1656 0.213625 0.08705 0.0197 0.0246 0.0221 0.0163 0.0157 0.0084 0.00855 0.0062 0.0039 0.0022 0.0011 0.0005 0.0002 0.0002 0.0001 0.0001333333 0.0001 0.0001 0.0001229167 0.000125 0.0001 0.0001555556 0.0002 0.0001371094 0.000103125 0.0001 0.0001001372 0.0001 0.0001 
0.0001375 0.0001 0.0001 0.0001 0.0001 0.0001 0.0001 0.0001 0.0001 0.0001 0.0001 0.0001 0.0001 0.0001000046 0.0001000046 0.0001 0.0001 0.0001 0.0001 0.0001 0.0001 0.0001 0.0001 0.0001 0.0001000005 0.0001 0.0001000305 0.0001 0.0001000457 0.0001 0.000103125 0.0001032959 0.0001 0.00010625 0.0001112654 0.0001163484 0.0001 0.00010625 0.0001174383 0.0001351273 0.0001 0.000125 0.0001537037 0.0002296296 0.0004055556 0.0005430555 0.0002 0.0002222222 0.0001 0.0002666667 0.0001 0.0003 0.0011 0.004 0.02428333 0.0127 0.0245 0.0145 0.0346 0.0732 0.1398 0.2481 0.4819667 0.4162 0.6574 1.017 1.2861 1.7463 2.2294 2.7569 3.660483 3.5481 4.4111 5.0562 5.3343 4.9434 3.4021 8.4971 13.17945 20.0302 34.1647 36.2939 32.262 26.4615 27.3023 25.2885 18.4617 17.08648 17.0566 14.9501 13.6791 12.1049 10.3546 8.6018 5.3991 4.8426 3.5851 2.2541 1.1362 0.9748 1.0008 1.0097 1.044 1.043217 1.0988 1.1138 1.086 1.0386 0.951 0.6144 0.4139 0.41795 0.166 0.6161 1.4298 2.2565 0.3007 0.2179 0.0872 0.2996333 0.3098 0.02415 0.0288 0.027 0.0401 0.0566 0.4174 1.067317 1.5404 1.1051 0.1163 0.2867 0.223 0.4054 0.6495 1.3019 1.502833 1.1535 0.7319 0.4401 0.4304 0.0881 0.1315 0.1531 0.25135 0.16 0.1556 0.1428 0.1257 0.1066 0.0878 0.0714 0.09585834 0.0579 0.0273 0.0163 0.0134 0.0115 0.0087 0.0028 0.005733334 0.0046 0.0019 0.0007 0.0002 0.0001 0.000475 0.00035 0.0002 0.0001666667 0.0001 0.0001083333 0.0001 0.0001 0.0001119792 0.0001125 0.0001 0.0001518519 0.0002 0.0001350586 0.0001015625 0.0001 0.0001000457 0.0001 
0.0001 0.0001 0.0001 0.0001 0.0001 0.0001 0.0001 0.0001 0.0001 0.0001 0.0001 0.0001 0.0001000023 0.0001000023 0.0001 0.0001 0.0001 0.0001 0.0001 0.0001 0.0001 0.0001 0.0001 0.0001000001 0.0001 0.0001000102 0.0001 0.0001000152 0.0001 0.0001015625 0.0001016052 0.0001 0.000103125 0.0001058385 0.000108466 0.0001 0.000103125 0.0001078961 0.0001147039 0.0001 0.0001125 0.0001262346 0.0001694445 0.000262963 0.0003445602 0.0002 0.0001740741 0.0001 0.0001555556 0.0001 0.0002 0.0004 0.0001 0.0004 0.00376 0.0016 0.0004 0.0014 0.0038 0.0093 0.0203 0.0398 0.13115 0.0696 0.1034 0.1256 0.3604 0.526 0.7227 0.981 1.534333 1.3281 1.6834 1.9169 1.8894 1.3665 1.4267 3.3131 6.951667 6.945 28.4817 32.3301 26.4804 21.2089 20.5655 20.9187 17.3151 15.9798 13.3248 11.0698 9.705 8.365 6.651 4.7099 4.439 3.4743 2.9613 1.5937 0.6611 0.4925 0.5496 0.7093 0.7834 0.7025 0.7648 0.7154 0.5884 0.4919 0.4014 0.171 0.1865 0.1899833 0.1021 0.1828 0.7213 1.0227 0.0714 0.0497 0.0285 0.09255833 0.0734 0.026 0.0299 0.0254 0.0318 0.0304 0.1103 0.5308333 0.8581 0.4584 0.0427 0.1026 0.085 0.0787 0.1867 0.4684667 0.468 0.5119 0.3586 0.2047 0.1319 0.058 0.0754 0.0553 0.08333334 0.0584 0.0576 0.0308 0.0443 0.0455 0.0421 0.0375 0.03964167 0.02785 0.0194 0.0129 0.0135 0.0042 0.0044 0.0023 0.002066667 0.0006 0.0002 0.00055 0.000275 0.00015 0.0001 0.00028125 0.000275 0.0002 0.0001555556 0.0001 0.0001020833 0.0001 0.0001 0.0001061198 0.00010625 0.0001 0.0001506173 0.0002 0.0001341553 0.0001007813 0.0001 0.0001000152 
0.0001 0.0001 0.0001 0.0001 0.0001 0.0001 0.0001 0.0001 0.0001 0.0001 0.0001 0.0001000011 0.0001000011 0.0001 0.0001 0.0001 0.0001 0.0001 0.0001 0.0001 0.0001 0.0001 0.0001 0.0001 0.0001000034 0.0001 0.0001000051 0.0001 0.0001007813 0.0001007919 0.0001 0.0001015625 0.0001029878 0.0001043574 0.0001 0.0001015625 0.0001036737 0.0001064312 0.0001 0.00010625 0.0001129115 0.0001360597 0.000186214 0.0002442419 0.0002 0.0001580247 0.0001 0.0001185185 0.0001 0.00015 0.0002 0.0001 0.00025 0.00025 0.0007 0.0001 0.00072 0.0001 0.0003 0.0008 0.002 0.01118333 0.0044 0.0088 0.0165 0.0295 0.0664 0.1071 0.1642 0.36605 0.2444 0.3475 0.4276 0.3789 0.5849 0.4476 0.4271 0.9638 2.308183 1.9608 12.7168 22.939 18.7255 12.5894 12.67 12.5983 11.32777 10.6436 4.8518 5.3774 5.417 4.8216 3.7966 2.443 2.535383 2.0059 1.7999 1.2156 0.3245 0.0891 0.116 0.2184 0.3563833 0.2699 0.2541 0.2329 0.1759 0.1794 0.1638 0.0685 0.1509 0.1362667 0.1205 0.0749 0.1955 0.3654 0.039 0.0293 0.0261 0.036325 0.03035 0.0301 0.0334 0.0266 0.0295 0.0314 0.0461 0.2234333 0.2127 0.2381 0.0239 0.0475 0.0392 0.0191 0.0578 0.1585 0.1469 0.1784 0.1371 0.0806 0.0521 0.0325 0.0616 0.05396667 0.0355 0.0377 0.0376 0.0218 0.018 0.0265 0.0281 0.0264 0.023575 0.0168 0.0139 0.0139 0.0052 0.0032 0.0025 0.0015 0.00105 0.0006 0.0002 0.0001 0.0001 0.000145 0.000125 0.0001 0.0002140625 0.0002375 0.0002 0.0001518519 0.0001 0.0001005208 0.0001 0.0001 0.0001030924 0.000103125 0.0001 0.0001502058 0.0002 0.0001337341 0.0001003906 0.0001 
0.0001 0.0001 0.0001 0.0001 0.0001 0.0001 0.0001 0.0001 0.0001 0.0001 0.0001000006 0.0001000006 0.0001 0.0001 0.0001 0.0001 0.0001 0.0001 0.0001 0.0001 0.0001 0.0001 0.0001 0.0001000011 0.0001 0.0001000017 0.0001 0.0001003906 0.0001003933 0.0001 0.0001007813 0.0001015168 0.0001022269 0.0001 0.0001007813 0.0001017454 0.0001029169 0.0001 0.000103125 0.0001063872 0.0001184071 0.0001450617 0.0001916289 0.0002 0.0001526749 0.0001 0.0001061728 0.0001 0.000125 0.0001375 0.0001 0.000175 0.0002 0.000325 0.0001 0.0001 0.0001 0.0002 0.000325 0.0001 0.0002 0.00142 0.0004 0.0007 0.0012 0.0051 0.0123 0.0212 0.0341 0.12315 0.0499 0.0612 0.0609 0.0834 0.1312 0.1071 0.0951 0.2898 0.2032 0.4632 3.6366 9.3202 8.3375 3.928 4.8838 5.1407 5.547717 2.6855 1.7839 2.213 2.4004 2.3065 1.9264 1.3733 1.3723 1.2059 1.0403 0.732 0.1249 0.0134 0.017 0.0736 0.1278667 0.0837 0.0868 0.0912 0.0775 0.115 0.1195 0.0556 0.1003333 0.1436 0.114 0.0668 0.0885 0.1211 0.0356 0.0285 0.0276 0.030075 0.032 0.0352 0.0373 0.0282 0.0329 0.0313 0.039 0.07773333 0.0744 0.0899 0.0537 0.0387 0.0314 0.0183 0.0268 0.06056667 0.0648 0.0814 0.0684 0.0473 0.0362 0.028 0.0657 0.04796667 0.0303 0.0312 0.0302 0.018 0.0092 0.0166 0.0195 0.01923333 0.0161 0.0168 0.0059 0.0074 0.0042 0.0024 0.0015 0.001333333 0.0009 0.0004 0.0002 0.0001 0.0001 0.0001 0.000114 0.0001125 0.0001 0.0001878906 0.00021875 0.0002 0.0001506173 0.0001 0.0001001302 0.0001 0.0001 0.0001015544 0.0001015625 0.0001 0.0001500686 0.0002 0.0001335312 0.0001001953 
0.0001 0.0001 0.0001 0.0001 0.0001 0.0001 0.0001 0.0001 0.0001 0.0001000003 0.0001000003 0.0001 0.0001 0.0001 0.0001 0.0001 0.0001 0.0001 0.0001 0.0001 0.0001 0.0001 0.0001000004 0.0001 0.0001000006 0.0001 0.0001001953 0.000100196 0.0001 0.0001003906 0.000100766 0.0001011312 0.0001 0.0001003906 0.0001008422 0.0001013609 0.0001 0.0001015625 0.0001031707 0.0001093064 0.0001232853 0.0001637744 0.0002 0.0001508916 0.0001 0.0001020576 0.0001 0.0001125 0.000115625 0.0001 0.0001375 0.0001583333 0.0002 0.0001 0.0001 0.0001 0.0001333333 0.00018125 0.0001 0.00015 0.00015 0.0002333333 0.0001 0.0002 0.0003 0.0009 0.009875 0.02253333 0.02765 0.042 0.0306 0.0092 0.0099 0.0143 0.0232 0.0198 0.0161 0.05948333 0.0335 0.0775 1.2027 2.8167 2.0999 1.2846 1.6575 2.429717 1.8517 0.3665 0.5583 0.8076 0.974 1.0358 0.916 0.8882667 0.6568 0.5489 0.4023 0.2207 0.0392 0.0066 0.0098 0.0632 0.06755 0.0584 0.0697 0.0809 0.0689 0.1019 0.1002 0.0487 0.09098333 0.1347 0.1081 0.0649 0.0637 0.0884 0.0326 0.0278 0.02803333 0.0291 0.0353 0.0409 0.0411 0.0301 0.0363 0.0311 0.03573333 0.0404 0.0538 0.0646 0.0517 0.0562 0.0326 0.0204 0.0293 0.03561667 0.0378 0.0557 0.0529 0.0419 0.0337 0.0272 0.069 0.04651667 0.0257 0.0255 0.0238 0.0092 0.0081 0.0111 0.0131 0.0123 0.0122 0.0071 0.0045 0.0042 0.0027 0.0016 0.001 0.0008166667 0.0006 0.0003 0.0001 0.000125 0.0001 0.0001 0.0001 0.0001053 0.00010625 0.0001 0.0001766601 0.000209375 0.0002 0.0001502058 0.0001 0.0001000326 0.0001 0.0001 0.0001007792 0.0001007813 0.0001 0.0001500229 0.0002 0.0001445755 
0.0001 0.0001 0.0001 0.0001 0.0001 0.0001 0.0001 0.0001 0.0001000001 0.0001000001 0.0001 0.0001 0.0001 0.0001 0.0001 0.0001 0.0001 0.0001 0.0001 0.0001 0.0001 0.0001000001 0.0001 0.0001000002 0.0001 0.0001000977 0.0001000978 0.0001 0.0001001953 0.0001003855 0.000100572 0.0001 0.0001001953 0.0001004109 0.0001006484 0.0001 0.0001007813 0.0001015777 0.0001046799 0.0001119208 0.0001490915 0.0002 0.0001502972 0.0001 0.0001006859 0.0001 0.00010625 0.0001070313 0.0001 0.00011875 0.0001319444 0.0001489583 0.0001 0.0001 0.0001 0.0001111111 0.0001286458 0.0001 0.000125 0.0001333333 0.0001583333 0.0001 0.00015 0.0002 0.0004666667 0.0006 0.0009 0.01523958 0.03072778 0.02111667 0.0041 0.0021 0.002 0.0028 0.0046 0.0037 0.0021 0.0104 0.0069 0.0134 0.3566 0.7791 0.6073 0.3806 0.6888 0.7835 0.3558 0.0794 0.1145 0.187 0.2523 0.2947 0.2596 0.3622167 0.1975 0.1375 0.1093 0.0475 0.0142 0.007 0.0108 0.04038333 0.0692 0.0572 0.0754 0.0882 0.0666 0.0864 0.0795 0.0407 0.08103333 0.1226 0.1009 0.0619 0.055 0.0822 0.0284 0.0261 0.02625714 0.0291 0.0391 0.0462 0.0445 0.0319 0.0393 0.0358 0.03586667 0.0368 0.0509 0.0607 0.0533 0.0738 0.0343 0.0222 0.02211667 0.0218 0.0332 0.0464 0.0472 0.0399 0.0324 0.0261 0.0678 0.0435 0.0206 0.0197 0.0176 0.007 0.004 0.0067 0.0077 0.007383334 0.0052 0.0044 0.0031 0.0024 0.0017 0.001 0.0006 0.0005 0.0003 0.0002 0.0001 0.0001 0.00010625 0.0001 0.0001 0.0001 0.00010231 0.000103125 0.0001 0.0001715088 0.0002046875 0.0002 0.0001500686 0.0001 0.0001000081 0.0001 0.0001 0.0001003901 0.0001003906 0.0001 0.0001500076 0.0002 
0.0001 0.0001 0.0001 0.0001 0.0001 0.0001 0.0001 0.0001000001 0.0001000001 0.0001 0.0001 0.0001 0.0001 0.0001 0.0001 0.0001 0.0001 0.0001 0.0001 0.0001 0.0001 0.0001 0.0001000001 0.0001 0.0001000488 0.0001000489 0.0001 0.0001000977 0.0001001936 0.0001002882 0.0001 0.0001000977 0.0001002021 0.0001003137 0.0001 0.0001003906 0.0001007863 0.0001023463 0.0001060595 0.0001414231 0.0002 0.0001500991 0.0001 0.0001002286 0.0001 0.000103125 0.0001033203 0.0001 0.000109375 0.0001168981 0.0001249132 0.0001 0.0001 0.0001 0.0001037037 0.0001099392 0.0001 0.0001125 0.0001194444 0.0001291667 0.0001 0.000125 0.00015 0.0002722222 0.0004222222 0.0006555556 0.00075 0.0009 0.01179178 0.002 0.001233333 0.001 0.0009 0.0012 0.0019 0.0014 0.0002 0.00318 0.0036 0.0246 0.0981 0.2052 0.1903 0.1345 0.0796 0.1973286 0.0676 0.0464 0.0469 0.0573 0.0681 0.0725 0.0559 0.1184 0.0875 0.0416 0.0339 0.0213 0.0084 0.0081 0.0126 0.04478334 0.0767 0.058 0.0828 0.0951 0.0603 0.0782 0.0478 0.04203333 0.0322 0.1073 0.092 0.0573 0.0474 0.0731 0.0234 0.0236 0.0204 0.0277 0.0425 0.0505 0.0473 0.0334 0.0416 0.0331 0.03516667 0.038 0.0498 0.0591 0.0546 0.0686 0.0563 0.0229 0.01951667 0.0161 0.0282 0.0393 0.0418 0.0369 0.0302 0.024 0.04258334 0.0624 0.0155 0.0142 0.0123 0.0033 0.003 0.0041 0.004266667 0.0031 0.003 0.0026 0.0019 0.0014 0.001 0.0006 0.0003 0.0002833333 0.0002 0.0001 0.0001333333 0.0001 0.0001 0.0001015625 0.0001 0.0001 0.0001 0.000101087 0.0001015625 0.0001 0.0001690491 0.0002023438 0.0002 0.0001500229 0.0001 0.000100002 0.0001 0.0001 0.0001001952 0.0001001953 0.0001 0.0001500025 
0.0001 0.0001 0.0001 0.0001 0.0001 0.0001 0.0001 0.0001 0.0001 0.0001 0.0001 0.0001 0.0001 0.0001 0.0001 0.0001 0.0001 0.0001 0.0001 0.0001 0.0001 0.0001 0.0001 0.0001000244 0.0001000244 0.0001 0.0001000488 0.0001000971 0.0001001449 0.0001 0.0001000488 0.0001000999 0.0001001534 0.0001 0.0001001953 0.0001003923 0.0001011744 0.000103064 0.0001374572 0.0002 0.000150033 0.0001 0.0001000762 0.0001 0.0001015625 0.0001016113 0.0001 0.0001046875 0.0001087577 0.0001127966 0.0001 0.0001 0.0001 0.0001012346 0.0001034107 0.0001 0.00010625 0.0001106482 0.0001152778 0.0001 0.0001125 0.000125 0.0001824074 0.0002814815 0.00045 0.0006092592 0.0007685185 0.000825 0.001025 0.0007666667 0.0006666667 0.0006 0.0006 0.0008 0.0013 0.0009 0.0008 0.002375 0.0031 0.018 0.0793 0.1103 0.1263 0.1047 0.0575 0.0687 0.0633 0.0468 0.0446 0.0456 0.0437 0.0353 0.0192 0.06093333 0.0907 0.0311 0.0235 0.017 0.0078 0.0054 0.0149 0.0498 0.0845 0.0594 0.0901 0.0996 0.0509 0.0606 0.0278 0.02795 0.0242 0.0897 0.0814 0.0569 0.041 0.0547 0.0183 0.01815714 0.0168 0.0251 0.0449 0.0535 0.0463 0.0372 0.043 0.0361 0.0297 0.0376 0.048 0.0567 0.0545 0.0636 0.0734 0.0225 0.01756667 0.0116 0.0227 0.0324 0.0357 0.0326 0.0269 0.0292 0.03731667 0.046 0.011 0.0097 0.008 0.0022 0.0014 0.0023 0.002133333 0.0017 0.0017 0.0015 0.0011 0.0008 0.0005 0.0003 0.0002833333 0.0002 0.0001 0.0001333333 0.0001 0.0001111111 0.0001 0.0001 0.0001003906 0.0001 0.0001 0.0001 0.0001005299 0.0001007813 0.0001 0.0001678482 0.0002011719 0.0002 0.0001500076 0.0001 0.0001000005 0.0001 0.0001 0.0001000976 0.0001000977 0.0001 
0.0001 0.0001 0.0001 0.0001 0.0001 0.0001 0.0001 0.0001 0.0001 0.0001 0.0001 0.0001 0.0001 0.0001 0.0001 0.0001 0.0001 0.0001 0.0001 0.0001 0.0001 0.0001 0.0001000122 0.0001000122 0.0001 0.0001000244 0.0001000486 0.0001000727 0.0001 0.0001000244 0.0001000496 0.0001000755 0.0001 0.0001000977 0.0001001959 0.0001005873 0.0001015436 0.0001354239 0.0002 0.000150011 0.0001 0.0001000254 0.0001 0.0001007813 0.0001007935 0.0001 0.0001023438 0.0001044817 0.0001065605 0.0001 0.0001 0.0001 0.0001004115 0.0001011613 0.0001 0.000103125 0.0001056327 0.000108044 0.0001 0.00010625 0.0001125 0.0001399691 0.0001962963 0.0003046296 0.0004469136 0.0006092592 0.0007342593 0.0006770371 0.0004851852 0.0004333333 0.0004 0.0004 0.0004 0.0006 0.0009 0.0007 0.0007 0.0026 0.0026 0.0149 0.0948 0.1184 0.1934 0.5272 0.1343143 0.0771 0.0641 0.0485 0.0469 0.0471 0.0434 0.0359 0.03585 0.0356 0.0767 0.0306 0.0223 0.0148 0.0069 0.0037 0.0177 0.05378333 0.0924 0.0614 0.097 0.1009 0.0401 0.0389 0.0186 0.01843333 0.0171 0.0713 0.0763 0.0453 0.0333 0.0403 0.0115 0.01261667 0.0131 0.0218 0.0456 0.0548 0.0443 0.0399 0.0433 0.03423333 0.0259 0.0356 0.0452 0.0532 0.0526 0.0583 0.0848 0.05183333 0.0212 0.0111 0.0153 0.0252 0.0291 0.0275 0.0229 0.0301 0.03113333 0.0322 0.0073 0.0062 0.005 0.0014 0.0009 0.0007 0.00105 0.0009 0.0009 0.0008 0.0006 0.0004 0.0003 0.0002 0.00018 0.0001 0.0001333333 0.0001 0.0001111111 0.0001 0.0001037037 0.0001 0.0001 0.0001000977 0.0001 0.0001 0.0001 0.0001002622 0.0001003906 0.0001 0.000167255 0.0002005859 0.0002 0.0001500025 0.0001 0.0001000001 0.0001 0.0001 0.0001000488 0.0001000488 
0.0001 0.0001 0.0001 0.0001 0.0001 0.0001 0.0001 0.0001 0.0001 0.0001 0.0001 0.0001 0.0001 0.0001 0.0001 0.0001 0.0001 0.0001 0.0001 0.0001 0.0001 0.0001000061 0.0001000061 0.0001 0.0001000122 0.0001000244 0.0001000364 0.0001 0.0001000122 0.0001000247 0.0001000374 0.0001 0.0001000488 0.0001000978 0.0001002936 0.0001007756 0.0001343887 0.0002 0.0001500037 0.0001 0.0001000085 0.0001 0.0001003906 0.0001003937 0.0001 0.0001011719 0.0001022752 0.0001033465 0.0001 0.0001 0.0001 0.0001001372 0.0001003932 0.0001 0.0001015625 0.0001029192 0.0001042004 0.0001 0.000103125 0.00010625 0.000119573 0.0001495885 0.0002136317 0.0003159465 0.0004536008 0.0005968107 0.0005053457 0.0003135802 0.0002814815 0.0002555556 0.0002333333 0.0002 0.0002 0.0004 0.0006 0.0005 0.0005333333 0.001675 0.0021 0.0122 0.1084 0.1218 0.1575 0.0245 0.13805 0.0805 0.0633 0.0488 0.0482 0.0487 0.0457 0.0417 0.04363333 0.0474 0.0674 0.0305 0.0217 0.0138 0.0078 0.0076 0.01023333 0.013 0.1002 0.0637 0.1028 0.0988 0.0295 0.0232 0.0115 0.01355 0.0114 0.0537 0.0666 0.035 0.0257 0.0288 0.0063 0.00855 0.0097 0.018 0.044 0.0543 0.0435 0.0389 0.0372 0.03151667 0.0263 0.0331 0.0414 0.0487 0.0492 0.0525 0.0901 0.0535 0.019 0.01 0.01 0.0186 0.0226 0.022 0.0186 0.022 0.0279 0.0214 0.0046 0.0038 0.0029 0.0008 0.0003 0.0004333333 0.0004 0.0003 0.0004 0.0004 0.0003 0.0002 0.0001 0.0001 0.0001333333 0.0001 0.0001 0.0001111111 0.0001 0.0001037037 0.0001 0.0001012346 0.0001 0.0001 0.0001000244 0.0001 0.0001 0.0001 0.0001001306 0.0001001953 0.0001 0.0001669602 0.000200293 0.0002 0.0001500009 0.0001 0.0001 0.0001 0.0001 0.0001000326 
0.0001 0.0001 0.0001 0.0001 0.0001 0.0001 0.0001 0.0001 0.0001 0.0001 0.0001 0.0001 0.0001 0.0001 0.0001 0.0001 0.0001 0.0001 0.0001 0.0001 0.0001000031 0.0001000031 0.0001 0.0001000061 0.0001000122 0.0001000182 0.0001 0.0001000061 0.0001000123 0.0001000186 0.0001 0.0001000244 0.0001000489 0.0001001468 0.000100389 0.0001338645 0.0002 0.0001500012 0.0001 0.0001000028 0.0001 0.0001001953 0.0001001961 0.0001 0.0001005859 0.000101149 0.0001016984 0.0001 0.0001 0.0001 0.0001000457 0.0001001326 0.0001 0.0001007813 0.0001014939 0.0001021705 0.0001 0.0001015625 0.000103125 0.0001096494 0.0001251372 0.0001609311 0.0002263889 0.0003277263 0.0004554527 0.0003827564 0.0002131687 0.0001925926 0.0001740741 0.0001555556 0.0001333333 0.0001 0.0001 0.0002 0.0004 0.0004 0.0004 0.0011 0.0016 0.0096 0.1148 0.1163 0.1305 0.08241667 0.0398 0.0792 0.0605 0.0476 0.0483 0.0498 0.0483 0.0474 0.04978333 0.0538 0.0605 0.0304 0.0213 0.0137 0.0092 0.0095 0.00965 0.0099 0.1075 0.066 0.107 0.0931 0.0203 0.0128 0.0113 0.0067 0.016 0.1024 0.181 0.0773 0.0511 0.01655 0.01104167 0.0039 0.0068 0.0142 0.0404 0.0521 0.0413 0.0368 0.0311 0.02851667 0.0253 0.0299 0.0368 0.0432 0.0444 0.0461 0.0896 0.05048333 0.0163 0.0086 0.0064 0.0131 0.0168 0.0168 0.0145 0.01748333 0.018 0.0192 0.0028 0.0022 0.0016 0.0005 0.0001 0.00022 0.0002 0.0002 0.0002 0.0002 0.0001 0.0001 0.0001 0.0001 0.0001 0.0001083333 0.0001 0.0001 0.0001037037 0.0001 0.0001012346 0.0001 0.0001004115 0.0001 0.0001 0.0001000061 0.0001 0.0001 0.0001 0.0001000652 0.0001000977 0.0001 0.0001668133 0.0002001465 0.0002 0.0001500003 0.0001 0.0001 0.0001 0.0001 
0.0001 0.0001 0.0001 0.0001 0.0001 0.0001 0.0001 0.0001 0.0001 0.0001 0.0001 0.0001 0.0001 0.0001 0.0001 0.0001 0.0001 0.0001 0.0001 0.0001000015 0.0001000015 0.0001 0.0001000031 0.0001000061 0.0001000091 0.0001 0.0001000031 0.0001000061 0.0001000092 0.0001 0.0001000122 0.0001000244 0.0001000734 0.0001001949 0.0001336001 0.0002 0.0001500004 0.0001 0.0001000009 0.0001 0.0001000977 0.0001000978 0.0001 0.000100293 0.0001005783 0.0001008583 0.0001 0.0001 0.0001 0.0001000152 0.0001000446 0.0001 0.0001003906 0.0001007584 0.0001011114 0.0001 0.0001007813 0.0001015625 0.0001047789 0.0001126372 0.0001319059 0.000170819 0.0002383488 0.0003365226 0.0002888524 0.000157476 0.000144856 0.0001333333 0.0001222222 0.0001111111 0.0001 0.0001 0.0001 0.0001 0.0003 0.0002666667 0.0002 0.0007333333 0.0012 0.0072 0.1135 0.1052 0.0988 0.07125 0.0434 0.0739 0.0558 0.0451 0.0471 0.05 0.0505 0.05061667 0.0517 0.0567 0.0553 0.0302 0.0211 0.0141 0.0105 0.0101 0.01415 0.0078 0.1138 0.068 0.1092 0.0844 0.0131 0.0066 0.00772 0.007 0.033025 0.0998 0.0902 0.05184167 0.0008 0.0084 0.006258333 0.0023 0.0046 0.0106 0.0351 0.0483 0.0379 0.0307 0.02926667 0.0279 0.0233 0.0263 0.0318 0.0372 0.0387 0.049 0.0745 0.04395 0.0134 0.0071 0.0039 0.0088 0.0119 0.0123 0.0107 0.01296667 0.0152 0.0117 0.0016 0.0012 0.0006 0.0004 0.0003 0.0001333333 0.0001 0.0001 0.0001 0.0001 0.000125 0.0001 0.0001 0.0001 0.0001 0.0001 0.0001020833 0.0001 0.0001 0.0001012346 0.0001 0.0001004115 0.0001 0.0001001372 0.0001 0.0001 0.0001000015 0.0001 0.0001 0.0001 0.0001000326 0.0001000488 0.0001 0.0001667399 0.0002000732 0.0002 0.0001500001 0.0001 0.0001 0.0001 
0.0001 0.0001 0.0001 0.0001 0.0001 0.0001 0.0001 0.0001 0.0001 0.0001 0.0001 0.0001 0.0001 0.0001 0.0001 0.0001 0.0001 0.0001 0.0001000008 0.0001000008 0.0001 0.0001000015 0.000100003 0.0001000046 0.0001 0.0001000015 0.0001000031 0.0001000046 0.0001 0.0001000061 0.0001000122 0.0001000367 0.0001000976 0.0001334671 0.0002 0.0001500001 0.0001 0.0001000003 0.0001 0.0001000488 0.0001000489 0.0001 0.0001001465 0.0001002904 0.0001004324 0.0001 0.0001 0.0001 0.0001000051 0.000100015 0.0001 0.0001001953 0.000100383 0.0001005651 0.0001 0.0001003906 0.0001007813 0.0001023742 0.0001063262 0.0001164407 0.000138454 0.0001803579 0.0002485635 0.0002202436 0.0001281207 0.0001208505 0.0001144033 0.000108642 0.0001037037 0.0001 0.0001 0.0001 0.0001 0.0001 0.0001 0.0001666667 0.0002 0.0008666667 0.0008 0.021 0.09 0.0908 0.0724 0.05883333 0.0426 0.0656 0.0496 0.0414 0.0449 0.0492 0.0516 0.05235 0.0542 0.0571 0.051 0.0298 0.021 0.0149 0.013 0.01416667 0.0167 0.0309 0.0849 0.0692 0.1089 0.0735 0.0079 0.0055 0.006366667 0.007 0.007 0.03837083 0.0001 0.0001 0.00075 0.0051 0.003466667 0.0013 0.0029 0.0075 0.029 0.0431 0.0336 0.0271 0.02458333 0.022 0.0204 0.0224 0.0267 0.031 0.0325 0.0479 0.05335 0.0594 0.0105 0.0056 0.0024 0.0057 0.0081 0.0086 0.0076 0.009833333 0.0118 0.0068 0.0009 0.0006 0.0002 0.0002 0.0002333333 0.0001 0.0001 0.0001 0.0001 0.0001 0.0001 0.00010625 0.0001 0.0001 0.0001 0.0001 0.0001 0.0001005208 0.0001 0.0001 0.0001004115 0.0001 0.0001001372 0.0001 0.0001000457 0.0001 0.0001 0.0001000004 0.0001 0.0001 0.0001 0.0001000163 0.0001000244 0.0001 0.0001667033 0.0002000366 0.0002 0.00015 0.0001 0.0001 
0.0001 0.0001 0.0001 0.0001 0.0001 0.0001 0.0001 0.0001 0.0001 0.0001 0.0001 0.0001 0.0001 0.0001 0.0001 0.0001 0.0001 0.0001000004 0.0001000004 0.0001 0.0001000008 0.0001000015 0.0001000023 0.0001 0.0001000008 0.0001000015 0.0001000023 0.0001 0.0001000031 0.0001000061 0.0001000183 0.0001000488 0.0001334003 0.0002 0.0001500001 0.0001 0.0001000001 0.0001 0.0001000244 0.0001000244 0.0001 0.0001000732 0.0001001456 0.0001002173 0.0001 0.0001 0.0001 0.0001000017 0.000100005 0.0001 0.0001000977 0.0001001928 0.0001002859 0.0001 0.0001001953 0.0001003906 0.000101182 0.0001031606 0.0001083804 0.000120407 0.0001450842 0.0001891251 0.0001733172 0.0001133211 0.0001093736 0.0001060357 0.0001032922 0.0001012346 0.0001 0.0001 0.0001 0.0001 0.0001 0.0001 0.0001 0.00012 0.0001 0.0008142857 0.0027 0.0128 0.0817 0.0676 0.0572 0.04783333 0.0386 0.0555 0.0426 0.0369 0.0417 0.0473 0.0514 0.0525 0.0547 0.0556 0.0471 0.0291 0.0209 0.0159 0.0154 0.01676667 0.0193 0.0233 0.0887 0.0692 0.1058 0.0613 0.0045 0.005075 0.0055 0.006466667 0.007 0.0024 0.0001 0.0003625 0.0004 0.001858333 0.003 0.0007 0.0018 0.005 0.0226 0.0371 0.0286 0.023 0.02005 0.0168 0.0171 0.0185 0.0217 0.025 0.0263 0.0438 0.04465 0.0455 0.0079 0.0042 0.0014 0.0036 0.0052 0.0057 0.005666667 0.0051 0.0086 0.0038 0.0004 0.0003 0.0001 0.0001 0.00015 0.0001366667 0.0001 0.0001 0.0001 0.0001 0.0001 0.0001 0.0001015625 0.0001 0.0001 0.0001 0.0001 0.0001 0.0001001302 0.0001 0.0001 0.0001001372 0.0001 0.0001000457 0.0001 0.0001000152 0.0001 0.0001 0.0001000001 0.0001 0.0001 0.0001 0.0001000081 0.0001000122 0.0001 0.000166685 0.0002000183 0.0002 0.00015 0.0001 
0.0001 0.0001 0.0001 0.0001 0.0001 0.0001 0.0001 0.0001 0.0001 0.0001 0.0001 0.0001 0.0001 0.0001 0.0001 0.0001 0.0001000002 0.0001000002 0.0001 0.0001000004 0.0001000008 0.0001000011 0.0001 0.0001000004 0.0001000008 0.0001000011 0.0001 0.0001000015 0.0001000031 0.0001000092 0.0001000244 0.0001333669 0.0002 0.00015 0.0001 0.0001 0.0001 0.0001000122 0.0001000122 0.0001 0.0001000366 0.000100073 0.000100109 0.0001 0.0001 0.0001 0.0001000006 0.0001000017 0.0001 0.0001000488 0.0001000968 0.0001001441 0.0001 0.0001000977 0.0001001953 0.0001005893 0.0001015777 0.000104241 0.0001106493 0.0001246238 0.0001515388 0.0001430833 0.0001061373 0.0001041 0.0001024691 0.0001012346 0.0001004115 0.0001 0.0001 0.0001 0.0001 0.0001 0.0001 0.0001 0.0001 0.0001 0.0001 0.0003 0.0015 0.0089 0.0699 0.0457 0.04661667 0.0436 0.0326 0.0449 0.0353 0.0319 0.0377 0.0445 0.0498 0.05103333 0.0533 0.0527 0.0433 0.028 0.0207 0.0166 0.0168 0.01771667 0.0194 0.0177 0.0906 0.0679 0.1 0.049 0.0024 0.0027 0.00366875 0.0055 0.003627778 0.0001 0.0002114583 0.0002333333 0.0002 0.00105 0.0017 0.0003 0.001 0.0032 0.0167 0.0307 0.0235 0.02131667 0.0189 0.0125 0.0137 0.0147 0.017 0.0195 0.0206 0.0378 0.03583333 0.0335 0.0057 0.0023 0.0013 0.0022 0.0033 0.0037 0.003766667 0.0033 0.0059 0.002 0.0002 0.0001 0.00014 0.0001 0.0001 0.000125 0.0001123333 0.0001 0.0001 0.0001 0.0001 0.0001 0.0001 0.0001003906 0.0001 0.0001 0.0001 0.0001 0.0001 0.0001000326 0.0001 0.0001 0.0001000457 0.0001 0.0001000152 0.0001 0.0001000051 0.0001 0.0001 0.0001 0.0001 0.0001 0.0001 0.0001000041 0.0001000061 0.0001 0.0001666758 0.0002000091 0.0002 0.00015 
0.0001 0.0001 0.0001 0.0001 0.0001 0.0001 0.0001 0.0001 0.0001 0.0001 0.0001 0.0001 0.0001 0.0001 0.0001 0.0001000001 0.0001000001 0.0001 0.0001000002 0.0001000004 0.0001000006 0.0001 0.0001000002 0.0001000004 0.0001000006 0.0001 0.0001000008 0.0001000015 0.0001000046 0.0001000122 0.0001333501 0.0002 0.00015 0.0001 0.0001 0.0001 0.0001000061 0.0001000061 0.0001 0.0001000183 0.0001000365 0.0001000547 0.0001 0.0001 0.0001 0.0001000002 0.0001000006 0.0001 0.0001000244 0.0001000485 0.0001000724 0.0001 0.0001000488 0.0001000977 0.0001002941 0.0001007875 0.000102136 0.0001054893 0.0001131714 0.0001289373 0.0001245483 0.0001027604 0.0001017528 0.0001009907 0.0001004572 0.0001001372 0.0001 0.0001 0.0001 0.0001 0.0001 0.0001 0.0001 0.0001 0.0001 0.0001 0.00015 0.0001 0.001 0.0132 0.0416 0.0335 0.0335 0.0321 0.0258 0.0347 0.0282 0.0269 0.0333 0.0406 0.04336667 0.0467 0.0503 0.0488 0.0394 0.0266 0.0201 0.0169 0.0172 0.01741667 0.0182 0.0135 0.0903 0.065 0.0917 0.0374 0.0012 0.0014 0.001275 0.0003 0.0015375 0.0001493924 0.0001611111 0.00015 0.0001 0.00068 0.0009 0.0001 0.0005 0.0019 0.0117 0.0239 0.019 0.01691667 0.0149 0.0089 0.0105 0.0113 0.0129 0.0147 0.0155 0.0233 0.0308 0.0236 0.0039 0.0013 0.001 0.0014 0.002 0.0022 0.00245 0.0026 0.0026 0.0017 0.0001 0.0001 0.0001 0.000108 0.0001 0.0001 0.0001125 0.0001049667 0.0001 0.0001 0.0001 0.0001 0.0001 0.0001 0.0001000977 0.0001 0.0001 0.0001 0.0001 0.0001 0.0001000081 0.0001 0.0001 0.0001000152 0.0001 0.0001000051 0.0001 0.0001000017 0.0001 0.0001 0.0001 0.0001 0.0001 0.0001 0.000100002 0.0001000031 0.0001 0.0001666712 0.0002000046 0.0002 
0.0001 0.0001 0.0001 0.0001 0.0001 0.0001 0.0001 0.0001 0.0001 0.0001 0.0001 0.0001 0.0001 0.0001 0.0001 0.0001 0.0001 0.0001000001 0.0001000002 0.0001000003 0.0001 0.0001000001 0.0001000002 0.0001000003 0.0001 0.0001000004 0.0001000008 0.0001000023 0.0001000061 0.0001333417 0.0002 0.00015 0.0001 0.0001 0.0001 0.0001000031 0.0001000031 0.0001 0.0001000092 0.0001000183 0.0001000274 0.0001 0.0001 0.0001 0.0001000001 0.0001000002 0.0001 0.0001000122 0.0001000243 0.0001000363 0.0001 0.0001000244 0.0001000488 0.0001001469 0.0001003931 0.0001010725 0.0001028043 0.0001069322 0.000115866 0.0001136352 0.0001012159 0.000100735 0.0001003912 0.0001001677 0.0001000457 0.0001 0.0001 0.0001 0.0001 0.0001 0.0001 0.0001 0.0001 0.0001 0.0001 0.0001125 0.0001 0.0001 0.0006 0.0133 0.0227 0.0235 0.0238 0.0226 0.0194 0.0257 0.0218 0.022 0.0285 0.0361 0.03906666 0.0425 0.0459 0.044 0.0353 0.0246 0.0191 0.0165 0.0165 0.0167 0.0162 0.0103 0.0876 0.0605 0.0814 0.0273 0.0006 0.0007 0.0003 0.00025 0.0002611111 0.0001287037 0.000125 0.0001 0.0001 0.000425 0.0005 0.0001 0.0002 0.001 0.0076 0.018 0.0148 0.01281667 0.0104 0.007 0.0078 0.0084 0.0094 0.0107 0.0132 0.01761667 0.0219 0.016 0.0026 0.0007 0.0006 0.0009 0.0012 0.00145 0.0017 0.0012 0.0017 0.0008 0.00062 0.0001 0.0001 0.0001 0.0001016 0.0001 0.0001 0.00010625 0.0001022433 0.0001 0.0001 0.0001 0.0001 0.0001 0.0001 0.0001000244 0.0001 0.0001 0.0001 0.0001 0.0001 0.000100002 0.0001 0.0001 0.0001000051 0.0001 0.0001000017 0.0001 0.0001000006 0.0001 0.0001 0.0001 0.0001 0.0001 0.0001 0.000100001 0.0001000015 0.0001 0.0001666689 0.0002000023 
0.0001 0.0001 0.0001 0.0001 0.0001 0.0001 0.0001 0.0001 0.0001 0.0001 0.0001 0.0001 0.0001 0.0001 0.0001 0.0001 0.0001 0.0001000001 0.0001000001 0.0001 0.0001 0.0001000001 0.0001000001 0.0001 0.0001000002 0.0001000004 0.0001000011 0.0001000031 0.0001333375 0.0002 0.00015 0.0001 0.0001 0.0001 0.0001000015 0.0001000015 0.0001 0.0001000046 0.0001000091 0.0001000137 0.0001 0.0001 0.0001 0.0001 0.0001000001 0.0001 0.0001000061 0.0001000122 0.0001000182 0.0001 0.0001000122 0.0001000244 0.0001000734 0.0001001963 0.0001005375 0.0001014233 0.000103603 0.0001085342 0.0001074165 0.0001005259 0.0001003031 0.0001001524 0.000100061 0.0001000152 0.0001 0.0001 0.0001 0.0001 0.0001 0.0001 0.0001 0.0001 0.0001 0.0001 0.000103125 0.0001 0.0001 0.0003 0.0003 0.01005 0.0147 0.016 0.0158 0.0153 0.0138 0.0183 0.0163 0.0175 0.0237 0.0311 0.03416667 0.0374 0.0406 0.0386 0.031 0.0223 0.0176 0.0157 0.0157 0.016 0.017 0.0223 0.0645 0.0548 0.0699 0.0191 0.01001667 0.0003 0.0002 0.0002333333 0.0002166667 0.0001125 0.0001 0.0001 0.0002083333 0.0002666667 0.0002 0.0002 0.0001 0.0005 0.0048 0.0131 0.0102 0.009216666 0.0076 0.0052 0.0056 0.006 0.0067 0.0086 0.0094 0.0126 0.0149 0.0104 0.0016 0.0003 0.0004 0.0005 0.0008 0.0008833333 0.0008 0.0007 0.0011 0.0004 0.0004666667 0.000304 0.0001 0.0001 0.0001 0.00010032 0.0001 0.0001 0.000103125 0.0001010737 0.0001 0.0001 0.0001 0.0001 0.0001 0.0001 0.0001000061 0.0001 0.0001 0.0001 0.0001 0.0001 0.0001000005 0.0001 0.0001 0.0001000017 0.0001 0.0001000006 0.0001 0.0001000002 0.0001 0.0001 0.0001 0.0001 0.0001 0.0001 0.0001000005 0.0001000008 0.0001 0.0001555571 
0.0001 0.0001 0.0001 0.0001 0.0001 0.0001 0.0001 0.0001 0.0001 0.0001 0.0001 0.0001 0.0001 0.0001 0.0001 0.0001 0.0001 0.0001000001 0.0001 0.0001 0.0001 0.0001000001 0.0001 0.0001000001 0.0001000002 0.0001000006 0.0001000015 0.0001333354 0.0002 0.00015 0.0001 0.0001 0.0001 0.0001000008 0.0001000008 0.0001 0.0001000023 0.0001000046 0.0001000069 0.0001 0.0001 0.0001 0.0001 0.0001 0.0001 0.0001000031 0.0001000061 0.0001000091 0.0001 0.0001000061 0.0001000122 0.0001000367 0.000100098 0.000100269 0.000100719 0.0001018546 0.0001045202 0.0001039654 0.0001002239 0.0001001233 0.0001000587 0.000100022 0.0001000051 0.0001 0.0001 0.0001 0.0001 0.0001 0.0001 0.0001 0.0001 0.0001 0.0001 0.0001007813 0.0001 0.0001 0.0001875 0.0002 0.0002 0.0062 0.0092 0.01026667 0.0101 0.0099 0.0093 0.0125 0.0118 0.0135 0.0192 0.02268333 0.026 0.0319 0.0348 0.033 0.0267 0.0196 0.0158 0.0144 0.01456667 0.0149 0.0158 0.0162 0.0599 0.0481 0.058 0.0127 0.00806 0.0001 0.0002 0.0001666667 0.0001833333 0.0001 0.0001 0.0001411111 0.0001722222 0.00015 0.0001 0.0001333333 0.000225 0.0002 0.0029 0.0089 0.008266667 0.007 0.0053 0.0037 0.0039 0.0041 0.0045 0.0066 0.0064 0.008583333 0.0098 0.0065 0.001 0.0002 0.0002 0.0004 0.0004 0.0004666667 0.0004 0.0005 0.0005 0.0002 0.0002333333 0.0002833333 0.0001896889 0.0001 0.0001 0.0001 0.000100064 0.0001 0.0001 0.0001015625 0.0001005272 0.0001 0.0001 0.0001 0.0001 0.0001 0.0001 0.0001000015 0.0001 0.0001 0.0001 0.0001 0.0001 0.0001000001 0.0001 0.0001 0.0001000006 0.0001 0.0001000002 0.0001 0.0001000001 0.0001 0.0001 0.0001 0.0001 0.0001 0.0001 0.0001000003 0.0001000004 0.0001 
0.0001 0.0001 0.0001 0.0001 0.0001 0.0001 0.0001 0.0001 0.0001 0.0001 0.0001 0.0001 0.0001 0.0001 0.0001 0.0001 0.0001 0.0001 0.0001 0.0001 0.0001 0.0001 0.0001 0.0001000001 0.0001000003 0.0001000008 0.0001333344 0.0002 0.00015 0.0001 0.0001 0.0001 0.0001000004 0.0001000004 0.0001 0.0001000011 0.0001000023 0.0001000034 0.0001 0.0001 0.0001 0.0001 0.0001 0.0001 0.0001000015 0.000100003 0.0001000046 0.0001 0.0001000031 0.0001000061 0.0001000183 0.000100049 0.0001001346 0.000100362 0.0001009475 0.0001023646 0.0001020908 0.0001000939 0.0001000495 0.0001000224 0.0001000079 0.0001000017 0.0001 0.0001 0.0001 0.0001 0.0001 0.0001 0.0001 0.0001 0.0001 0.0001 0.0001001953 0.0001 0.0001 0.000140625 0.00015 0.00015 0.0001 0.0041 0.0055 0.006333333 0.0063 0.0061 0.006 0.0082 0.0083 0.0102 0.0151 0.01821667 0.021 0.0263 0.0289 0.0275 0.0223 0.0168 0.0138 0.01326667 0.0128 0.0136 0.0156 0.0217 0.0502 0.0393 0.0392 0.0081 0.006475 0.00255 0.0001 0.00015 0.0001388889 0.0001294444 0.0001172037 0.0001324074 0.000125 0.0001 0.0001 0.0001 0.00015 0.0001 0.0016 0.0058 0.005483333 0.0046 0.0036 0.0026 0.0026 0.0027 0.003 0.0042 0.004633334 0.0048 0.0062 0.0039 0.0006 0.0001 0.0001 0.0002 0.0002 0.0002333333 0.0002 0.0002 0.0003 0.0001 0.00015 0.0001611111 0.0001898148 0.0001416415 0.0001 0.0001 0.0001 0.0001000128 0.0001 0.0001 0.0001007813 0.0001002617 0.0001 0.0001 0.0001 0.0001 0.0001 0.0001 0.0001000004 0.0001 0.0001 0.0001 0.0001 0.0001 0.0001 0.0001 0.0001 0.0001000002 0.0001 0.0001000001 0.0001 0.0001 0.0001 0.0001 0.0001 0.0001 0.0001 0.0001 0.0001000001 0.0001000002 
0.0001 0.0001 0.0001 0.0001 0.0001 0.0001 0.0001 0.0001 0.0001 0.0001 0.0001 0.0001 0.0001 0.0001 0.0001 0.0001 0.0001 0.0001 0.0001 0.0001 0.0001 0.0001 0.0001 0.0001000001 0.0001000004 0.0001333339 0.0002 0.00015 0.0001 0.0001 0.0001 0.0001000002 0.0001000002 0.0001 0.0001000006 0.0001000011 0.0001000017 0.0001 0.0001 0.0001 0.0001 0.0001 0.0001 0.0001000008 0.0001000015 0.0001000023 0.0001 0.0001000015 0.0001000031 0.0001000092 0.0001000245 0.0001000673 0.0001001819 0.0001004814 0.0001012247 0.0001010899 0.0001000389 0.0001000196 0.0001000085 0.0001000028 0.0001000006 0.0001 0.0001 0.0001 0.0001 0.0001 0.0001 0.0001 0.0001 0.0001 0.0001 0.0001000488 0.0001 0.0001 0.0001195313 0.000125 0.000125 0.0001 0.002075 0.0026 0.0032 0.003766667 0.0037 0.0037 0.0038 0.0052 0.0056 0.0074 0.0115 0.01418333 0.0165 0.021 0.0233 0.0222 0.0182 0.014 0.0117 0.01138333 0.0111 0.0122 0.0151 0.0226 0.0398 0.0265 0.0305 0.0181 0.005 0.00395 0.002441667 0.0001 0.000125 0.0001212963 0.0001149691 0.0001125 0.0001 0.0001 0.0001 0.0001125 0.0001 0.000775 0.0009 0.0036 0.003483333 0.003 0.0023 0.0017 0.0017 0.0018 0.0019 0.0025 0.003083333 0.0033 0.0037 0.0023 0.0003 0.0001 0.0001 0.0001 0.00014 0.0001 0.0001 0.0001 0.0002 0.000175 0.0001 0.000125 0.0001287037 0.0001436728 0.0001198098 0.0001 0.0001 0.0001 0.0001000026 0.0001 0.0001 0.0001003906 0.0001001305 0.0001 0.0001 0.0001 0.0001 0.0001 0.0001 0.0001000001 0.0001 0.0001 0.0001 0.0001 0.0001 0.0001 0.0001 0.0001 0.0001000001 0.0001 0.0001 0.0001 0.0001 0.0001 0.0001 0.0001 0.0001 0.0001 0.0001 0.0001000001 
0.0001 0.0001 0.0001 0.0001 0.0001 0.0001 0.0001 0.0001 0.0001 0.0001 0.0001 0.0001 0.0001 0.0001 0.0001 0.0001 0.0001 0.0001 0.0001 0.0001 0.0001 0.0001 0.0001000001 0.0001000002 0.0001333336 0.0002 0.00015 0.0001 0.0001 0.0001 0.0001000001 0.0001000001 0.0001 0.0001000003 0.0001000006 0.0001000009 0.0001 0.0001 0.0001 0.0001 0.0001 0.0001 0.0001000004 0.0001000008 0.0001000011 0.0001 0.0001000008 0.0001000015 0.0001000046 0.0001000122 0.0001000336 0.0001000912 0.0001002435 0.0001006293 0.000100563 0.0001000159 0.0001000077 0.0001000032 0.000100001 0.0001000002 0.0001 0.0001 0.0001 0.0001 0.0001 0.0001 0.0001 0.0001 0.0001 0.0001 0.0001000122 0.0001 0.0001 0.0001095703 0.0001125 0.0001125 0.0001 0.001202083 0.001666667 0.0015 0.001833333 0.0018 0.0021 0.0021 0.0022 0.0032 0.0037 0.0053 0.0085 0.01071667 0.0125 0.0162 0.0182 0.0174 0.0144 0.0113 0.0096 0.009433334 0.0093 0.0107 0.0139 0.0208 0.0302 0.0176 0.0229 0.01325 0.0029 0.003166667 0.002972222 0.001872917 0.0001 0.0001125 0.00010625 0.0001 0.0001 0.0001 0.000103125 0.0001 0.00041875 0.0005333333 0.0005 0.001416667 0.0021 0.0018 0.0014 0.0011 0.001 0.0011 0.0012 0.0015 0.001966667 0.0022 0.0022 0.0013 0.0002 0.00016 0.0001 0.0001 0.0001 0.0001 0.0001 0.0001 0.0001 0.00015 0.00013125 0.0001 0.0001125 0.0001137346 0.0001212191 0.0001095381 0.0001 0.0001 0.0001 0.0001000005 0.0001 0.0001 0.0001001953 0.0001000652 0.0001 0.0001 0.0001 0.0001 0.0001 0.0001 0.0001 0.0001 0.0001 0.0001 0.0001 0.0001 0.0001 0.0001 0.0001 0.0001 0.0001 0.0001 0.0001 0.0001 0.0001 0.0001 0.0001 0.0001 0.0001 0.0001 
0.0001 0.0001 0.0001 0.0001 0.0001 0.0001 0.0001 0.0001 0.0001 0.0001 0.0001 0.0001 0.0001 0.0001 0.0001 0.0001 0.0001 0.0001 0.0001 0.0001 0.0001 0.0001 0.0001000001 0.0001333335 0.0002 0.00015 0.0001 0.0001 0.0001 0.0001 0.0001 0.0001 0.0001000001 0.0001000003 0.0001000004 0.0001 0.0001 0.0001 0.0001 0.0001 0.0001 0.0001000002 0.0001000004 0.0001000006 0.0001 0.0001000004 0.0001000008 0.0001000023 0.0001000061 0.0001000168 0.0001000457 0.0001001228 0.0001003213 0.0001002887 0.0001000065 0.000100003 0.0001000012 0.0001000004 0.0001000001 0.0001 0.0001 0.0001 0.0001 0.0001 0.0001 0.0001 0.0001 0.0001 0.0001 0.0001000031 0.0001 0.0001 0.0001047363 0.00010625 0.00010625 0.0001 0.0007838542 0.001111111 0.0009666667 0.0009 0.001033333 0.001 0.0011 0.0012 0.0013 0.0019 0.0024 0.0037 0.00505 0.0061 0.0092 0.0121 0.0137 0.0132 0.0111 0.0088 0.0076 0.007533333 0.0073 0.0069 0.0146 0.0176 0.0221 0.0114 0.0166 0.009416667 0.0016 0.0018 0.001977778 0.002012963 0.001299248 0.0001 0.0001 0.0001 0.0001 0.0001007813 0.0001 0.0002491319 0.0003111111 0.0002666667 0.0002 0.0008 0.0012 0.0011 0.0009 0.0007 0.0006 0.0006 0.0007 0.0008666667 0.0009 0.0014 0.0012 0.0007 0.0001 0.00015 0.000122 0.0001 0.0001 0.0001 0.0001 0.0001 0.0001 0.0001 0.000125 0.0001140625 0.0001 0.00010625 0.0001066615 0.0001103352 0.0001046271 0.0001 0.0001 0.0001 0.0001000001 0.0001 0.0001 0.0001000977 0.0001000326 0.0001 0.0001 0.0001 0.0001 0.0001 0.0001 0.0001 0.0001 0.0001 0.0001 0.0001 0.0001 0.0001 0.0001 0.0001 0.0001 0.0001 0.0001 0.0001 0.0001 0.0001 0.0001 0.0001 0.0001 0.0001 
0.0001 0.0001 0.0001 0.0001 0.0001 0.0001 0.0001 0.0001 0.0001 0.0001 0.0001 0.0001 0.0001 0.0001 0.0001 0.0001 0.0001 0.0001 0.0001 0.0001 0.0001 0.0001 0.0001333334 0.0002 0.00015 0.0001 0.0001 0.0001 0.0001 0.0001 0.0001 0.0001000001 0.0001000001 0.0001000002 0.0001 0.0001 0.0001 0.0001 0.0001 0.0001 0.0001000001 0.0001000002 0.0001000003 0.0001 0.0001000002 0.0001000004 0.0001000011 0.0001000031 0.0001000084 0.0001000229 0.0001000618 0.0001001633 0.0001001472 0.0001000026 0.0001000012 0.0001000004 0.0001000001 0.0001 0.0001 0.0001 0.0001 0.0001 0.0001 0.0001 0.0001 0.0001 0.0001 0.0001 0.0001000008 0.0001 0.0001 0.000102356 0.000103125 0.000103125 0.0001 0.0005755931 0.0008111111 0.0007222222 0.0007 0.0005 0.0005666667 0.0005 0.0006 0.0006 0.0007 0.0011 0.0015 0.0025 0.0035 0.0042 0.0065 0.0088 0.01 0.0098 0.0083 0.0067 0.006333333 0.0058 0.0056 0.0063 0.0116 0.0139 0.0156 0.0073 0.0116 0.006316666 0.0009 0.0009666667 0.001088889 0.001211111 0.001291358 0.0007049112 0.0001 0.0001 0.0001001953 0.0001 0.0001678385 0.0001962963 0.0001666667 0.0001333333 0.0001 0.00045 0.0007 0.0006 0.0005 0.0004 0.0004 0.0004 0.0004 0.0005 0.0005 0.0008 0.0007 0.0003 0.000325 0.0001 0.000125 0.0001 0.0001 0.0001 0.0001 0.0001 0.0001 0.0001 0.0001 0.0001125 0.0001066406 0.0001 0.000103125 0.0001032622 0.0001050533 0.0001022577 0.0001 0.0001 0.0001 0.0001 0.0001 0.0001 0.0001000488 0.0001000163 0.0001 0.0001 0.0001 0.0001 0.0001 0.0001 0.0001 0.0001 0.0001 0.0001 0.0001 0.0001 0.0001 0.0001 0.0001 0.0001 0.0001 0.0001 0.0001 0.0001 0.0001 0.0001 0.0001 0.0001 
0.0001 0.0001 0.0001 0.0001 0.0001 0.0001 0.0001 0.0001 0.0001 0.0001 0.0001 0.0001 0.0001 0.0001 0.0001 0.0001 0.0001 0.0001 0.0001 0.0001 0.0001 0.0001333334 0.0002 0.00015 0.0001 0.0001 0.0001 0.0001 0.0001 0.0001 0.0001 0.0001000001 0.0001000001 0.0001 0.0001 0.0001 0.0001 0.0001 0.0001 0.0001 0.0001000001 0.0001000001 0.0001 0.0001000001 0.0001000002 0.0001000006 0.0001000015 0.0001000042 0.0001000114 0.000100031 0.0001000826 0.0001000747 0.000100001 0.0001000004 0.0001000002 0.0001 0.0001 0.0001 0.0001 0.0001 0.0001 0.0001 0.0001 0.0001 0.0001 0.0001 0.0001 0.0001000002 0.0001 0.0001 0.0001011749 0.0001015625 0.0001015625 0.0001 0.0004710588 0.0006561729 0.0006074074 0.0006 0.0005 0.0002666667 0.0002 0.0003 0.0003 0.0003 0.0004 0.0006 0.0009 0.0016 0.00235 0.0029 0.0045 0.0061 0.0071 0.007 0.006 0.0049 0.004683333 0.0042 0.0041 0.0039 0.0104 0.0104 0.01 0.0064 0.006833334 0.0068 0.0004 0.0005 0.0005666667 0.00065 0.0007339506 0.0008066872 0.0004322991 0.0001000488 0.0001 0.0001299226 0.0001419753 0.0001259259 0.0001111111 0.0001 0.0001 0.0003 0.0004 0.0003 0.0003 0.0002 0.0002 0.0002 0.0002 0.0002666667 0.0003 0.0005 0.0003 0.0002 0.0002 0.00019375 0.0001 0.00010625 0.0001 0.0001 0.0001 0.0001 0.0001 0.0001 0.0001 0.0001 0.00010625 0.0001032227 0.0001 0.0001015625 0.0001016082 0.0001024809 0.000101107 0.0001 0.0001 0.0001 0.0001 0.0001 0.0001 0.0001000244 0.0001000081 0.0001 0.0001 0.0001 0.0001 0.0001 0.0001 0.0001 0.0001 0.0001 0.0001 0.0001 0.0001 0.0001 0.0001 0.0001 0.0001 0.0001 0.0001 0.0001 0.0001 0.0001 0.0001 0.0001 
0.0001 0.0001 0.0001 0.0001 0.0001 0.0001 0.0001 0.0001 0.0001 0.0001 0.0001 0.0001 0.0001 0.0001 0.0001 0.0001 0.0001 0.0001 0.0001 0.0001 0.0001333333 0.0002 0.00015 0.0001 0.0001 0.0001 0.0001 0.0001 0.0001 0.0001 0.0001 0.0001000001 0.0001 0.0001 0.0001 0.0001 0.0001 0.0001 0.0001 0.0001 0.0001000001 0.0001 0.0001 0.0001000001 0.0001000003 0.0001000008 0.0001000021 0.0001000057 0.0001000156 0.0001000417 0.0001000378 0.0001000004 0.0001000002 0.0001000001 0.0001 0.0001 0.0001 0.0001 0.0001 0.0001 0.0001 0.0001 0.0001 0.0001 0.0001 0.0001 0.0001 0.0001 0.0001 0.0001005867 0.0001007813 0.0001007813 0.0001 0.0004186906 0.0005778807 0.0005524691 0.00055 0.0005 0.0002541667 0.00015 0.0001 0.0001 0.0001 0.0002 0.0002 0.0003 0.0006 0.0008333334 0.001 0.0019 0.003 0.0042 0.0049 0.0048 0.0042 0.0035 0.00335 0.003 0.003 0.0034 0.0072 0.0064 0.0074 0.005 0.00465 0.0039 0.0002 0.0002333333 0.0002944444 0.0003407407 0.0003947531 0.0004498971 0.0005033779 0.0001 0.0001128304 0.0001176955 0.0001098765 0.0001037037 0.0001 0.0001 0.0001 0.0002 0.0002 0.0002 0.0001 0.0001 0.0001 0.0001 0.0001333333 0.0001 0.0001 0.0002 0.0002 0.0001 0.00015 0.00015 0.0001421875 0.0001 0.0001015625 0.0001 0.0001 0.0001 0.0001 0.0001 0.0001 0.0001 0.0001 0.000103125 0.0001015869 0.0001 0.0001007813 0.0001007965 0.0001012227 0.0001005451 0.0001 0.0001 0.0001 0.0001 0.0001 0.0001 0.0001000122 0.0001000041 0.0001 0.0001 0.0001 0.0001 0.0001 0.0001 0.0001 0.0001 0.0001 0.0001 0.0001 0.0001 0.0001 0.0001 0.0001 0.0001 0.0001 0.0001 0.0001 0.0001 0.0001 0.0001 
0.0001 0.0001 0.0001 0.0001 0.0001 0.0001 0.0001 0.0001 0.0001 0.0001 0.0001 0.0001 0.0001 0.0001 0.0001 0.0001 0.0001 0.0001 0.0001 0.0001333333 0.0002 0.00015 0.0001 0.0001 0.0001 0.0001 0.0001 0.0001 0.0001 0.0001 0.0001 0.0001 0.0001 0.0001 0.0001 0.0001 0.0001 0.0001 0.0001 0.0001 0.0001 0.0001 0.0001 0.0001000001 0.0001000004 0.0001000011 0.0001000029 0.0001000078 0.000100021 0.000100019 0.0001000002 0.0001000001 0.0001 0.0001 0.0001 0.0001 0.0001 0.0001 0.0001 0.0001 0.0001 0.0001 0.0001 0.0001 0.0001 0.0001 0.0001 0.0001 0.0001002932 0.0001003906 0.0001003906 0.0001 0.0003925499 0.0005387345 0.000525823 0.000525 0.0005 0.0002447917 0.000125 0.0001 0.0001 0.0001 0.0001 0.0001 0.0001 0.0002 0.0003 0.0005166667 0.0006 0.0012 0.0019 0.0027 0.0032 0.0033 0.0029 0.00275 0.0024 0.0021 0.0021 0.0027 0.0048 0.0038 0.0053 0.0036 0.003066667 0.0022 0.0001 0.00015 0.0001611111 0.0001935185 0.0002209877 0.0002535494 0.0002877743 0.000198711 0.0001072702 0.0001037037 0.0001012346 0.0001 0.0001 0.0001 0.00013 0.00015 0.0001 0.0001 0.0001 0.0001 0.0001 0.0001 0.0001 0.0001 0.0001 0.0001 0.0001 0.0001333333 0.0001 0.000125 0.000125 0.0001199219 0.0001 0.0001003906 0.0001 0.0001 0.0001 0.0001 0.0001 0.0001 0.0001 0.0001 0.0001015625 0.0001007874 0.0001 0.0001003906 0.0001003957 0.0001006046 0.0001002693 0.0001 0.0001 0.0001 0.0001 0.0001 0.0001 0.0001000061 0.000100002 0.0001 0.0001 0.0001 0.0001 0.0001 0.0001 0.0001 0.0001 0.0001 0.0001 0.0001 0.0001 0.0001 0.0001 0.0001 0.0001 0.0001 0.0001 0.0001 0.0001 0.0001 
0.0001 0.0001 0.0001 0.0001 0.0001 0.0001 0.0001 0.0001 0.0001 0.0001 0.0001 0.0001 0.0001 0.0001 0.0001 0.0001 0.0001 0.0001 0.0001333333 0.0002 0.00015 0.0001 0.0001 0.0001 0.0001 0.0001 0.0001 0.0001 0.0001 0.0001 0.0001 0.0001 0.0001 0.0001 0.0001 0.0001 0.0001 0.0001 0.0001 0.0001 0.0001 0.0001 0.0001000001 0.0001000002 0.0001000005 0.0001000014 0.0001000039 0.0001000105 0.0001000096 0.0001000001 0.0001 0.0001 0.0001 0.0001 0.0001 0.0001 0.0001 0.0001 0.0001 0.0001 0.0001 0.0001 0.0001 0.0001 0.0001 0.0001 0.0001 0.0001001465 0.0001001953 0.0001001953 0.0001 0.0003795361 0.000519253 0.0005127743 0.0005125 0.0005 0.0002393229 0.0001125 0.0001 0.0001 0.0001 0.0001 0.0001 0.0001 0.0001 0.0001 0.0002 0.0003 0.0004 0.0007 0.0012 0.0017 0.0021 0.0021 0.0019 0.001833333 0.0016 0.0014 0.0015 0.0019 0.0028 0.0026 0.0036 0.003166667 0.0025 0.0012 0.001025 0.0001 0.000125 0.0001287037 0.0001449074 0.0001598765 0.0001783522 0.0001507159 0.0001013717 0.0001004115 0.0001 0.0001 0.0001 0.000111 0.000125 0.0001 0.0001 0.0001 0.0001 0.0001 0.0001 0.0001 0.0001 0.0001 0.0001 0.0001 0.0001 0.0001 0.0001111111 0.0001 0.0001125 0.0001125 0.000109668 0.0001 0.0001000977 0.0001 0.0001 0.0001 0.0001 0.0001 0.0001 0.0001 0.0001 0.0001007813 0.0001003921 0.0001 0.0001001953 0.000100197 0.0001002997 0.0001001335 0.0001 0.0001 0.0001 0.0001 0.0001 0.0001 0.0001000031 0.000100001 0.0001 0.0001 0.0001 0.0001 0.0001 0.0001 0.0001 0.0001 0.0001 0.0001 0.0001 0.0001 0.0001 0.0001 0.0001 0.0001 0.0001 0.0001 0.0001 0.0001 
0.0001 0.0001 0.0001 0.0001 0.0001 0.0001 0.0001 0.0001 0.0001 0.0001 0.0001 0.0001 0.0001 0.0001 0.0001 0.0001 0.0001 0.0001333333 0.0002 0.00015 0.0001 0.0001 0.0001 0.0001 0.0001 0.0001 0.0001 0.0001 0.0001 0.0001 0.0001 0.0001 0.0001 0.0001 0.0001 0.0001 0.0001 0.0001 0.0001 0.0001 0.0001 0.0001 0.0001000001 0.0001000003 0.0001000007 0.000100002 0.0001000053 0.0001000048 0.0001 0.0001 0.0001 0.0001 0.0001 0.0001 0.0001 0.0001 0.0001 0.0001 0.0001 0.0001 0.0001 0.0001 0.0001 0.0001 0.0001 0.0001 0.0001000733 0.0001000977 0.0001000977 0.0001 0.0003730662 0.0005095731 0.0005063415 0.00050625 0.0005 0.0002363932 0.00010625 0.0001 0.0001 0.0001 0.0001 0.0001 0.0001 0.0001 0.0001 0.0001 0.00012 0.0001 0.0002 0.0004 0.0007 0.0011 0.0013 0.0013 0.0012 0.001166667 0.001 0.0009 0.001 0.0013 0.0015 0.0017 0.0024 0.002116667 0.0016 0.0006 0.0007 0.00054375 0.0001 0.0001125 0.0001137346 0.0001216307 0.0001293896 0.0001199538 0.0001001372 0.0001 0.0001 0.0001 0.0001047 0.0001125 0.0001 0.0001 0.0001 0.0001 0.0001 0.0001 0.0001 0.0001 0.0001 0.0001 0.0001 0.0001 0.0001 0.0001 0.0001 0.0001037037 0.0001 0.00010625 0.00010625 0.0001047607 0.0001 0.0001000244 0.0001 0.0001 0.0001 0.0001 0.0001 0.0001 0.0001 0.0001 0.0001003906 0.0001001957 0.0001 0.0001000977 0.0001000982 0.0001001489 0.0001000663 0.0001 0.0001 0.0001 0.0001 0.0001 0.0001 0.0001000015 0.0001000005 0.0001 0.0001 0.0001 0.0001 0.0001 0.0001 0.0001 0.0001 0.0001 0.0001 0.0001 0.0001 0.0001 0.0001 0.0001 0.0001 0.0001 0.0001 0.0001 
0.0001 0.0001 0.0001 0.0001 0.0001 0.0001 0.0001 0.0001 0.0001 0.0001 0.0001 0.0001 0.0001 0.0001 0.0001 0.0001 0.0001333333 0.0002 0.00015 0.0001 0.0001 0.0001 0.0001 0.0001 0.0001 0.0001 0.0001 0.0001 0.0001 0.0001 0.0001 0.0001 0.0001 0.0001 0.0001 0.0001 0.0001 0.0001 0.0001 0.0001 0.0001 0.0001 0.0001000001 0.0001000004 0.000100001 0.0001000027 0.0001000024 0.0001 0.0001 0.0001 0.0001 0.0001 0.0001 0.0001 0.0001 0.0001 0.0001 0.0001 0.0001 0.0001 0.0001 0.0001 0.0001 0.0001 0.0001 0.0001000366 0.0001000488 0.0001000488 0.0001 0.0003698506 0.0005047637 0.0005031555 0.000503125 0.0005 0.0002348796 0.000103125 0.0001 0.0001 0.0001 0.0001 0.0001 0.0001 0.0001 0.0001 0.0001 0.0001 0.0001 0.0001 0.0001 0.0003 0.0004 0.0006 0.0008 0.0008 0.0008166667 0.0007 0.0006 0.0006 0.0006 0.0008 0.0008 0.0011 0.0016 0.001366667 0.001 0.0003 0.00035 0.000425 0.0003276042 0.0001 0.00010625 0.0001066615 0.0001104724 0.0001072102 0.0001 0.0001 0.0001 0.00010219 0.00010625 0.0001 0.0001 0.0001 0.0001 0.0001 0.0001 0.0001 0.0001 0.0001 0.0001 0.0001 0.0001 0.0001 0.0001 0.0001 0.0001 0.0001 0.0001012346 0.0001 0.000103125 0.000103125 0.0001023621 0.0001 0.0001000061 0.0001 0.0001 0.0001 0.0001 0.0001 0.0001 0.0001 0.0001 0.0001001953 0.0001000977 0.0001 0.0001000488 0.000100049 0.0001000741 0.000100033 0.0001 0.0001 0.0001 0.0001 0.0001 0.0001 0.0001000008 0.0001000003 0.0001 0.0001 0.0001 0.0001 0.0001 0.0001 0.0001 0.0001 0.0001 0.0001 0.0001 0.0001 0.0001 0.0001 0.0001 0.0001 0.0001 0.0001 
0.0001 0.0001 0.0001 0.0001 0.0001 0.0001 0.0001 0.0001 0.0001 0.0001 0.0001 0.0001 0.0001 0.0001 0.0001 0.0001333333 0.0002 0.00015 0.0001 0.0001 0.0001 0.0001 0.0001 0.0001 0.0001 0.0001 0.0001 0.0001 0.0001 0.0001 0.0001 0.0001 0.0001 0.0001 0.0001 0.0001 0.0001 0.0001 0.0001 0.0001 0.0001 0.0001000001 0.0001000002 0.0001000005 0.0001000013 0.0001000012 0.0001 0.0001 0.0001 0.0001 0.0001 0.0001 0.0001 0.0001 0.0001 0.0001 0.0001 0.0001 0.0001 0.0001 0.0001 0.0001 0.0001 0.0001 0.0001000183 0.0001000244 0.0001000244 0.0001 0.000368252 0.0005023726 0.0005015727 0.0005015625 0.0005 0.0002341105 0.0001015625 0.0001 0.0001 0.0001 0.0001 0.0001 0.0001 0.0001 0.0001 0.0001 0.0001 0.0001 0.0001 0.0001 0.0001 0.0001 0.0002 0.0004 0.0005 0.0005 0.0005 0.0004 0.0004 0.0004 0.0004 0.0004 0.0005 0.0007 0.0009 0.001 0.0006 0.00015 0.000225 0.0002416667 0.0002847222 0.0002263455 0.0001 0.000103125 0.0001032622 0.0001030594 0.0001 0.0001 0.000101063 0.000103125 0.0001 0.0001 0.0001 0.0001 0.0001 0.0001 0.0001 0.0001 0.0001 0.0001 0.0001 0.0001 0.0001 0.0001 0.0001 0.0001 0.0001 0.0001 0.0001 0.0001004115 0.0001 0.0001015625 0.0001015625 0.0001011765 0.0001 0.0001000015 0.0001 0.0001 0.0001 0.0001 0.0001 0.0001 0.0001 0.0001 0.0001000977 0.0001000489 0.0001 0.0001000244 0.0001000245 0.0001000369 0.0001000164 0.0001 0.0001 0.0001 0.0001 0.0001 0.0001 0.0001000004 0.0001000001 0.0001 0.0001 0.0001 0.0001 0.0001 0.0001 0.0001 0.0001 0.0001 0.0001 0.0001 0.0001 0.0001 0.0001 0.0001 0.0001 0.0001 
0.0001 0.0001 0.0001 0.0001 0.0001 0.0001 0.0001 0.0001 0.0001 0.0001 0.0001 0.0001 0.0001 0.0001 0.0001333333 0.0002 0.00015 0.0001 0.0001 0.0001 0.0001 0.0001 0.0001 0.0001 0.0001 0.0001 0.0001 0.0001 0.0001 0.0001 0.0001 0.0001 0.0001 0.0001 0.0001 0.0001 0.0001 0.0001 0.0001 0.0001 0.0001 0.0001000001 0.0001000002 0.0001000007 0.0001000006 0.0001 0.0001 0.0001 0.0001 0.0001 0.0001 0.0001 0.0001 0.0001 0.0001 0.0001 0.0001 0.0001 0.0001 0.0001 0.0001 0.0001 0.0001 0.0001000092 0.0001000122 0.0001000122 0.0001 0.0003674566 0.0005011826 0.0005007847 0.0005007812 0.0005 0.0002337229 0.0001007813 0.0001 0.0001 0.0001 0.0001 0.0001 0.0001 0.0001 0.0001 0.0001 0.0001 0.0001 0.0001 0.0001 0.0001 0.0001 0.0001 0.0001 0.0002 0.0003 0.0003 0.0003 0.0003 0.0004 0.0002 0.0002 0.0002 0.0003 0.0004 0.0005333333 0.0006 0.0003 0.0003 0.00015 0.0001875 0.0001930556 0.0002155093 0.0001781141 0.0001 0.0001015625 0.0001012062 0.0001 0.0001005251 0.0001015625 0.0001 0.0001 0.0001 0.0001 0.0001 0.0001 0.0001 0.0001 0.0001 0.0001 0.0001 0.0001 0.0001 0.0001 0.0001 0.0001 0.0001 0.0001 0.0001 0.0001 0.0001 0.0001001372 0.0001 0.0001007813 0.0001007813 0.0001005871 0.0001 0.0001000004 0.0001 0.0001 0.0001 0.0001 0.0001 0.0001 0.0001 0.0001 0.0001000488 0.0001000244 0.0001 0.0001000122 0.0001000122 0.0001000184 0.0001000082 0.0001 0.0001 0.0001 0.0001 0.0001 0.0001 0.0001000002 0.0001000001 0.0001 0.0001 0.0001 0.0001 0.0001 0.0001 0.0001 0.0001 0.0001 0.0001 0.0001 0.0001 0.0001 0.0001 0.0001 0.0001 
0.0001 0.0001 0.0001 0.0001 0.0001 0.0001 0.0001 0.0001 0.0001 0.0001 0.0001 0.0001 0.0001 0.0001333333 0.0002 0.00015 0.0001 0.0001 0.0001 0.0001 0.0001 0.0001 0.0001 0.0001 0.0001 0.0001 0.0001 0.0001 0.0001 0.0001 0.0001 0.0001 0.0001 0.0001 0.0001 0.0001 0.0001 0.0001 0.0001 0.0001 0.0001 0.0001000001 0.0001000003 0.0001000003 0.0001 0.0001 0.0001 0.0001 0.0001 0.0001 0.0001 0.0001 0.0001 0.0001 0.0001 0.0001 0.0001 0.0001 0.0001 0.0001 0.0001 0.0001 0.0001000046 0.0001000061 0.0001000061 0.0001 0.0003670605 0.0005005899 0.0005003918 0.0005003906 0.0005 0.0002335284 0.0001003906 0.0001 0.0001 0.0001 0.0001 0.0001 0.0001 0.0001 0.0001 0.0001 0.0001 0.0001 0.0001 0.0001 0.0001 0.0001 0.0001 0.0001 0.0001 0.0001 0.0001 0.0002 0.0001833333 0.0001 0.0001857143 0.0001 0.0001 0.0001 0.0002 0.0002 0.0003 0.0003 0.00015 0.0001833333 0.0001895833 0.00015 0.00016875 0.0001706019 0.0001818287 0.0001549838 0.0001 0.0001007813 0.0001004705 0.0001007813 0.0001 0.0001 0.0001 0.0001 0.0001 0.0001 0.0001 0.0001 0.0001 0.0001 0.0001 0.0001 0.0001 0.0001 0.0001 0.0001 0.0001 0.0001 0.0001 0.0001 0.0001 0.0001 0.0001 0.0001000457 0.0001 0.0001003906 0.0001003906 0.0001002933 0.0001 0.0001000001 0.0001 0.0001 0.0001 0.0001 0.0001 0.0001 0.0001 0.0001 0.0001000244 0.0001000122 0.0001 0.0001000061 0.0001000061 0.0001000092 0.0001000041 0.0001 0.0001 0.0001 0.0001 0.0001 0.0001 0.0001000001 0.0001 0.0001 0.0001 0.0001 0.0001 0.0001 0.0001 0.0001 0.0001 0.0001 0.0001 0.0001 0.0001 0.0001 0.0001 0.0001 
0.0001 0.0001 0.0001 0.0001 0.0001 0.0001 0.0001 0.0001 0.0001 0.0001 0.0001 0.0001 0.0001333333 0.0002 0.00015 0.0001 0.0001 0.0001 0.0001 0.0001 0.0001 0.0001 0.0001 0.0001 0.0001 0.0001 0.0001 0.0001 0.0001 0.0001 0.0001 0.0001 0.0001 0.0001 0.0001 0.0001 0.0001 0.0001 0.0001 0.0001 0.0001000001 0.0001000002 0.0001000002 0.0001 0.0001 0.0001 0.0001 0.0001 0.0001 0.0001 0.0001 0.0001 0.0001 0.0001 0.0001 0.0001 0.0001 0.0001 0.0001 0.0001 0.0001 0.0001000023 0.0001000031 0.0001000031 0.0001 0.0003668754 0.0005002944 0.0005001957 0.0005001953 0.0005 0.0002334309 0.0001001953 0.0001 0.0001 0.0001 0.0001 0.0001 0.0001 0.0001 0.0001 0.0001 0.0001 0.0001 0.0001 0.0001 0.0001 0.0001 0.0001 0.0001 0.0001 0.0001 0.0001 0.0001 0.000125 0.0001 0.0001 0.0001 0.0001 0.0001 0.0001 0.0001 0.0001 0.0001666667 0.0002 0.0001 0.000125 0.0001361111 0.0001470486 0.00015 0.000159375 0.0001599923 0.0001655028 0.0001444566 0.0001 0.0001003906 0.0001 0.0001 0.0001 0.0001 0.0001 0.0001 0.0001 0.0001 0.0001 0.0001 0.0001 0.0001 0.0001 0.0001 0.0001 0.0001 0.0001 0.0001 0.0001 0.0001 0.0001 0.0001 0.0001 0.0001 0.0001 0.0001000152 0.0001 0.0001001953 0.0001001953 0.0001001466 0.0001 0.0001 0.0001 0.0001 0.0001 0.0001 0.0001 0.0001 0.0001 0.0001 0.0001000122 0.0001000061 0.0001 0.0001000031 0.0001000031 0.0001000046 0.0001000022 0.0001 0.0001 0.0001 0.0001 0.0001 0.0001 0.0001 0.0001 0.0001 0.0001 0.0001 0.0001 0.0001 0.0001 0.0001 0.0001 0.0001 0.0001 0.0001 0.0001 0.0001 0.0001 
0.0001 0.0001 0.0001 0.0001 0.0001 0.0001 0.0001 0.0001 0.0001 0.0001 0.0001 0.0001333333 0.0002 0.00015 0.0001 0.0001 0.0001 0.0001 0.0001 0.0001 0.0001 0.0001 0.0001 0.0001 0.0001 0.0001 0.0001 0.0001 0.0001 0.0001 0.0001 0.0001 0.0001 0.0001 0.0001 0.0001 0.0001 0.0001 0.0001 0.0001 0.0001000001 0.0001000001 0.0001 0.0001 0.0001 0.0001 0.0001 0.0001 0.0001 0.0001 0.0001 0.0001 0.0001 0.0001 0.0001 0.0001 0.0001 0.0001 0.0001 0.0001 0.0001000015 0.0001000023 0.0001000015 0.0001 0.0003223653 0.0005002205 0.0005001466 0.0005000976 0.0005 0.0002778429 0.0001000977 0.0001 0.0001 0.0001 0.0001 0.0001 0.0001 0.0001 0.0001 0.0001 0.0001 0.0001 0.0001 0.0001 0.0001 0.0001 0.0001 0.0001 0.0001 0.0001 0.0001 0.0001 0.0001 0.0001 0.0001 0.0001 0.0001 0.0001 0.0001 0.0001 0.0001 0.0001 0.0001 0.0001 0.0001333333 0.0001 0.0001125 0.0001243056 0.0001404514 0.00015 0.0001546875 0.0001573399 0.0001614214 0.0001352927 0.0001 0.0001 0.0001 0.0001 0.0001 0.0001 0.0001 0.0001 0.0001 0.0001 0.0001 0.0001 0.0001 0.0001 0.0001 0.0001 0.0001 0.0001 0.0001 0.0001 0.0001 0.0001 0.0001 0.0001 0.0001 0.0001 0.0001 0.0001000051 0.0001 0.0001000977 0.0001001465 0.0001000977 0.0001 0.0001 0.0001 0.0001 0.0001 0.0001 0.0001 0.0001 0.0001 0.0001 0.0001000061 0.0001000041 0.0001 0.0001000015 0.0001000023 0.0001000034 0.0001000014 0.0001 0.0001 0.0001 0.0001 0.0001 0.0001 0.0001 0.0001 0.0001 0.0001 0.0001 0.0001 0.0001 0.0001 0.0001 0.0001 0.0001 0.0001 0.0001 0.0001 0.0001 
