ncols         167
nrows         103
xllcorner     94.926822839602
yllcorner     29.771651204354
cellsize      0.00032827174993591
NODATA_value  -9999
0.0001229094 0.0001 0.0001510288 0.0002 0.0002 0.0001692708 0.0001 0.00015 0.0002333333 0.0006444444 0.001164583 0.0001 0.0001333333 0.0001 0.0001 0.0002 0.0005 0.00115 0.001 0.0014 0.1237 0.4492 0.6059 1.13115 1.3975 1.3729 1.2853 1.0629 0.9325 0.7268 1.399112 1.478225 1.0279 7.997242 10.20295 8.479578 6.480452 4.490352 2.527411 1.144089 0.4211445 0.2502 0.2502 1.18096 0.9577621 0.6917625 0.4565 2.275841 1.880329 0.9165738 0.4915168 0.3607282 0.3522834 0.3508053 0.330122 0.2927998 0.2595302 0.234477 0.220098 0.2122626 0.2100844 0.2079 0.2115484 0.13042 0.0279 0.05360008 0.04900558 0.03813364 0.03416897 0.03264141 0.03226523 0.0319 0.02085692 0.01507622 0.015 0.015 0.005142763 0.0002048772 0.0002023438 0.0002 0.2744614 0.4079904 0.4056135 0.4046183 0.4042364 0.404079 0.4040395 0.404 0.2022013 0.0004 0.08082242 0.1209665 0.1209221 0.1209111 0.1209 0.04048615 0.0001882084 0.0001309638 0.0001099349 0.0001030358 0.0001009419 0.000100309 0.0001001112 0.0001000367 0.0001000183 0.0001 0.00015 0.0002 0.0002000548 0.0002000366 0.0002000183 0.0002 3.195963 4.793765 4.793732 4.7937 1.937494 0.5092917 0.509234 0.5092113 0.5092056 0.5092 0.1709708 0.001816129 0.001799254 0.001797926 0.001798947 0.001799635 0.001799902 0.00179998 0.001799997 0.0018 0.0018 0.0018 0.0018 0.0018 0.0018 0.0018 0.0018 0.00080088 0.0003005908 0.0003001909 0.0003000648 0.0003000236 0.0003000078 0.0003000039 0.0003 0.000436514 0.0005021417 0.0005006794 0.0005002212 0.0005000752 0.0005000264 0.0005000097 0.0005000032 0.0005000016 0.0005 0.002365708 0.002408357 0.00158888 0.001015132 0.0006306828 0.0003892716 0.0002479827 0.0001715415 0.0001346958 0.0001222968 
0.0001318287 0.0001368996 0.0001 0.0001530864 0.0002 0.0002 0.0001770833 0.0001 0.0002 0.0004 0.001333333 0.002825 0.0001 0.0002 0.0001 0.0002 0.001433333 0.0007 0.0024 0.0071 0.1358 0.3505 0.8613 1.951325 1.401 1.394 1.3237 1.1382 0.7268 1.9132 1.92855 1.0279 8.741558 11.82197 10.39754 8.389334 6.651855 4.400167 2.419033 0.7630333 0.2502 0.2502 2.056852 1.489761 0.927025 0.4565 3.752072 3.283972 1.61082 0.7461944 0.3927065 0.3356494 0.3538287 0.3673722 0.3312151 0.2917787 0.2554055 0.2314063 0.216619 0.2122688 0.2079 0.2151969 0.1518116 0.0279 0.07596625 0.06600958 0.04452449 0.03648268 0.03339377 0.03263047 0.0319 0.02129903 0.01522865 0.015 0.015 0.005156419 0.000209944 0.0002046875 0.0002 0.2788989 0.4116029 0.4071437 0.4052247 0.4044722 0.4041581 0.404079 0.404 0.2022038 0.0004 0.08091252 0.121033 0.1209442 0.1209222 0.1209 0.04060131 0.0002782386 0.000165059 0.0001213275 0.0001065049 0.0001019723 0.0001006301 0.0001002234 0.0001000735 0.0001000366 0.0001 0.0001500001 0.0002 0.0002001095 0.0002000731 0.0002000366 0.0002 3.19606 4.793829 4.793765 4.7937 1.937623 0.5093844 0.5092682 0.5092226 0.5092113 0.5092 0.1710315 0.001848509 0.001803171 0.001796706 0.001797885 0.001799189 0.001799767 0.001799948 0.001799991 0.001799999 0.0018 0.0018 0.0018 0.0018 0.0018 0.0018 0.0018 0.0008018789 0.0003012471 0.000300394 0.0003001313 0.0003000474 0.0003000157 0.0003000078 0.0003 0.0004400882 0.0005045399 0.0005014277 0.0005004574 0.0005001531 0.0005000531 0.0005000195 0.0005000065 0.0005000032 0.0005 0.003247992 0.003410236 0.002304605 0.001510232 0.0009518028 0.0005833607 0.000356885 0.0002275693 0.000159494 0.0001275614 0.0001170322 
0.00011875 0.0001449074 0.000183941 0.0001 0.0001592593 0.0002 0.0002 0.0002083333 0.0001 0.0003 0.0008 0.0029 0.0075 0.0001 0.0005 0.0017 0.03996667 0.0053 0.0153 0.043 2.4424 3.0028 2.9425 3.277117 2.6005 2.7195 2.8759 3.0556 3.0689 2.8292 1.0279 8.903067 12.81703 12.21823 10.43063 8.543767 6.1936 5.2182 1.7887 0.2502 0.2502 3.964425 2.615233 1.39755 0.4565 6.054145 5.587733 2.909911 1.354272 0.5682778 0.3160333 0.2938083 0.3971065 0.3705713 0.3344389 0.2886352 0.252262 0.2253194 0.2166375 0.2079 0.2224938 0.1562496 0.0279 0.119103 0.09937563 0.05748639 0.04116672 0.03492036 0.03336094 0.0319 0.02261019 0.01568594 0.015 0.015 0.005195844 0.0002204571 0.000209375 0.0002 0.2870021 0.4183199 0.4100735 0.4064153 0.4049424 0.4043162 0.404158 0.404 0.2022114 0.0004 0.08109546 0.1211665 0.1209881 0.1209444 0.1209 0.0408163 0.0004535862 0.0002353686 0.0001457611 0.0001140474 0.0001041738 0.0001012934 0.0001004496 0.0001001472 0.0001000732 0.0001 0.0001500002 0.0002 0.0002002186 0.0002001461 0.0002000732 0.0002 3.196254 4.793958 4.793829 4.7937 1.937884 0.5095712 0.5093367 0.5092452 0.5092226 0.5092 0.1711763 0.001931974 0.001817637 0.001795917 0.001795959 0.001798241 0.001799454 0.001799871 0.001799977 0.001799997 0.0018 0.0018 0.0018 0.0018 0.0018 0.0018 0.0018 0.0008040415 0.0003026544 0.0003008196 0.0003002671 0.0003000953 0.0003000314 0.0003000156 0.0003 0.0004476852 0.0005096495 0.0005030183 0.0005009521 0.0005003129 0.0005001071 0.0005000392 0.000500013 0.0005000065 0.0005 0.004473115 0.004747856 0.003270996 0.002211854 0.001430965 0.0008878768 0.0005365668 0.0003256385 0.0002084497 0.0001486198 0.0001214125 0.0001126518 
0.0001 0.0001375 0.0001972222 0.0003010417 0.0001 0.0001777778 0.0002 0.0002 0.0003333333 0.0001 0.0005 0.0018 0.0064 0.0217 0.0618 0.0513 0.55935 0.1806 0.583 1.5517 4.7586 5.2685 5.7509 6.939767 6.1065 6.3303 6.7101 7.6182 8.4377 9.8178 15.47608 12.1741 13.5072 12.7698 10.3777 8.1444 7.1092 3.3272 11.14682 0.2502 8.2183 5.0506 2.3386 0.4565 9.425062 9.2043 5.130717 2.428183 1.170833 0.4638 0.0702 0.4141 0.397125 0.3800944 0.3344944 0.2887278 0.2426833 0.225375 0.2079 0.2370875 0.1667047 0.0279 0.2010242 0.1637069 0.08378086 0.05063907 0.03803922 0.03482188 0.0319 0.02648295 0.01705782 0.015 0.015 0.005322004 0.0002426212 0.00021875 0.0002 0.3015837 0.4306175 0.4156072 0.4087348 0.4058784 0.4046328 0.404316 0.404 0.2022343 0.0004 0.08147119 0.1214352 0.1210754 0.1209889 0.1209 0.04120227 0.0007851807 0.0003777588 0.0001978191 0.0001305278 0.0001089365 0.0001026779 0.0001009071 0.0001002952 0.0001001465 0.0001 0.0001500007 0.0002 0.0002004361 0.0002002918 0.0002001465 0.0002 3.19664 4.794216 4.793958 4.7937 1.938413 0.5099487 0.5094745 0.5092905 0.5092451 0.5092 0.171508 0.002135842 0.001861461 0.001798617 0.001792834 0.0017963 0.001798742 0.001799681 0.00179994 0.001799992 0.0018 0.0018 0.0018 0.0018 0.0018 0.0018 0.0018 0.0008087493 0.0003056964 0.0003017201 0.0003005467 0.0003001919 0.0003000628 0.0003000313 0.0003 0.0004637888 0.0005205371 0.0005064151 0.0005019963 0.0005006434 0.0005002167 0.0005000786 0.000500026 0.0005000129 0.0005 0.006315059 0.006550346 0.004527056 0.003166168 0.002119764 0.001349629 0.0008235009 0.0004905001 0.0002956993 0.0001907159 0.0001389338 0.0001162096 0.000109094 
0.0001148148 0.0001 0.000175 0.0003166667 0.0006125 0.0001 0.0002333333 0.0002 0.00056 0.0007 0.0027 0.0093 0.0309 0.0975 0.3 0.9734 1.301883 2.1438 3.2503 4.0154 8.6385 10.3199 11.6943 13.11392 12.5439 12.6643 12.1733 14.7492 21.6775 30.4931 23.41743 36.5144 38.6277 38.3233 37.1571 34.0639 26.9146 19.33098 23.0822 17.9277 10.4746 4.2207 0.4565 13.4731 14.80565 8.965 3.84225 2.5849 0.8574 0.0702 3.80549 2.910258 0.4141 0.38015 0.3460333 0.2773 0.24285 0.2079 0.266275 0.1939313 0.0279 0.3547755 0.2842522 0.1371691 0.06969954 0.04447392 0.03774375 0.0319 0.03785833 0.02117346 0.015 0.015 0.005760153 0.0002903635 0.0002375 0.0002 0.3274834 0.452768 0.4258833 0.4132013 0.4077369 0.4052663 0.404632 0.404 0.2023029 0.0004 0.08225688 0.1219794 0.1212485 0.1210777 0.1209 0.041861 0.001388875 0.0006591875 0.0003074792 0.0001666098 0.0001193683 0.0001056054 0.0001018357 0.0001005927 0.000100293 0.0001 0.000150002 0.0002 0.000200869 0.0002005826 0.000200293 0.0002 3.197414 4.794732 4.794216 4.7937 1.939485 0.510713 0.5097518 0.5093813 0.5092903 0.5092 0.172239 0.002611965 0.001981048 0.001814513 0.001788821 0.001792517 0.001797162 0.001799222 0.001799843 0.001799978 0.001799998 0.0018 0.0018 0.0018 0.0018 0.0018 0.0018 0.000819035 0.0003123166 0.0003036457 0.000301127 0.0003003875 0.0003001257 0.0003000626 0.0003 0.0004977607 0.0005436981 0.0005136966 0.0005042167 0.0005013319 0.0005004402 0.0005001579 0.000500052 0.0005000259 0.0005 0.00951466 0.009139137 0.006106439 0.004405462 0.003069266 0.002023776 0.001266251 0.0007588609 0.000445391 0.0002672485 0.0001744584 0.0001304409 0.000111902 0.0001062861 
0.0001 0.0001444444 0.0001 0.00025 0.0006 0.0015 0.0001 0.0004 0.009083333 0.0014 0.0051 0.0181 0.0631 0.2116 0.6615 1.54635 1.6243 2.8379 4.3414 6.2928 14.2073 17.2589 18.17582 20.1154 22.4725 24.0853 31.3922 34.3239 33.0467 27.7853 27.51123 23.7199 22.4681 22.6166 23.5877 24.7598 27.4724 24.95272 28.0803 28.2681 28.0085 27.2923 23.8246 17.7212 11.8901 17.04782 6.0399 1.6446 0.0702 7.183225 5.058733 2.9098 3.2584 0.4141 0.3462 0.2778 0.2079 0.32465 0.27365 0.0279 0.6460222 0.4991833 0.2459963 0.1075769 0.05793426 0.0435875 0.0319 0.07101294 0.03352037 0.015 0.015 0.007369522 0.0003960905 0.000275 0.0002 0.3730872 0.4920659 0.4445807 0.4216573 0.4114119 0.4065347 0.405264 0.404 0.2025086 0.0004 0.08394492 0.1230925 0.1215901 0.1212555 0.1209 0.04291186 0.002434517 0.001197606 0.0005345032 0.0002454535 0.0001424809 0.0001118949 0.000103729 0.0001011922 0.0001005859 0.0001 0.0001500059 0.0002 0.0002017285 0.0002011617 0.0002005859 0.0002 3.198959 4.795763 4.794732 4.7937 1.941665 0.512264 0.5103115 0.5095634 0.5093805 0.5092 0.1737909 0.003679793 0.002285265 0.001870838 0.001787043 0.00178566 0.001793761 0.001798132 0.001799593 0.001799939 0.001799995 0.0018 0.0018 0.0018 0.0018 0.0018 0.0018 0.0008415341 0.0003267979 0.0003078082 0.0003023437 0.0003007853 0.0003002521 0.0003001251 0.0003 0.0005689205 0.0005927837 0.0005293385 0.0005089722 0.0005027791 0.0005008989 0.0005003178 0.0005001041 0.0005000519 0.0005 0.01607349 0.01341545 0.008069697 0.005932263 0.004317357 0.002966766 0.001923674 0.001180889 0.0006941895 0.0004015042 0.0002404794 0.000159762 0.0001231338 0.0001084268 0.0001041453 
0.0001444444 0.0001 0.0002333333 0.0001 0.0004 0.0013 0.0042 0.0132 0.03431667 0.0386 0.1071 0.2807 0.6969 1.566 2.2118 3.613717 3.5071 5.9413 9.2219 11.9299 18.9556 22.9371 23.81585 26.7293 31.1931 38.4566 41.7166 34.5819 28.7599 24.7909 26.82955 21.7638 19.8062 19.3362 19.5782 20.3695 21.3917 23.0102 22.7751 24.3654 26.337 27.7841 28.114 27.4366 20.2608 26.0465 24.2148 19.375 14.6552 9.3566 4.6509 1.1687 6.1123 8.1924 4.8527 2.1954 0.4414 0.53415 0.0279 1.239467 0.8461889 0.4705333 0.1808278 0.08662778 0.055275 0.0319 0.1665906 0.07056111 0.015 0.015 0.01348981 0.0006382716 0.00035 0.0002 0.4532154 0.5610874 0.4778461 0.4372642 0.4186317 0.409076 0.4065281 0.404 0.2031259 0.0004 0.08771325 0.125407 0.1222595 0.1216109 0.1209 0.04443673 0.004127263 0.00218347 0.0009928189 0.0004165281 0.0001941627 0.0001256697 0.0001076104 0.0001024047 0.0001011719 0.0001 0.0001500178 0.0002 0.0002034289 0.0002023133 0.0002011719 0.0002 3.202048 4.797824 4.795764 4.7937 1.946099 0.5154185 0.5114442 0.5099292 0.509561 0.5092 0.1769625 0.005983337 0.00301794 0.002038102 0.001799751 0.001774659 0.001786718 0.001795602 0.001798962 0.001799833 0.001799986 0.0018 0.0018 0.0018 0.0018 0.0018 0.0018 0.000890668 0.0003585689 0.0003168994 0.0003049255 0.0003015996 0.000300506 0.0003002502 0.0003 0.0007165514 0.0006961846 0.0005629459 0.0005192205 0.0005058492 0.0005018468 0.0005006412 0.0005002085 0.0005001037 0.0005 0.03125045 0.02190828 0.01063523 0.007702851 0.005871013 0.004222926 0.002858131 0.001819241 0.00109365 0.000629776 0.0003591421 0.0002155944 0.0001467016 0.00011699 0.0001057099 0.0001025806 
0.0001 0.0002333333 0.0001 0.0005 0.0015 0.0049 0.0148 0.03936667 0.0418 0.1105 0.2726 0.624 1.3133 2.5685 5.4776 5.231566 8.2 9.8349 11.7435 14.8416 21.3314 24.4005 28.78143 31.4539 42.7767 41.2931 38.7439 36.5958 35.0061 33.49335 33.0388 29.8786 26.3563 23.3814 21.0831 19.2604 18.9904 20.29087 19.3513 19.6999 19.233 18.2957 18.7848 19.2592 20.40128 19.2112 19.0971 20.5933 19.2339 17.189 14.9505 9.15235 12.1747 8.6116 6.1797 3.8272 1.4594 0.0279 2.7059 1.2763 0.9477667 0.3145 0.1493333 0.07865 0.0319 0.4377792 0.1816833 0.015 0.015 0.03724444 0.001214815 0.0005 0.0002 0.5943533 0.6823907 0.5359176 0.4649537 0.4326671 0.4141718 0.4090562 0.404 0.2049778 0.0004 0.09655391 0.1303426 0.1235565 0.1223219 0.1209 0.04635054 0.006614089 0.003882305 0.001885394 0.0007827132 0.0003103495 0.0001565215 0.0001156171 0.0001048704 0.0001023438 0.0001 0.0001500533 0.0002 0.0002067757 0.0002045961 0.0002023438 0.0002 3.208217 4.801945 4.797829 4.7937 1.955106 0.5218451 0.5137447 0.5106658 0.509922 0.5092 0.183188 0.01076134 0.004700727 0.002487942 0.001865151 0.001761213 0.001772889 0.001789876 0.001797388 0.001799541 0.001799957 0.0018 0.0018 0.0018 0.0018 0.0018 0.0018 0.0009974436 0.0004282895 0.0003369389 0.0003104783 0.0003032809 0.0003010173 0.0003005005 0.0003 0.001019064 0.0009121413 0.0006350005 0.0005414121 0.0005124253 0.0005038241 0.0005012982 0.000500418 0.0005002075 0.0005 0.06839386 0.04150617 0.01460178 0.009616886 0.007687009 0.005804657 0.004121372 0.002742751 0.00171027 0.001004702 0.0005659789 0.000318647 0.0001928005 0.0001353356 0.0001119686 0.0001036659 0.0001014953 
0.0002666667 0.0001 0.0005 0.0017 0.0054 0.016 0.0449 0.08488333 0.1173 0.2852 0.6419 1.3283 2.5089 4.2237 5.2502 6.207567 6.7427 9.402 12.7177 15.7992 21.6823 30.2315 29.72107 36.9363 36.0491 35.8875 36.6531 38.4339 39.8264 37.32418 39.538 37.9915 34.4921 29.5315 24.3159 21.1913 23.36552 19.5366 19.7001 19.0674 17.9462 16.6398 15.7216 15.1761 17.26255 15.2781 14.685 13.9919 13.2543 12.425 11.4971 12.51977 10.4722 11.6205 10.679 9.7636 8.6641 6.0646 6.02058 2.0252 0.5274 0.2907 0.1254 0.0319 1.189167 0.51505 0.015 0.015 0.1305333 0.002644444 0.0008 0.0002 0.841013 0.8989056 0.6372945 0.5109722 0.4594861 0.4244028 0.4141125 0.404 0.2105333 0.0004 0.1185317 0.1412582 0.1260258 0.1237438 0.1209 0.04819532 0.009744684 0.00656214 0.003535442 0.001549331 0.0005714077 0.0002274006 0.0001322402 0.0001099237 0.0001046875 0.0001 0.00015016 0.0002 0.0002133147 0.0002091006 0.0002046875 0.0002 3.220531 4.810177 4.801958 4.7937 1.973344 0.5349455 0.5184365 0.5121533 0.510644 0.5092 0.1948842 0.02027099 0.00839687 0.003616163 0.002089149 0.001758514 0.00174779 0.001777335 0.001793542 0.001798752 0.00179987 0.0018 0.0018 0.0018 0.0018 0.0018 0.0018 0.001227499 0.0005808423 0.0003814329 0.0003225932 0.0003067907 0.0003020511 0.000301001 0.0003 0.001629432 0.001358065 0.000788758 0.0005896012 0.0005266423 0.0005079928 0.0005026407 0.0005008389 0.000500415 0.0005 0.160079 0.09037197 0.02262449 0.01152207 0.009658798 0.007669794 0.005732435 0.00401174 0.00261994 0.001596572 0.0009142969 0.0005032379 0.0002804018 0.0001723012 0.0001256987 0.000108007 0.0001022001 0.0001007906 
0.0002 0.0005 0.0017 0.0053 0.0151 0.0406 0.0929 0.1010833 0.1976 0.3933 0.817 1.3917 2.128 2.9278 3.919983 4.7359 6.839 8.84 13.8476 21.141 26.4135 22.3536 27.1313 28.1729 28.4248 31.4458 34.2195 36.2662 37.6447 37.76258 38.8911 39.7173 40.0863 39.2097 37.0052 32.9544 33.60545 28.26 24.0895 22.4323 21.7149 19.4366 17.6944 17.26 17.89395 17.3907 16.595 15.7923 15.0881 14.3411 13.4823 12.94677 12.5418 13.2742 12.4376 11.7396 11.3246 11.0864 7.982567 10.8988 8.7074 6.5894 4.4656 2.5205 1.0151 1.520975 0.015 0.4994 0.006333333 0.0014 0.0002 1.245819 1.294083 0.82395 0.5786833 0.50925 0.4449833 0.424225 0.404 0.2272 0.0004 0.1765398 0.1665972 0.1305898 0.1265875 0.1209 0.04900042 0.01264835 0.01023251 0.006353189 0.00310072 0.001152418 0.000394856 0.0001669496 0.0001203961 0.000109375 0.0001 0.0001504801 0.0002 0.000225957 0.000217927 0.000209375 0.0002 3.245095 4.826616 4.810215 4.7937 2.010011 0.561615 0.5280496 0.5151719 0.5120881 0.5092 0.2158128 0.03836527 0.01615866 0.006289051 0.002742896 0.001816542 0.001708011 0.001750991 0.00178437 0.001796645 0.001799611 0.0018 0.0018 0.0018 0.0018 0.0018 0.0018 0.00171688 0.000912447 0.0004806703 0.0003494095 0.0003142189 0.0003041512 0.000302002 0.0003 0.002837817 0.002265556 0.001114356 0.0006942822 0.0005576353 0.0005168862 0.0005054054 0.0005016867 0.0005008301 0.0005 0.3819408 0.2148629 0.04301225 0.01324081 0.01162041 0.009704976 0.007651004 0.005653403 0.003892899 0.002488918 0.001478004 0.0008227942 0.000442093 0.0002448266 0.0001542857 0.0001177912 0.000105019 0.0001012108 0.0001003703 
0.0001 0.0004 0.0012 0.0033 0.0085 0.0188 0.0464 0.09361666 0.1074 0.2319 0.376 0.7178 1.3093 2.1759 3.3499 4.2064 7.6481 12.8378 16.0299 16.0126 14.0595 17.61455 14.6035 15.5551 19.1967 22.8297 26.7552 30.1272 31.02068 33.5816 37.0937 40.5697 43.9679 47.2196 49.872 50.6687 43.41518 49.0217 43.8874 37.6263 31.1159 28.7781 26.186 26.05928 22.5461 19.7127 18.9811 17.7709 16.9116 16.1661 15.3654 14.78092 14.3218 14.2499 12.9182 11.4433 10.2985 9.3246 10.88967 8.4958 7.7574 6.2427 5.1602 4.2091 3.09 3.538317 1.9638 0.0162 0.0026 0.0002 1.753575 2.0072 1.2223 0.65275 0.5968 0.4865 0.44445 0.404 0.2772 0.0004 0.3382427 0.2289222 0.1385944 0.132275 0.1209 0.04771649 0.0133321 0.01405309 0.01055988 0.006084568 0.002415123 0.0008024691 0.0002396605 0.0001424383 0.00011875 0.0001 0.0001514403 0.0002 0.000250047 0.0002350309 0.00021875 0.0002 3.294033 4.859417 4.82673 4.7937 2.082837 0.6156724 0.5478331 0.5213394 0.5149761 0.5092 0.2512561 0.07109758 0.0316976 0.01230062 0.004477761 0.002088767 0.00166216 0.001698697 0.001763174 0.001791101 0.001798834 0.0018 0.0018 0.0018 0.0018 0.0018 0.0018 0.002739754 0.001625533 0.0007022324 0.0004095756 0.000330203 0.0003084498 0.0003040039 0.0003 0.005175697 0.004079245 0.001796326 0.0009210967 0.0006256473 0.0005361026 0.000511156 0.0005033999 0.0005016602 0.0005 0.8972922 0.5289285 0.1010427 0.01461743 0.01337665 0.01172834 0.009756254 0.007630335 0.005566422 0.003763454 0.002348822 0.001354479 0.00073071 0.0003831934 0.0002123756 0.0001389108 0.0001115709 0.000102892 0.0001005943 0.0001001463 
0.0001 0.0003 0.0009 0.0023 0.0046 0.0134 0.02713333 0.0368 0.0806 0.1645 0.3091 0.5205 1.1552 2.3927 3.03215 3.6607 5.2875 7.0869 7.0418 11.7712 10.8705 11.00947 12.609 13.4997 15.6975 17.654 19.8125 22.7127 24.3878 25.7917 29.0953 32.6737 36.5024 40.8709 45.8327 48.989 45.85814 50.5973 50.8372 48.9962 46.7396 42.9439 38.5426 35.1607 34.1266 25.4618 21.8667 19.7391 18.4048 17.5649 18.45942 17.1481 15.8261 18.9652 17.3135 15.9261 14.5667 14.15297 13.3648 12.1676 10.9814 9.895 9.1528 8.5367 7.9917 8.988633 7.1543 6.5767 4.8061 2.9997 2.3047 1.7097 4.896375 0.7349 0.5706 0.4849 0.404 0.4272 0.0004 0.8094541 0.3918833 0.1512333 0.14365 0.1209 0.04522153 0.009237037 0.01550741 0.01525185 0.0114 0.005027778 0.001825926 0.0003916667 0.0001898148 0.0001375 0.0001 0.000154321 0.0002 0.0002950955 0.0002675926 0.0002375 0.0002 3.391382 4.92479 4.859761 4.7937 2.224698 0.7242703 0.588681 0.534066 0.5207524 0.5092 0.3076676 0.12697 0.06118697 0.02513578 0.008770056 0.002996039 0.001667189 0.001603073 0.001716219 0.0017768 0.001796502 0.0018 0.0018 0.0018 0.0018 0.0018 0.0018 0.004828542 0.003135161 0.001195312 0.0005461253 0.0003652597 0.0003173416 0.0003080078 0.0003 0.009574669 0.007624271 0.003203847 0.001409616 0.0007755134 0.0005781602 0.0005232682 0.0005068794 0.0005033203 0.0005 2.017453 1.298416 0.2727995 0.01557008 0.01475842 0.0135238 0.01184772 0.009813504 0.007607542 0.005469956 0.003621766 0.002198639 0.00122606 0.0006387384 0.000327332 0.0001835099 0.000126285 0.0001069375 0.0001014903 0.0001002481 0.0001000445 
0.0001 0.0004 0.001 0.0025 0.0072 0.0156 0.02028333 0.0318 0.0743 0.1638 0.3976 0.8991 1.5007 1.534233 2.3418 3.4154 4.6132 5.1147 8.428 9.6987 6.5679 7.905183 7.3464 9.8716 10.8636 12.2155 13.9112 15.9704 18.00952 18.1432 20.4718 23.0216 25.8058 28.9438 32.0437 35.29355 35.8664 40.0057 44.3158 48.5422 50.7787 49.7372 46.9637 42.68675 42.5992 39.9225 33.802 29.6083 26.377 24.0617 22.18033 20.4503 19.9285 23.7935 22.5586 20.7805 19.1905 17.36632 18.1727 17.2616 16.6043 16.5387 16.3442 16.902 17.8302 13.33993 15.9018 14.3671 11.8905 11.0866 10.2213 9.3913 6.383266 7.7496 5.5615 3.0241 0.8772 0.0004 2.228167 0.84285 0.1664 0.1664 0.1209 0.04830833 0.001011111 0.01066667 0.01603333 0.01982222 0.0099 0.004477778 0.0007055555 0.0002944444 0.000175 0.0001 0.000162963 0.0002 0.0003776042 0.0003277778 0.000275 0.0002 3.584658 5.054849 4.925822 4.7937 2.492974 0.9390727 0.6730452 0.5606932 0.5323047 0.5092 0.3915908 0.2161213 0.1137584 0.05103041 0.01877212 0.005604807 0.001933242 0.001450069 0.001618256 0.001740895 0.001789506 0.0018 0.0018 0.0018 0.0018 0.0018 0.0018 0.008967296 0.006263302 0.00228357 0.0008586124 0.0004437542 0.0003360093 0.0003160156 0.0003 0.01757734 0.01436733 0.006054008 0.002451475 0.001106057 0.0006713163 0.0005491665 0.0005139976 0.0005066406 0.0005 4.190186 3.092533 0.7865949 0.01611956 0.01568402 0.01490665 0.01368458 0.01198018 0.009878386 0.007581943 0.005362299 0.003465627 0.002037373 0.001092917 0.000547889 0.000275409 0.0001586979 0.0001164228 0.0001037342 0.0001006554 0.0001000813 0.0001000076 
0.0002 0.0001 0.0002 0.0007 0.0022 0.0063 0.017875 0.0178 0.0483 0.1235 0.2389 0.4368 0.7479 1.102167 1.0671 1.6051 1.8781 3.4573 4.4835 5.5583 5.7164 4.7848 5.2525 6.0989 7.5053 8.9643 10.4501 11.9539 13.33802 13.4852 15.0728 16.7656 18.6268 20.751 23.1447 25.50272 25.8848 29.0636 32.7817 37.0278 41.2457 44.5167 42.68747 46.2328 47.6556 48.665 46.9106 41.6628 35.7903 27.6734 28.40418 26.1836 24.4165 24.381 23.1645 21.9916 19.9154 18.77655 18.9878 18.5877 18.3613 17.9425 17.3289 16.6617 15.2886 15.3075 15.8541 15.1618 14.498 13.2471 11.1858 9.3504 9.406716 9.3637 9.08 9.511 7.855 5.2103 1.4738 3.654675 0.2119 0.1209 0.0695 0.002133333 0.0007 0.0002 0.0311 0.0168 0.01156667 0.001333333 0.0005333333 0.00025 0.0001 0.0001888889 0.0002 0.0005270833 0.0004333333 0.00035 0.0002 3.967586 5.312902 5.057944 4.7937 2.978446 1.353492 0.8462558 0.6174702 0.5554094 0.5092 0.508678 0.3478546 0.2006307 0.09987855 0.0407659 0.01244678 0.003103686 0.001263957 0.001432082 0.001654167 0.001768518 0.0018 0.0018 0.0018 0.0018 0.0018 0.0018 0.01685589 0.01256243 0.00465087 0.001576606 0.0006232346 0.0003759967 0.0003320313 0.0003 0.03154913 0.0267729 0.01168733 0.004641761 0.001832935 0.0008797306 0.0006055067 0.0005287115 0.0005132813 0.0005 7.499017 6.934005 2.327222 0.01637148 0.01619115 0.01579605 0.01506486 0.01385904 0.01212982 0.009951686 0.007553647 0.005240496 0.003292753 0.001863632 0.0009557346 0.000459385 0.0002285475 0.0001382945 0.0001092516 0.0001017223 0.0001002286 0.0001000152 0.0001 
0.0001 0.00015 0.0003333333 0.001033333 0.003066667 0.00425 0.01205 0.02753333 0.05175 0.0838 0.0932 0.1598 0.2971 0.5347667 0.6584 0.9598 1.9533 2.8197 3.8165 4.8124 3.709633 2.8763 3.7657 4.8569 6.0287 7.2385 8.4522 9.29525 9.6496 10.8258 11.9904 13.1667 14.3933 15.7258 17.2028 18.9496 18.8739 20.826 23.1546 25.9499 29.169 32.6304 35.51918 36.044 39.1829 41.0989 41.7194 42.3172 39.5168 38.9192 33.90528 33.1369 27.7206 26.938 20.2606 19.6966 19.2702 18.95178 17.1227 16.0969 15.4148 14.1349 13.4141 12.8271 12.6688 12.2031 11.9386 12.3441 12.9981 12.6435 12.0443 11.2097 11.0789 9.5064 9.1514 9.1857 9.1556 8.8576 8.1173 6.942383 4.8157 0.1509 0.005 0.0012 0.0002 2.540633 3.897467 0.0311 0.0025 0.0011 0.0004 0.0001 0.0002666667 0.0002 0.0008083333 0.0006 0.0005 0.0002 4.725138 5.822819 5.322187 4.7937 3.8012 2.123328 1.195557 0.7415918 0.6016188 0.5092 0.6662625 0.5278302 0.3314193 0.1843141 0.08615854 0.02916301 0.006976132 0.001201183 0.001133745 0.001456944 0.001705556 0.0018 0.0018 0.0018 0.0018 0.0018 0.0018 0.03116044 0.02477639 0.00968672 0.003224177 0.001041714 0.0004639275 0.0003640625 0.0003 0.0547347 0.0486759 0.02248593 0.009156864 0.003419184 0.001349234 0.0007303855 0.0005595722 0.0005265625 0.0005 9.210009 13.83676 6.9488 0.01645508 0.01641135 0.01624803 0.01591408 0.01522604 0.01405446 0.01229663 0.01003839 0.007520047 0.005102509 0.003098931 0.001676818 0.0008151463 0.0003752401 0.0001877686 0.0001226337 0.000104481 0.0001006401 0.0001000457 0.0001 0.0001 
0.000125 0.0001944444 0.0004541667 0.001006667 0.001607143 0.0015 0.0019 0.0064 0.0165 0.0206 0.0381 0.0941 0.173 0.2803833 0.2651 0.573 0.9006 1.3416 1.873 2.0388 2.517017 2.1872 2.9999 3.9363 4.9606 6.0309 7.1073 7.737884 8.1584 9.1656 10.1238 11.0405 11.9336 12.8298 13.7741 14.88973 14.8173 16.0405 17.5372 19.424 21.8499 24.9248 26.62188 28.7664 33.0308 36.5957 35.5325 37.9781 40.6186 36.4578 39.9392 37.5794 33.4066 27.7872 28.3611 25.1018 22.79748 21.4135 17.0011 13.2575 11.0001 10.0041 9.886 9.8788 9.3395 9.1346 9.3823 9.7752 10.2782 10.8492 11.4686 9.829467 12.1302 12.8025 12.513 11.2487 11.9393 12.6623 13.2973 9.951917 13.7383 14.2269 9.7664 5.9305 4.2449 3.3768 6.09662 8.2845 4.8756 2.0825 0.2455 0.0005 0.0002 0.001433333 0.0008 0.0008 0.0002 6.225594 6.824083 5.850675 4.7937 5.062656 3.47735 1.871095 1.021538 0.6940375 0.5092 0.8852049 0.7619383 0.5087068 0.3128457 0.1727056 0.06739105 0.01837901 0.001718981 0.0008304013 0.001054167 0.001516667 0.0018 0.0018 0.0018 0.0018 0.0018 0.0018 0.0554881 0.04730237 0.02005129 0.006975514 0.002033359 0.0006636574 0.000428125 0.0003 0.09083655 0.08540535 0.04239688 0.01822548 0.006835443 0.002409671 0.00101244 0.0006255916 0.000553125 0.0005 9.166014 13.79242 13.8811 4.79319 0.0165 0.01641016 0.01632388 0.01601005 0.01540832 0.01425977 0.01249529 0.01013482 0.007485048 0.004940278 0.002882202 0.001474314 0.0006739369 0.0002971879 0.0001545953 0.0001115226 0.0001017833 0.0001001372 0.0001 0.0001 0.0001 
0.0001597222 0.0002513889 0.00025 0.0003 0.0003 0.0008 0.0015 0.0023 0.0053 0.0102 0.0268 0.0533 0.08605 0.0874 0.2013 0.3442 0.5564 0.84 1.0057 1.5206 1.624783 1.6668 2.3409 3.1438 4.0505 5.0259 6.0309 6.546983 7.0289 7.9914 8.8999 9.7477 10.538 11.2823 11.841 11.991 12.6793 13.3679 14.0894 14.9049 15.938 17.4412 19.46273 19.9245 23.7284 34.8023 26.2693 28.0755 29.5079 32.23503 30.2451 30.1773 29.4962 32.3509 30.5774 27.1319 23.23942 24.1709 21.4163 16.8968 11.8089 8.4431 6.6811 6.2262 6.9971 5.7672 5.5466 5.4835 5.5834 5.7678 5.9965 7.48735 6.2583 6.5427 6.645 6.9362 7.5549 8.6532 9.42615 9.4007 10.3422 11.4865 12.9333 13.3853 11.5461 8.7002 8.15985 10.0905 10.3237 9.8353 8.2318 4.5333 0.0027 9.15798 0.0014 0.0002 9.223625 8.7709 6.90765 4.7937 6.701413 5.697639 3.057872 1.676539 0.878875 0.5092 1.216618 1.079254 0.7357482 0.470813 0.3195592 0.1481648 0.05039259 0.003615741 0.001128704 0.0004125 0.00095 0.0018 0.0018 0.0018 0.0018 0.0018 0.0018 0.09362801 0.08616234 0.04036204 0.01538272 0.004409105 0.001134722 0.00055625 0.0003 0.1426608 0.1430732 0.07731214 0.03583066 0.01404784 0.004797942 0.001660545 0.0007705247 0.00060625 0.0005 9.078718 13.70374 13.8811 6.505243 2.322972 1.240139 0.0165 0.01632031 0.01615132 0.0155585 0.01451512 0.01270568 0.01026507 0.007433693 0.004756378 0.002630761 0.001259465 0.000532716 0.0002296296 0.0001292181 0.0001049383 0.0001004115 0.0001 0.0001 0.0001 0.0001 
0.0002027778 0.0002166667 0.0002333333 0.0002 0.0003 0.00056 0.0006 0.0014 0.0034 0.0092 0.0176 0.0318 0.05123333 0.0767 0.1398 0.2391 0.3425 0.4495 0.7314 1.1317 1.186717 1.2036 1.7397 2.4048 3.1873 4.0629 4.9985 5.473017 5.9579 6.9075 7.8207 8.6805 9.4806 10.2326 10.58978 10.9362 11.5933 12.1981 12.7298 13.1423 13.3516 14.67432 13.2176 12.5019 32.3566 20.2194 21.9108 23.7802 25.6517 26.15917 27.4477 28.6028 30.0974 23.0861 23.0064 21.67 22.14913 19.9484 18.417 17.0175 15.5095 12.8251 8.945 7.786633 5.8732 5.1026 4.6616 4.2849 4.2111 4.2995 4.4465 4.764217 4.624 4.8349 5.0917 5.4165 6.0177 5.9801 6.706634 6.5633 7.0432 7.4979 7.9363 8.3797 8.8628 9.18255 9.4282 9.0789 9.6857 10.4503 11.5752 12.9591 28.0285 9.8204 17.7571 15.3753 12.4974 9.0216 4.7937 8.1909 9.16785 4.6532 3.271867 1.24855 0.5092 1.714327 1.552261 1.090683 0.5948167 0.5217444 0.2958778 0.1410556 0.007561111 0.002561111 0.000725 0.0001 0.07518264 0.0018 0.0018 0.0018 0.0018 0.0018 0.1479583 0.1475241 0.07722963 0.03373333 0.01012315 0.002291667 0.0008125 0.0003 0.2096421 0.2261321 0.1345691 0.06851852 0.02884877 0.01012469 0.003170062 0.001099074 0.0007125 0.0005 8.906898 13.52637 13.8811 6.9193 2.912508 2.308066 1.748341 0.8876482 0.0165 0.01614062 0.01581335 0.01472153 0.01301049 0.01038503 0.007399691 0.004516358 0.002353086 0.001022839 0.0004024691 0.0001728395 0.0001135802 0.0001012346 0.0001 0.0001 0.0001 0.0001 0.0001 
0.0001796296 0.0001833333 0.0001666667 0.0002 0.0001 0.00028 0.0003 0.0007 0.0016 0.0036 0.0089 0.021 0.03096667 0.0372 0.0609 0.0927 0.1708 0.2996 0.5 0.6641 0.7947 0.8029 1.2009 1.7195 2.3614 3.1161 3.54445 3.9602 4.8617 5.7855 6.6989 7.5756 8.3923 9.1745 9.50125 9.9221 10.6493 11.3719 12.1063 12.865 13.6482 13.32013 14.4493 15.1486 16.0479 17.043 18.164 19.4176 20.7177 22.4819 23.3849 23.3512 22.4784 20.3939 20.4742 20.267 20.4151 19.7066 18.7711 17.4208 15.6214 13.6132 11.4269 10.28177 7.5674 5.0775 4.7849 3.8508 3.4438 3.4467 3.614317 3.569 3.691 3.7906 3.8761 4.0035 3.5172 4.2983 4.782417 5.3442 5.9073 6.4929 7.0263 7.5283 8.0224 7.85155 8.5356 6.7431 7.0485 7.1985 7.8032 25.8215 13.98807 6.3706 6.7621 7.1875 7.6529 8.1603 8.7618 11.0172 10.03323 7.3185 1.9879 0.5092 2.312375 2.077433 1.9583 0.62105 0.6927 0.4707 0.4018333 0.0151 0.006233333 0.00135 0.0001 0.1153458 0.1521278 0.1065396 0.0018 0.0018 0.0018 0.2196167 0.2346778 0.1357389 0.07215556 0.02379444 0.00525 0.001325 0.0003 0.2855944 0.3327333 0.2199407 0.1257222 0.05804444 0.02178889 0.006712963 0.001872222 0.000925 0.0005 8.574344 13.17165 13.8811 7.353458 3.539272 2.903368 2.294883 1.725946 1.224195 0.5839521 0.0165 0.01578125 0.0151588 0.01322454 0.01064815 0.007282407 0.004268519 0.001998148 0.0007925926 0.0002777778 0.000137037 0.0001037037 0.0001 0.0001 0.0001 0.0001 0.0001 0.0001 
0.0001490741 0.0001388889 0.00015 0.0001 0.0001 0.0001666667 0.0001 0.0002 0.0005 0.001 0.0026 0.006 0.01441667 0.0131 0.0271 0.0537 0.1014 0.1826 0.3134 0.4321333 0.5134 0.4789 0.7432 1.109 1.5927 2.2024 2.575333 2.9266 3.7434 4.6195 5.5196 6.3984 7.2223 8.0025 8.368783 8.7396 9.4462 10.1327 10.8169 11.5243 12.2615 12.68507 12.9926 13.7306 14.4805 15.2471 16.0271 16.8263 17.72977 17.6118 20.0776 24.1626 20.2137 19.8301 20.2694 20.23013 20.4857 20.4129 19.9981 19.2121 17.8702 16.2131 14.7481 12.86415 13.13 10.4311 6.3844 4.5289 3.1999 2.8383 3.341917 3.0859 3.3976 3.5155 3.4025 3.2598 3.4688 3.3373 3.61705 3.1713 3.8205 4.5393 4.9858 5.4872 5.9161 6.275883 6.3442 5.1382 5.6361 27.1671 7.7996 5.1738 8.623983 5.5749 5.9922 6.4465 6.9885 7.6581 8.5302 8.92115 9.9672 11.83 9.754 3.5275 2.3157 2.8971 1.0195 0.671975 0.2226 1.1628 0.0267 0.016 0.0026 0.0001 0.1053333 0.19465 0.1613 0.1004333 0.162625 0.0018 0.3200667 0.35275 0.20385 0.1474333 0.05593333 0.0131 0.00235 0.0003 0.3619333 0.4509111 0.3292333 0.2180556 0.1125333 0.04657778 0.01502222 0.003766667 0.00135 0.0005 7.953575 12.4622 13.8811 7.811452 4.192925 3.528356 2.896535 2.285212 1.702904 1.189722 0.779958 0.3496289 0.0165 0.0150625 0.01391389 0.01069722 0.007333333 0.003816667 0.001655556 0.0005222222 0.0002 0.0001111111 0.0001 0.0001 0.0001 0.0001 0.0001 0.0001 0.0001 
0.0001212963 0.000125 0.0001 0.0001 0.0001166667 0.0001 0.0001333333 0.0001 0.0002 0.0005 0.0011 0.002333333 0.0028 0.0064 0.0137 0.0279 0.0539 0.0994 0.1753 0.2559167 0.296 0.2479 0.3933 0.6037 0.9055 1.3403 1.640867 1.9064 2.6021 3.4002 4.2487 5.1901 6.0273 6.402767 6.8182 7.5558 8.2691 8.9569 9.6159 10.3045 11.0007 11.33018 11.7581 12.516 13.2758 14.0542 14.8365 15.5844 16.08202 16.2208 16.4538 23.3896 19.3141 18.9902 19.6792 19.83217 20.2053 20.491 20.4589 20.0545 19.0203 17.4517 16.0189 15.66025 14.2936 12.3146 10.1428 7.6951 5.3558 3.6891 4.358267 3.4225 3.2279 3.3029 3.3418 3.3386 3.0137 3.065867 2.8508 2.7004 2.5691 2.5624 3.0877 3.8023 4.2017 4.384117 4.6353 3.4142 10.0109 3.2341 3.6953 4.19 4.381817 4.6131 5.0398 5.47 5.979 6.5103 7.158 7.74195 8.0925 10.7906 11.9051 13.0755 9.3916 1.2444 0.5121 0.9343 0.9337 1.6103 1.5507 1.5033 3.2497 0.111 0.2227 0.2049 0.1844 0.0946 0.0223 0.5318 0.4266 0.621775 0.2789 0.1288 0.0346 0.0044 0.0003 0.4455333 0.5715 0.4304 0.3508333 0.2064667 0.09686667 0.03426667 0.0086 0.0022 0.0005 6.8894 11.0433 13.8811 8.301913 4.889554 4.173243 3.51598 2.895846 2.277778 1.682011 1.148924 0.7382296 0.4527204 0.1910654 0.0165 0.013625 0.01161667 0.00685 0.003533333 0.001066667 0.0003666667 0.0001333333 0.0001 0.0001 0.0001 0.0001 0.0001 0.0001 0.0001 0.0001 
0.0001125 0.0001 0.0001 0.0001041667 0.0001 0.0001111111 0.0001 0.000125 0.0001 0.0002 0.0005 0.0011 0.001 0.0025 0.0058 0.0132 0.0261 0.0487 0.0872 0.1382667 0.1502 0.1274 0.1958 0.2737 0.3426 0.5644 1.0792 0.9051 1.4136 2.1308 2.6913 3.8859 4.7576 5.14915 5.5887 6.2837 6.9817 7.7073 8.2741 8.8688 9.183867 9.5836 10.3846 11.1911 11.9597 12.7762 13.6612 14.6139 14.80797 15.6349 16.5556 17.4459 18.2634 17.8446 18.7594 19.01248 19.594 20.2796 20.6956 20.6108 20.6557 19.393 18.58932 18.4827 17.2882 15.8466 14.2259 12.4956 10.6702 8.0601 6.460017 5.0537 3.8105 2.4301 2.4923 2.7122 2.9298 2.718033 2.7948 2.6666 2.5412 2.4141 2.2734 2.0908 2.302517 2.4403 2.7671 1.8683 1.5806 1.8961 2.3867 3.1376 3.26565 3.6015 4.1246 4.4669 4.8203 5.2586 5.8777 6.20055 6.8261 9.2924 10.3008 13.1373 14.2082 1.1151 1.237967 0.5899 2.328 3.5122 3.4544 3.2615 7.4843 0.2557 3.27395 0.5418 0.6396 0.6335 0.5946 1.0041 0.9339 3.077233 0.8477 0.781 0.7521 0.7364 0.7039 0.6324 2.4969 0.5106 0.3502 0.1917 0.0775 0.0214 0.0039 0.0005 5.4705 8.2055 13.8811 8.817759 5.653061 4.855733 4.159867 3.504128 2.883945 2.299467 1.649922 1.096644 0.7002056 0.4178389 0.2401167 0.08980625 0.0165 0.01075 0.0076 0.0022 0.0008 0.0002 0.0001 0.0001 0.0001 0.0001 0.0001 0.0001 0.0001 0.0001 0.0001 
0.0001 0.0001 0.0001010417 0.0001 0.0001037037 0.0001 0.00010625 0.0001 0.0001 0.0002 0.0004 0.0005666667 0.0008 0.0016 0.0032 0.0061 0.0137 0.0255 0.042 0.0438 0.0771 0.0968 0.1841 0.3382 0.59 1.10585 0.7772 0.9818 1.1917 1.4151 2.0711 2.3028 3.2508 4.361383 4.4523 5.023 5.4918 6.6137 7.0084 7.4057 7.669183 7.9399 8.7706 9.7545 10.4676 11.2054 12.0217 12.9157 13.37337 13.8781 14.8767 15.9217 16.9323 16.3089 17.386 17.75388 18.451 19.4706 20.3262 20.7674 20.6588 20.3895 20.26007 19.8001 18.8235 17.463 15.7925 13.9737 12.1686 12.0503 10.3171 8.2176 5.6916 3.8363 3.1106 2.6748 2.4832 3.404383 2.2359 1.9816 1.7114 1.4238 1.1193 0.8014 2.031217 0.4786 8.8001 2.1768 2.0984 2.0505 1.9639 2.422833 1.8017 2.25 3.0279 3.2512 3.5103 3.8095 4.2942 4.802834 4.9548 6.2465 7.186 7.7741 5.5101 3.1702 3.457 0.7961 1.8633 4.2364 5.5434 5.6328 8.045 11.8346 17.9853 0.545 0.9305 1.0389 1.0433 6.8651 7.6686 4.7287 8.3077 8.0315 7.3543 6.3713 5.3018 4.5627 5.025933 4.2819 3.8287 3.4539 3.1479 2.8997 2.6976 4.091583 2.5299 13.8811 9.3993 6.532533 5.4581 4.96855 4.14055 3.3705 3.001333 2.28 1.617067 1.0527 0.6201667 0.42775 0.2056 0.087 0.050125 0.0165 0.005 0.0013 0.0003 0.0001666667 0.0001 0.0001 0.0001 0.0001 0.0001 0.0001 0.0001 0.0001 0.0001 
0.0001 0.0001002604 0.0001 0.0001012346 0.0001 0.0001015625 0.0001 0.0001 0.00014 0.0001 0.0002 0.0006 0.0005 0.0012 0.0025 0.0051 0.0101 0.0226 0.05346667 0.0242 0.0492 0.3765 0.5111 0.6699 1.6966 1.2766 2.6643 2.687 3.251 3.1422 3.4976 3.7746 3.865083 3.9729 4.146 5.2395 6.4663 5.889 6.2736 6.28 7.476917 5.9371 6.3752 8.3456 8.9992 9.623 10.337 10.73348 11.1467 12.0509 13.0401 14.109 15.2193 14.3562 14.80427 15.5593 16.7736 18.0477 19.3168 20.3991 21.1277 21.6452 21.20458 21.8499 21.6576 21.0083 19.8431 18.287 16.672 16.17543 14.4138 11.8414 9.7558 9.1705 8.1652 7.3627 5.7923 5.544583 4.1903 2.969 2.8735 2.8849 2.9571 3.1025 2.329133 3.2737 3.6057 2.6543 2.6246 2.6087 2.607 2.002817 2.6401 2.761 1.9501 2.1384 2.3779 2.5384 2.943417 3.1018 3.7624 4.1075 3.9668 12.3329 7.8603 10.3016 4.707583 4.7691 2.0119 4.5132 6.5004 7.6836 10.9932 14.17703 26.2441 1.3672 4.0958 5.4405 6.1476 4.8859 4.95955 5.1514 5.4629 6.6427 8.2389 7.2275 9.0737 9.9911 7.418617 10.1769 10.1598 9.9667 9.959 10.0979 9.733 7.72085 9.5846 9.5217 7.7572 6.4372 5.4032 4.5339 5.058 3.7472 2.9938 2.263 1.5832 1.005 0.5699 0.2856 0.1919 0.1256 0.0484 0.01 0.0027 0.0006 0.0001 0.0001666667 0.0001 0.0001 0.0001 0.0001 0.0001 0.0001 0.0001 0.0001 0.0001000244 
0.0001000868 0.0001 0.0001004115 0.0001 0.0001003906 0.0001 0.0001 0.0001 0.0001 0.0002 0.00022 0.0005 0.0012 0.0029 0.0067 0.0148 0.0312 0.0627 0.05713333 0.142 0.2438 0.2117 0.3546 0.5345 0.6878 1.26615 1.2437 2.0677 2.2967 3.492 4.1313 4.706 4.4366 5.1834 5.5387 5.7085 4.8049 5.888 6.589 7.9001 6.82375 9.3987 9.1829 7.4329 7.6335 8.1018 8.6579 9.021317 9.3219 10.1123 11.0134 12.0331 13.1502 12.0368 12.4082 13.1784 14.3464 15.7128 17.1603 18.5864 19.977 19.92667 21.2448 22.298 23.0479 23.4812 23.2978 21.9891 21.365 20.28127 22.1161 17.5818 16.1235 14.4826 13.0524 11.5276 9.533684 10.1795 8.3863 6.7623 5.1049 3.3302 3.275 3.2109 3.097167 3.1077 2.9492 2.3864 2.2053 1.9809 1.6929 1.871167 1.3113 0.8114 0.9172 1.0883 1.5341 1.5317 2.05385 2.3849 2.9433 3.1546 4.2283 2.5219 2.5507 4.4092 4.37845 4.7993 2.1313 2.9674 4.0187 4.9204 7.2328 12.25013 14.5618 27.1399 2.7323 3.6688 4.3863 2.5246 2.91065 2.6617 2.7056 2.7474 2.8451 5.8442 6.2743 6.058767 7.1925 8.3066 9.7546 11.2318 12.3127 13.0623 11.713 8.467 10.067 9.9019 9.2798 8.4534 7.5291 6.5232 5.173517 5.4277 4.258 3.0827 2.0157 1.1673 0.5886 0.2577 0.15125 0.0987 0.0334 0.003 0.0007 0.0002 0.0003 0.0001 0.0001166667 0.0001 0.0001 0.0001 0.0001 0.0001 0.0001 0.0001000977 0.0001 
0.0001 0.0001001372 0.0001 0.0001000977 0.0001 0.0001 0.0001 0.0001 0.00015 0.00015 0.0002666667 0.0001 0.0004 0.001 0.0026 0.0062 0.014 0.02523333 0.0301 0.0612 0.1174 0.1005 0.1909 0.3263 0.4996 0.6355166 0.8049 1.9212 2.1824 2.8862 3.6018 4.2422 4.063667 4.7405 5.0386 4.6912 5.7345 5.8162 6.1689 5.86335 5.6154 5.8112 5.9834 6.219 6.4739 6.77 7.1211 7.368767 7.5433 8.084 8.8183 9.7646 10.8726 9.1377 9.8693 10.1808 11.226 12.4335 13.8254 15.3451 16.9443 16.57933 18.621 20.2768 21.8285 23.5771 25.4804 20.6911 27.9702 20.5858 19.1505 18.7289 18.7715 17.6146 15.0171 12.2494 12.21752 10.0906 8.4806 6.6411 7.3796 21.6538 6.3156 6.064384 3.1025 2.7857 2.5919 2.2787 1.9922 1.7864 1.979683 1.581 1.3947 1.2593 1.2038 1.0868 0.8478 1.2876 1.916983 1.4787 2.5685 3.2849 1.5743 0.9231 0.4307 1.496683 1.061 0.9305 1.2619 2.4338 3.1016 3.697 5.0401 7.990467 9.4288 25.6555 0.6157 1.5425 2.2009 1.1532 1.7598 1.0871 1.0339 1.2398 1.5203 1.7221 1.8624 3.26855 1.9586 2.0233 2.0611 2.0691 1.8272 1.6151 3.6495 5.63355 6.0549 8.0615 8.9147 8.2244 7.2046 6.05 4.7448 4.7591 3.4102 2.186 1.236 0.6124 0.2682 0.225 0.1041 0.0358 0.011 0.0007 0.0002 0.0003666667 0.0002 0.0002 0.0001 0.0001041667 0.0001 0.0001 0.0001 0.0001 0.0001003906 0.0001 0.0001010661 
0.0001000457 0.0001 0.0001000244 0.0001 0.0001 0.0001 0.0001 0.000125 0.0001333333 0.0001666667 0.0001 0.0002 0.0001 0.0002 0.0005 0.0015 0.0039 0.009883333 0.0095 0.0221 0.0488 0.0224 0.0499 0.1043 0.2088833 0.2041 0.373 0.6342 0.946 1.3985 1.9285 2.4936 3.268333 3.0163 3.1254 3.9474 4.124 4.1764 4.1634 4.996617 4.7433 4.6039 5.1947 5.3735 5.52 5.64 6.198167 5.74 5.8284 5.9395 6.0905 6.5332 7.6983 6.9568 7.135733 7.7253 8.0674 8.5275 9.0982 9.8559 10.8076 11.96873 11.8813 12.842 13.4018 13.3556 29.388 17.1248 18.02075 16.8667 16.0463 15.7005 15.3041 15.0209 14.875 14.6912 12.71253 14.5668 14.6319 45.7367 16.1618 11.7878 10.5234 8.217317 9.9589 7.8481 5.317 7.9906 5.0623 2.3972 3.500267 2.4397 2.7643 1.5974 1.5455 1.5456 1.6777 2.1382 2.032967 2.6808 1.6434 1.1651 1.1234 0.2898 0.1546 0.6166 0.3739 1.2545 1.9488 2.8313 3.4492 3.9443 4.347833 4.8367 6.8426 14.0236 20.0359 0.5487 1.144 1.254567 1.3814 1.7508 1.8987 1.7557 1.524 1.3497 1.2147 1.532967 1.1088 1.0253 0.9582 0.9294 1.374 1.5997 1.689167 1.3312 0.9857 0.7619 1.1012 2.3626 3.1041 3.1115 2.75635 2.5973 1.867 1.075 0.5453 0.2453 0.0973 0.08758333 0.0341 0.0106 0.0029 0.0001 0.0003333333 0.0002 0.0002555556 0.0002 0.0001666667 0.0001 0.0001010417 0.0001 0.0001 0.0001015625 0.0001 0.0001016357 0.0001015625 
0.0001 0.0001000049 0.0001 0.0001 0.0001 0.0001 0.0001125 0.0001194444 0.00013125 0.0001 0.0001333333 0.0001 0.00015 0.0002666667 0.000575 0.0001 0.0004 0.002583333 0.0014 0.0037 0.0094 0.006 0.0155 0.0368 0.07576667 0.0822 0.1705 0.3283 0.6308 1.0392 1.7114 1.871317 2.3053 2.8121 3.7765 4.3628 4.8385 5.1589 4.6228 5.2963 4.6659 4.6134 4.5362 4.8949 5.2914 5.7308 6.022267 6.1871 6.118 5.9527 6.6603 7.1407 7.0282 6.527884 4.704 4.1098 4.2772 4.5103 4.8727 5.4239 6.0565 8.854633 7.5017 9.1398 10.1036 10.6259 11.5528 12.3212 13.13085 13.1505 12.3585 12.0802 11.8115 11.8669 12.1587 11.7024 12.2636 12.4136 41.67 11.7465 8.9401 9.2402 9.5568 8.909184 9.8467 8.7715 8.0649 7.1837 7.579 7.8275 4.757884 4.9698 1.4809 1.8761 1.8402 1.9166 2.1743 2.2021 2.6962 1.9163 2.0678 1.5246 1.4642 0.5468 0.6205 0.8175333 1.0589 1.7741 2.5144 3.2185 3.6574 4.0676 4.260684 4.5013 5.718 8.9508 26.5779 0.3037 0.6867 0.8867167 0.9612 1.3449 1.5888 1.6746 1.6583 1.6056 1.5486 1.469183 1.5047 1.4824 1.4801 1.4806 1.2762 1.0771 1.23125 0.8624 0.7395 0.5238 0.3056 0.1443 0.0543 1.055383 0.0163 0.0039 0.0008 0.0832 0.0741 0.0385 0.0161 0.02586667 0.0057 0.0017 0.0005 0.001166667 0.0001 0.0002111111 0.0002 0.0001888889 0.0002 0.0001824074 0.0001336806 0.0001137346 0.00010625 0.0001 0.000103418 0.000103125 0.0001 
0.0001 0.0001 0.0001 0.0001 0.0001 0.00010625 0.0001106482 0.0001157986 0.0001 0.0001111111 0.0001 0.000125 0.0001722222 0.0002729167 0.0001 0.0002 0.0001 0.000525 0.0002 0.0007 0.0022 0.0005 0.002 0.0069 0.02738333 0.0203 0.0544 0.1332 0.295 0.5718 1.105 1.552283 1.6841 2.6993 3.6415 4.5018 5.1834 5.6707 6.6855 6.648833 6.8969 6.7554 6.7502 6.709 6.6161 6.4833 6.6429 6.3524 6.7485 6.4458 6.1347 5.7293 5.2402 7.101666 7.5398 7.6064 7.7413 7.8868 8.0411 8.2345 8.3442 8.6775 8.2032 7.8772 7.8743 8.4143 8.9128 9.4898 10.44865 9.8321 9.9023 9.3918 8.504 7.9122 8.1868 13.57803 8.0391 33.8327 7.1028 6.4218 6.544 6.6561 6.7508 7.350767 6.8185 6.8464 6.8818 5.4409 5.374 5.3737 5.622617 5.5394 6.3363 4.5512 2.9169 2.1762 2.506 2.33165 2.0202 2.3911 2.2921 1.6027 0.5469 0.5642 0.7855167 1.063 1.6343 2.3217 2.987 3.4641 3.7793 4.0862 4.08205 4.128 5.0034 6.9761 15.2896 14.0901 0.4836 0.5929334 0.6634 1.0365 1.3345 1.526 1.631 1.6827 1.6795 1.709 1.7293 3.6202 1.3739 1.5397 1.5337 1.3866 1.142133 1.1305 0.7197 0.4091 0.2 0.093 0.0352 0.02415 0.0109 0.0028 0.0006 0.0001 0.03964 0.0023 0.014575 0.0014 0.0006 0.0002 0.0008 0.0005 0.0003611111 0.0001166667 0.0001 0.0003236111 0.0003055556 0.0001935185 0.0001287037 0.0001125 0.0001 0.0001074219 0.00010625 0.0001 0.0001001736 
0.0001 0.0001 0.0001 0.0001 0.0001012153 0.0001 0.00010625 0.0001103009 0.0001249228 0.0001 0.0001125 0.0001324074 0.0001675347 0.0001 0.0001333333 0.0001 0.0001 0.00015 0.00045 0.00066 0.0001 0.0004 0.0015 0.0046 0.013 0.0135 0.037 0.0818 0.1886 0.385 0.682 1.5567 1.8259 2.696 4.0054 5.3931 6.6631 7.6728 7.7533 8.3618 8.6601 8.3553 8.2698 8.1005 7.8891 7.6635 7.974483 7.4403 7.2533 7.8653 7.7107 7.5972 7.5375 8.2289 10.5603 10.9815 11.5652 12.3719 13.4422 10.8855 9.185217 10.7873 9.1332 7.0924 7.7505 8.2364 8.4199 8.6779 9.2726 9.2204 9.7167 9.6463 8.407 6.3868 7.5016 17.3184 33.3184 5.353 5.4082 5.4631 5.5107 5.5457 5.84165 5.565 5.5668 5.5487 5.5084 5.288 5.1724 5.144516 5.0585 4.9668 4.9684 5.1617 4.452 3.2411 2.1337 2.5811 2.4595 2.745 2.6032 1.9258 1.1134 0.5894 0.9350167 1.3292 2.0391 2.7284 3.2631 3.5503 3.8264 3.9385 3.8241 3.7707 4.5243 5.9151 10.6166 20.5306 0.2795 0.4055667 0.4832 0.847 1.1746 1.4251 1.6006 1.7214 2.454233 1.8097 6.9282 1.1467 1.2798 1.4172 1.4471 1.4148 1.3254 1.0708 0.7333 0.4256 0.2071 0.0745 0.0225 0.01728333 0.0057 0.0012 0.0002 0.000275 0.0012 0.0023 0.00185 0.001 0.0007333333 0.0004 0.0002 0.00015 0.00015 0.0001 0.0005625 0.0004611111 0.0002944444 0.0001611111 0.000125 0.0001 0.0001171875 0.0001125 0.0001 0.0001005208 0.0001 
0.0001 0.0001 0.0001 0.0001 0.0001 0.0001010417 0.0001 0.0001125 0.0001287037 0.0001972222 0.0003666667 0.0007537037 0.001045833 0.001233333 0.0001 0.0001 0.0001166667 0.00018 0.0001 0.00015 0.0001 0.0009 0.003 0.003516667 0.0088 0.0239 0.059 0.1407 0.2764 0.5011 1.2581 1.494217 2.7851 3.6014 5.1553 6.9258 8.6995 8.6484 8.964167 9.4806 10.0005 10.8046 10.4583 10.1975 10.0898 10.02817 9.9868 9.9206 9.9129 9.9708 9.9846 10.0795 10.2667 9.60814 9.79898 9.4507 9.0529 8.4471 7.5619 9.1502 7.874784 7.3763 7.4884 8.2536 7.5736 7.45 8.0419 8.1053 8.775 9.6404 10.289 10.7769 10.9303 3.6069 41.898 16.84675 4.9665 4.9601 5.0238 5.0977 5.1725 5.2396 5.2564 5.2927 5.3288 5.3434 5.3381 5.1077 5.0098 5.0215 4.8787 4.6857 4.4093 4.2046 4.1275 4.3358 3.1923 3.650167 3.1749 3.5623 4.0377 4.4868 1.4118 0.5815 1.018233 1.4828 2.2775 2.9244 3.2936 3.5476 3.7216 3.5987 3.5566 3.4646 4.1433 5.2257 8.5414 23.8049 0.1682 3.299167 0.3555 0.766 1.132 1.4158 1.6246 1.7798 3.349117 6.0228 2.53 1.981 1.7255 1.6132 1.4985 1.45705 1.2975 1.0047 0.6735 0.3837 0.1833 0.0719 0.0232 0.03511667 0.0062 0.0014 0.0002 0.00998 0.0103 0.0077 0.0051 0.003 0.002366667 0.001233333 0.00145 0.0002 0.0001 0.001 0.00065 0.0005 0.0002333333 0.00015 0.0001 0.00014375 0.000125 0.0001 0.0001020833 0.0001 0.0001 
0.0001 0.0001 0.0001 0.0001 0.0001 0.0001 0.0001041667 0.0001 0.000125 0.0001611111 0.0003055556 0.0006333333 0.001322222 0.002127778 0.003616667 0.006266667 0.01013889 0.008843333 0.0001 0.0001 0.0003 0.0002 0.0007 0.1055833 0.0025 0.0081 0.024 0.0629 0.1425 0.3144 0.558 0.6502 1.764 3.3495 4.2556 5.6476 6.8457 9.2877 9.360983 10.3337 11.0453 11.4897 12.0698 12.2393 12.2687 11.03543 12.2711 12.2322 10.7025 10.5144 10.3205 10.1358 9.9464 9.51476 9.7298 8.2726 7.9961 7.847 5.5601 4.7557 5.548983 4.2937 3.9273 4.5353 5.2995 6.0561 6.8746 7.3089 7.8425 8.8414 9.9459 10.4064 49.7717 31.1215 16.38538 8.8633 4.5327 4.5569 4.613 4.6944 4.7918 4.8949 4.9711 5.0005 5.1171 5.1908 5.186 4.9232 4.9742 4.786183 5.0354 5.0415 4.7513 4.6476 6.0042 5.4057 5.266634 5.8299 5.1107 3.8522 3.0239 1.0066 1.5433 0.5698 1.08025 1.5567 2.3572 2.89 3.1913 3.4055 3.3737 3.29495 3.1754 3.2693 3.8305 4.7149 7.236 16.2738 18.84203 10.5619 7.9467 4.5899 3.195 2.5921 2.3398 6.1071 4.233133 2.6539 2.7787 2.5188 2.2383 1.993 1.739 1.653817 1.4348 1.0869 0.7447 0.4642 0.2715 0.1567 0.17385 0.0938 0.0593 0.0386 0.0249 0.0155 0.0091 0.0063 0.0246 0.0039 0.0021 0.0011 0.0005 0.004 0.002 0.00442 0.0009 0.0004 0.0002 0.0001 0.000225 0.00015 0.0001 0.0001083333 0.0001 0.0001 0.0001037037 
0.0001 0.0001 0.0001 0.0001 0.0001 0.0001 0.0001 0.0001166667 0.0001 0.00015 0.0002333333 0.0005333333 0.001133333 0.0023 0.00295 0.0056 0.01025 0.01456667 0.0192 0.0269 0.082 0.1257 0.2254 0.3867667 0.3931 0.6175 0.1568 0.0266 0.0782 0.1923 1.283483 0.4319 1.0077 2.4807 3.5436 5.1805 6.9182 8.5935 8.927584 9.822 10.6745 11.1737 11.3768 11.3855 11.0602 10.99312 10.536 9.868 10.5244 10.1646 9.7857 9.3977 8.776767 9.0067 8.6242 5.0984 4.1558 3.1373 4.1508 4.1655 3.9572 3.7608 3.5579 2.8879 3.5585 4.53 5.563 6.506067 6.7564 8.6489 8.7685 48.7005 29.091 8.5311 10.37877 4.2915 4.2291 4.2134 4.258 4.3556 4.4931 4.6399 4.51345 4.759 4.8208 4.8563 4.8874 4.1268 4.2707 4.059783 4.5483 5.0349 4.5339 5.1941 4.6422 5.9315 4.779167 6.9046 6.0994 4.4897 5.2137 1.6739 1.4786 1.091517 0.6901 1.6006 2.3008 2.718 3.0096 3.1064 2.9903 3.013983 2.9521 3.1265 3.5803 4.3084 6.2948 13.0393 20.25967 49.2041 6.3738 5.2841 4.3209 3.6411 3.1963 4.2544 4.7604 4.0748 3.7102 3.3268 2.9366 2.5573 2.1749 2.036183 1.7782 1.3836 1.0282 0.7432 0.5368 0.3963 0.4047167 0.3012 0.2339 0.1826 0.141 0.1063 0.0774 0.1022 0.0531 0.0351 0.0222 0.0133 0.0075 0.0239 0.0128 0.01208333 0.0063 0.0029 0.0013 0.0005 0.0002 0.0001 0.0001333333 0.0001 0.0001 0.0001111111 0.0001 
0.0001 0.0001 0.0001 0.0001 0.0001 0.0001 0.0001 0.0001 0.0001666667 0.0001 0.0002 0.0004 0.001 0.002 0.0039 0.00945 0.0073 0.0132 0.0232 0.0403 0.0706 0.3368 1.627617 0.6267 1.0722 1.5851 0.4831 1.1643 1.7871 2.5101 5.966967 3.602 4.403 4.818 4.9202 5.2584 5.7277 7.524833 7.1051 8.4235 9.3861 9.973 10.2324 10.2368 10.0502 9.949083 9.7725 9.4858 9.2524 8.7072 8.1039 7.4451 7.273267 6.7289 5.9502 4.1049 3.6896 3.4406 2.9717 3.06475 3.5975 4.1894 4.7829 5.0909 4.9578 5.5104 5.5084 5.844883 6.4915 9.1876 47.9029 27.3307 7.6607 4.9003 5.39875 4.5649 4.3198 4.1313 4.0511 4.0315 4.0319 3.931367 3.93 3.8564 3.9058 3.9724 4.0423 2.6992 2.8151 2.6854 2.8447 4.4008 5.4229 2.1821 2.2032 2.2571 3.393517 2.3462 2.4972 2.7978 1.0991 1.7591 1.2305 1.1766 1.0368 1.6762 2.1934 2.5609 2.7957 2.8085 2.7552 2.82275 2.8372 3.0226 3.3889 3.982 5.5639 26.064 27.66077 6.4149 8.9784 7.1442 5.8731 4.9542 4.3631 4.624583 4.7597 4.6348 4.383 4.0396 3.6393 3.2108 3.002483 2.7676 2.3226 1.8994 1.5257 1.2197 0.9837 0.8069 0.7839667 0.6734 0.5684 0.4806 0.4027 0.331 0.2643 0.2557667 0.203 0.1489 0.1035 0.0678 0.0416 0.0618 0.05846667 0.0336 0.0169 0.0079 0.0034 0.0013 0.0005 0.0002 0.00024 0.0001 0.0001333333 0.0001 0.0001111111 
0.0001 0.0001 0.0001 0.0001 0.0001 0.0001 0.0001 0.0001 0.00018 0.0003 0.0006 0.0013 0.0026 0.0051 0.0095 0.02151667 0.0171 0.0301 0.0528 0.0949 0.1769 3.1911 4.646767 5.26 7.8349 7.6195 12.9698 15.2339 15.8954 15.3172 13.23403 13.7483 11.172 8.518 7.2737 6.4744 8.1727 9.614217 8.6318 8.5157 8.5836 9.1345 9.42 9.4654 11.48567 9.3073 8.9683 8.0996 7.6476 7.074 6.4656 5.8408 5.85755 5.2204 4.6304 3.278 2.9992 1.93 2.0002 2.631883 1.7111 2.0086 2.4478 3.3983 4.3848 5.1921 5.87165 5.5884 5.1616 44.3978 26.1482 7.7908 5.4051 5.2153 4.584633 4.8894 4.5236 4.1589 3.8455 3.5602 3.3543 3.046667 3.139 2.8281 2.6996 2.7001 2.7218 1.6858 1.80335 1.4227 0.8292 7.3141 1.4127 1.4215 1.4428 1.4692 1.531667 1.4525 1.2894 2.4515 1.6088 1.3652 1.2029 1.3184 1.4207 1.802 2.1593 2.4663 2.6243 2.6378 2.656017 2.635 2.7667 2.9484 3.2484 3.7267 10.2601 57.893 20.78992 13.3493 8.775638 7.6304 6.7179 6.0403 5.3836 5.268917 5.2844 5.1646 4.9619 4.6673 4.2973 3.8765 3.640867 3.4278 2.9744 2.5422 2.155 1.8268 1.5602 1.3479 1.286583 1.1781 1.8374 0.672 0.6454 0.5894 0.5129 0.5313333 0.4239 0.3307 0.242 0.1653 0.105 0.1394 0.1260667 0.0793 0.0418 0.0204 0.0092 0.0039 0.0015 0.001416667 0.0006 0.0002 0.0001 0.0001333333 0.0001 
0.0001000977 0.0001 0.0001 0.0001 0.0001 0.0001 0.0001 0.00014 0.0001 0.0003 0.0007 0.0016 0.0039 0.0096 0.0249 0.07988334 0.0664 0.1732 0.4212 0.9205 1.7809 7.6829 7.306883 10.7831 10.0626 14.875 17.2637 20.1707 22.5965 20.72452 23.0911 21.1355 19.382 17.8622 16.016 12.0889 13.1503 13.21583 14.8977 16.5705 17.2692 17.0525 16.6806 15.7495 14.73145 14.1048 11.5748 9.7755 8.0635 6.8749 5.9867 5.3512 6.032533 4.5589 3.6582 3.76 2.1615 2.6368 2.7017 2.814717 2.8091 3.047 3.4923 3.9427 4.1826 4.8478 6.614683 8.5828 18.5793 14.2929 4.6208 3.9188 4.0385 3.969383 4.0516 3.8863 3.6104 3.3445 2.9185 2.425 2.0675 2.003167 1.7573 1.4069 1.6075 1.664 1.7211 0.9676 1.407167 1.3594 1.1527 0.9695 0.5271 0.5508 0.6011 1.102933 0.7113 0.9537 1.734 2.1954 1.5796 0.9086 1.3783 1.46795 1.6412 1.9075 2.1909 2.4241 2.5581 2.5173 2.564267 2.5823 2.7237 2.8976 3.1491 4.7578 36.3135 21.90033 10.4951 10.5232 8.6646 7.5001 7.1115 6.5572 6.034 5.8205 5.7887 5.6287 5.4467 5.1971 4.874 4.4915 4.2509 4.071 3.6372 3.2154 2.8271 2.4861 2.1969 2.078683 1.9564 1.7568 1.8383 1.5313 1.3128 1.1368 0.9736 0.9214166 0.8103 0.6456 0.4869 0.3445 0.2274 0.2766 0.2369833 0.1657 0.0921 0.0474 0.0227 0.0101 0.0041 0.00335 0.0016 0.0006 0.0002 0.0001 0.0001 
0.0001 0.0001003906 0.0001 0.0001 0.0001 0.0001 0.0001 0.0002 0.0003 0.0007 0.0017 0.004 0.0109 0.0319 0.0952 0.1297167 0.2662 0.662 1.4193 2.7188 4.8155 8.0293 10.63838 8.8949 16.396 22.138 25.4002 26.0204 24.7459 22.12793 22.701 22.2694 21.9776 19.8055 16.3887 16.8857 14.67915 16.5795 17.863 19.8821 21.3991 21.7846 21.4194 20.483 14.16225 19.2787 18.9303 17.9374 16.3527 14.0224 11.3652 7.448067 8.6834 6.5405 5.082 6.4614 5.5598 3.6554 4.241533 3.7255 3.9407 4.3496 4.9048 5.6463 6.7705 7.9293 8.263467 7.5477 3.5224 2.4457 2.2465 2.3954 2.5607 2.684467 2.5451 2.3143 2.0044 1.7779 1.4586 1.0792 0.9033 1.177233 0.7976 0.6969 0.7515 0.832 0.8888 2.1422 1.338467 0.8653 0.7727 0.8176 1.1489 1.1716 1.1518 1.130417 1.2414 1.4266 1.8445 2.0112 1.4798 0.7477 1.2328 1.4176 1.747 2.0018 2.2319 2.4257 2.5128 2.4544 2.519317 2.5588 2.7006 2.8656 3.0821 8.7635 7.3195 12.5651 9.1208 8.9632 8.048 7.3165 7.0198 6.6861 6.423666 6.3323 6.1 5.9437 5.7911 5.5926 5.3291 5.0043 4.778333 4.6343 4.2409 3.8472 3.4733 3.1332 2.8341 2.6938 2.5766 2.3566 2.2523 2.0834 1.8994 1.7101 1.6054 1.5109 1.2969 1.0695 0.8387 0.6199 0.4289 0.4681 0.2573833 0.2928 0.1696 0.0909 0.0451 0.0207 0.0088 0.004983333 0.0035 0.0013 0.0004 0.0001 0.0001333333 
0.0001 0.0001 0.0001015625 0.0001 0.0001 0.0001 0.0002 0.0002333333 0.0004 0.0009 0.0019 0.0044 0.0112 0.0275 0.06391667 0.084 0.2416 0.6124 1.3224 2.5523 4.712 7.10775 9.5274 18.9127 23.8454 25.1493 24.6311 22.9109 20.3623 20.95815 19.2708 19.391 20.2573 20.0816 17.6897 15.4099 14.66502 13.9606 12.4489 11.1418 9.7823 8.544 7.7403 7.5361 11.10417 7.8214 7.753 7.5889 7.1796 6.9098 6.7201 8.2047 6.5818 6.6674 6.7955 9.989 10.2084 8.3605 7.013717 4.3693 4.4398 4.6676 4.9829 5.3535 5.904 7.377867 17.2111 3.4621 1.2292 1.1443 1.1619 1.2788 1.4493 1.648733 1.4616 1.2693 1.0068 0.8858 0.8261 0.6255 1.196983 0.5771 0.9606 1.8257 1.9295 2.2252 2.8703 1.737433 1.2115 1.4848 1.2643 1.9577 1.5565 1.646 1.6274 1.55895 1.4495 1.3839 1.1406 1.9713 2.3735 1.3116 1.457833 1.633 1.8862 2.0943 2.2751 2.4794 2.4608 2.4469 2.508383 2.5562 2.6932 2.849 3.0399 23.8121 4.7185 6.8627 7.4232 7.6771 7.3789 6.8248 6.7172 6.5644 6.414767 6.368 6.2092 6.0929 5.9831 5.8408 5.6436 5.471334 5.3873 5.0816 4.7437 4.3933 4.0489 3.7249 3.4302 3.279467 3.1686 2.9394 2.7687 2.606 2.4373 2.254 2.143283 2.047 1.8096 1.5417 1.2534 0.9637 0.6954 0.8090833 0.197 0.1441 0.1028 0.0652 0.0366 0.0185 0.0084 0.007416666 0.0035 0.0014 0.0005 0.0002 0.00015 
0.0001 0.0001 0.0001 0.00010625 0.0001 0.0001 0.0001 0.0003 0.0003 0.0007 0.0015 0.0036 0.0097 0.0353 0.09348334 0.1096 0.3169 0.8079 1.7945 3.614 6.6944 7.8726 8.8679 11.4822 13.393 15.1064 17.019 18.7633 19.8441 21.85897 18.8248 15.2492 14.7271 16.883 15.1916 13.9173 12.33042 11.2371 9.4199 6.818 4.8873 5.1358 5.4308 5.86385 5.6504 5.8554 6.2329 6.5656 6.7743 6.9531 7.3853 7.294816 8.4924 10.7491 13.7843 11.0099 10.6722 11.0226 8.841984 10.949 6.9026 6.5856 6.6827 5.8309 4.3972 5.013883 2.0551 0.6241 0.729 0.772 0.752 0.7105 0.8817 1.0652 0.994 0.9916 0.8916 0.6366 0.9908 1.7279 1.821183 2.2689 2.4636 2.5288 2.5651 2.903 1.3801 1.9726 1.9317 1.7821 1.5117 2.8454 1.8602 2.0079 1.9833 1.9953 1.8883 1.6527 1.5254 1.2263 2.3025 1.7505 1.56855 1.8866 2.0433 2.1868 2.3727 2.5314 2.4315 2.455083 2.4644 2.5696 2.6993 2.8457 14.5403 6.6124 5.5667 6.8599 7.0275 7.1055 6.9347 6.201 6.2999 6.3007 6.253767 6.2371 6.1644 6.1038 6.0429 5.9566 5.8247 5.694433 5.639 5.4031 5.1292 4.8331 4.5308 4.2364 3.9599 3.80935 3.7074 3.481 3.2901 3.1193 2.9522 2.7726 2.661617 2.5651 2.3171 2.0239 1.6922 1.3415 2.1173 1.0627 0.9478 0.5339 0.2907 0.151 0.074 0.0339 0.0234 0.0145 0.0058 0.0021 0.0007 0.0002 0.0001 
0.0001 0.0001 0.0001 0.0001 0.000125 0.0001 0.00025 0.0002 0.0006 0.0013 0.0033 0.0091 0.0273 0.081 0.2437333 0.2235 0.5537 1.2169 2.3814 4.1707 4.8663 10.6598 12.5676 13.4449 16.243 19.429 22.236 25.7046 26.3674 27.2825 25.5693 21.0352 13.9685 9.761 13.1355 11.8179 10.6208 7.6397 3.5758 3.7306 4.1193 4.2617 4.4701 4.540833 4.3554 3.6494 4.2685 5.1064 5.5175 5.9714 6.9883 6.8353 7.754 21.6501 11.3043 10.7572 9.9142 9.3289 10.07915 9.0216 8.8149 5.206 18.2185 0.652 0.3109 1.312017 0.205 0.3426 0.5979 0.7459 0.7504 0.3906 1.1745 0.6339 0.9707 1.3877 2.014 2.277 2.4582 2.7181 2.648733 3.0096 3.1005 3.0293 2.8767 1.754 2.1351 2.10785 2.3069 2.2428 2.1964 2.362 2.0748 2.3116 2.358733 2.3116 2.23 2.2043 2.2017 2.1163 2.2639 1.4957 1.5116 1.3339 1.8829 2.1961 2.4456 2.5275 2.4333 2.513533 2.4936 2.5952 2.7197 5.2852 3.7265 5.7964 6.24345 5.6695 10.754 4.7525 5.8865 5.8171 5.9468 6.0169 6.035817 6.0355 6.0311 6.022 6.0065 5.9699 5.8962 5.807817 5.7758 5.6082 5.4003 5.1638 4.9119 4.6575 4.505567 4.4107 4.1793 3.967 3.7785 3.6083 3.4438 3.2683 3.157217 3.0627 2.8097 2.4988 2.1325 1.7288 1.6117 1.2032 0.807 0.553 0.3392 0.1893 0.0967 0.0454 0.02966667 0.0197 0.0079 0.0029 0.001 0.0003 0.0001 
0.0001 0.0001 0.0001 0.0001 0.0001 0.0002 0.0004333333 0.0008 0.0029 0.0084 0.021 0.0646 0.1137 0.2998 0.7479833 0.7132 1.5452 3.0565 5.1991 5.2986 9.8443 14.35297 21.1183 20.8538 25.1565 29.8737 32.9534 32.9344 30.41273 33.6755 35.6795 34.2802 29.5623 22.2131 17.3466 17.3482 12.0707 7.0421 3.6846 2.4789 2.2959 2.8293 3.4108 4.870333 3.9275 3.9197 3.7627 3.5754 4.1981 5.8212 7.24475 8.9635 10.763 11.6733 11.5879 12.209 11.7735 11.5325 10.9141 9.2387 7.109 30.1393 2.077 0.7105 0.4666 0.8764667 0.4373 0.404 0.3923 0.7134 1.2723 2.2458 1.657983 2.1845 2.0925 2.0222 2.0845 2.7166 2.8293 2.508017 2.9919 3.176 3.1387 2.8476 1.9811 2.3489 2.4422 2.256767 2.4511 1.9039 1.5061 0.9203 5.0552 2.984 2.7978 2.542 2.3107 1.8193 4.0488 2.6937 2.479 2.1335 1.6175 0.9854 1.8881 2.5209 3.0468 2.9075 2.6371 3.019483 2.6213 2.8469 3.1069 8.0003 2.4077 4.6976 6.597383 9.1181 6.9655 5.4093 5.6176 5.6708 5.7277 5.794283 5.7895 5.8352 5.8673 5.8932 5.912 5.9144 5.888 5.836633 5.8232 5.7167 5.5712 5.3945 5.1967 4.9887 4.857833 4.7802 4.5792 4.3909 4.2187 4.06 3.905 3.810117 3.7376 3.537 3.2821 7.5786 0.6869 0.9537 1.0097 0.9845167 0.7257 0.4991 0.3133 0.1792 0.0936 0.0448 0.0311 0.0197 0.008 0.003 0.001 0.0003 0.0001 
0.0001 0.0001 0.0001 0.0001 0.0001 0.0002 0.0004333333 0.0008 0.0029 0.0084 0.021 0.0646 0.1137 0.2998 0.7479833 0.7132 1.5452 3.0565 5.1991 5.2986 9.8443 14.35297 21.1183 20.8538 25.1565 29.8737 32.9534 32.9344 30.41273 33.6755 35.6795 34.2802 29.5623 22.2131 17.3466 17.3482 12.0707 7.0421 3.6846 2.4789 2.2959 2.8293 3.4108 4.870333 3.9275 3.9197 3.7627 3.5754 4.1981 5.8212 7.24475 8.9635 10.763 11.6733 11.5879 12.209 11.7735 11.5325 10.9141 9.2387 7.109 30.1393 2.077 0.7105 0.4666 0.8764667 0.4373 0.404 0.3923 0.7134 1.2723 2.2458 1.657983 2.1845 2.0925 2.0222 2.0845 2.7166 2.8293 2.508017 2.9919 3.176 3.1387 2.8476 1.9811 2.3489 2.4422 2.256767 2.4511 1.9039 1.5061 0.9203 5.0552 2.984 2.7978 2.542 2.3107 1.8193 4.0488 2.6937 2.479 2.1335 1.6175 0.9854 1.8881 2.5209 3.0468 2.9075 2.6371 3.019483 2.6213 2.8469 3.1069 8.0003 2.4077 4.6976 6.597383 9.1181 6.9655 5.4093 5.6176 5.6708 5.7277 5.794283 5.7895 5.8352 5.8673 5.8932 5.912 5.9144 5.888 5.836633 5.8232 5.7167 5.5712 5.3945 5.1967 4.9887 4.857833 4.7802 4.5792 4.3909 4.2187 4.06 3.905 3.810117 3.7376 3.537 3.2821 7.5786 0.6869 0.9537 1.0097 0.9845167 0.7257 0.4991 0.3133 0.1792 0.0936 0.0448 0.0311 0.0197 0.008 0.003 0.001 0.0003 0.0001 
0.0001 0.0001 0.0001 0.0001 0.0001 0.0003 0.0005166667 0.001 0.0034 0.0124 0.0393 0.1202 0.3985 0.5416333 0.9819 2.1885 4.2742 7.2566 9.032 14.9949 18.5166 16.6042 19.2047 27.0031 32.2385 34.1688 32.1613 30.7946 29.85447 32.0848 34.3158 33.839 33.8309 32.524 27.296 24.61625 22.4225 19.7299 17.3511 11.1598 6.2309 6.3404 6.4575 8.66515 6.6007 6.509 6.3182 5.7251 6.5453 8.1998 7.504333 7.6773 10.6398 12.4594 12.6693 14.8855 14.4646 12.72083 12.7997 9.8789 29.9338 2.9171 2.4834 2.6078 1.893067 2.3248 1.5142 1.5783 1.6932 1.8534 2.0501 2.2081 2.396183 2.285 2.2752 2.1827 2.1869 2.1808 2.076 2.095083 1.9746 1.861 8.0114 2.0075 3.0235 2.6709 2.5072 2.1829 1.6981 0.9419 0.5625 1.8863 7.841 3.743 3.0934 2.8946 2.8096 2.8156 3.4624 2.9051 3.3028 2.774083 1.6421 0.504 1.1022 1.9 2.744 3.5327 3.171133 3.9339 3.9977 3.8413 8.8036 4.8667 4.4402 8.4204 6.643767 5.8823 6.7709 5.8152 5.6614 5.675 5.6371 5.673433 5.6477 5.678 5.7149 5.7546 5.7925 5.8208 5.818367 5.8289 5.8077 5.7522 5.6619 5.5411 5.3968 5.2376 5.131866 5.0723 4.9086 4.7519 4.6056 4.4677 4.3299 4.240867 4.1761 3.9842 9.6939 2.4987 1.7084 1.2532 0.9734 0.9266 0.7796 0.5003 0.2994 0.1658 0.0846 0.0398 0.02891667 0.0172 0.0069 0.0026 0.0009 0.0003 0.0001 
0.0001 0.0001 0.0001 0.0001 0.0001666667 0.0001 0.00044 0.0007 0.0032 0.014 0.0563 0.1626 0.4309 0.52465 1.025 2.198 4.0073 5.809 10.1651 13.4976 13.44325 16.8506 14.0907 16.0565 15.4882 16.1312 19.0717 22.9963 22.91272 26.6412 28.181 30.1115 32.9517 35.4933 35.0393 29.64127 33.5224 32.4768 31.3723 29.8861 26.2328 20.3094 16.90278 19.2408 12.3536 11.0074 8.6599 8.0877 8.965 6.2648 10.0738 8.0994 9.2143 13.4076 15.0472 16.4344 14.7747 17.47235 11.5984 40.2708 3.1313 2.699 2.8226 2.8254 2.190283 2.4233 2.6917 2.2497 2.3752 2.5244 2.6869 2.7587 2.118667 2.695 2.5124 2.1714 1.8972 1.6779 1.4549 1.2246 1.2438 1.0643 0.8788 3.5676 4.2237 10.2624 5.910517 2.3578 1.641 1.1612 1.3725 6.2228 7.106 5.23055 3.2894 3.1074 2.8705 2.2162 2.5683 2.9046 4.5363 3.84555 3.0668 0.8691 0.6679 1.191 1.8469 2.656 2.932483 3.3596 3.8674 11.654 1.6663 4.3316 13.2082 4.9908 6.622 6.7534 6.9869 6.0988 5.7985 5.823 5.6487 5.720117 5.5899 5.5805 5.5983 5.6321 5.6737 5.7142 5.728967 5.7439 5.7539 5.7379 5.6934 5.6218 5.5273 5.45365 5.4163 5.2961 5.1734 5.0538 4.9399 4.8302 4.7159 5.393483 4.5807 11.4129 3.4453 2.9254 2.229 1.6232 1.41725 1.1478 0.9234 0.5606 0.3175 0.167 0.0814 0.06043333 0.0367 0.0153 0.006 0.0021 0.0007 0.0002 0.0001 
0.0001 0.0001 0.0001 0.0001222222 0.0001 0.0001 0.0003 0.0001 0.0004 0.0018 0.0068 0.0284 0.0851 0.2957833 0.2265 0.5304 1.1202 2.7078 4.5771 7.0153 7.987083 9.7845 0.9637 1.8245 3.189 5.1691 7.8362 10.89998 11.1704 13.789 16.3739 19.7367 23.1089 26.1616 28.6819 26.5379 30.8855 31.6091 31.1654 30.7656 30.5202 28.2629 24.38513 20.8057 22.1101 20.0896 19.2893 17.3808 10.4883 15.95752 13.7184 16.4831 19.0292 20.3971 17.4726 15.6246 11.8156 18.68053 39.3811 2.989 2.0088 1.5296 1.3296 1.4131 1.848267 1.5473 1.6869 1.8811 1.825 1.8099 1.7537 1.7452 1.5702 1.195 8.9752 1.208 0.8084 0.5971 0.3947 0.6336167 0.2036 0.0664 2.8699 4.5757 5.0615 15.5077 8.970083 2.1571 2.5951 2.7264 3.3752 5.217 6.1685 4.600733 3.2354 3.1987 3.0661 2.4902 1.5582 2.5783 3.4427 4.851817 7.0826 1.729 0.1504 0.484 0.943 1.5954 2.0744 2.5173 3.3044 19.4226 0.3743 10.836 2.1992 5.481067 5.3622 8.3229 9.2921 7.9045 6.4326 7.4928 7.459217 6.1376 5.6597 5.5496 5.5278 5.5408 5.5728 5.6133 5.637383 5.6527 5.682 5.6944 5.6857 5.6552 5.6049 5.5589 5.539 5.4631 5.383 5.3033 5.2263 5.1495 5.0635 6.3689 9.4948 5.618 4.6896 3.7589 2.8708 2.0793 1.754417 1.4266 1.098 0.6483 0.3544 0.1791 0.0838 0.06026667 0.0363 0.0146 0.0054 0.0019 0.0006 0.0002 0.0001 
0.0001 0.0001 0.0001074074 0.0001 0.0001 0.00015 0.0001 0.00025 0.0006 0.0001 0.0002 0.0007 0.002 0.0797 0.0052 0.0169 0.0512 0.1025 0.1844 0.304 2.940767 0.4705 0.1097 0.2334 0.4706 0.897 1.6117 4.011533 2.7136 4.2371 6.1697 8.3812 10.6467 12.6916 15.61108 14.6044 16.4939 18.4812 20.6057 22.7292 24.6423 27.1405 25.12393 30.5515 31.057 27.9441 27.7259 25.1454 29.4885 24.33583 26.8201 25.3375 24.4411 19.2408 18.4019 11.3085 17.77935 32.0037 2.5097 2.0706 1.8613 1.6411 1.3264 1.459 1.818533 1.4215 1.0763 0.5507 0.627 0.7033 0.814 0.9317667 0.8877 6.5286 18.7372 0.94 0.7289 0.6206 0.8170167 0.4545 0.0502 0.0124 4.0665 5.1601 5.7514 20.8694 9.475483 2.6661 3.2112 3.357 3.5934 5.7429 4.6604 3.983 3.1447 3.3744 3.0823 2.4375 1.3453 1.9383 2.398817 2.5656 8.4169 4.7427 1.5685 0.0969 0.3281 0.7525 3.060867 1.5656 13.1059 2.5331 13.1736 1.2815 2.31 3.58825 4.816 7.9503 10.3464 10.5862 9.2429 10.6913 9.59485 8.9619 7.2322 5.9713 5.5622 5.4943 5.5005 5.5306 5.5582 5.5696 5.608 5.6385 5.6561 5.6583 5.6456 5.624733 5.6203 5.5863 5.5483 5.5097 5.4718 5.4308 6.6014 8.5063 5.8522 5.8237 5.2455 4.396 3.4449 2.5239 2.087567 1.7257 1.2355 0.7214 0.3872 0.1911 0.0869 0.06076667 0.0365 0.0142 0.0051 0.0017 0.0005 0.0002 0.00015 
0.0001 0.0001024691 0.0001 0.0001 0.0001125 0.0001 0.000175 0.0002625 0.0001 0.00015 0.0003333333 0.0009666667 0.0009333334 0.00185 0.00452 0.01118571 0.004 0.0036 0.0087 0.0211 0.1424333 0.0492 0.0128 0.028 0.0604 0.1259 0.2529 0.8528833 0.4844 0.8799 1.5129 2.4804 3.6885 5.042 6.851267 6.485 7.978 9.5694 11.3537 13.4748 16.1381 19.643 21.38705 24.34 29.3189 31.7773 33.4961 37.8131 34.9788 27.69147 30.5209 25.8263 21.1655 17.8998 14.9192 35.0568 13.25348 0.8669 0.9758 1.2296 1.6205 2.2228 1.6739 1.76795 2.2774 2.7929 2.773 1.6569 0.1426 0.0716 0.1604 2.904183 0.4046 14.0524 20.6522 6.1257 1.6843 1.6123 1.753567 1.2229 5.7335 3.7265 3.9394 5.1156 15.7002 12.4739 8.175317 3.1787 2.9417 2.6746 5.3409 7.2681 3.7119 3.523617 2.9771 3.4308 3.2875 2.8658 2.31 2.7906 2.580283 1.0774 6.3275 6.5256 1.5788 1.0722 0.9178 0.5818833 1.0174 10.917 6.26 10.9614 1.4138 1.5711 2.45 3.4072 4.3921 7.0278 9.6501 11.3849 11.7164 12.4335 11.54478 11.852 10.3651 8.4255 6.7191 5.7516 5.4991 5.6394 5.4783 5.5047 5.5434 5.5834 5.6188 5.6461 5.6642 5.6654 5.6744 5.679 5.6812 5.6833 5.6849 10.5617 6.74995 4.8966 5.4604 5.6409 5.3543 4.6817 3.782 3.23645 2.8238 1.9461 1.2925 0.7493 0.3971 0.1927 0.0859 0.05921667 0.0352 0.0134 0.0047 0.0015 0.0005 0.0001 0.0001333333 
0.000100823 0.0001 0.0001 0.000103125 0.0001 0.0001375 0.000159375 0.0001 0.000125 0.0001944444 0.0004833333 0.0004866667 0.0001 0.0001 0.0001 0.0003 0.0006 0.0011 0.0021 0.006283334 0.0035 0.0063 0.0037 0.0047 0.0055 0.0085 0.07096667 0.0174 0.0373 0.0772 0.1529 0.289 0.5195 0.8813 2.311617 1.4033 2.0869 2.9285 3.989 5.4224 7.5206 9.09215 10.7623 15.885 24.3651 28.5566 34.9961 34.7409 26.9888 20.63033 17.3517 11.8638 8.8376 7.2559 6.2528 0.1352 6.065917 0.1498 0.1684 0.1787 0.146 3.1985 1.3906 1.48905 2.4804 4.2115 6.7397 10.038 11.8501 10.7837 8.4466 15.69002 6.7118 19.1245 29.9161 6.3553 3.9595 2.8153 3.574733 3.7958 7.59 5.8128 6.9463 8.4632 10.4398 9.355984 6.7605 3.1033 3.0761 3.0263 9.0567 5.25 5.212283 3.5506 3.097 3.6657 3.7552 3.6202 3.2303 3.5413 3.289317 3.5685 5.4373 5.5454 4.6425 0.0823 0.1601 0.6651667 0.3154 7.2546 19.5288 1.1186 1.1886 1.5095 2.4209 2.94005 4.0542 6.2343 8.5616 10.6989 12.091 12.4082 12.32265 12.9218 12.5278 11.4502 9.5732 7.6548 6.2387 6.377917 5.5892 5.4823 5.4981 5.5389 5.5849 5.6305 5.65335 5.6737 5.7142 5.7535 5.7933 5.8344 11.3288 5.5989 6.454283 5.5054 5.5953 5.626 5.3633 4.7584 3.9007 3.373333 2.9434 2.0384 1.2635 0.7244 0.3786 0.1807 0.1272833 0.079 0.0318 0.0118 0.0041 0.0013 0.0004 0.0001 0.0001 
0.0001 0.0001 0.0001007813 0.0001 0.00011875 0.0001242188 0.0001 0.0001125 0.0001398148 0.0002675926 0.0002728889 0.0001 0.0001 0.0001 0.00014 0.0001 0.0002 0.0004 0.0008 0.00155 0.0015 0.0025 0.0034875 0.0047 0.0071 0.0096 0.008116666 0.0115 0.0118 0.0103 0.0078 0.0068 0.0103 0.0202 0.585675 0.0379 0.0637 0.0954 0.1284 0.1577 0.1879 3.1491 0.301 0.9245 15.1406 11.4021 15.3376 15.1232 16.32573 10.0702 3.8716 0.987 0.2096 0.1229 0.1099 0.0765 0.4915833 0.1103 0.1737 0.29 0.5008 0.8302 0.6532 1.025667 0.4588 0.5938 0.977 1.5404 2.4168 3.4639 16.29988 54.0292 24.3875 34.6055 33.608 5.1727 4.9697 6.0708 11.258 5.9313 6.8137 6.4836 6.937 7.1291 6.4732 6.571 4.2883 3.1852 6.5434 8.4596 10.3774 6.8693 4.33865 4.6238 3.9562 3.9467 4.4291 4.4576 4.1244 4.2787 4.182233 4.4794 5.1667 5.3608 1.0634 0.9205 0.8049 2.41435 0.7754 19.1924 9.1969 0.3422 0.1917 0.5782 1.466617 1.4344 2.8887 4.8254 7.0225 9.2345 11.1148 11.31965 11.5923 12.7281 13.2448 13.0713 12.2575 10.6431 8.5815 8.032166 6.8807 5.8419 5.5267 5.5183 5.5634 5.6213 5.656983 5.6843 5.7509 5.8212 5.8956 10.9668 6.1952 6.1544 6.020184 6.0087 5.9142 5.7596 5.3907 4.7442 3.8752 3.362633 2.9149 2.0086 1.1688 0.658 0.3373 0.1578 0.111 0.0676 0.0266 0.0097 0.0033 0.001 0.0003 0.0002 0.0001 
0.0001 0.0001001953 0.0001 0.000109375 0.0001107422 0.0001 0.00010625 0.0001174383 0.0001733025 0.0001760593 0.0001 0.0001 0.0001 0.000108 0.0001 0.0001 0.0001 0.0002 0.0005 0.00075 0.0009 0.0017 0.003 0.0013 0.0013 0.001 0.003833333 0.0007 0.0003 0.0001 0.00625 0.006275 0.009375 0.007825 0.015075 0.02166 0.03575 0.04732857 0.0001 0.0032 0.0313 0.2932833 0.0915 2.6037 3.6647 5.7386 7.0382 6.531 7.354033 4.5003 2.4776 1.2011 0.2934 0.1545 0.0983 0.9714 1.2262 1.2515 1.3444 1.4923 1.681 1.8455 0.5283 2.423183 0.6427 0.7501 0.9369 1.3998 2.2356 6.9639 18.74692 14.112 10.0182 10.915 1.2435 0.6982 0.848 5.151783 0.7928 48.142 12.6118 11.6601 9.2364 7.787 6.2243 4.121483 5.2399 5.4763 8.1001 5.1682 3.9904 2.7068 3.9279 3.0314 4.0662 4.6254 4.8476 5.0692 4.9683 4.6845 4.6535 4.572 4.3161 4.33 1.2535 1.1341 1.0591 2.6165 11.3712 7.5614 8.131 1.1438 1.0748 1.1906 1.860167 1.6661 2.6459 4.1228 5.9744 7.9987 9.9511 10.48462 10.7605 12.0786 13.0304 13.5503 13.515 12.8274 11.4848 10.23128 9.4181 7.5021 6.1806 5.6289 5.5749 5.6274 5.675133 5.7047 5.7935 5.8915 10.6745 6.2006 6.4267 6.4416 6.4662 6.3875 6.2213 5.9243 5.4188 4.6771 3.7579 3.25665 2.7837 1.8892 1.0045 0.5288 0.2714 0.1271 0.09053333 0.0538 0.0208 0.0074 0.0024 0.0008 0.0002 0.00016 0.0001 
0.0001000651 0.0001 0.0001046875 0.0001050293 0.0001 0.000103125 0.0001078961 0.0001323302 0.00013336 0.0001 0.0001 0.0001 0.0001016 0.0001 0.0001 0.0001 0.0001 0.0002 0.0003 0.0004 0.0005 0.0007 0.001 0.0001 0.0001 0.0001 0.000475 0.0001 0.0001 0.0001666667 0.0001 0.00015 0.0002 0.000325 0.0006 0.0016 0.0045 0.0114 0.0278 0.0877 0.1123667 0.3139 0.8341 1.701 2.9084 4.0914 4.6654 4.3587 4.047117 3.5408 2.8974 2.6318 2.5995 1.4069 1.2769 2.033267 3.0406 3.372 3.5976 4.0767 4.6307 5.2471 4.755383 5.8123 6.4438 6.9622 7.2431 7.3193 7.2329 13.2382 12.8448 20.6743 14.4242 6.5313 4.9166 6.4702 7.9779 7.439533 10.2515 15.9064 4.7595 4.0629 2.5686 2.0598 1.5899 4.47335 0.9133 27.8423 3.8658 3.9673 3.3069 2.9538 3.282917 3.3823 4.7477 5.3331 5.6105 5.8409 5.43 4.996467 4.6521 4.2668 3.3118 3.1204 2.0169 11.3055 2.83635 0.0709 1.6175 4.3334 5.9729 2.7169 2.7863 2.9712 2.905917 3.3205 3.9114 4.8514 6.1095 7.6104 9.2144 9.878583 10.2746 11.4913 12.5551 13.3521 13.809 13.7738 13.16673 13.1583 11.8643 9.7818 7.7426 6.3393 5.7265 5.67 5.72795 5.7431 5.8491 9.8088 6.4689 6.5613 6.6724 6.730467 6.7347 6.6726 6.4529 6.0397 5.4026 4.56 4.415583 3.5927 2.6155 2.0547 0.8938 0.4407 0.2146 0.0969 0.06871667 0.04 0.0151 0.0053 0.0017 0.0005 0.0001 0.000125 0.0001 
0.0001 0.0001023438 0.0001024292 0.0001 0.0001015625 0.0001036737 0.0001144504 0.0001147173 0.0001 0.0001 0.0001 0.00010032 0.0001 0.0001 0.0001 0.0001 0.00015 0.0002 0.0002 0.0001 0.0001 0.0001 0.0001 0.000325 0.0001 0.0001 0.0001 0.0001 0.0001 0.0001 0.000125 0.0001333333 0.0001 0.0002833333 0.0004 0.0015 0.0042 0.0098 0.0227 0.0655 0.1664667 0.1726 0.4589 0.9668 1.5666 2.1495 2.6011 2.8462 2.9481 2.5057 2.1355 1.7402 2.3824 3.2774 2.8291 3.435533 3.7285 4.0496 4.6235 5.0477 5.4552 5.9632 7.1648 9.1359 9.2381 8.9782 8.4169 7.6895 6.886 10.25373 11.4095 10.6709 5.7015 3.9667 5.4901 5.729 11.2209 11.64203 13.5461 10.8797 6.3752 5.329 4.8396 5.1075 4.520833 5.7581 7.1146 10.016 3.7642 3.5428 3.2504 3.303183 3.298 4.3252 5.3956 5.9599 6.4151 6.4096 5.6918 5.192033 4.5831 4.4734 3.3158 2.8913 11.6593 1.7761 3.301033 1.6724 1.5646 1.8327 2.4586 2.7757 3.486 3.8268 3.985383 4.4603 5.0868 5.8536 6.7631 7.8306 9.0215 9.573783 10.0494 11.0806 12.067 12.9298 13.5677 13.9349 13.71508 13.8212 13.0816 11.6896 9.5746 7.5922 6.3028 6.200183 5.8103 5.8122 6.9841 7.4527 7.1509 7.0351 7.0386 7.3439 7.0442 6.9501 6.6792 6.1709 5.4532 5.31 5.053783 4.5958 3.3265 1.91 0.6163 0.3127 0.1511 0.1106167 0.0672 0.0273 0.0102 0.0035 0.0011 0.0003 0.0001 0.0001 0.0001 
0.0001011719 0.0001011932 0.0001 0.0001007813 0.0001017454 0.0001065622 0.0001065683 0.0001 0.0001 0.0001 0.000100064 0.0001 0.0001 0.0001 0.0001 0.000125 0.00015 0.0001625 0.0001 0.0001 0.0001 0.0001 0.0001 0.0001 0.00015625 0.0001 0.0001 0.0001 0.0001 0.0001 0.0001083333 0.0001 0.0001 0.00022 0.0003 0.0009 0.0024 0.0058 0.0167 0.0703 0.1832167 0.2888 0.7987 1.5543 2.2602 2.5808 2.4077 2.95205 2.0599 2.3773 2.884 2.5983 2.5744 2.7188 3.463 5.068383 6.2751 6.8415 7.3662 7.8137 8.1549 8.4264 8.27815 8.4039 13.226 8.1445 6.813 6.2053 7.6709 11.07988 15.0849 5.5267 4.4362 5.9662 6.587 11.5346 14.1289 12.69683 12.7269 9.5656 7.2875 6.6871 6.3179 6.2901 6.077067 6.3196 6.3816 6.0807 3.8843 3.554 3.3987 3.53385 3.6113 4.9053 5.9537 6.5761 7.0641 6.8087 5.852 5.600266 4.9432 4.9764 4.1322 13.8395 2.3887 2.7906 2.347867 2.1907 1.8799 1.8862 2.1754 2.7073 5.0022 4.447583 4.3859 4.9476 5.7201 6.4878 7.2767 8.1252 9.05 9.388683 9.8328 10.7213 11.5927 12.4118 13.1237 13.6752 13.6844 13.9271 13.6523 12.7872 11.2888 9.2083 7.3927 6.973033 6.2988 5.9556 6.6069 7.1712 7.3253 7.3773 7.7265 8.925517 8.847 9.3488 9.4618 9.0939 8.37 7.2342 5.156533 5.03 2.7281 1.2448 0.3392 0.184 0.0922 0.07126667 0.0417 0.017 0.0063 0.0021 0.0007 0.0002 0.00016 0.0001 0.0001 
0.0001007884 0.0001 0.0001003906 0.0001008422 0.0001030296 0.0001029752 0.0001 0.0001 0.0001 0.0001000128 0.0001 0.0001 0.0001 0.0001 0.0001125 0.000125 0.000134375 0.0001 0.0001 0.0001 0.0001 0.0001 0.0001 0.0001 0.0001 0.0001140625 0.0001 0.0001 0.0001 0.0001016667 0.0001 0.0001 0.0001 0.000175 0.0002 0.0005 0.0017 0.0051 0.0205 0.1018 0.2270667 0.4003 1.0894 2.1124 3.2018 3.9285 4.0471 3.447567 3.7503 3.4089 3.3193 4.5204 4.7762 5.2003 5.2481 5.7167 8.3979 8.6965 8.4855 8.812 9.011 8.6799 9.963984 9.0596 13.0539 9.8868 8.6406 9.0667 9.3899 11.57315 16.0381 6.1475 7.9175 9.4635 11.214 14.1553 13.70395 13.2458 11.3124 9.651 8.5791 7.8602 7.3123 6.7546 6.565333 6.2325 5.6371 4.8627 4.2843 3.8754 3.688 3.840617 3.9567 4.9859 6.178 6.8096 7.1191 7.2516 7.074234 6.4733 6.0582 6.6207 13.0827 5.4626 2.4176 3.1118 2.932117 2.5456 2.2618 3.7027 4.3079 4.8436 5.9379 4.94915 4.0467 5.0284 5.8631 6.6432 7.4044 8.1763 8.472134 8.9794 9.399 10.2049 11.0274 11.8006 12.5314 13.1603 13.38412 13.5877 13.6842 13.2962 12.3577 10.7894 8.8161 8.025117 7.2175 6.3806 6.5025 6.9996 7.9111 9.2169 10.25085 10.6126 12.2842 13.1835 12.9131 11.4722 8.9821 5.8043 4.116117 2.9649 1.329 0.6309 0.375175 0.0992 0.0516 0.0416 0.0238 0.0097 0.0036 0.0012 0.0004 0.0001 0.000125 0.0001 0.0001 
0.0001 0.0001001953 0.0001004109 0.0001014208 0.0001013694 0.0001 0.0001 0.0001 0.0001000026 0.0001 0.0001 0.0001 0.0001 0.00010625 0.0001125 0.0001179688 0.0001 0.0001 0.0001 0.0001 0.0001 0.0001 0.0001 0.0001 0.0001 0.0001 0.0001035156 0.0001 0.0001003333 0.0001 0.0001 0.0001 0.000125 0.00015 0.0001 0.0003 0.0012 0.0043 0.0196 0.06545 0.1018 0.3994 1.0565 1.9575 2.9177 3.6647 4.0833 5.218733 4.3371 4.6262 5.0724 5.6534 6.0342 6.7847 7.451766 7.6051 9.2967 10.2022 11.0877 10.9158 11.4409 9.936167 12.4595 12.7546 12.6191 11.9073 10.6448 12.4514 13.0781 12.33825 8.177 10.2014 12.0485 13.304 14.4446 15.0713 15.20688 14.0878 12.7007 11.3944 10.2858 9.1794 8.3147 7.936767 7.3188 6.4764 5.6812 4.9424 4.8133 4.4093 4.1721 4.2 4.2169 4.7685 5.9164 6.5168 6.9779 7.8056 8.493867 8.2542 9.9031 13.352 5.3424 7.3841 3.681 3.832317 3.6965 3.2575 3.9304 5.766 7.4352 7.2658 6.5921 5.912617 3.7301 4.808 5.6604 6.4222 7.1503 7.8794 8.2937 8.6225 9.082 9.8138 10.5537 11.2748 12.0219 12.48617 12.7055 13.2489 13.5345 13.5362 12.9796 11.8709 10.1296 9.281116 8.296 7.0222 6.8936 8.2667 10.225 12.3259 12.987 14.2459 15.1073 14.1273 11.5234 8.1404 4.9251 4.19895 2.5185 1.1448 0.5176 0.2804 0.1704 0.0525 0.0276 0.02275 0.0127 0.0052 0.0019 0.0006 0.0002 0.0001 0.0001 0.000105 0.0001 
0.0001000977 0.0001002021 0.0001006757 0.0001006402 0.0001 0.0001 0.0001 0.0001000005 0.0001 0.0001 0.0001 0.0001 0.000103125 0.00010625 0.0001091797 0.0001 0.0001 0.0001 0.0001 0.0001 0.0001 0.0001 0.0001 0.0001 0.0001 0.0001 0.0001 0.0001006415 0.0001 0.0001 0.0001 0.00011 0.000125 0.0001 0.000175 0.0002 0.0008 0.0037 0.0225 0.05281667 0.1265 0.4969 1.3043 2.5085 3.9548 5.3974 6.7861 4.9007 8.3085 9.9808 10.7215 12.0047 11.8034 10.5659 8.533317 8.8379 8.3431 8.3852 8.7658 9.3813 9.2134 9.839383 8.8123 8.0434 6.998 6.0207 6.1571 14.9764 14.26837 8.1038 19.2426 13.8351 15.4293 16.7167 17.6119 17.7391 17.25998 16.942 15.5639 14.1031 12.6631 11.0418 9.6639 9.0178 8.2563 7.1281 6.1857 5.4091 5.356 4.8825 4.73885 4.6299 4.5364 4.8373 5.6297 6.2762 7.2182 9.2039 11.93063 11.9746 18.441 5.8849 6.3234 5.9444 5.2658 4.976583 4.8212 4.582 5.054 7.6494 9.2294 9.3 8.6107 7.565866 6.5582 5.1628 5.8624 6.4893 7.1053 7.727 8.302033 8.3776 9.3936 9.9944 10.6151 11.24 11.9237 12.47795 12.5742 13.147 13.7822 14.0746 13.9133 13.3569 12.68918 11.6009 9.6266 8.7069 9.2625 11.2478 13.7027 15.5318 14.76012 15.9889 14.472 11.223 7.4439 4.2079 2.0598 1.924733 0.9039 0.3947 0.2095 0.1342 0.0879 0.0278 0.02466667 0.0143 0.0065 0.0026 0.0009 0.0003 0.0001 0.0001333333 0.0001 0.0001 0.00010125 
0.0001001499 0.0001003251 0.0001003036 0.0001 0.0001 0.0001 0.0001000001 0.0001 0.0001 0.0001 0.0001 0.0001015625 0.000103125 0.0001046387 0.0001 0.0001 0.0001 0.0001 0.0001 0.0001 0.0001 0.0001 0.0001 0.0001 0.0001 0.0001 0.0001 0.0001 0.0001 0.0001 0.0001045 0.0001125 0.0001 0.00013125 0.00015 0.0001 0.0004 0.0016 0.0071 0.0348 0.0394 0.1848 0.5817 1.2019 1.8054 2.2743 3.309033 2.6833 3.2059 3.9404 5.6352 5.8627 7.1793 8.2927 8.43285 9.1136 8.2925 8.362 8.4434 8.5697 8.6032 8.867267 8.507 8.1564 7.6268 7.1402 6.8524 5.738 22.24478 31.2625 28.4865 17.3191 18.6522 19.9284 20.6348 20.4119 19.38928 19.3078 17.6817 15.8833 14.0575 12.7405 11.0845 10.19787 9.4686 8.076 6.9238 6.0128 5.9089 5.3203 5.161233 5.019 4.9153 5.2845 5.8428 6.7882 8.7745 11.43198 13.5524 20.7931 7.4915 7.3762 7.5433 6.5724 6.4562 6.291266 5.9388 6.1376 6.4053 9.0979 11.0409 11.0959 12.2009 13.6487 6.2554 6.2562 6.8169 7.3267 7.8596 8.3637 8.900517 8.842 10.4481 10.9244 11.3466 11.8609 12.4778 13.05078 13.1646 14.1599 15.0363 15.7983 16.5753 15.3183 14.75992 13.8585 12.3137 11.811 12.8469 14.6832 16.1193 16.1326 14.6269 14.3356 10.9636 7.0473 3.7926 1.7824 0.7956 0.7739834 0.3455 0.1772 0.1105 0.0742 0.0478 0.0178 0.01301667 0.008 0.0034 0.0013 0.0005 0.0001 0.00015 0.0001 0.0001111111 0.0001 0.0001 
0.0001002375 0.0001001557 0.0001 0.0001 0.0001 0.0001 0.0001 0.0001 0.0001 0.0001 0.0001007813 0.0001015625 0.0001023315 0.0001 0.0001 0.0001 0.0001 0.0001 0.0001 0.0001 0.0001 0.0001 0.0001 0.0001 0.0001 0.0001 0.0001 0.0001 0.0001 0.00010215 0.00010625 0.0001 0.0001140625 0.000125 0.0001 0.0002333333 0.0002 0.0007 0.0025 0.01088333 0.0108 0.0546 0.2197 0.5797 1.0056 1.2656 1.673717 1.4475 1.6885 2.0702 2.57 3.775 5.3901 5.999567 6.5119 7.2751 7.6283 7.7707 7.916 8.1974 9.427 10.32152 8.6407 8.7428 8.7476 9.8552 6.1686 28.1057 29.98278 45.2823 30.3747 20.4232 21.1783 21.8798 22.074 21.35315 21.5432 20.3917 18.775 16.8966 14.9866 13.9558 12.1922 11.16035 10.5217 9.0007 7.7149 6.6724 6.179263 5.7464 5.548533 5.3693 5.1696 5.5854 6.3478 7.8682 11.1518 12.82635 18.6911 8.7883 8.5246 8.7318 8.6928 8.2604 7.8238 7.892033 7.4418 7.5255 8.1416 10.8138 12.9381 13.2725 15.78238 17.2776 9.5674 9.0019 9.1155 9.2914 9.5982 9.92115 9.9345 10.1583 11.9413 12.2574 12.5284 13.0204 13.39347 13.677 14.4874 15.5729 17.3689 20.776 17.8264 17.477 16.87435 16.9479 16.3342 16.3706 16.8016 17.1296 16.5309 14.99897 14.464 11.3085 7.5021 3.9099 1.8321 0.7801 0.3357 0.3012167 0.2034 0.153 0.1151 0.0795 0.0377 0.0067 0.006633333 0.0035 0.0015 0.0006 0.0002 0.0001 0.0001 0.0001125 0.0001 0.0001037037 0.0001 
0.0001000983 0.0001 0.0001 0.0001 0.0001 0.0001 0.0001 0.0001 0.0001 0.0001003906 0.0001007813 0.0001011688 0.0001 0.0001 0.0001 0.0001 0.0001 0.0001 0.0001 0.0001 0.0001 0.0001 0.0001 0.0001 0.0001 0.0001 0.0001 0.0001 0.000101055 0.000103125 0.0001 0.0001066406 0.0001125 0.0001 0.0001777778 0.0002 0.0003 0.0002 0.0008 0.001 0.0045 0.025 0.1099 0.3264 0.6744 1.0432 1.109467 1.3284 1.6256 1.7775 2.2473 2.8219 3.4966 5.199483 5.1268 7.1581 8.4549 9.3649 10.2582 11.2431 12.8818 12.8882 13.863 13.5869 14.3313 11.8328 22.6465 33.6891 34.12767 35.8191 20.658 21.8204 22.1323 22.2056 21.9557 21.84318 21.4993 20.6012 19.238 17.6374 15.8114 14.4498 13.3871 12.6321 11.063 9.5547 8.2925 7.203 6.3795 6.1908 5.9136 5.6454 5.2708 6.1866 7.4445 10.3199 16.9825 11.487 7.8058 8.8748 9.4013 10.0346 10.7294 10.5273 10.6127 9.9127 9.7789 9.7559 10.6428 14.3715 16.4528 17.6669 19.02115 21.7327 14.8007 13.1781 12.1632 11.9328 11.8592 11.94658 11.9117 11.9487 13.5875 13.7225 13.8266 14.3013 14.66103 15.0234 16.0185 18.7527 28.3966 18.8018 18.5486 18.5777 18.75962 19.0667 19.92 20.3875 19.8895 18.2203 15.321 13.20698 11.426 7.0206 3.4478 1.6072 0.596 0.2215 0.2525667 0.0888 0.0383 0.0166 0.0068 0.0026 0.0095 0.0022 0.002433333 0.0016 0.0007 0.0002 0.0001 0.0001333333 0.0001 0.0001 0.000103125 0.0001 0.0001012346 
0.0001 0.0001 0.0001 0.0001 0.0001 0.0001 0.0001 0.0001 0.0001001953 0.0001003906 0.0001005852 0.0001 0.0001 0.0001 0.0001 0.0001 0.0001 0.0001 0.0001 0.0001 0.0001 0.0001 0.0001 0.0001 0.0001 0.0001 0.0001 0.0001005235 0.0001015625 0.0001 0.0001032227 0.00010625 0.0001 0.0001592593 0.0002 0.0001875 0.00015 0.0001 0.00034 0.0003 0.0022 0.0133 0.0561 0.1618 0.3507 0.6261 0.8770167 0.946 1.2369 1.8901 2.5538 3.4791 4.6651 4.993917 6.0064 7.3162 10.3167 12.3066 14.3782 16.6108 18.33043 18.9243 20.7892 21.7255 16.1902 25.4951 35.7917 35.4488 35.148 26.7218 21.8832 22.8979 22.9707 22.8456 22.3767 22.15663 21.6102 20.4677 18.9335 16.9105 15.5858 14.3849 13.58273 12.7078 11.2416 9.8318 8.6295 7.5613 6.7659 6.727567 6.6134 5.9163 6.0595 7.1389 9.6419 16.1864 6.425 9.01045 7.8658 9.4403 10.4501 11.7838 13.1389 13.6001 13.26325 13.5519 13.7311 14.0447 15.3424 18.4505 20.4598 19.6668 22.8458 21.3314 18.1393 16.5637 15.2974 14.7314 14.3159 14.03738 14.06 13.8832 15.2229 14.922 15.0352 15.5745 16.4311 16.3696 19.8798 35.1049 19.5764 19.5819 19.7569 19.91895 19.7059 20.7825 22.0017 22.1167 20.4537 17.2421 13.0079 10.66412 8.4921 4.5857 1.984 0.7237 0.2314 0.0684 0.07313333 0.0209 0.0072 0.0027 0.001 0.0004 0.0029 0.00255 0.0005 0.0001 0.0001 0.0001 0.0001333333 0.0001 0.0001111111 0.0001 0.0001 0.0001007813 0.0001 
0.0001 0.0001 0.0001 0.0001 0.0001 0.0001 0.0001 0.0001000977 0.0001001953 0.0001002928 0.0001 0.0001 0.0001 0.0001 0.0001 0.0001 0.0001 0.0001 0.0001 0.0001 0.0001 0.0001 0.0001 0.0001 0.0001 0.0001 0.0001002609 0.0001007813 0.0001 0.0001015869 0.000103125 0.0001 0.0001530864 0.0002 0.000153125 0.000125 0.0001 0.0001 0.0001666667 0.0001 0.0008 0.0053 0.024 0.0798 0.2124 0.3289 0.47 0.8484 1.2115 1.6029 2.2034 3.1368 4.478 5.3305 6.1906 8.1978 13.9698 15.5295 19.0581 23.0121 24.2709 27.3041 29.8217 27.5293 34.4992 36.8206 44.194 40.29247 41.2235 23.4543 22.85 23.6388 23.85 23.6563 23.1917 22.69875 22.3062 21.1213 19.7346 17.7269 16.0071 14.4645 13.7588 12.8573 11.4501 10.0936 8.9322 7.9115 7.2366 7.2238 7.1792 6.496 7.0625 8.9066 14.3043 5.973 8.078167 6.6446 8.339 9.9499 11.3338 13.6586 14.9238 15.8051 15.48018 16.1824 16.39 16.4852 16.8901 18.2063 19.519 20.09207 21.0565 20.4551 18.958 18.1081 17.4384 16.7972 16.248 15.80858 15.8295 15.5022 16.2749 15.8185 16.0432 16.835 22.44623 20.4828 38.8878 20.0127 20.2358 20.656 21.1182 20.78952 21.8064 22.2948 22.6624 21.8004 19.077 14.8657 11.90067 10.0417 5.696 2.6541 1.024 0.31 0.0915 0.0287 0.02368333 0.0105 0.0043 0.0018 0.0007 0.0002 0.0001 0.0009 0.0001 0.0002 0.0001 0.0001 0.0001 0.0001111111 0.0001 0.0001037037 0.0001 0.0001 0.0001001953 
0.0001 0.0001 0.0001 0.0001 0.0001 0.0001 0.0001000488 0.0001000977 0.0001001464 0.0001 0.0001 0.0001 0.0001 0.0001 0.0001 0.0001 0.0001 0.0001 0.0001 0.0001 0.0001 0.0001 0.0001 0.0001 0.0001 0.0001001303 0.0001003906 0.0001 0.0001007874 0.0001015625 0.0001 0.0001510288 0.0002 0.0001414063 0.0001125 0.0001 0.0001 0.0001222222 0.0001 0.00034 0.0002 0.0014 0.0069 0.0262 0.0839 0.2296833 0.2303 0.5271 0.9267 1.3566 1.935 2.8682 3.806817 4.2976 6.3453 9.0185 17.0876 21.7267 24.8642 28.433 27.31662 31.3411 30.1808 37.0673 42.9045 46.1579 45.5284 42.39538 39.8692 33.8408 23.5344 24.3034 24.7376 24.466 24.39033 23.8492 22.8585 21.4036 19.3764 17.9263 16.6271 14.8826 14.15678 13.2557 11.8709 10.5117 9.3952 8.4885 7.7646 7.6664 7.7831 7.08 8.4107 12.6719 5.201 6.0519 6.613467 7.1881 8.6902 10.424 12.1485 14.8022 16.0082 16.6768 16.84565 17.0648 17.0163 16.2373 16.5877 17.0123 18.0129 18.55133 18.6584 19.2887 19.0723 18.7747 18.398 17.9134 17.4851 17.4212 16.9769 17.8585 17.7461 17.119 20.2347 22.11682 23.4794 41.9361 21.1808 21.0151 20.8997 20.8201 21.0646 21.09297 21.2851 21.683 21.3329 19.3652 15.4299 10.3995 8.256083 5.8471 2.7035 1.0389 0.3558 0.1209 0.0352 0.0104 0.01186667 0.0032 0.001 0.0003 0.0001 0.0002333333 0.0001333333 0.0001 0.0001 0.0001 0.000125 0.0001 0.0001 0.0001 0.0001037037 0.0001 0.0001012346 0.0001 0.0001 
0.0001 0.0001 0.0001 0.0001 0.0001 0.0001000244 0.0001000488 0.0001000732 0.0001 0.0001 0.0001 0.0001 0.0001 0.0001 0.0001 0.0001 0.0001 0.0001 0.0001 0.0001 0.0001 0.0001 0.0001 0.0001 0.0001000651 0.0001001953 0.0001 0.0001003921 0.0001007813 0.0001 0.0001503429 0.0002 0.0001369141 0.00010625 0.0001 0.0001 0.0001 0.0001 0.0001666667 0.0001 0.0005 0.0025 0.0102 0.0353 0.1066 0.2134667 0.2749 0.5908 1.0604 1.4891 2.0692 3.1344 3.9925 4.9259 7.6342 11.4694 16.6853 21.3604 25.5787 25.30438 27.3259 26.4835 32.6205 37.2253 41.2543 42.3506 42.9569 47.96745 40.6003 47.438 26.6522 25.7925 26.1149 26.0333 25.57302 25.1455 23.8838 22.3425 20.1324 19.2651 17.474 16.56038 15.5572 13.9234 12.4903 11.1413 10.0882 9.1135 8.3459 8.161 7.689 8.4234 11.6042 4.7748 5.1742 6.2149 6.74425 7.6083 8.9985 10.7719 12.6734 15.4351 16.3976 17.1741 17.5445 17.8003 17.0059 15.6672 15.6244 15.4809 16.6644 17.01205 17.3968 18.3716 18.7528 18.8493 18.7834 18.4664 18.15393 18.0644 17.7345 17.7431 18.3049 20.1477 39.7876 22.8486 16.321 19.1601 19.877 20.45 20.8005 20.9091 20.8505 19.534 20.433 19.7504 17.8683 14.4318 9.9291 5.7018 4.7895 2.6807 1.055 0.3704 0.1387 0.0626 0.0294 0.02125 0.0131 0.0053 0.002 0.0007 0.0002 0.0001 0.0001 0.0001066667 0.0001 0.0001 0.0001 0.00010625 0.0001 0.0001 0.0001 0.0001012346 0.0001 0.0001004115 0.0001 
0.0001 0.0001 0.0001 0.0001 0.0001000122 0.0001000244 0.0001000366 0.0001 0.0001 0.0001 0.0001 0.0001 0.0001 0.0001 0.0001 0.0001 0.0001 0.0001 0.0001 0.0001 0.0001 0.0001 0.0001 0.0001000326 0.0001000977 0.0001 0.0001001957 0.0001003906 0.0001 0.0001501143 0.0002 0.0001350098 0.000103125 0.0001 0.0001 0.0001 0.0001 0.0001 0.0001 0.0003 0.0014 0.006 0.0216 0.0678 0.09235 0.1809 0.4042 0.7354 1.1039 1.5356 2.2435 3.3997 4.086167 5.3292 8.2247 12.1014 14.443 17.7149 20.7044 23.07662 24.9201 29.8835 32.2762 33.824 35.8227 37.2778 43.71205 47.4198 71.4301 47.8076 29.0475 29.6395 28.7584 27.4036 26.85867 26.5405 25.355 24.0466 23.03 20.7331 18.4165 17.43432 16.4049 14.7332 13.3015 11.9331 10.7553 9.7328 9.0445 9.123883 8.3389 11.3048 4.5272 4.765 5.584 6.1624 6.4819 7.2399 9.3922 11.8055 11.5132 14.2352 17.0314 18.7805 19.3861 17.8794 16.0342 14.4547 13.5486 14.1182 14.50495 15.2582 16.0816 17.5152 18.3152 18.7038 18.8137 18.6611 18.44597 18.3971 18.1865 18.1422 20.0685 37.4047 19.3386 21.13252 17.9303 17.8166 18.0131 18.3731 18.4847 18.2039 16.87553 17.3739 16.1969 14.4644 11.9131 8.7042 5.4744 2.8722 2.427967 1.2357 0.4332 0.1542 0.0742 0.0443 0.0259 0.01945 0.0135 0.0062 0.0026 0.001 0.0003 0.0001 0.0001 0.0001 0.0001013333 0.0001 0.0001 0.0001 0.0001015625 0.0001 0.0001 0.0001 0.0001004115 0.0001 0.0001001372 
0.0001 0.0001 0.0001 0.0001000061 0.0001000122 0.0001000183 0.0001 0.0001 0.0001 0.0001 0.0001 0.0001 0.0001 0.0001 0.0001 0.0001 0.0001 0.0001 0.0001 0.0001 0.0001 0.0001 0.0001000163 0.0001000488 0.0001 0.0001000977 0.0001001953 0.0001 0.0001500381 0.0002 0.0001341431 0.0001015625 0.0001 0.0001 0.0001 0.0001 0.0001 0.0001 0.0001666667 0.0001 0.0006 0.0029 0.0117 0.0409 0.07433333 0.1226 0.3068 0.6402 1.0584 1.4818 2.0734 3.0459 3.672783 4.6819 7.185 10.7192 12.9989 13.4094 17.8244 19.2264 22.1062 26.2096 28.9392 31.3464 34.8339 38.533 45.17847 53.7342 74.078 52.0765 29.0963 30.1937 29.9563 28.6958 28.12085 27.3333 26.4009 24.0065 22.1786 22.0062 19.4197 18.76193 17.3336 15.7288 14.0849 12.6127 11.2813 10.2126 9.744766 9.5475 11.7775 4.5145 4.2075 4.8713 5.6666 5.185467 4.7626 6.9033 10.0528 14.9625 6.2155 10.7795 18.8429 21.26333 23.4805 17.4894 11.8695 10.5642 11.3277 12.2247 12.43607 13.2833 14.9348 16.5791 17.7029 18.3504 18.6841 18.6347 18.44813 18.4521 18.3646 18.4653 35.6572 17.8673 17.2926 16.13103 16.125 15.0859 14.332 13.8496 13.3147 12.5385 11.8826 11.3773 9.9667 8.2688 6.3592 4.4432 2.7658 2.384633 1.4662 0.6112 0.2074 0.0874 0.0533 0.0359 0.0224 0.01715 0.0124 0.006 0.0026 0.001 0.0004 0.0001 0.0001 0.0001 0.0001 0.0001 0.0001 0.0001 0.0001 0.0001003906 0.0001 0.0001 0.0001 0.0001001372 0.0001 
0.0001 0.0001 0.0001000031 0.0001000061 0.0001000092 0.0001 0.0001 0.0001 0.0001 0.0001 0.0001 0.0001 0.0001 0.0001 0.0001 0.0001 0.0001 0.0001 0.0001 0.0001 0.0001 0.0001000081 0.0001000244 0.0001 0.0001000489 0.0001000977 0.0001 0.0001500127 0.0002 0.0001337311 0.0001007813 0.0001 0.0001 0.0001 0.0001 0.0001 0.0001 0.0001222222 0.0001 0.000225 0.0001 0.0004 0.0019 0.0074 0.03948333 0.0264 0.0828 0.2233 0.5073 0.9473 1.4534 2.009783 2.183 3.397 5.2263 7.6238 8.3029 11.0394 13.33908 13.5216 16.2817 19.4555 23.5543 29.0823 34.9685 41.5085 45.3617 52.5975 71.3241 60.0081 34.154 31.2667 31.5794 30.78718 30.3997 28.3522 27.053 25.0095 24.6594 23.6622 21.7875 20.36075 19.2094 16.7943 14.7708 13.1273 11.6347 10.8677 10.40868 9.0635 4.7846 3.2806 3.3002 4.0332 4.6332 4.3396 4.304 6.4342 9.7718 14.3621 4.1226 7.5791 21.6423 23.27145 27.1968 13.853 7.205 5.2592 7.1406 9.0051 9.414317 10.7269 13.1176 15.4158 17.0078 17.8628 18.3219 18.15822 18.355 18.1888 18.1933 19.248 15.5475 14.8485 14.0953 13.7791 12.3206 10.7908 9.4374 8.3195 7.3316 6.3903 6.682283 5.4117 4.4432 3.4858 2.5897 1.803 1.1523 1.058033 0.5769 0.2308 0.1 0.0603 0.0427 0.0294 0.0184 0.01426667 0.0103 0.0051 0.0023 0.0009 0.0003 0.0001 0.0001 0.0001 0.0001 0.0001 0.0001 0.0001 0.0001 0.0001 0.0001000977 0.0001 0.0001 0.0001 0.0001000457 
0.0001 0.0001000015 0.0001000031 0.0001000046 0.0001 0.0001 0.0001 0.0001 0.0001 0.0001 0.0001 0.0001 0.0001 0.0001 0.0001 0.0001 0.0001 0.0001 0.0001 0.0001 0.0001000041 0.0001000122 0.0001 0.0001000244 0.0001000488 0.0001 0.0001500042 0.0002 0.0001335304 0.0001003906 0.0001 0.0001 0.0001 0.0001 0.0001 0.0001 0.0001074074 0.0001 0.00013125 0.0001 0.0001 0.0004 0.002 0.0084 0.01268333 0.0312 0.0985 0.2627 0.5717 0.9888 1.3841 1.235533 1.9189 2.8344 4.2526 6.1852 13.6545 12.0141 11.60353 12.2256 15.1757 18.3775 21.6661 25.4366 30.4614 37.3558 41.4795 48.4412 63.5904 60.0012 37.7272 30.5043 32.3249 31.59712 31.767 28.5461 27.6416 26.5475 25.7962 24.4504 23.15567 22.9967 21.4176 19.2995 16.4692 13.7028 12 11.6175 10.58972 11.1433 3.9844 2.5885 3.0505 3.5495 3.6485 3.42775 3.0227 5.5402 9.3704 7.3854 4.1849 4.8571 13.99253 24.3039 24.1623 11.5119 7.0517 1.974 2.5098 4.4256 5.6821 6.8203 9.8136 13.0006 15.4746 16.8659 17.4615 16.99262 17.4921 17.2663 17.2135 32.6736 12.4485 11.1584 10.15148 9.6259 7.9631 6.3928 5.0581 3.9925 3.1471 2.4642 2.88935 1.9117 1.4623 1.0644 0.6619 0.3907 0.2415 0.3814667 0.1455 0.0908 0.0637 0.0475 0.0344 0.0232 0.01883333 0.0142 0.0079 0.0039 0.0017 0.0007 0.0003 0.0001 0.0001 0.0001 0.0001 0.0001 0.0001 0.0001 0.0001 0.0001 0.0001 0.0001000244 0.0001 0.0001 0.0001 
0.0001000008 0.0001000015 0.0001000023 0.0001 0.0001 0.0001 0.0001 0.0001 0.0001 0.0001 0.0001 0.0001 0.0001 0.0001 0.0001 0.0001 0.0001 0.0001 0.0001 0.000100002 0.0001000061 0.0001 0.0001000122 0.0001000244 0.0001 0.0001500014 0.0002 0.0001334314 0.0001001953 0.0001 0.0001 0.0001 0.0001 0.0001 0.0001 0.0001024691 0.0001 0.0001078125 0.0001 0.0001 0.00025 0.00065 0.0001 0.002775 0.0006 0.0021 0.008 0.024 0.0598 0.12 0.1947 0.6349667 0.2791 0.3962 0.6344 1.3362 8.4343 11.4603 9.067317 9.3602 12.2799 15.4867 18.9748 22.6399 26.5822 27.35558 31.2549 37.7191 53.6662 51.4611 34.2463 25.384 28.7747 31.44192 34.737 27.4516 25.5189 24.4699 24.8772 23.6792 23.1584 22.358 20.9433 19.2379 17.4114 15.8321 13.9472 12.48772 16.1581 4.6882 3.2012 2.7232 3.0699 3.3908 2.9535 2.598683 2.0046 2.6898 4.8743 4.2287 2.4492 4.3726 12.0429 21.2002 17.7184 7.8823 5.7245 2.6571 4.0674 2.531217 0.7998 2.3149 4.9569 8.3334 11.5672 13.936 15.0604 14.31155 15.2648 14.8394 25.7102 13.4503 7.6869 6.4013 6.1454 5.0957 3.9056 2.9174 2.1479 1.571 1.1303 1.28765 0.7313 0.4269 0.256 0.1743 0.1368 0.1139 0.0948 0.1147167 0.0778 0.0632 0.0503 0.038 0.0268 0.0174 0.01411667 0.0104 0.0056 0.0028 0.0012 0.0005 0.0002 0.00016 0.0001 0.0001 0.0001 0.0001 0.0001 0.0001 0.0001 0.0001 0.0001 0.0001 0.0001000061 0.0001 0.0001 
0.0001000011 0.0001000011 0.0001 0.0001 0.0001 0.0001 0.0001 0.0001 0.0001 0.0001 0.0001 0.0001 0.0001 0.0001 0.0001 0.0001 0.0001 0.0001 0.000100001 0.0001000031 0.0001 0.0001000061 0.0001000122 0.0001 0.0001500005 0.0002 0.0001333823 0.0001000977 0.0001 0.0001 0.0001 0.0001 0.0001 0.0001 0.000100823 0.0001 0.0001019531 0.0001 0.0001 0.000175 0.000275 0.0001 0.0001 0.00035 0.0009666667 0.0002 0.0006 0.0018 0.0044 0.0087 0.0141 0.08506667 0.0189 0.022 0.0225 0.0214 5.4721 4.1846 5.528833 5.1591 7.3445 9.9005 12.6963 15.5671 18.2986 20.01262 20.1806 25.6948 42.9347 43.5203 30.0765 20.8486 23.62295 24.4455 36.6024 28.4581 25.6687 25.1148 24.5699 23.3023 22.52883 22.1638 20.8977 19.2701 17.8931 17.0411 16.2809 10.26145 4.9226 3.6468 2.6416 2.4876 3.0089 3.0145 2.616383 2.2982 1.6646 1.537 1.8804 1.5675 0.9284 3.6736 8.520534 13.85 9.4438 3.3865 3.1191 1.9249 3.2955 1.61205 0.0892 0.4535 1.4587 3.5121 7.2649 8.3952 10.0533 11.53035 10.5372 23.5113 9.4971 8.7809 3.1231 2.4839 2.854017 2.1072 1.7398 0.7207 0.3745 0.2153 0.1457 0.3718333 0.1073 0.09 0.0826 0.0794 0.0774 0.0741 0.07803334 0.0684 0.0603 0.0505 0.0397 0.0291 0.0198 0.0124 0.01006667 0.0071 0.0038 0.0018 0.0008 0.0003 0.0001 0.000125 0.0001 0.0001 0.0001 0.0001 0.0001 0.0001 0.0001 0.0001 0.0001 0.0001 0.0001 0.0001000015 0.0001 
0.0001000008 0.0001 0.0001 0.0001 0.0001 0.0001 0.0001 0.0001 0.0001 0.0001 0.0001 0.0001 0.0001 0.0001 0.0001 0.0001 0.0001 0.0001000005 0.0001000015 0.0001 0.0001000031 0.0001000061 0.0001 0.0001500002 0.0002 0.0001333578 0.0001000488 0.0001 0.0001 0.0001 0.0001 0.0001 0.0001 0.0001002744 0.0001 0.0001004883 0.0001 0.0001 0.0001375 0.0001625 0.0001 0.0001 0.0001833333 0.0004041667 0.0002 0.0003 0.0001 0.0002 0.0005 0.001 0.004533333 0.0016 0.002 0.0019 0.0013 0.0006 0.7782 1.96535 1.1658 1.843 2.918 4.3662 6.1664 8.2498 10.5003 11.79043 13.2591 17.1981 34.1532 36.9796 26.2659 20.3092 21.73165 21.9757 28.4509 24.9997 24.7333 23.5707 23.6358 22.3708 21.95265 21.2989 19.5991 16.8814 15.0065 15.2024 7.1136 6.240933 3.1463 2.3574 2.1169 2.12 2.3685 2.2758 2.003783 1.7655 1.3511 1.17 0.9012 0.4079 0.1522 1.00055 0.9349 7.0919 2.5442 0.7052 0.8559 0.6367 1.2672 0.85435 0.1532 0.0719 0.3103 0.8561 5.6494 2.844 5.74665 7.0443 11.2221 3.7229 3.9446 3.6749 0.495 1.201117 0.778 0.258 0.1444 0.0401 0.0218 0.0439 0.0561 0.07723334 0.0603 0.0621 0.0635 0.0643 0.0638 0.0611 0.05915 0.0559 0.0484 0.0394 0.0299 0.0211 0.0138 0.0084 0.0068 0.0047 0.0024 0.0011 0.0005 0.0002 0.0001 0.0001 0.000105 0.0001 0.0001 0.0001 0.0001 0.0001 0.0001 0.0001 0.0001 0.0001 0.0001 0.0001 0.0001000005 
0.0001 0.0001 0.0001 0.0001 0.0001 0.0001 0.0001 0.0001 0.0001 0.0001 0.0001 0.0001 0.0001 0.0001 0.0001 0.0001 0.0001000003 0.0001000008 0.0001 0.0001000015 0.0001000031 0.0001 0.0001500001 0.0002 0.0001333455 0.0001000244 0.0001 0.0001 0.0001 0.0001 0.0001 0.0001 0.0001000914 0.0001 0.0001001221 0.0001 0.0001 0.00011875 0.000125 0.0001 0.0001 0.0001277778 0.000221875 0.0002 0.0002 0.0001 0.00015 0.000225 0.0001 0.0004 0.0008166667 0.0014 0.0064 0.0273 0.0987 0.301 0.0633 0.3605667 0.1281 0.2669 0.5439 1.0321 1.6737 2.5145 3.6493 5.4719 4.8547 8.0721 23.7646 30.3393 28.7688 21.0622 20.85155 21.7487 24.458 20.0755 17.484 21.0012 22.554 21.60903 21.8931 20.687 17.3815 12.1614 10.8934 7.2931 4.6027 3.266883 1.3795 1.8611 1.7729 1.7466 1.6909 1.4972 1.252433 1.1715 0.8596 0.5638 0.2216 0.0799 0.127 0.2722 0.1872 1.943 0.3436 0.1237 0.1612 0.1438 0.2556 0.3097 0.0654 0.0584 0.0948 0.1718 0.926 1.752 2.86395 4.3911 2.0429 0.3365 0.5083 0.5421 0.0952 0.29345 0.2315 0.09 0.0558 0.031 0.0258 0.0245 0.0425 0.04886667 0.0515 0.0556 0.0571 0.0568 0.0547 0.0507 0.0478 0.0447 0.0373 0.0292 0.0213 0.0145 0.0091 0.008166667 0.0053 0.0029 0.0014 0.0006 0.0003 0.0001 0.000125 0.0001 0.0001 0.000101 0.0001 0.0001 0.0001 0.0001 0.0001 0.0001 0.0001 0.0001 0.0001 0.0001 0.0001 
0.0001 0.0001 0.0001 0.0001 0.0001 0.0001 0.0001 0.0001 0.0001 0.0001 0.0001 0.0001 0.0001 0.0001 0.0001 0.0001000001 0.0001000004 0.0001 0.0001000008 0.0001000015 0.0001 0.00015 0.0002 0.0001333394 0.0001000122 0.0001 0.0001 0.0001 0.0001 0.0001 0.0001 0.0001000305 0.0001 0.0001000305 0.0001 0.0001 0.000109375 0.0001109375 0.0001 0.0001 0.0001092593 0.0001624132 0.0002 0.0001666667 0.0001 0.000125 0.00014375 0.0001 0.000175 0.0001 0.0004333333 0.0004 0.0014 0.0045 0.0125 0.0293 0.0108 0.03838333 0.0172 0.029 0.05 0.0848 0.1206 0.1258 1.25982 0.0028 0.5652 1.5612 14.6891 24.6035 25.4622 19.5352 18.06898 20.4783 22.4896 19.0438 14.8122 17.6455 19.5598 17.90775 19.6407 18.7019 15.0104 11.1419 5.5943 4.5515 3.621033 1.8509 1.5083 1.6587 0.8917 0.8663 0.6626 0.4886 0.6142333 0.316 0.2436 0.2161 0.0851 0.1137 0.1244 0.1265167 0.1075 0.2413 0.1994 0.0551 0.0543 0.0512 0.1024 0.0838 0.033 0.0519 0.055 0.0658 0.1268 0.6081 1.255483 0.5442 0.2198 0.0329 0.0631 0.084 0.0574 0.1025 0.1036 0.1322 0.0525 0.0209 0.0265 0.0273 0.03298333 0.0374 0.0454 0.0494 0.0503 0.0487 0.0453 0.0403 0.03748333 0.0341 0.0273 0.0205 0.0144 0.0094 0.0085 0.004983333 0.0039 0.0018 0.0008 0.0004 0.0001 0.0001 0.0001 0.00010625 0.0001 0.0001 0.0001002 0.0001 0.0001 0.0001 0.0001 0.0001 0.0001 0.0001 0.0001 0.0001 0.0001 
0.0001 0.0001 0.0001 0.0001 0.0001 0.0001 0.0001 0.0001 0.0001 0.0001 0.0001 0.0001 0.0001 0.0001 0.0001000001 0.0001000002 0.0001 0.0001000004 0.0001000008 0.0001 0.00015 0.0002 0.0001333364 0.0001000061 0.0001 0.0001 0.0001 0.0001 0.0001 0.0001 0.0001000102 0.0001 0.0001000076 0.0001 0.0001 0.0001046875 0.0001050781 0.0001 0.0001 0.0001030864 0.0001429181 0.0002 0.0001555556 0.0001 0.0001125 0.0001171875 0.0001 0.00011875 0.0001 0.0001 0.00018 0.0002 0.0005 0.0015 0.0035 0.0066 0.0046 0.00755 0.0063 0.0083 0.0107 0.0127 0.0118 0.0067 0.0342 0.15365 0.039 0.1189 4.8265 16.3326 15.5781 13.71063 11.2448 14.3447 16.3278 10.4712 11.963 12.6464 11.9195 12.9328 11.8794 11.5116 11.3978 5.4149 4.0251 2.7177 1.901233 0.7103 0.9347 0.8998 0.2803 0.2508 0.1518 0.2654833 0.1209 0.0912 0.1437 0.1716 0.0693 0.1578 0.1178 0.1088333 0.0952 0.1122 0.1128 0.0492 0.0391 0.0353 0.04793333 0.0447 0.0314 0.0391 0.0402 0.0451 0.0874 0.1826167 0.156 0.0815 0.0677 0.0103 0.0289 0.0467 0.0491 0.06511667 0.0782 0.1089 0.0694 0.0369 0.0299 0.0432 0.03225 0.023 0.0354 0.0408 0.0416 0.0395 0.0356 0.03125 0.0304 0.0247 0.019 0.0137 0.0093 0.0058 0.0015 0.002933333 0.0016 0.0009 0.0004 0.0003 0.0001 0.0001 0.0001 0.0001 0.0001015625 0.0001 0.0001 0.00010004 0.0001 0.0001 0.0001 0.0001 0.0001 0.0001 0.0001 0.0001 0.0001 
0.0001 0.0001 0.0001 0.0001 0.0001 0.0001 0.0001 0.0001 0.0001 0.0001 0.0001 0.0001 0.0001 0.0001 0.0001000001 0.0001 0.0001000002 0.0001000004 0.0001 0.00015 0.0002 0.0001333349 0.0001000031 0.0001 0.0001 0.0001 0.0001 0.0001 0.0001 0.0001000034 0.0001 0.0001000019 0.0001 0.0001 0.0001023438 0.0001024414 0.0001 0.0001 0.0001010288 0.0001365011 0.0002 0.0001518519 0.0001 0.00010625 0.0001074219 0.0001 0.0001046875 0.0001 0.0001 0.0001 0.0001333333 0.0001 0.0003 0.001 0.0016 0.0031 0.0034 0.0027 0.0037 0.0047 0.0055 0.0054 0.0039 0.0015 0.0033 0.01723333 0.0076 0.0176 0.5378 6.3621 6.4451 6.547367 3.9984 5.7395 6.7377 5.0551 6.5986 7.77 7.5871 7.358567 7.0103 6.5776 4.7431 3.2123 2.1759 1.2616 0.899 0.3154 0.3183 0.2716 0.0997 0.0969 0.0831 0.10245 0.0859 0.0749 0.1389 0.1546 0.0658 0.178 0.1455833 0.1184 0.0897 0.0907 0.095 0.0474 0.037 0.0348 0.03785 0.0378 0.0342 0.0393 0.0343 0.049 0.0497 0.07798333 0.0677 0.0785 0.0572 0.0196 0.0388 0.0329 0.0384 0.0361 0.0663 0.094 0.0743 0.0465 0.0333 0.0367 0.03085 0.0259 0.0431 0.0333 0.0321 0.0287 0.0169 0.02016667 0.019 0.0163 0.0124 0.0087 0.0056 0.0034 0.0013 0.0011 0.0008 0.0004 0.0002 0.00022 0.0002 0.0001 0.0001 0.0001 0.0001 0.0001003906 0.0001 0.0001 0.000100008 0.0001 0.0001 0.0001 0.0001 0.0001 0.0001 0.0001 0.0001 
0.0001 0.0001 0.0001 0.0001 0.0001 0.0001 0.0001 0.0001 0.0001 0.0001 0.0001 0.0001 0.0001 0.0001 0.0001 0.0001000001 0.0001000002 0.0001 0.00015 0.0002 0.0001333341 0.0001000015 0.0001 0.0001 0.0001 0.0001 0.0001 0.0001 0.0001000011 0.0001 0.0001000005 0.0001 0.0001 0.0001011719 0.0001011963 0.0001 0.0001 0.0001003429 0.0001343825 0.0002 0.0001506173 0.0001 0.000103125 0.000103418 0.0001 0.0001011719 0.0001 0.0001 0.0001 0.0001083333 0.0001 0.00015 0.0001 0.0002 0.0009 0.0017 0.002033333 0.0017 0.0024 0.0031 0.0034 0.0025 0.0033 0.0017 0.0016 0.00475 0.0051 0.0082 0.0689 0.8385 1.4529 2.144417 0.5649 0.9901 1.2976 1.019 1.7044 2.5706 3.594 2.9017 2.8534 1.8692 1.2856 1.3104 1.2928 0.3205 0.34445 0.0685 0.0677 0.0526 0.0811 0.0781 0.0822 0.08861667 0.0908 0.0784 0.1331 0.1353 0.061 0.1655 0.1456167 0.136 0.0789 0.0615 0.1083 0.0443 0.0357 0.0356 0.03755 0.0389 0.0396 0.0436 0.035 0.0453 0.0506 0.0561 0.0565 0.084 0.0625 0.0263 0.0457 0.0381 0.0341 0.0275 0.056 0.0806 0.072 0.0503 0.035 0.0331 0.0318 0.0245 0.0445 0.0249 0.0227 0.0191 0.0109 0.0108 0.0082 0.0091 0.0073 0.0051 0.0033 0.0019 0.001516667 0.0009 0.0005 0.0001 0.0001 0.00015 0.000154 0.00015 0.0001 0.0001 0.0001 0.0001 0.0001000977 0.0001 0.0001 0.0001000016 0.0001 0.0001 0.0001 0.0001 0.0001 0.0001 0.0001 
0.0001 0.0001 0.0001 0.0001 0.0001 0.0001 0.0001 0.0001 0.0001 0.0001 0.0001 0.0001 0.0001 0.0001 0.0001 0.0001000001 0.0001 0.00015 0.0002 0.0001333337 0.0001000008 0.0001 0.0001 0.0001 0.0001 0.0001 0.0001 0.0001000004 0.0001 0.0001000001 0.0001 0.0001 0.0001005859 0.000100592 0.0001 0.0001 0.0001001143 0.0001336814 0.0002 0.0001502058 0.0001 0.0001015625 0.0001016357 0.0001 0.000100293 0.0001 0.0001 0.0001 0.0001020833 0.0001 0.0001125 0.0001 0.0001 0.0002 0.0005 0.001 0.00152 0.002 0.0025 0.0019 0.0016 0.002 0.0028 0.00215 0.0016 0.00342 0.0047 0.0071 0.0366 0.0981 0.2755 0.4505833 0.1297 0.1626 0.1551 0.1188 0.1808 0.3379 1.05715 0.3967 0.4428 0.3802 0.2761 0.2761 0.1854 0.3271167 0.0701 0.0306 0.0142 0.016 0.0848 0.073 0.0892 0.09498333 0.1005 0.0796 0.1167 0.1109 0.0535 0.1503 0.1371167 0.1255 0.0753 0.0734 0.0901 0.0392 0.0335 0.03438333 0.0361 0.0421 0.0468 0.0488 0.0367 0.0434 0.0545 0.05503333 0.0576 0.0773 0.0893 0.0305 0.0501 0.0415 0.03441667 0.0285 0.0401 0.0657 0.0646 0.049 0.0342 0.0305 0.0276 0.0213 0.0406 0.0172 0.0148 0.0118 0.0064 0.0056 0.0034 0.0045 0.0039 0.0028 0.0018 0.001 0.0008166667 0.0006 0.0001 0.0001 0.0001 0.0001 0.000125 0.0001258 0.000125 0.0001 0.0001 0.0001 0.0001 0.0001000244 0.0001 0.0001 0.0001000003 0.0001 0.0001 0.0001 0.0001 0.0001 0.0001 
0.0001 0.0001 0.0001 0.0001 0.0001 0.0001 0.0001 0.0001 0.0001 0.0001 0.0001 0.0001 0.0001 0.0001 0.0001 0.0001 0.00015 0.0002 0.0001333335 0.0001000004 0.0001 0.0001 0.0001 0.0001 0.0001 0.0001 0.0001000001 0.0001 0.0001 0.0001 0.0001 0.000100293 0.0001002945 0.0001 0.0001 0.0001000381 0.0001334489 0.0002 0.0001500686 0.0001 0.0001007813 0.0001007996 0.0001 0.0001000732 0.0001 0.0001 0.0001 0.0001005208 0.0001 0.000103125 0.0001 0.0001 0.00015 0.0002 0.0006 0.0012 0.0014 0.00225 0.00162 0.0011 0.0011 0.0014 0.0021 0.00175 0.0014 0.0028 0.0043 0.0067 0.0315 0.0962 0.1498167 0.1674 0.1131 0.1166 0.0829 0.0574 0.0538 0.0632 0.1630667 0.0728 0.0808 0.079 0.0743 0.0758 0.0515 0.06966667 0.0424 0.0294 0.0092 0.0135 0.0929 0.0712 0.08493333 0.0979 0.1093 0.0749 0.0929 0.0843 0.044 0.1316 0.1218833 0.1138 0.0704 0.062 0.0863 0.0326 0.03 0.0323 0.0354 0.046 0.0546 0.0538 0.0387 0.0471 0.04906667 0.0518 0.0592 0.0748 0.0875 0.0578 0.0523 0.0429 0.03486667 0.028 0.0382 0.0432 0.0522 0.0433 0.0311 0.0269 0.0233 0.0175 0.0336 0.011 0.0089 0.0067 0.005416667 0.0026 0.0021 0.0023 0.002 0.0014 0.0011 0.0003 0.0004 0.0002 0.0001 0.0001 0.0001 0.0001 0.0001 0.0001125 0.00011266 0.0001125 0.0001 0.0001 0.0001 0.0001 0.0001000061 0.0001 0.0001 0.0001000001 0.0001 0.0001 0.0001 0.0001 0.0001 
0.0001 0.0001 0.0001 0.0001 0.0001 0.0001 0.0001 0.0001 0.0001 0.0001 0.0001 0.0001 0.0001 0.0001 0.0001 0.00015 0.0002 0.0001333334 0.0001000002 0.0001 0.0001 0.0001 0.0001 0.0001 0.0001 0.0001 0.0001 0.0001 0.0001 0.0001 0.0001001465 0.0001001469 0.0001 0.0001 0.0001000127 0.0001333718 0.0002 0.0001500229 0.0001 0.0001003906 0.0001003952 0.0001 0.0001000183 0.0001 0.0001 0.0001 0.0001001302 0.0001 0.0001007813 0.0001 0.0001 0.000125 0.00015 0.0001 0.000525 0.0009 0.0012 0.001250556 0.0006666667 0.0006 0.0007 0.0009 0.0015 0.001316667 0.0011 0.002366667 0.0037 0.0059 0.0518 0.1028 0.1320667 0.1589 0.1599 0.3223 0.0811 0.0559 0.0497 0.052 0.05928333 0.0558 0.0573 0.0565 0.0553 0.051 0.0278 0.03805 0.0408 0.031 0.0094 0.0147 0.1024 0.0715 0.08926667 0.1068 0.115 0.0651 0.0672 0.0595 0.0339 0.0718 0.1099 0.1002 0.0637 0.0519 0.0753 0.0255 0.0255 0.02903333 0.0333 0.0499 0.0612 0.0578 0.0403 0.05 0.04955 0.0476 0.0588 0.0721 0.0839 0.0628 0.0699 0.0423 0.03358333 0.026 0.0254 0.0342 0.0407 0.0356 0.0263 0.02251667 0.0189 0.0137 0.0258 0.0065 0.005 0.0036 0.002766667 0.0014 0.0008 0.001 0.0009 0.0009 0.0004 0.0003833333 0.0002 0.0001 0.0001333333 0.0001 0.0001 0.0001 0.0001 0.0001 0.00010625 0.000106282 0.00010625 0.0001 0.0001 0.0001 0.0001 0.0001000015 0.0001 0.0001 0.0001 0.0001 0.0001 0.0001 0.0001 
0.0001 0.0001 0.0001 0.0001 0.0001 0.0001 0.0001 0.0001 0.0001 0.0001 0.0001 0.0001 0.0001 0.0001 0.00015 0.0002 0.0001333334 0.0001000001 0.0001 0.0001 0.0001 0.0001 0.0001 0.0001 0.0001 0.0001 0.0001 0.0001 0.0001 0.0001000732 0.0001000733 0.0001 0.0001 0.0001000042 0.0001333461 0.0002 0.0001500076 0.0001 0.0001001953 0.0001001965 0.0001 0.0001000046 0.0001 0.0001 0.0001 0.0001000326 0.0001 0.0001001953 0.0001 0.0001 0.0001125 0.000125 0.0001 0.0001 0.0001 0.00068125 0.00105 0.0006083333 0.0003666667 0.0003 0.0004 0.0006 0.0008166667 0.001 0.0008 0.001866667 0.0029 0.0174 0.0545 0.1089 0.1324833 0.1582 0.1498 0.0783 0.0847 0.0587 0.0531 0.05415 0.0551 0.0568 0.0532 0.0399 0.0731 0.0442 0.0303 0.03295 0.0355 0.0194 0.0108 0.0173 0.1122 0.0731 0.09396667 0.1151 0.1165 0.0523 0.0507 0.0327 0.0244 0.05608333 0.087 0.0848 0.0553 0.0425 0.0608 0.0186 0.0204 0.02483333 0.0296 0.0526 0.0655 0.0602 0.0411 0.0515 0.04856667 0.0493 0.05 0.0671 0.0781 0.0635 0.083 0.0599 0.0395 0.0228 0.0164 0.0253 0.0303 0.0275 0.0243 0.0208 0.0147 0.0102 0.0184 0.0036 0.0026 0.0018 0.001383333 0.0005 0.0004 0.0005 0.0005 0.0003 0.0002 0.0002 0.0001 0.0001333333 0.0001 0.0001111111 0.0001 0.0001 0.0001 0.0001 0.0001 0.000103125 0.0001031314 0.000103125 0.0001 0.0001 0.0001 0.0001 0.0001000004 0.0001 0.0001 0.0001 0.0001 0.0001 0.0001 
0.0001 0.0001 0.0001 0.0001 0.0001 0.0001 0.0001 0.0001 0.0001 0.0001 0.0001 0.0001 0.0001 0.00015 0.0002 0.0001333334 0.0001 0.0001 0.0001 0.0001 0.0001 0.0001 0.0001 0.0001 0.0001 0.0001 0.0001 0.0001 0.0001000366 0.0001000366 0.0001 0.0001 0.0001000014 0.0001333376 0.0002 0.0001500025 0.0001 0.0001000977 0.0001000979 0.0001 0.0001000011 0.0001 0.0001 0.0001 0.0001000081 0.0001 0.0001000488 0.0001 0.0001 0.00010625 0.0001125 0.0001 0.0001 0.0001 0.0001 0.0001 0.000471412 0.0002388889 0.0002 0.0002 0.0002 0.0003 0.0005 0.0006 0.0005 0.001366667 0.0022 0.0135 0.0671 0.1105 0.1429667 0.1556 0.1452 0.0963 0.0866 0.0604 0.0563 0.05686667 0.0587 0.0585 0.0499 0.0301 0.0955 0.0433 0.03821667 0.0332 0.0301 0.0127 0.0127 0.0207 0.1217 0.0755 0.09823333 0.1218 0.1132 0.0389 0.0335 0.0172 0.0164 0.04143333 0.0649 0.0685 0.0493 0.0335 0.0426 0.0127 0.01436667 0.0154 0.0248 0.0529 0.0671 0.0605 0.0406 0.0511 0.04616667 0.0419 0.047 0.0607 0.0704 0.0605 0.0705 0.061 0.0542 0.0287625 0.0102 0.0176 0.0215 0.0201 0.01808333 0.0155 0.0108 0.0094 0.0103 0.0019 0.0013 0.0008 0.0006333333 0.0002 0.0001 0.0002 0.0002 0.0001 0.0001 0.0001333333 0.0001 0.0001 0.0001111111 0.0001 0.0001037037 0.0001 0.0001 0.0001 0.0001 0.0001 0.0001015625 0.0001015638 0.0001015625 0.0001 0.0001 0.0001 0.0001 0.0001000001 0.0001 0.0001 0.0001 0.0001 0.0001 
0.0001 0.0001 0.0001 0.0001 0.0001 0.0001 0.0001 0.0001 0.0001 0.0001 0.0001 0.0001 0.00015 0.0002 0.0001333333 0.0001 0.0001 0.0001 0.0001 0.0001 0.0001 0.0001 0.0001 0.0001 0.0001 0.0001 0.0001 0.0001000183 0.0001000183 0.0001 0.0001 0.0001000005 0.0001333347 0.0002 0.0001500009 0.0001 0.0001000488 0.0001000489 0.0001 0.0001000003 0.0001 0.0001 0.0001 0.000100002 0.0001 0.0001000122 0.0001 0.0001 0.000103125 0.00010625 0.0001 0.0001 0.0001 0.0001 0.0001 0.0001 0.0001534722 0.00015 0.00015 0.0001 0.0001 0.0002 0.0002833333 0.0003 0.0003 0.00095 0.0015 0.01 0.0752 0.09228333 0.1165 0.2081 0.5419 0.1036 0.0849 0.0599 0.0576 0.05821666 0.0604 0.0583 0.046 0.0235 0.1192 0.0439 0.03903333 0.0344 0.0268 0.0126 0.0088 0.0247 0.1302 0.1036833 0.078 0.1259 0.1053 0.027 0.0185 0.01 0.0103 0.0289 0.0456 0.0569 0.0361 0.0247 0.0287 0.0081 0.0099 0.011 0.0195 0.0502 0.0658 0.0551 0.0423 0.04491667 0.0488 0.0344 0.0422 0.0531 0.0612 0.0547 0.0587 0.05831667 0.0601 0.0189 0.008 0.0101 0.0142 0.0138 0.01271667 0.0108 0.0076 0.0075 0.0054 0.0009 0.0006 0.0006 0.0004 0.0001 0.0001 0.0001 0.0001 0.000125 0.0001 0.0001 0.0001083333 0.0001 0.0001 0.0001037037 0.0001 0.0001012346 0.0001 0.0001 0.0001 0.0001 0.0001 0.0001007813 0.0001007815 0.0001007813 0.0001 0.0001 0.0001 0.0001 0.0001 0.0001 0.0001 0.0001 0.0001 
0.0001 0.0001 0.0001 0.0001 0.0001 0.0001 0.0001 0.0001 0.0001 0.0001 0.0001 0.00015 0.0002 0.0001333333 0.0001 0.0001 0.0001 0.0001 0.0001 0.0001 0.0001 0.0001 0.0001 0.0001 0.0001 0.0001 0.0001000092 0.0001000092 0.0001 0.0001 0.0001000002 0.0001333338 0.0002 0.0001500003 0.0001 0.0001000244 0.0001000244 0.0001 0.0001000001 0.0001 0.0001 0.0001 0.0001000005 0.0001 0.0001000031 0.0001 0.0001 0.0001015625 0.000103125 0.0001 0.0001 0.0001 0.0001 0.0001 0.0001 0.0001181944 0.000125 0.000125 0.0001 0.0001 0.000125 0.0001 0.00018 0.0002 0.0002 0.0006166667 0.001 0.007 0.0764 0.0899 0.108 0.1575 0.0186 0.1015 0.0797 0.0568 0.0559 0.0564 0.0599 0.058 0.049 0.0474 0.1025 0.0447 0.03948333 0.0347 0.0245 0.0118 0.0064 0.029 0.1368 0.10765 0.0799 0.1268 0.0933 0.0174 0.0095 0.0054 0.006833334 0.0061 0.0301 0.0438 0.0253 0.0173 0.0185 0.0049 0.006433333 0.0073 0.0144 0.0448 0.0617 0.048 0.042 0.0416 0.0447 0.0273 0.036 0.0448 0.0512 0.047 0.0475 0.05251667 0.0589 0.0148 0.0059 0.0056 0.0088 0.0089 0.00845 0.0072 0.005 0.0054 0.0027 0.0004 0.0003 0.0002833333 0.0002 0.00018 0.0001 0.0001 0.0001 0.0001 0.00010625 0.0001 0.0001 0.0001020833 0.0001 0.0001 0.0001012346 0.0001 0.0001004115 0.0001 0.0001 0.0001 0.0001 0.0001 0.0001003906 0.0001003907 0.0001003906 0.0001 0.0001 0.0001 0.0001 0.0001 0.0001 0.0001 0.0001 
0.0001 0.0001 0.0001 0.0001 0.0001 0.0001 0.0001 0.0001 0.0001 0.0001 0.00015 0.0002 0.0001333333 0.0001 0.0001 0.0001 0.0001 0.0001 0.0001 0.0001 0.0001 0.0001 0.0001 0.0001 0.0001 0.0001000046 0.0001000046 0.0001 0.0001 0.0001000001 0.0001333335 0.0002 0.0001500001 0.0001 0.0001000122 0.0001000122 0.0001 0.0001 0.0001 0.0001 0.0001 0.0001000001 0.0001 0.0001000008 0.0001 0.0001 0.0001007813 0.0001015625 0.0001 0.0001 0.0001 0.0001 0.0001 0.0001 0.0001073889 0.0001125 0.0001125 0.0001 0.0001 0.00010625 0.0001 0.0001 0.0001333333 0.0001 0.0001 0.0004 0.0006 0.0047 0.0712 0.08041666 0.0921 0.1184 0.0286 0.0922 0.0713 0.0516 0.0518 0.0531 0.0577 0.0574 0.0536 0.0608 0.0901 0.0449 0.0394 0.0343 0.0232 0.013 0.0124 0.0222 0.1406 0.1095833 0.0804 0.1237 0.0788 0.0105 0.0045 0.0027 0.00458 0.0065 0.0416 0.0821 0.0418 0.0268 0.0114 0.0027 0.00395 0.0046 0.01 0.0374 0.0554 0.0426 0.037 0.03595 0.0348 0.0246 0.0298 0.0364 0.0412 0.0385 0.03806667 0.0373 0.0526 0.0109 0.0041 0.003 0.0052 0.00575 0.0055 0.0045 0.0031 0.0029 0.0019 0.0002 0.0001 0.000175 0.0001 0.00015 0.000126 0.0001 0.0001 0.0001 0.0001 0.0001015625 0.0001 0.0001 0.0001005208 0.0001 0.0001 0.0001004115 0.0001 0.0001001372 0.0001 0.0001 0.0001 0.0001 0.0001 0.0001001953 0.0001001953 0.0001001953 0.0001 0.0001 0.0001 0.0001 0.0001 0.0001 0.0001 
0.0001 0.0001 0.0001 0.0001 0.0001 0.0001 0.0001 0.0001 0.0001 0.00015 0.0002 0.0001333333 0.0001 0.0001 0.0001 0.0001 0.0001 0.0001 0.0001 0.0001 0.0001 0.0001 0.0001 0.0001 0.0001000023 0.0001000023 0.0001 0.0001 0.0001 0.0001333334 0.0002 0.00015 0.0001 0.0001000061 0.0001000061 0.0001 0.0001 0.0001 0.0001 0.0001 0.0001 0.0001 0.0001000002 0.0001 0.0001 0.0001003906 0.0001007813 0.0001 0.0001 0.0001 0.0001 0.0001 0.0001 0.0001033528 0.00010625 0.00010625 0.0001 0.0001 0.0001015625 0.0001 0.0001 0.0001083333 0.0001 0.0001 0.0001 0.00028 0.0004 0.003 0.0614 0.0661 0.0734 0.0872 0.0312 0.0782 0.0607 0.0449 0.04611667 0.048 0.0538 0.056 0.057 0.0666 0.0801 0.06225 0.0444 0.0334 0.0226 0.0147 0.0151 0.0174 0.07321667 0.1408 0.079 0.1167 0.0632 0.0059 0.002 0.0022 0.0038 0.02405 0.0434 0.05516667 0.03026 0.0003 0.0067 0.00445 0.0015 0.0027 0.0066 0.0292 0.0476 0.036 0.0312 0.02878333 0.026 0.0209 0.0238 0.0284 0.0319 0.03 0.03013333 0.0281 0.0435 0.0076 0.0027 0.0015 0.0029 0.003333333 0.0032 0.0027 0.0019 0.0018 0.0009 0.0001 0.0001333333 0.0001 0.0001 0.0001 0.000125 0.0001102 0.0001 0.0001 0.0001 0.0001 0.0001003906 0.0001 0.0001 0.0001001302 0.0001 0.0001 0.0001001372 0.0001 0.0001000457 0.0001 0.0001 0.0001 0.0001 0.0001 0.0001000977 0.0001000977 0.0001000977 0.0001 0.0001 0.0001 0.0001 0.0001 0.0001 
0.0001 0.0001 0.0001 0.0001 0.0001 0.0001 0.0001 0.0001 0.00015 0.0002 0.0001333333 0.0001 0.0001 0.0001 0.0001 0.0001 0.0001 0.0001 0.0001 0.0001 0.0001 0.0001 0.0001 0.0001000011 0.0001000011 0.0001 0.0001 0.0001 0.0001333333 0.0002 0.00015 0.0001 0.0001000031 0.0001000031 0.0001 0.0001 0.0001 0.0001 0.0001 0.0001 0.0001 0.0001 0.0001 0.0001 0.0001001953 0.0001003906 0.0001 0.0001 0.0001 0.0001 0.0001 0.0001 0.0001016081 0.000103125 0.000103125 0.0001 0.0001 0.0001003906 0.0001 0.0001 0.0001020833 0.0001 0.0001 0.0001 0.0001 0.00035 0.0002 0.0079 0.02553333 0.0433 0.0552 0.0623 0.0287 0.0622 0.0492 0.0373 0.03946667 0.0418 0.0487 0.0533 0.0578 0.0671 0.0712 0.05695 0.0428 0.0321 0.022 0.0158 0.0159 0.0139 0.0689 0.1044 0.0754 0.106 0.0482 0.0031 0.0013 0.001833333 0.0022 0.0183625 0.04087222 0.02585867 0.0002666667 0.0003 0.0037 0.002466667 0.0007 0.0015 0.004 0.0214 0.039 0.0291 0.0266 0.0231 0.0206 0.0168 0.0183 0.0213 0.0236 0.0224 0.02341667 0.0245 0.0295 0.005 0.0016 0.0008 0.0015 0.001833333 0.0017 0.0015 0.0011 0.0011 0.0004 0.0004 0.0001 0.0001083333 0.0001 0.0001 0.0001 0.0001125 0.00010454 0.0001 0.0001 0.0001 0.0001 0.0001000977 0.0001 0.0001 0.0001000326 0.0001 0.0001 0.0001000457 0.0001 0.0001000152 0.0001 0.0001 0.0001 0.0001 0.0001 0.0001000488 0.0001000488 0.0001000488 0.0001 0.0001 0.0001 0.0001 0.0001 
0.0001 0.0001 0.0001 0.0001 0.0001 0.0001 0.0001 0.00015 0.0002 0.0001333333 0.0001 0.0001 0.0001 0.0001 0.0001 0.0001 0.0001 0.0001 0.0001 0.0001 0.0001 0.0001 0.0001000006 0.0001000006 0.0001 0.0001 0.0001 0.0001333333 0.0002 0.00015 0.0001 0.0001000015 0.0001000015 0.0001 0.0001 0.0001 0.0001 0.0001 0.0001 0.0001 0.0001 0.0001 0.0001 0.0001000977 0.0001001953 0.0001 0.0001 0.0001 0.0001 0.0001 0.0001 0.0001007904 0.0001015625 0.0001015625 0.0001 0.0001 0.0001000977 0.0001 0.0001 0.0001005208 0.0001 0.0001 0.0001 0.0001 0.00027 0.0004 0.0007 0.0042 0.01923333 0.0334 0.0393 0.0429 0.0235 0.0465 0.0379 0.03415 0.0298 0.035 0.0426 0.0492 0.0558 0.0638 0.0629 0.05143333 0.0403 0.0302 0.0214 0.0173 0.0211 0.0367 0.06251667 0.1002 0.0696 0.0927 0.0348 0.0015 0.00165 0.0013 0.001777778 0.0022 0.01460816 0.0002055556 0.0002 0.0002 0.0019 0.001283333 0.0003 0.0008 0.0023 0.0147 0.0303 0.0224 0.02033333 0.0178 0.0142 0.0128 0.0135 0.0153 0.0168 0.0159 0.01796667 0.0196 0.0191 0.0032 0.001 0.0004 0.0008 0.0009666667 0.0009 0.0008 0.0006 0.0006 0.0002 0.0002333333 0.0002208333 0.0001 0.0001020833 0.0001 0.0001 0.0001 0.00010625 0.000102158 0.0001 0.0001 0.0001 0.0001 0.0001000244 0.0001 0.0001 0.0001000081 0.0001 0.0001 0.0001000152 0.0001 0.0001000051 0.0001 0.0001 0.0001 0.0001 0.0001 0.0001000244 0.0001000244 0.0001000244 0.0001 0.0001 0.0001 0.0001 
0.0001 0.0001 0.0001 0.0001 0.0001 0.0001 0.00015 0.0002 0.0001333333 0.0001 0.0001 0.0001 0.0001 0.0001 0.0001 0.0001 0.0001 0.0001 0.0001 0.0001 0.0001 0.0001000003 0.0001000003 0.0001 0.0001 0.0001 0.0001333333 0.0002 0.00015 0.0001 0.0001000008 0.0001000008 0.0001 0.0001 0.0001 0.0001 0.0001 0.0001 0.0001 0.0001 0.0001 0.0001 0.0001000488 0.0001000977 0.0001 0.0001 0.0001 0.0001 0.0001 0.0001 0.0001003924 0.0001007813 0.0001007813 0.0001 0.0001 0.0001000244 0.0001 0.0001 0.0001001302 0.0001 0.0001 0.0001 0.0001 0.0002106667 0.0003333333 0.0004 0.0003 0.0025 0.01363333 0.0241 0.0265 0.0283 0.0175 0.0329 0.0279 0.02576667 0.0228 0.0282 0.036 0.0437 0.0514 0.0579 0.0546 0.04558333 0.0368 0.0277 0.0204 0.018 0.022 0.0271 0.0599 0.0928 0.0619 0.0778 0.0239 0.0007 0.0008333334 0.0010375 0.0013 0.001759259 0.0006701389 0.00015 0.00015 0.0001 0.00074 0.001 0.0001 0.0004 0.0012 0.0095 0.0224 0.0165 0.0151 0.0131 0.0095 0.0092 0.0095 0.0106 0.0114 0.01155 0.0108 0.0146 0.0117 0.0019 0.0004 0.0002 0.00035 0.0004 0.0005 0.0004 0.0003 0.0003 0.0001 0.00015 0.0001611111 0.0001517361 0.0001 0.0001005208 0.0001 0.0001 0.0001 0.000103125 0.0001010566 0.0001 0.0001 0.0001 0.0001 0.0001000061 0.0001 0.0001 0.000100002 0.0001 0.0001 0.0001000051 0.0001 0.0001000017 0.0001 0.0001 0.0001 0.0001 0.0001 0.0001000122 0.0001000122 0.0001000122 0.0001 0.0001 0.0001 
0.0001 0.0001 0.0001 0.0001 0.0001 0.00015 0.0002 0.0001333333 0.0001 0.0001 0.0001 0.0001 0.0001 0.0001 0.0001 0.0001 0.0001 0.0001 0.0001 0.0001 0.0001000001 0.0001000001 0.0001 0.0001 0.0001 0.0001333333 0.0002 0.00015 0.0001 0.0001000004 0.0001000004 0.0001 0.0001 0.0001 0.0001 0.0001 0.0001 0.0001 0.0001 0.0001 0.0001 0.0001000244 0.0001000488 0.0001 0.0001 0.0001 0.0001 0.0001 0.0001 0.0001001957 0.0001003906 0.0001003906 0.0001 0.0001 0.0001000061 0.0001 0.0001 0.0001000326 0.0001 0.0001 0.0001 0.0001 0.0001660222 0.0002444444 0.00025 0.0002 0.0002 0.0031 0.009216666 0.0145 0.0169 0.0178 0.0121 0.022 0.0195 0.01863333 0.0167 0.0219 0.0294 0.0374 0.0452 0.0503 0.04826667 0.0464 0.0325 0.0247 0.0189 0.0175 0.0204 0.0199 0.05128333 0.0827 0.053 0.0626 0.0156 0.0003 0.0003666667 0.0004666667 0.0007565972 0.0013 0.000125 0.000125 0.0001 0.0001 0.00045 0.0005 0.0001 0.0002 0.0006 0.0058 0.0157 0.0116 0.01075 0.0092 0.0061 0.0063 0.0064 0.007 0.0074 0.0076 0.007 0.0101 0.0069 0.0011 0.0002 0.0001 0.0001833333 0.0002 0.0002 0.0002 0.0002 0.0001 0.00015 0.0001 0.000125 0.0001287037 0.000123235 0.0001 0.0001001302 0.0001 0.0001 0.0001 0.0001015625 0.0001005238 0.0001 0.0001 0.0001 0.0001 0.0001000015 0.0001 0.0001 0.0001000005 0.0001 0.0001 0.0001000017 0.0001 0.0001000006 0.0001 0.0001 0.0001 0.0001 0.0001 0.0001000061 0.0001000061 0.0001000061 0.0001 0.0001 
0.0001 0.0001 0.0001 0.0001 0.00015 0.0002 0.0001333333 0.0001 0.0001 0.0001 0.0001 0.0001 0.0001 0.0001 0.0001 0.0001 0.0001 0.0001 0.0001 0.0001000001 0.0001000001 0.0001 0.0001 0.0001 0.0001333333 0.0002 0.00015 0.0001 0.0001000002 0.0001000002 0.0001 0.0001 0.0001 0.0001 0.0001 0.0001 0.0001 0.0001 0.0001 0.0001 0.0001000122 0.0001000244 0.0001 0.0001 0.0001 0.0001 0.0001 0.0001 0.0001000977 0.0001001953 0.0001001953 0.0001 0.0001 0.0001000015 0.0001 0.0001 0.0001000081 0.0001 0.0001 0.0001 0.0001 0.0001370007 0.0001814815 0.000175 0.00015 0.00015 0.0001 0.00156 0.0026 0.0085 0.0103 0.0106 0.0078 0.014 0.0131 0.01293333 0.0118 0.0164 0.0231 0.0307 0.038 0.0421 0.04026667 0.0383 0.0278 0.0213 0.0168 0.016 0.0176 0.01615 0.0144 0.0708 0.0437 0.0483 0.0096 0.0001 0.0002 0.0002222222 0.0002796296 0.0004044478 0.0001125 0.0001 0.0001 0.0002133333 0.0002666667 0.0002 0.0002 0.0001 0.0003 0.0034 0.0102 0.009516667 0.008 0.0061 0.0037 0.0041 0.0041 0.0044 0.0046 0.004866667 0.0044 0.0066 0.0038 0.0006 0.0001 0.0001 0.000125 0.0001 0.0001 0.0001 0.0001 0.0001 0.0001 0.0001125 0.0001 0.0001125 0.0001137346 0.0001108049 0.0001 0.0001000326 0.0001 0.0001 0.0001 0.0001007813 0.000100261 0.0001 0.0001 0.0001 0.0001 0.0001000004 0.0001 0.0001 0.0001000001 0.0001 0.0001 0.0001000006 0.0001 0.0001000002 0.0001 0.0001 0.0001 0.0001 0.0001 0.0001000031 0.0001000031 0.0001000031 0.0001 
0.0001 0.0001 0.0001 0.00015 0.0002 0.0001333333 0.0001 0.0001 0.0001 0.0001 0.0001 0.0001 0.0001 0.0001 0.0001 0.0001 0.0001 0.0001 0.0001 0.0001 0.0001 0.0001 0.0001 0.0001333333 0.0002 0.00015 0.0001 0.0001000001 0.0001000001 0.0001 0.0001 0.0001 0.0001 0.0001 0.0001 0.0001 0.0001 0.0001 0.0001 0.0001000061 0.0001000122 0.0001 0.0001 0.0001 0.0001 0.0001 0.0001 0.0001000488 0.0001000977 0.0001000977 0.0001 0.0001 0.0001000004 0.0001 0.0001 0.000100002 0.0001 0.0001 0.0001 0.0001 0.0001199156 0.0001438272 0.0001375 0.000125 0.000125 0.0001 0.0001 0.001425 0.0018 0.0047 0.0059 0.0061 0.0048 0.0085 0.009 0.0084 0.0081 0.0119 0.0175 0.0242 0.0305 0.0338 0.03246666 0.0307 0.0229 0.0178 0.0143 0.0138 0.0143 0.01418333 0.0103 0.0479 0.0345 0.0356 0.0057 0.00465 0.0001 0.00015 0.0001574074 0.0001549074 0.0001 0.0001 0.0001421111 0.0001722222 0.00015 0.0001 0.0001333333 0.00015 0.0001 0.0018 0.0063 0.006116667 0.0053 0.0037 0.0024 0.0026 0.0026 0.0027 0.002983333 0.0028 0.003 0.0037 0.002 0.0003 0.00024 0.0001 0.0001 0.0001 0.0001 0.0001 0.0001 0.0001 0.0001 0.0001 0.000103125 0.0001 0.00010625 0.0001066615 0.0001051479 0.0001 0.0001000081 0.0001 0.0001 0.0001 0.0001003906 0.0001001303 0.0001 0.0001 0.0001 0.0001 0.0001000001 0.0001 0.0001 0.0001 0.0001 0.0001 0.0001000002 0.0001 0.0001000001 0.0001 0.0001 0.0001 0.0001 0.0001 0.0001000015 0.0001000015 0.0001000015 
0.0001 0.0001 0.00015 0.0002 0.0001333333 0.0001 0.0001 0.0001 0.0001 0.0001 0.0001 0.0001 0.0001 0.0001 0.0001 0.0001 0.0001 0.0001 0.0001 0.0001 0.0001 0.0001 0.0001333333 0.0002 0.00015 0.0001 0.0001 0.0001 0.0001 0.0001 0.0001 0.0001 0.0001 0.0001 0.0001 0.0001 0.0001 0.0001 0.0001000031 0.0001000061 0.0001 0.0001 0.0001 0.0001 0.0001 0.0001 0.0001000244 0.0001000488 0.0001000488 0.0001 0.0001 0.0001000001 0.0001 0.0001 0.0001000005 0.0001 0.0001 0.0001 0.0001 0.0001104466 0.0001229424 0.00011875 0.0001125 0.0001125 0.0001 0.0001 0.000725 0.001233333 0.0012 0.0025 0.0032 0.0033 0.0027 0.0049 0.005433333 0.0051 0.0053 0.0083 0.0128 0.0183 0.0235 0.0261 0.02526667 0.0238 0.0182 0.0143 0.0117 0.0115 0.0126 0.01228333 0.0159 0.0383 0.0262 0.0252 0.0032 0.003533333 0.002554167 0.0001 0.000125 0.0001206018 0.0001 0.0001174037 0.0001324074 0.000125 0.0001 0.0001 0.0001 0.0001 0.0001 0.001 0.0038 0.003733333 0.0031 0.0022 0.0015 0.0015 0.0015 0.0016 0.001816667 0.0018 0.0017 0.002 0.001 0.0001 0.0001666667 0.0001413333 0.0001 0.0001 0.0001 0.0001 0.0001 0.0001 0.0001 0.0001 0.0001 0.0001007813 0.0001 0.000103125 0.0001032622 0.0001024931 0.0001 0.000100002 0.0001 0.0001 0.0001 0.0001001953 0.0001000651 0.0001 0.0001 0.0001 0.0001 0.0001 0.0001 0.0001 0.0001 0.0001 0.0001 0.0001000001 0.0001 0.0001 0.0001 0.0001 0.0001 0.0001 0.0001 0.0001000008 0.000100001 
0.0001 0.00015 0.0002 0.0001333333 0.0001 0.0001 0.0001 0.0001 0.0001 0.0001 0.0001 0.0001 0.0001 0.0001 0.0001 0.0001 0.0001 0.0001 0.0001 0.0001 0.0001 0.0001333333 0.0002 0.00015 0.0001 0.0001 0.0001 0.0001 0.0001 0.0001 0.0001 0.0001 0.0001 0.0001 0.0001 0.0001 0.0001 0.0001000015 0.0001000031 0.0001 0.0001 0.0001 0.0001 0.0001 0.0001 0.0001000122 0.0001000244 0.0001000244 0.0001 0.0001 0.0001 0.0001 0.0001 0.0001000001 0.0001 0.0001 0.0001 0.0001 0.0001053896 0.0001118141 0.000109375 0.00010625 0.00010625 0.0001 0.0001 0.0004427778 0.0008111111 0.0007666667 0.0007 0.0013 0.0017 0.0017 0.0015 0.0027 0.003133333 0.003 0.0034 0.0056 0.009 0.0133 0.0174 0.01876667 0.0194 0.0178 0.014 0.011 0.0092 0.0092 0.0101 0.01141667 0.0105 0.0272 0.0181 0.0149 0.0017 0.001933333 0.002155556 0.001488542 0.0001 0.0001125 0.0001102464 0.0001149691 0.0001125 0.0001 0.0001 0.0001 0.0001 0.0001 0.00045 0.0005 0.0021 0.00215 0.0018 0.0013 0.0009 0.0009 0.0009 0.0009 0.001083333 0.0011 0.0009 0.001 0.0005 0.0001 0.0001 0.0001222222 0.0001 0.0001 0.0001 0.0001 0.0001 0.0001 0.0001 0.0001 0.0001 0.0001 0.0001001953 0.0001 0.0001015625 0.0001016082 0.0001012206 0.0001 0.0001000005 0.0001 0.0001 0.0001 0.0001000977 0.0001000326 0.0001 0.0001 0.0001 0.0001 0.0001 0.0001 0.0001 0.0001 0.0001 0.0001 0.0001 0.0001 0.0001 0.0001 0.0001 0.0001 0.0001 0.0001 0.0001000004 
0.00015 0.0002 0.0001333333 0.0001 0.0001 0.0001 0.0001 0.0001 0.0001 0.0001 0.0001 0.0001 0.0001 0.0001 0.0001 0.0001 0.0001 0.0001 0.0001 0.0001 0.0001333333 0.0002 0.00015 0.0001 0.0001 0.0001 0.0001 0.0001 0.0001 0.0001 0.0001 0.0001 0.0001 0.0001 0.0001 0.0001 0.0001000008 0.0001000015 0.0001 0.0001 0.0001 0.0001 0.0001 0.0001 0.0001000061 0.0001000122 0.0001000122 0.0001 0.0001 0.0001 0.0001 0.0001 0.0001 0.0001 0.0001 0.0001 0.0001 0.000102751 0.0001060214 0.0001046875 0.000103125 0.000103125 0.0001 0.0001 0.0002933704 0.0005203704 0.0004777778 0.0004333333 0.0004 0.0006 0.0008 0.0009 0.0008 0.0014 0.001733333 0.0017 0.0021 0.0036 0.0061 0.0093 0.0123 0.0135 0.0139 0.0129 0.0103 0.0082 0.007 0.0071 0.007733333 0.0082 0.0112 0.0185 0.0108 0.0098 0.0009 0.001 0.001144444 0.001292593 0.0008883391 0.0001 0.0001067438 0.00010625 0.0001 0.0001 0.0001 0.0001 0.0001 0.0002416667 0.0002666667 0.0002 0.0007666667 0.0011 0.001 0.0007 0.0005 0.0005 0.0005 0.0005 0.0006 0.0006 0.0005 0.0005 0.0002 0.000225 0.0001 0.0001 0.0001044444 0.0001 0.0001 0.0001 0.0001 0.0001 0.0001 0.0001 0.0001 0.0001 0.0001 0.0001000488 0.0001 0.0001007813 0.0001007965 0.0001006019 0.0001 0.0001000001 0.0001 0.0001 0.0001 0.0001000488 0.0001000163 0.0001 0.0001 0.0001 0.0001 0.0001 0.0001 0.0001 0.0001 0.0001 0.0001 0.0001 0.0001 0.0001 0.0001 0.0001 0.0001 0.0001 0.0001 
0.0002 0.0001333333 0.0001 0.0001 0.0001 0.0001 0.0001 0.0001 0.0001 0.0001 0.0001 0.0001 0.0001 0.0001 0.0001 0.0001 0.0001 0.0001 0.0001 0.0001333333 0.0002 0.00015 0.0001 0.0001 0.0001 0.0001 0.0001 0.0001 0.0001 0.0001 0.0001 0.0001 0.0001 0.0001 0.0001 0.0001000004 0.0001000008 0.0001 0.0001 0.0001 0.0001 0.0001 0.0001 0.0001000031 0.0001000061 0.0001000061 0.0001 0.0001 0.0001 0.0001 0.0001 0.0001 0.0001 0.0001 0.0001 0.0001 0.0001013943 0.0001030488 0.0001023438 0.0001015625 0.0001015625 0.0001 0.0001 0.0002072543 0.0003367284 0.0003037037 0.0002722222 0.0002333333 0.0002 0.0003 0.0004 0.0004 0.0004 0.00065 0.0007 0.0009 0.0012 0.0023 0.004 0.0062 0.0084 0.009333333 0.0096 0.009 0.0073 0.0059 0.0051 0.0053 0.005966667 0.0065 0.0097 0.012 0.0063 0.0061 0.0004 0.0005 0.0005777778 0.0006722222 0.0007697531 0.0005403718 0.0001020833 0.0001 0.0001 0.0001 0.0001 0.0001 0.0001597222 0.0001722222 0.00015 0.0001 0.00046 0.0006 0.0005 0.0004 0.0003 0.0003 0.0002 0.0002666667 0.0002 0.0003 0.0003 0.0002 0.0001 0.00015 0.00014375 0.0001 0.0001 0.0001008889 0.0001 0.0001 0.0001 0.0001 0.0001 0.0001 0.0001 0.0001 0.0001 0.0001 0.0001000122 0.0001 0.0001003906 0.0001003957 0.0001002982 0.0001 0.0001 0.0001 0.0001 0.0001 0.0001000244 0.0001000081 0.0001 0.0001 0.0001 0.0001 0.0001 0.0001 0.0001 0.0001 0.0001 0.0001 0.0001 0.0001 0.0001 0.0001 0.0001 0.0001 0.0001 
0.0001333333 0.0001 0.0001 0.0001 0.0001 0.0001 0.0001 0.0001 0.0001 0.0001 0.0001 0.0001 0.0001 0.0001 0.0001 0.0001 0.0001 0.0001 0.0001333333 0.0002 0.00015 0.0001 0.0001 0.0001 0.0001 0.0001 0.0001 0.0001 0.0001 0.0001 0.0001 0.0001 0.0001 0.0001 0.0001000002 0.0001000004 0.0001 0.0001 0.0001 0.0001 0.0001 0.0001 0.0001000015 0.0001000031 0.0001000031 0.0001 0.0001 0.0001 0.0001 0.0001 0.0001 0.0001 0.0001 0.0001 0.0001 0.0001007035 0.0001015371 0.0001011719 0.0001007813 0.0001007813 0.0001 0.0001 0.0001579632 0.0002284465 0.0002061728 0.0001861111 0.0001611111 0.00015 0.0001 0.0001 0.0002 0.0002 0.0002 0.0003333333 0.0004 0.0005 0.0007 0.0014 0.0025 0.004 0.005016667 0.0055 0.0063 0.006 0.005 0.004 0.0036 0.0038 0.004466667 0.0049 0.0075 0.0075 0.0036 0.0037 0.0002 0.0002333333 0.0002944444 0.0003444444 0.0004033951 0.0004651234 0.0001 0.0001 0.0001 0.0001 0.0001 0.0001261574 0.0001324074 0.000125 0.0001 0.0001 0.000275 0.0003 0.0003 0.0002 0.0001 0.0001 0.0001 0.0001333333 0.0001 0.0001 0.0001 0.0001 0.0001333333 0.0001 0.000125 0.0001171875 0.0001 0.0001 0.0001001778 0.0001 0.0001 0.0001 0.0001 0.0001 0.0001 0.0001 0.0001 0.0001 0.0001 0.0001000031 0.0001 0.0001001953 0.000100197 0.0001001482 0.0001 0.0001 0.0001 0.0001 0.0001 0.0001000122 0.0001000041 0.0001 0.0001 0.0001 0.0001 0.0001 0.0001 0.0001 0.0001 0.0001 0.0001 0.0001 0.0001 0.0001 0.0001 0.0001 0.0001 
0.0001 0.0001 0.0001 0.0001 0.0001 0.0001 0.0001 0.0001 0.0001 0.0001 0.0001 0.0001 0.0001 0.0001 0.0001 0.0001 0.0001 0.0001333333 0.0002 0.00015 0.0001 0.0001 0.0001 0.0001 0.0001 0.0001 0.0001 0.0001 0.0001 0.0001 0.0001 0.0001 0.0001 0.0001000001 0.0001000002 0.0001 0.0001 0.0001 0.0001 0.0001 0.0001 0.0001000008 0.0001000015 0.0001000015 0.0001 0.0001 0.0001 0.0001 0.0001 0.0001 0.0001 0.0001 0.0001 0.0001 0.0001003538 0.0001007728 0.0001005859 0.0001003906 0.0001003906 0.0001 0.0001 0.0001305896 0.0001677898 0.0001541152 0.0001424383 0.0001287037 0.000125 0.0001 0.0001 0.0001 0.0001 0.0001 0.0001 0.0002 0.0002 0.0002 0.0004 0.0008 0.0015 0.0025 0.003183333 0.0035 0.004 0.0039 0.0033 0.0027 0.0023 0.0022 0.0032 0.0041 0.0054 0.0045 0.002 0.0021 0.0001 0.00015 0.0001611111 0.0001935185 0.0002222222 0.0002568416 0.0002164506 0.0001 0.0001 0.0001 0.0001118441 0.0001149691 0.0001125 0.0001 0.0001 0.0001483333 0.0001666667 0.0001 0.0001 0.0001 0.0001 0.0001 0.0001 0.0001 0.0001 0.0001 0.0001 0.0001 0.0001 0.0001111111 0.0001 0.0001125 0.0001074219 0.0001 0.0001 0.0001000356 0.0001 0.0001 0.0001 0.0001 0.0001 0.0001 0.0001 0.0001 0.0001 0.0001 0.0001000008 0.0001 0.0001000977 0.0001000982 0.0001000738 0.0001 0.0001 0.0001 0.0001 0.0001 0.0001000061 0.000100002 0.0001 0.0001 0.0001 0.0001 0.0001 0.0001 0.0001 0.0001 0.0001 0.0001 0.0001 0.0001 0.0001 0.0001 0.0001 
0.0001 0.0001 0.0001 0.0001 0.0001 0.0001 0.0001 0.0001 0.0001 0.0001 0.0001 0.0001 0.0001 0.0001 0.0001 0.0001 0.0001333333 0.0002 0.00015 0.0001 0.0001 0.0001 0.0001 0.0001 0.0001 0.0001 0.0001 0.0001 0.0001 0.0001 0.0001 0.0001 0.0001 0.0001000001 0.0001 0.0001 0.0001 0.0001 0.0001 0.0001 0.0001000004 0.0001000008 0.0001000008 0.0001 0.0001 0.0001 0.0001 0.0001 0.0001 0.0001 0.0001 0.0001 0.0001 0.0001001776 0.0001003878 0.000100293 0.0001001953 0.0001001953 0.0001 0.0001 0.0001158404 0.0001350609 0.0001271948 0.0001208076 0.0001137346 0.0001125 0.0001 0.0001 0.0001 0.0001 0.0001 0.0001 0.0001 0.0001333333 0.0001 0.0001 0.0002 0.0004 0.0009 0.0015 0.001933333 0.0021 0.0025 0.0024 0.0021 0.0017 0.0015 0.001533333 0.0015 0.0027 0.0036 0.0024 0.0013 0.001 0.000925 0.0001 0.000125 0.0001287037 0.0001449074 0.0001602881 0.0001795868 0.000137594 0.0001 0.0001055105 0.000107073 0.00010625 0.0001 0.0001 0.0001141111 0.0001222222 0.0001 0.0001 0.0001 0.0001 0.0001 0.0001 0.0001 0.0001 0.0001 0.0001 0.0001 0.0001 0.0001 0.0001 0.0001037037 0.0001 0.00010625 0.000103418 0.0001 0.0001 0.0001000071 0.0001 0.0001 0.0001 0.0001 0.0001 0.0001 0.0001 0.0001 0.0001 0.0001 0.0001000002 0.0001 0.0001000488 0.000100049 0.0001000368 0.0001 0.0001 0.0001 0.0001 0.0001 0.0001000031 0.000100001 0.0001 0.0001 0.0001 0.0001 0.0001 0.0001 0.0001 0.0001 0.0001 0.0001 0.0001 0.0001 0.0001 0.0001 
0.0001 0.0001 0.0001 0.0001 0.0001 0.0001 0.0001 0.0001 0.0001 0.0001 0.0001 0.0001 0.0001 0.0001 0.0001 0.0001333333 0.0002 0.00015 0.0001 0.0001 0.0001 0.0001 0.0001 0.0001 0.0001 0.0001 0.0001 0.0001 0.0001 0.0001 0.0001 0.0001 0.0001 0.0001 0.0001 0.0001 0.0001 0.0001 0.0001 0.0001000002 0.0001000004 0.0001000004 0.0001 0.0001 0.0001 0.0001 0.0001 0.0001 0.0001 0.0001 0.0001 0.0001 0.000100089 0.0001001944 0.0001001465 0.0001000977 0.0001000977 0.0001 0.0001 0.0001080873 0.0001178734 0.0001135517 0.000110198 0.0001066615 0.00010625 0.0001 0.0001 0.0001 0.0001 0.0001 0.0001 0.0001 0.0001083333 0.0001 0.0001 0.0001 0.0001 0.0002 0.0005 0.0008 0.001133333 0.0012 0.0015 0.0015 0.0012 0.001 0.0009 0.0009666667 0.0008 0.002 0.0022 0.0015 0.0008 0.0005 0.0005666667 0.0004645833 0.0001 0.0001125 0.0001137346 0.0001216307 0.0001295267 0.0001298965 0.0001026181 0.0001033993 0.000103125 0.0001 0.0001 0.0001043037 0.0001074074 0.0001 0.0001 0.0001 0.0001 0.0001 0.0001 0.0001 0.0001 0.0001 0.0001 0.0001 0.0001 0.0001 0.0001 0.0001 0.0001 0.0001012346 0.0001 0.000103125 0.0001016357 0.0001 0.0001 0.0001000014 0.0001 0.0001 0.0001 0.0001 0.0001 0.0001 0.0001 0.0001 0.0001 0.0001 0.0001 0.0001 0.0001000244 0.0001000245 0.0001000184 0.0001 0.0001 0.0001 0.0001 0.0001 0.0001000015 0.0001000005 0.0001 0.0001 0.0001 0.0001 0.0001 0.0001 0.0001 0.0001 0.0001 0.0001 0.0001 0.0001 0.0001 
0.0001 0.0001 0.0001 0.0001 0.0001 0.0001 0.0001 0.0001 0.0001 0.0001 0.0001 0.0001 0.0001 0.0001 0.0001333333 0.0002 0.00015 0.0001 0.0001 0.0001 0.0001 0.0001 0.0001 0.0001 0.0001 0.0001 0.0001 0.0001 0.0001 0.0001 0.0001 0.0001 0.0001 0.0001 0.0001 0.0001 0.0001 0.0001 0.0001000001 0.0001000002 0.0001000002 0.0001 0.0001 0.0001 0.0001 0.0001 0.0001 0.0001 0.0001 0.0001 0.0001 0.0001000446 0.0001000973 0.0001000732 0.0001000488 0.0001000488 0.0001 0.0001 0.0001040872 0.0001090205 0.0001067225 0.0001050076 0.0001032622 0.000103125 0.0001 0.0001 0.0001 0.0001 0.0001 0.0001 0.0001 0.0001020833 0.0001 0.0001 0.0001 0.0001 0.0001 0.0001 0.0003 0.0004 0.0005 0.0007 0.0008 0.0008 0.0007 0.0006 0.0005 0.0005666667 0.0006 0.0011 0.0012 0.0009 0.0005 0.0002 0.0002666667 0.0003277778 0.0002661458 0.0001 0.00010625 0.0001066615 0.0001104724 0.0001144204 0.0001016539 0.0001015625 0.0001 0.0001 0.0001013546 0.0001024691 0.0001 0.0001 0.0001 0.0001 0.0001 0.0001 0.0001 0.0001 0.0001 0.0001 0.0001 0.0001 0.0001 0.0001 0.0001 0.0001 0.0001 0.0001 0.0001004115 0.0001 0.0001015625 0.0001007996 0.0001 0.0001 0.0001000003 0.0001 0.0001 0.0001 0.0001 0.0001 0.0001 0.0001 0.0001 0.0001 0.0001 0.0001 0.0001 0.0001000122 0.0001000122 0.0001000092 0.0001 0.0001 0.0001 0.0001 0.0001 0.0001000008 0.0001000003 0.0001 0.0001 0.0001 0.0001 0.0001 0.0001 0.0001 0.0001 0.0001 0.0001 0.0001 0.0001 
0.0001 0.0001 0.0001 0.0001 0.0001 0.0001 0.0001 0.0001 0.0001 0.0001 0.0001 0.0001 0.0001 0.0001333333 0.0002 0.00015 0.0001 0.0001 0.0001 0.0001 0.0001 0.0001 0.0001 0.0001 0.0001 0.0001 0.0001 0.0001 0.0001 0.0001 0.0001 0.0001 0.0001 0.0001 0.0001 0.0001 0.0001 0.0001 0.0001000001 0.0001000001 0.0001 0.0001 0.0001 0.0001 0.0001 0.0001 0.0001 0.0001 0.0001 0.0001 0.0001000223 0.0001000487 0.0001000366 0.0001000244 0.0001000244 0.0001 0.0001 0.0001020513 0.0001045221 0.0001033282 0.0001024657 0.0001016082 0.0001015625 0.0001 0.0001 0.0001 0.0001 0.0001 0.0001 0.0001 0.0001005208 0.0001 0.0001 0.0001 0.0001 0.0001 0.0001 0.0001 0.0001 0.0002166667 0.0002 0.0004 0.0005 0.0005 0.0004 0.0003 0.0003 0.00035 0.0003 0.0006 0.0006 0.0005 0.0003 0.0001 0.00015 0.0001722222 0.0002083333 0.0001767216 0.0001 0.000103125 0.0001032622 0.000105099 0.0001007813 0.0001 0.0001 0.0001004355 0.000100823 0.0001 0.0001 0.0001 0.0001 0.0001 0.0001 0.0001 0.0001 0.0001 0.0001 0.0001 0.0001 0.0001 0.0001 0.0001 0.0001 0.0001 0.0001 0.0001 0.0001 0.0001001372 0.0001 0.0001007813 0.0001003952 0.0001 0.0001 0.0001000001 0.0001 0.0001 0.0001 0.0001 0.0001 0.0001 0.0001 0.0001 0.0001 0.0001 0.0001 0.0001 0.0001000061 0.0001000061 0.0001000046 0.0001 0.0001 0.0001 0.0001 0.0001 0.0001000004 0.0001000001 0.0001 0.0001 0.0001 0.0001 0.0001 0.0001 0.0001 0.0001 0.0001 0.0001 0.0001 
0.0001 0.0001 0.0001 0.0001 0.0001 0.0001 0.0001 0.0001 0.0001 0.0001 0.0001 0.0001 0.0001333333 0.0002 0.00015 0.0001 0.0001 0.0001 0.0001 0.0001 0.0001 0.0001 0.0001 0.0001 0.0001 0.0001 0.0001 0.0001 0.0001 0.0001 0.0001 0.0001 0.0001 0.0001 0.0001 0.0001 0.0001 0.0001 0.0001 0.0001 0.0001 0.0001 0.0001 0.0001 0.0001 0.0001 0.0001 0.0001 0.0001 0.0001000112 0.0001000244 0.0001000183 0.0001000122 0.0001000122 0.0001 0.0001 0.0001010314 0.0001022574 0.0001016472 0.0001012176 0.0001007965 0.0001007813 0.0001 0.0001 0.0001 0.0001 0.0001 0.0001 0.0001 0.0001001302 0.0001 0.0001 0.0001 0.0001 0.0001 0.0001 0.0001 0.0001 0.0001 0.00012 0.0001 0.0002 0.0002 0.0003 0.0002 0.0002 0.0002 0.0002 0.0002 0.0003 0.0003 0.0003 0.0001 0.00015 0.0001 0.000125 0.0001324074 0.0001510803 0.0001356928 0.0001 0.0001015625 0.0001016082 0.0001 0.0001 0.000100142 0.0001002744 0.0001 0.0001 0.0001 0.0001 0.0001 0.0001 0.0001 0.0001 0.0001 0.0001 0.0001 0.0001 0.0001 0.0001 0.0001 0.0001 0.0001 0.0001 0.0001 0.0001 0.0001 0.0001 0.0001000457 0.0001 0.0001003906 0.0001001965 0.0001 0.0001 0.0001 0.0001 0.0001 0.0001 0.0001 0.0001 0.0001 0.0001 0.0001 0.0001 0.0001 0.0001 0.0001 0.0001000031 0.0001000031 0.0001000023 0.0001 0.0001 0.0001 0.0001 0.0001 0.0001000002 0.0001000001 0.0001 0.0001 0.0001 0.0001 0.0001 0.0001 0.0001 0.0001 0.0001 0.0001 
0.0001 0.0001 0.0001 0.0001 0.0001 0.0001 0.0001 0.0001 0.0001 0.0001 0.0001 0.0001333333 0.0002 0.00015 0.0001 0.0001 0.0001 0.0001 0.0001 0.0001 0.0001 0.0001 0.0001 0.0001 0.0001 0.0001 0.0001 0.0001 0.0001 0.0001 0.0001 0.0001 0.0001 0.0001 0.0001 0.0001 0.0001 0.0001 0.0001 0.0001 0.0001 0.0001 0.0001 0.0001 0.0001 0.0001 0.0001 0.0001 0.0001000061 0.0001000127 0.0001000092 0.0001000061 0.0001000061 0.0001 0.0001 0.0001005731 0.000101185 0.0001008485 0.0001006029 0.0001003957 0.0001003906 0.0001 0.0001 0.0001 0.0001 0.0001 0.0001 0.0001 0.0001000326 0.0001 0.0001 0.0001 0.0001 0.0001 0.0001 0.0001 0.0001 0.0001 0.0001 0.0001 0.0001 0.0001 0.0001 0.0001 0.0001 0.0001 0.00014 0.0001 0.0001 0.0001 0.0002 0.0001 0.0001 0.0001 0.0001125 0.0001 0.0001125 0.0001149691 0.0001240998 0.0001176005 0.0001 0.0001007813 0.0001004779 0.0001000467 0.0001000914 0.0001 0.0001 0.0001 0.0001 0.0001 0.0001 0.0001 0.0001 0.0001 0.0001 0.0001 0.0001 0.0001 0.0001 0.0001 0.0001 0.0001 0.0001 0.0001 0.0001 0.0001 0.0001 0.0001 0.0001 0.0001000152 0.0001 0.0001001953 0.0001000979 0.0001 0.0001 0.0001 0.0001 0.0001 0.0001 0.0001 0.0001 0.0001 0.0001 0.0001 0.0001 0.0001 0.0001 0.0001 0.0001000015 0.0001000015 0.0001000011 0.0001 0.0001 0.0001 0.0001 0.0001 0.0001000001 0.0001 0.0001 0.0001 0.0001 0.0001 0.0001 0.0001 0.0001 0.0001 0.0001 
0.0001 0.0001 0.0001 0.0001 0.0001 0.0001 0.0001 0.0001 0.0001 0.0001 0.0001333333 0.0002 0.00015 0.0001 0.0001 0.0001 0.0001 0.0001 0.0001 0.0001 0.0001 0.0001 0.0001 0.0001 0.0001 0.0001 0.0001 0.0001 0.0001 0.0001 0.0001 0.0001 0.0001 0.0001 0.0001 0.0001 0.0001 0.0001 0.0001 0.0001 0.0001 0.0001 0.0001 0.0001 0.0001 0.0001 0.0001 0.000100004 0.0001000098 0.0001000069 0.0001000046 0.0001000031 0.0001 0.0001 0.0001003725 0.0001009169 0.0001006489 0.0001004492 0.0001002955 0.0001001953 0.0001 0.0001 0.0001 0.0001 0.0001 0.0001 0.0001 0.0001000081 0.0001 0.0001 0.0001 0.0001 0.0001 0.0001 0.0001 0.0001 0.0001 0.0001 0.0001 0.0001 0.0001 0.0001 0.0001 0.0001 0.0001 0.0001 0.0001 0.0001 0.0001 0.0001 0.0001 0.0001 0.0001 0.0001 0.0001 0.0001041667 0.0001 0.00010625 0.0001106096 0.0001173547 0.0001116517 0.0001 0.0001003906 0.0001000457 0.0001 0.0001 0.0001 0.0001 0.0001 0.0001 0.0001 0.0001 0.0001 0.0001 0.0001 0.0001 0.0001 0.0001 0.0001 0.0001 0.0001 0.0001 0.0001 0.0001 0.0001 0.0001 0.0001 0.0001 0.0001 0.0001 0.0001000051 0.0001 0.0001000977 0.0001000652 0.0001 0.0001 0.0001 0.0001 0.0001 0.0001 0.0001 0.0001 0.0001 0.0001 0.0001 0.0001 0.0001 0.0001 0.0001 0.0001000008 0.0001000011 0.0001000008 0.0001 0.0001 0.0001 0.0001 0.0001 0.0001 0.0001 0.0001 0.0001 0.0001 0.0001 0.0001 0.0001 0.0001 0.0001 
