ncols         120
nrows         72
xllcorner     94.936378943926
yllcorner     29.778925957636
cellsize      0.00031609313048797
NODATA_value  -9999
0.0001 0.0001 0.0001 0.0001 0.0001 0.0001 0.0001 0.0001 0.0001500059 0.0002 0.0001444811 0.0001000343 0.0001 0.0001 0.0001010344 0.0001009259 0.0001 0.0001 0.0001125 0.0001324074 0.0001842593 0.0002833333 0.000387037 0.0004648148 0.0004555556 0.0005277778 0.0007740741 0.001030903 0.0001 0.000225 0.00055 0.002227778 0.0089 0.0182 0.030025 0.0002 0.00245 0.001666667 0.001833333 0.001325 0.0001 0.00715 0.0006 0.0028 0.012 0.0456 0.1499 2.2554 0.4192 0.9445 1.786 8.6433 12.07195 8.0291 6.4714 6.4714 11.25757 10.51907 6.76165 3.835617 1.648233 0.9323 0.9323 3.321157 2.114276 0.6718222 0.1201944 0.0446 0.0446 0.2062605 0.2459 0.1629242 0.1072625 0.0914 8.076942 11.39217 10.8483 10.69414 10.5166 6.000344 3.377852 3.181807 3.13524 3.1294 3.1294 1.472435 0.3834406 0.176625 0.06887641 0.0219472 0.005620935 0.001426642 0.0006480262 0.0005358025 0.000504321 0.0005 0.0005 0.0005 0.0005 0.0005 0.0005 0.0005 0.0005 0.0009355685 0.0005497508 0.0002286394 0.0001386126 0.0001135519 0.0001045961 0.0001023438 0.0001 0.0001541892 0.0001366917 0.0001121901 0.00010453 0.0001015422 0.0001007813 0.0001 0.0006669034 0.0009360233 
0.0001 0.0001 0.0001 0.0001 0.0001 0.0001 0.0001 0.0001 0.0001 0.0001500178 0.0002 0.000133409 0.0001000686 0.0001 0.0001 0.0001021774 0.0001018519 0.0001 0.0001 0.000125 0.0001722222 0.0002555556 0.0004222222 0.0004833333 0.0004888889 0.0003944444 0.0007 0.001227778 0.002095833 0.0001 0.00035 0.0012 0.005133333 0.02036667 0.0291 0.07043333 0.0002 0.0047 0.0001 0.0007 0.0044 0.1375667 0.0235 0.1104 0.4559 1.6157 3.7266 5.726183 4.7259 3.5187 9.219017 14.5571 9.5868 14.48732 6.4714 14.4961 14.35237 9.7104 7.49445 3.0801 0.9323 0.9323 6.280883 4.371961 1.699483 0.2713833 0.0446 0.0446 0.3282815 0.2459 0.1912719 0.123125 0.0914 8.911525 12.14823 11.15662 10.87168 10.5166 6.498143 3.717535 3.269099 3.146921 3.1294 3.1294 1.753656 0.6702621 0.3364232 0.1436364 0.04981545 0.01317732 0.002848811 0.0008366712 0.0005944445 0.000512963 0.0005 0.0005 0.0005 0.0005 0.0005 0.0005 0.0005 0.0005 0.001772891 0.001090202 0.0003791809 0.0001798697 0.0001268676 0.0001091006 0.0001046875 0.0001 0.0002156451 0.0001765689 0.0001245428 0.0001089635 0.000103064 0.0001015625 0.0001 0.000695567 0.0009466968 0.0009253498 
0.0001 0.0001 0.0001 0.0001 0.0001 0.0001 0.0001 0.0001 0.0001 0.0001 0.0001500533 0.0002 0.0001335676 0.0001002058 0.0001 0.0001 0.0001068576 0.0001055556 0.0001 0.0001 0.00015 0.0002666667 0.00035 0.00065 0.00045 0.0003666667 0.0003666667 0.001366667 0.00195 0.004966666 0.0001 0.0006 0.0029 0.0119 0.0463 0.79054 0.1648 0.5428 1.2844 1.0958 0.1881 1.782883 0.6087 1.6558 3.6932 6.9916 10.4251 10.41958 14.9104 16.8472 17.6606 18.74072 23.6742 19.58804 18.2169 19.1538 14.1423 9.761 5.2279 14.9523 0.9323 11.8003 8.062034 4.3289 0.72495 0.0446 0.0446 0.6943445 0.2459 0.2729375 0.15485 0.0914 10.33677 13.49143 11.7265 11.22676 10.5166 7.505331 4.474707 3.495935 3.181963 3.1294 3.1294 2.162474 1.112658 0.6100903 0.2880383 0.1111411 0.03172997 0.006575309 0.00122668 0.0007444444 0.0005388889 0.0005 0.0005 0.0005 0.0005 0.0005 0.0005 0.0005 0.0005 0.003589342 0.002286363 0.0007158607 0.0002683814 0.0001533008 0.000117927 0.000109375 0.0001 0.0003505721 0.0002621456 0.0001498628 0.0001176983 0.0001060671 0.000103125 0.0001 0.0007594127 0.0009893909 0.0009334644 0.0009172352 
0.0001 0.0001 0.0001 0.0001 0.0001 0.0001 0.0001 0.0001 0.0001 0.0001 0.0001 0.00015016 0.0002 0.0001340646 0.0001006173 0.0001 0.0001 0.000121875 0.0001166667 0.0001 0.0001 0.0002 0.0005 0.0023 0.0008 0.0001 0.0002 0.0008 0.0031 0.02992 0.0117 0.0404 0.1321 0.4384 1.0474 2.65765 2.694 3.9544 2.9496 3.0247 4.4541 3.581967 5.4185 6.7856 8.3145 9.4272 12.524 15.291 16.2055 19.6027 22.4144 24.5512 29.80977 29.7238 39.9909 38.0487 35.1895 32.7588 22.95357 30.1609 23.4881 15.5283 7.2525 1.4053 5.0073 0.0446 1.792533 0.2459 0.53615 0.2183 0.0914 12.71831 15.8114 12.72598 11.93691 10.5166 9.367693 6.065715 4.071317 3.287089 3.1294 3.1294 2.729877 1.747882 1.042737 0.5473541 0.24018 0.07658066 0.01666255 0.001946708 0.001116667 0.0006166667 0.0005 0.0005 0.0005 0.0005 0.0005 0.0005 0.0005 0.0005 0.007462274 0.004917627 0.001477469 0.0004639918 0.0002061214 0.0001350309 0.00011875 0.0001 0.0006507452 0.0004487997 0.0002027435 0.0001348937 0.0001119513 0.00010625 0.0001 0.0008922298 0.001079498 0.0009659229 0.0009227516 0.0009117188 
0.0001 0.0001 0.0001 0.0001 0.0001 0.0001 0.0001 0.0001 0.0001 0.0001 0.0001 0.0001 0.0001504801 0.0002 0.0001356409 0.0001018519 0.0001 0.0001 0.0001708333 0.00015 0.000375 0.001 0.0028 0.01001667 0.0051 0.0004 0.0018 0.0074 0.0283 1.4439 0.1064 0.4139 1.607 2.9868 4.933 5.7421 7.0604 5.4002 5.0632 4.7305 4.9156 6.002217 5.9068 7.85 10.784 14.6675 17.692 15.71115 19.989 25.0941 29.9169 34.0005 29.70124 37.0132 34.52485 33.2689 33.8515 31.5896 30.33892 28.2232 28.0788 24.7133 19.999 13.4922 10.08087 5.0871 0.2459 1.4621 0.3452 0.0914 16.70488 19.77288 14.3041 13.35723 10.5166 12.35949 9.112597 5.482083 3.602467 3.1294 3.1294 3.512982 2.609225 1.667902 0.9665198 0.4937883 0.1817543 0.04499753 0.002990123 0.002 0.00085 0.0005 0.0005 0.0005 0.0005 0.0005 0.0005 0.0005 0.0005 0.01550733 0.01063375 0.003208025 0.0009111111 0.0003132716 0.0001675926 0.0001375 0.0001 0.001325409 0.0008615226 0.0003160494 0.0001688272 0.0001233539 0.0001125 0.0001 0.001175242 0.001264163 0.001029514 0.0009448174 0.0009234375 0.0009 
0.0001 0.0001 0.0001 0.0001 0.0001 0.0001 0.0001 0.0001 0.0001 0.0001 0.0001 0.0001 0.0001 0.0001514403 0.0002 0.0001407118 0.0001055556 0.0001 0.0001 0.0003333333 0.0002 0.00178 0.005575 0.0143 0.0366 0.0591 0.2436 0.907 1.87805 2.9218 5.5921 7.8361 8.3262 8.5884 10.60052 9.027 9.6908 9.5154 8.9136 8.008 8.165533 7.5309 7.7874 8.7084 9.9901 11.3552 13.51022 12.7501 15.1063 18.3231 22.0112 24.993 27.46812 27.9483 30.8791 29.2177 27.7277 29.2551 29.9088 30.0459 30.281 29.6011 27.5505 23.6833 22.79913 16.7727 4.9121 0.599 0.0914 23.6073 26.92295 16.19785 16.19785 10.5166 16.13217 14.02094 8.76825 4.5486 3.1294 3.1294 4.64027 3.765039 2.517219 1.545417 0.9410722 0.4130704 0.1272222 0.00497037 0.0028 0.0012 0.1528098 0.0005 0.0005 0.0005 0.0005 0.0005 0.0005 0.0005 0.03159659 0.0228142 0.007118518 0.001968519 0.000537037 0.0002277778 0.000175 0.0001 0.002853487 0.001781481 0.0005666667 0.0002364198 0.0001450617 0.000125 0.0001 0.001796055 0.001650823 0.001154089 0.0009875771 0.000946875 0.0009 0.0005001829 
0.0001 0.0001 0.0001 0.0001 0.0001 0.0001 0.0001 0.0001 0.0001 0.0001 0.0001 0.0001 0.0001 0.0001 0.000154321 0.0002 0.0001572917 0.0001166667 0.0001 0.0001 0.0007 0.0042 0.020075 0.067375 0.169 0.5656 1.3884 2.8357 3.444883 4.5681 7.4262 11.7127 16.6377 19.5048 17.73093 18.5631 15.5304 15.072 14.2918 12.6181 12.40917 11.1901 10.6222 10.9409 11.6453 12.1919 12.64153 12.4046 12.9906 14.9197 16.7793 19.2848 21.92352 21.5689 23.7438 25.8352 27.28835 29.0622 29.13944 31.2768 32.9519 34.4173 35.7352 37.4469 33.23565 40.3126 56.9008 45.2064 38.7637 31.9668 24.45477 21.8791 10.5166 19.33628 18.88747 15.78835 7.387 3.1294 3.1294 6.317552 5.336778 3.77735 2.180989 1.593317 0.8619444 0.3679556 0.009311111 0.0044 0.0012 0.4694962 0.2051815 0.08767153 0.0005 0.0005 0.0005 0.0005 0.0005 0.06198819 0.04811481 0.01578333 0.004544444 0.001027778 0.0003333333 0.00025 0.0001 0.006343577 0.00382963 0.001140741 0.0003740741 0.0001851852 0.00015 0.0001 0.003200734 0.002483951 0.001399537 0.001068981 0.0009937501 0.0009 0.0005005487 0.0001 
0.0001 0.0001 0.0001 0.0001 0.0001 0.0001 0.0001 0.0001 0.0001 0.0001 0.0001 0.0001 0.0001 0.0001 0.0001 0.000162963 0.0002 0.0002125 0.00015 0.000325 0.002657143 0.0122 0.03138 0.0496 0.3666286 0.6016 1.4949 3.2518 4.906767 6.1849 10.3235 15.2508 20.1529 24.1132 25.35393 26.5891 24.5145 22.0196 21.5838 18.9628 18.44715 16.1451 14.1956 13.7204 13.9599 13.8936 14.08142 13.2538 12.3672 11.6558 14.3182 17.6462 17.84838 20.0999 22.5147 24.8399 27.01 25.5561 27.59835 26.0572 27.802 28.8967 29.7073 30.4558 34.41008 50.7426 27.5939 25.3963 24.1209 22.3132 23.54593 21.66 21.8107 25.0857 19.9321 11.6446 13.58785 3.1294 8.970625 6.891533 6.27865 2.84015 2.21325 1.489567 1.077133 0.01913333 0.0076 0.0012 1.374246 0.29645 0.2060889 0.1130056 0.03109167 0.0005 0.0005 0.0005 0.1140583 0.09917778 0.03421667 0.01095 0.002183333 0.0005 0.0004 0.0001 0.01445208 0.008322222 0.0025 0.0006666667 0.0002555556 0.0002 0.0001 0.006470529 0.004340741 0.001891667 0.001219444 0.0010875 0.0009 0.0005016461 0.0001 0.0001 
0.0001 0.0001 0.0001 0.0001000001 0.0001000001 0.0001 0.0001 0.0001 0.0001 0.0001 0.0001 0.0001 0.0001 0.0001 0.0001 0.0001 0.0001888889 0.0002 0.0004 0.0002 0.0003 0.0009 0.04845 0.09 0.213 0.8776 2.1118 4.4389 6.1523 8.1612 13.2247 19.148 25.0004 29.7083 30.73583 33.6451 36.449 36.2483 31.3064 28.2356 27.69982 23.5312 19.2035 17.4546 17.6344 17.0381 17.04553 15.7065 13.6378 11.8075 11.6778 13.0575 14.24767 15.433 17.7989 20.0398 22.155 23.9972 21.77863 22.31394 20.6504 21.1213 48.0768 27.83312 27.6117 19.8909 20.4 20.6573 20.5777 21.19595 21.4086 22.0479 22.8779 23.6459 23.7348 21.62752 23.0699 16.5075 8.1173 8.1283 4.429 3.792425 1.2513 3.1752 0.0422 0.014 0.0012 4.825233 0.36075 0.3098 0.2188 0.08966666 0.03055 0.00365 0.0005 0.1852 0.2000333 0.0705 0.027 0.00515 0.0007 0.0007 0.0001 0.034075 0.01783333 0.0058 0.001333333 0.0003666667 0.0003 0.0001 0.01424323 0.008622223 0.002916667 0.001483333 0.001275 0.0009 0.0005049382 0.0001 0.0001 0.0001 
0.000213455 0.0001 0.0001000001 0.0001 0.0001000004 0.0001000004 0.0001 0.0001 0.0001 0.0001 0.0001 0.0001 0.0001 0.0001 0.0001 0.0001 0.0001 0.0002666667 0.0002 0.0008 0.0026 0.0056 0.06691667 0.1324 0.3196 1.089643 2.5933 5.3207 7.21925 9.5563 15.1874 21.7359 28.1065 33.028 35.1542 37.3313 40.4618 42.4425 43.0589 41.6538 39.46473 37.6704 32.1251 27.2834 24.1396 24.6926 22.3897 19.9915 17.4052 13.353 9.4478 11.6075 9.2495 9.9999 11.4666 13.9305 16.8256 17.25687 17.8456 19.2145 19.24877 26.3349 15.3687 21.2102 15.7784 17.1634 18.1982 18.9511 19.2725 19.01753 19.4828 19.8116 20.3267 21.094 24.121 24.56078 27.2627 29.8339 24.7107 6.6466 3.329 5.5439 6.1604 6.5501 6.0898 7.3578 14.1472 8.9492 0.3273 0.3942 0.2079 0.0543 0.0068 0.475075 0.3842 0.3976 0.1575 0.045 0.009 0.4031 0.0013 0.0001 0.0857 0.0366 0.0139 0.003 0.0005 0.0005 0.0001 0.03290625 0.01876667 0.0052 0.0019 0.00165 0.0009 0.0005148148 0.0001 0.0001 0.0001 0.0001 
0.000303554 0.000236811 0.0001 0.0001000003 0.0001 0.0001000011 0.0001000011 0.0001 0.0001 0.0001 0.0001 0.0001 0.0001 0.0001 0.0001 0.0001 0.0001 0.0001 0.0005 0.0023 0.01 0.0387 0.08316667 0.1339 0.4097 1.1025 2.6005 4.098525 5.6883 10.1501 16.0602 22.9021 30.3088 32.34978 35.9491 41.2634 45.5546 48.8795 51.4775 50.53393 53.1373 52.5601 48.8482 42.6713 37.0193 34.62053 29.9345 27.3577 23.9999 19.8414 15.1642 15.12743 11.0482 10.605 10.7611 10.5462 10.518 13.04097 12.1998 12.3993 15.7722 14.54627 9.2363 11.97802 11.1893 13.3556 14.6753 15.6654 16.4697 16.3705 16.8939 17.5031 18.1517 19.5412 23.2519 23.7069 25.9244 30.0723 29.0964 7.2903 6.1992 7.534383 11.8945 13.4487 14.1269 17.3788 28.6859 18.09932 1.5844 1.8227 1.6533 1.4505 1.1385 1.879 0.7545 1.661533 2.2927 1.6577 1.0474 4.358284 0.5547 0.238 0.082 0.0227 0.0051 0.509725 0.0009 0.0001 0.077625 0.0431 0.0108 0.0024 0.0024 0.0009 0.0005444444 0.0001 0.0001 0.0001 0.0001 0.0001 
0.0003023403 0.0003047678 0.0002401361 0.0001 0.0001000008 0.0001 0.0001000034 0.0001000034 0.0001 0.0001 0.0001 0.0001 0.0001 0.0001 0.0001 0.0001 0.0001 0.0001 0.0005 0.0025 0.0109 0.0246 0.0423 0.1461 0.4458 1.1942 2.7918 4.11275 7.74255 9.755 15.6924 22.7293 29.8995 33.08095 36.8068 42.9416 48.145 52.5117 55.8242 59.61228 58.0519 57.6706 54.9372 51.6045 47.9997 48.57815 46.2404 42.5536 38.2681 32.8197 26.3089 25.2988 19.546 13.6294 11.2124 10.628 10.2394 11.57227 10.6174 20.2044 11.5505 9.015 8.995775 9.3384 8.3174 8.5795 10.609 12.1446 12.7495 13.0154 13.3546 13.975 14.9176 16.4554 19.4731 20.10605 22.2083 23.8688 20.8811 14.6275 7.55 10.41762 10.0732 13.6748 16.3859 20.0904 27.5755 28.37002 36.2756 6.984 5.2862 4.585 4.0253 6.5169 3.4699 2.897 9.279667 15.8888 9.3134 13.8059 10.7314 7.3498 4.7519 2.7795 1.756017 1.4178 0.6151 0.2242 0.0685 0.0177 0.012425 0.0039 0.0009 0.0006333333 0.0001 0.0001 0.0001 0.0001 0.0001 0.0001 
0.0003014973 0.0003031832 0.0003096228 0.0002477383 0.0001 0.0001000023 0.0001 0.0001000102 0.0001000102 0.0001 0.0001 0.0001 0.0001 0.0001 0.0001 0.0001 0.0001 0.0001 0.0004 0.0021 0.0092 0.02135 0.0365 0.1284 0.3995 1.09 2.5941 3.43846 5.3768 9.5943 13.9857 21.0296 28.7734 31.95392 36.7481 44.5792 52.2738 59.8955 66.8759 67.49081 72.3069 73.7972 71.1583 66.7687 65.6144 63.5021 64.6606 61.7527 58.6607 52.1273 43.6683 38.14215 36.0572 29.5408 21.6482 15.4973 13.2327 13.85942 12.6263 12.1582 9.8577 9.1212 8.6106 9.456825 8.83626 10.4205 10.2098 8.2857 9.0827 9.59295 9.542 9.8957 10.8598 11.9615 13.66573 14.1744 15.6042 26.9586 21.9881 23.9366 15.68658 16.0317 10.7571 13.503 17.144 21.4052 23.15863 29.6026 46.4961 13.3877 13.3069 13.7253 10.97852 14.4262 15.287 16.1993 16.7425 15.3735 14.5817 14.1672 10.799 9.6481 7.0209 4.242 2.124667 2.069 0.8649 0.306 0.0914 0.0231 0.0088 0.005 0.0009 0.0001 0.0001 0.0001 0.0001 0.0001 0.0001 0.0001 
0.0003009766 0.000302018 0.0003065551 0.0003202954 0.0002641026 0.0001 0.0001000068 0.0001 0.0001000305 0.0001000305 0.0001 0.0001 0.0001 0.0001 0.0001 0.0001 0.0001 0.0002 0.0002 0.0012 0.0057 0.0148 0.0235 0.0866 0.2829 0.811 2.0266 3.134233 4.403 8.3529 13.05962 17.6405 25.439 29.10265 34.0567 43.2314 52.6923 63.2062 73.2919 74.83955 78.5941 82.0153 82.6146 79.0729 79.8221 77.07864 76.6754 72.402 67.9723 62.4296 55.1825 51.8773 48.09 41.1721 33.1891 31.3498 21.5003 21.74752 14.9404 12.3393 11.0334 10.5968 10.4501 9.30598 10.4492 6.4147 4.52 5.3965 6.695717 6.0208 6.8081 7.4083 8.4705 9.217 10.45657 10.713 13.8638 10.9145 10.2976 16.0509 14.23797 15.9228 9.9813 11.0127 13.9269 17.1547 20.47743 23.1234 30.9695 41.1795 16.6584 14.6928 13.68907 14.4165 14.4509 14.4867 14.3978 14.4649 11.63507 10.41002 8.5131 5.5678 3.174 1.5439 1.584033 0.6958 0.2441 0.0676 0.0151 0.0027 0.00535 0.0004 0.0001 0.0003666667 0.0001 0.0001 0.0001 0.0001 0.0001 0.0001 
0.0003 0.0003019531 0.000304101 0.0003136112 0.000343174 0.0002996252 0.0001 0.0001000203 0.0001 0.0001000914 0.0001000914 0.0001 0.0001 0.0001 0.0001 0.0001 0.0001375 0.00015 0.0001 0.0005 0.0026 0.007983333 0.0113 0.045 0.1588 0.4918 1.3257 2.241167 3.0792 6.2382 11.1108 15.01452 19.16145 20.3928 29.2059 39.5729 51.2448 64.4989 67.76321 77.5992 80.3693 92.1759 84.4961 87.4959 86.08812 89.3394 86.3599 81.0792 76.3504 71.9807 70.86747 67.3789 60.8869 58.157 73.5892 47.864 41.94325 38.688 29.4974 20.1111 12.7414 10.0943 10.8664 9.0717 7.9483 7.271143 6.2865 6.0024 6.13795 5.3862 5.201 5.9197 6.4983 7.7616 8.0521 8.9119 6.1035 4.0501 3.769 6.4714 9.028816 7.0144 6.5059 8.631 11.1493 13.8966 16.5653 17.6821 22.5584 40.7667 14.2375 12.6635 13.18523 12.2101 11.9496 11.4618 10.7103 9.7474 8.40952 8.1608 5.462633 2.4368 1.416 0.6835 0.6121666 0.27 0.0865 0.0222 0.0046 0.0008 0.00084 0.0001 0.0002 0.0001 0.0001888889 0.0001 0.0001 0.0001 0.0001 0.0001781944 
0.0002444458 0.0003 0.0003039062 0.0003083968 0.0003285307 0.0003925945 0.0003773754 0.0001 0.000100061 0.0001 0.0001002744 0.0001002744 0.0001 0.0001 0.0001 0.000115625 0.000125 0.0001 0.00025 0.0002 0.0009 0.003983333 0.0039 0.0173 0.068 0.2399 0.7531 1.4064 1.8594 4.0286 7.7088 13.1735 13.95327 20.96545 20.5223 28.7186 38.7511 50.1928 59.16485 77.7903 75.6022 82.8632 85.7812 90.4243 88.48815 90.3741 88.0887 85.725 84.0422 83.8989 82.00618 84.3342 114.2508 79.4287 64.8534 58.9135 52.43813 53.3439 46.8944 38.2904 26.2336 15.1285 16.26525 9.857 8.2013 7.078 8.147 7.2192 6.68192 6.8026 6.6408 6.6673 6.6834 6.2885 6.5588 5.4206 3.908 1.5176 1.3186 3.3289 5.63475 5.3845 7.2931 9.1431 10.9556 12.6502 14.12777 14.8848 17.628 25.8681 40.9184 13.3763 12.8639 11.7522 10 8.2831 6.5129 5.1391 6.250484 4.5354 3.5619 2.0915 0.8416 0.74784 0.3579 0.1219 0.0331 0.0077 0.0014 0.001316667 0.0002 0.0001333333 0.0001 0.0001333333 0.0001 0.0001296296 0.0001 0.0001 0.0002127778 0.0003 
0.0002 0.0002333374 0.0003 0.0003078125 0.0003173778 0.0003604019 0.0005000038 0.0005490959 0.0001 0.0001001829 0.0001 0.000100823 0.000100823 0.0001 0.0001 0.0001173611 0.0001 0.00019 0.0002 0.0002 0.0005 0.0009 0.0043 0.0165 0.055 0.1593 0.3002833 0.4007 1.0203 2.3138 4.6884 8.506 10.35232 13.7408 18.45102 22.0028 29.097 37.0818 45.46788 47.8261 59.9271 71.3881 79.2752 86.4441 84.25522 86.8511 85.341 83.7412 80.7585 79.1606 82.05254 105.2838 68.773 61.7348 60.6737 60.4696 54.21107 55.3498 50.0114 45.1748 39.9914 31.4916 24.01163 21.9484 16.3326 14.6375 7.6584 8.18925 7.62865 7.9992 7.6592 7.3599 5.3457 5.804 5.7739 5.1662 5.1989 2.7058 3.0875 5.0448 5.645133 6.5645 8.1996 9.9516 11.5471 12.1701 13.10432 13.4828 16.1806 22.0242 48.9208 15.5528 16.33007 11.6285 9.9481 8.6487 7.4081 5.8907 5.176434 4.0295 2.673 1.6197 1.43955 0.68495 0.4402 0.1375 0.0332 0.006 0.0008 0.00052 0.0001 0.00015 0.0001208333 0.0001 0.0001083333 0.0001 0.0002919753 0.0002638889 0.0003 0.0003 
0.0002 0.0002 0.0002333496 0.0003 0.000315625 0.0003365084 0.0004290724 0.0007344307 0.0009328803 0.0001 0.0001005487 0.0001 0.0001024691 0.0001024691 0.0001 0.0001 0.0001444444 0.0001 0.0003 0.0002 0.001033333 0.0006 0.0025 0.0087 0.0269 0.073 0.48645 0.1757 0.4822 1.2211 2.872 6.2454 11.3764 10.0959 15.6257 20.5811 21.4804 26.5616 31.3244 33.3547 42.3328 52.175 63.8179 74.0179 73.64733 77.4198 76.419 73.3783 66.1338 86.6654 66.82312 52.9723 49.2131 50.0101 51.2967 49.6935 48.82127 47.4961 45.6991 43.7913 40.7882 35.7643 29.32758 29.88 20.2144 9.087 9.3858 8.4936 9.119325 8.7821 8.2676 6.6551 6.2712 6.56565 6.7065 5.2576 2.8948 3.1616 4.076 4.930316 6.0379 7.5102 9.0979 10.7421 11.5557 11.89763 12.2211 13.2169 14.8655 18.688 33.9977 33.19587 36.2065 9.4641 8.6373 7.965 7.302 6.806366 6.3805 5.0834 3.613 2.1968 1.1001 1.0486 0.4275 0.0083 0.003 0.0006 0.0001 0.000325 0.0001 0.0001 0.0001875 0.0001 0.0010175 0.0007666667 0.0003555556 0.0003 0.0003 0.0005982639 
0.0002 0.0002 0.0002 0.0002333984 0.0003 0.00033125 0.000378275 0.0005776921 0.001247325 0.001806504 0.0001 0.0001016461 0.0001 0.0001074074 0.0001074074 0.0001 0.0001 0.0002333333 0.0001 0.0007 0.003366667 0.0036 0.0158 0.0608 0.2052 0.6002 1.307317 1.5098 3.2523 6.0043 9.5612 13.2223 13.60783 16.448 16.877 18.4037 19.80145 20.0119 24.1612 23.1103 27.7263 34.2529 43.7404 54.8889 58.44575 62.2622 63.5061 62.2348 75.5119 39.2306 44.8561 37.626 38.6868 39.6679 40.3459 40.4998 39.55365 39.4188 37.9933 35.9151 32.8167 32.50225 29.8217 27.0595 24.4509 19.5727 14.973 12.95897 10.8475 9.137 8.435616 7.6158 7.3842 7.794734 7.8823 6.5112 4.4391 3.4398 4.5767 5.644134 6.759 8.3072 9.7255 10.7799 11.5402 11.89188 12.3516 12.8529 13.7555 16.2973 24.4959 33.12115 40.0015 11.2783 9.3852 8.2702 7.3965 7.088517 6.4604 5.3246 4.0146 2.6773 1.5301 1.63806 1.124 0.22005 0.0095 0.0019 0.0003 0.001075 0.0004 0.0004 0.0001 0.0028875 0.001533333 0.0004666667 0.0003 0.0003 0.0008809027 0.0006138889 
0.0002 0.0002 0.0002 0.0002 0.0002335937 0.0003 0.0003625 0.0004723251 0.000898251 0.002371399 0.003856366 0.0001 0.0001049383 0.0001 0.0001222222 0.0001222222 0.0001 0.0001 0.0005 0.0026 0.006483333 0.0125 0.0535 0.1978 0.6262 1.6807 2.030583 3.8045 7.2639 11.89 17.4136 17.3814 15.21745 18.254 16.8514 14.9988 17.3523 17.36425 19.28592 17.7675 20.178 23.7698 29.7002 37.51923 37.1851 44.9006 45.8888 85.0117 29.6031 33.48937 25.4215 27.2208 28.6322 29.7171 30.3845 30.93785 30.5573 29.6564 29.0633 28.925 28.4694 28.65083 27.3532 25.6758 23.7781 23.4813 19.6632 16.11815 14.3907 10.5569 8.3813 8.541284 8.7321 8.37792 9.7921 10.3188 5.1203 3.7715 5.1073 6.043133 7.3079 8.5616 9.6858 10.5689 11.4505 11.83258 12.2322 12.5324 13.1199 15.0044 21.0619 30.09607 42.9634 12.857 10.3908 9.0079 7.9865 7.714517 7.0052 5.907 4.6723 3.3893 4.3003 1.390183 0.1358 0.0397 0.04245 0.0132 0.0032 0.05386 0.0007 0.0001 0.00715 0.0035 0.0008 0.0003 0.0003 0.001995833 0.0008777778 0.00035 
0.0002 0.0002 0.0002 0.0002 0.0002 0.000234375 0.0003 0.000425 0.0006919753 0.001577778 0.004844444 0.008903241 0.0001 0.0001148148 0.0001 0.0001666667 0.0001666667 0.0001 0.0008 0.0035 0.01283333 0.016 0.0628 0.2123 0.6124 1.309133 1.4963 3.092 5.4329 8.1403 10.2593 13.07503 13.4523 12.5467 13.9654 15.9711 15.8388 15.537 16.254 17.67609 19.3045 23.2381 27.6019 36.87757 31.9989 76.5208 59.952 36.4892 14.8495 18.28533 16.3196 17.7533 19.0465 20.215 21.3528 23.2995 22.4868 23.2732 24.5014 25.6564 26.6027 26.02212 26.8413 26.3335 25.1269 23.4172 20.8006 18.4189 16.0339 13.332 10.0962 9.0381 9.2137 8.762325 8.0989 5.0161 5.4233 4.1506 5.3986 6.332317 7.1093 8.5114 9.7373 10.4333 11.3453 11.74838 12.0757 12.2635 12.685 14.1533 18.8725 27.36337 33.1812 34.7645 10.2161 9.9264 9.1648 10.5982 8.2737 7.2806 6.2028 14.5523 0.8707 2.364133 0.3802 0.1435 0.0469 0.3119 0.3948 0.1955 0.0696 0.0215 0.0057 0.0013 0.0159 0.0003 0.00525 0.001933333 0.0005 0.0002 
0.0001591146 0.0002 0.0002 0.0002 0.0002 0.0002 0.0002375 0.0003 0.00055 0.001225926 0.002957407 0.01035 0.02220556 0.0001 0.0001444444 0.0001 0.0003 0.0003 0.0015 0.0055 0.008 0.0344 0.1269 0.3992 1.0625 1.5576 2.3767 4.457 7.116 9.9744 9.764 11.02682 10.1796 10.83 11.2296 12.1141 13.3269 14.81657 14.913 16.8621 18.4535 23.5264 26.5192 41.16875 68.2601 43.4861 21.7469 11.4148 11.2153 12.28017 12.303 13.5098 14.6906 15.8047 16.929 17.90098 18.0866 19.3262 20.7982 22.1952 23.1445 23.39018 23.7216 23.6036 22.5882 20.8342 18.7501 20.0121 20.8749 16.6106 13.9587 10.6584 8.4262 9.4676 7.5224 5.7979 5.4377 4.1386 5.682 6.580233 7.3888 8.8134 9.8488 10.496 11.3744 11.72807 12.0122 12.1625 12.5327 13.94 15.9949 17.8238 30.2774 74.5284 28.0776 20.6606 16.83663 16.8971 14.2619 12.191 23.2448 7.8938 8.72985 5.2104 3.2874 1.926 1.0189 0.4773 1.050475 1.2848 0.6663 0.3096 0.1279 0.0468 0.032 0.0152 0.0044 0.0011 0.0003 0.0001 
0.00011875 0.0001585938 0.0002 0.0002 0.0002 0.0002 0.0002 0.00025 0.0003 0.0008 0.002577778 0.005494445 0.02297778 0.06025 0.0001 0.0002333333 0.0001 0.0007 0.0035 0.01455 0.0157 0.0603 0.1983 0.5512 1.2864 2.186117 2.5113 4.1446 5.9139 7.3476 10.5885 10.47483 11.9172 12.6926 12.9833 12.5578 13.6151 14.32972 14.9516 16.3499 18.81377 24.3148 61.2696 36.95128 31.3628 12.0135 8.7165 8.7807 9.1521 9.80815 9.8415 10.796 11.8739 12.861 13.7738 14.09177 14.7769 15.9095 17.039 18.1771 19.4163 19.3922 20.6147 21.3174 21.2716 20.4562 22.9357 18.05993 20.6774 20.3073 18.7063 14.0119 10.1686 8.81332 11.1767 6.626633 5.5496 4.5891 5.396167 6.1393 7.7634 9.172 9.9624 10.6492 11.09605 11.5087 12.0521 12.2278 12.652 13.9933 16.6108 17.1865 51.1461 34.3882 28.2402 23.9726 21.85872 20.3983 17.5962 15.2601 17.3622 13.556 10.79605 10.2959 7.5982 5.379 3.5998 2.2443 2.07186 1.42135 1.3191 0.6334 0.2657 0.0973 0.05641667 0.0311 0.0088 0.0022 0.0005 0.0001 
0.0001 0.0001375 0.000196875 0.0002 0.0002 0.0002 0.0002 0.0002 0.0003 0.0003 0.0013 0.006133333 0.00905 0.05375 0.1781 0.0001 0.0005 0.0026 0.0119 1.625567 0.0467 0.1566 0.4463 1.0714 2.1583 3.5929 3.7215 5.6321 7.604 9.2995 8.8489 9.8056 11.5508 12.9018 13.8943 14.6945 14.4538 13.82513 14.7179 15.0006 17.1891 32.31355 24.8345 27.03004 9.4615 8.271 8.0231 7.8859 7.9939 8.192667 8.3431 8.925 9.4823 9.933 10.04412 10.2771 10.7072 11.3527 12.1714 13.0913 13.72225 14.1274 15.3287 15.9461 16.5161 18.2161 14.52327 12.3094 12.8121 13.291 11.3788 9.9431 9.213866 8.0323 6.2628 5.5351 5.34885 5.1833 5.9458 6.6447 8.1733 9.5184 10.0913 10.8437 11.27487 11.7043 12.1708 12.4112 12.9699 13.8772 23.13938 22.844 84.6891 42.5689 32.2227 26.5118 23.11782 22.7119 19.756 17.7808 17.1115 15.1131 13.4552 12.7071 10.28 7.962 5.8201 3.9377 3.28488 2.4152 1.627317 0.7733 0.3176 0.1131 0.06705 0.035 0.0095 0.0028 0.0011 0.00025 
0.0001125 0.0001 0.000175 0.0003125 0.0002 0.0002 0.0002 0.02812917 0.051225 0.0003 0.0003 0.0023 0.0158 1.881325 0.0917 0.4425 1.6731 2.681 4.1096 8.03765 5.566 6.9408 7.6433 7.6626 6.5291 7.117167 5.3508 5.8741 7.4075 6.4848 7.9826 9.035533 7.9456 9.6149 10.4778 11.5674 12.3943 13.28463 12.8181 12.7203 12.0683 54.205 26.38025 12.74897 8.2218 8.1786 8.0191 7.6546 7.242784 7.1158 6.7096 6.6068 6.6565 6.7482 6.970433 6.6716 6.7243 7.1316 7.7789 8.4688 9.357083 9.0526 10.1942 9.5781 17.5064 6.7409 8.453567 6.4813 6.4412 6.3441 5.9483 5.9574 7.343534 7.1699 6.1857 5.5082 5.7278 5.697225 6.20815 7.1726 8.598 9.7726 10.2723 11.0513 11.46867 11.892 12.325 12.6502 13.3102 14.8465 26.43275 56.0888 35.865 34.3887 26.7161 23.7107 22.51515 21.4016 20.0015 18.0335 16.8941 15.4441 14.34125 13.615 11.5293 9.2891 7.0025 4.8349 3.69965 2.9923 1.6306 0.88815 0.2859 0.0971 0.06011667 0.0287 0.0074 0.0017 0.0003 0.0001 
0.00015625 0.000125 0.0001 0.00025 0.0007 0.0002 0.003966667 0.0235 0.08485 0.147175 0.34526 1.1727 1.1402 2.5464 4.8714 8.0997 11.4303 15.3682 10.4825 18.4048 20.0869 19.8972 18.2214 15.4742 13.06422 13.2644 11.6789 9.0404 7.0686 8.8625 9.10225 8.9488 8.9365 8.8015 9.6596 10.4907 12.36052 11.6377 13.686 16.8184 24.5761 18.0034 19.55582 8.4781 8.2355 7.9513 7.4617 6.7849 6.476167 6.0216 5.3559 4.9734 4.6743 4.4401 5.119167 3.7526 3.1999 3.362 4.0803 5.1709 7.684566 6.2315 7.712 8.4099 4.608 3.5164 5.19845 3.4573 3.6669 4.1762 5.1638 6.2717 6.612683 6.6868 6.023 5.4199 6.0458 5.832 6.79515 8.12735 9.0361 9.9768 10.4788 11.2647 11.66318 12.056 12.4991 12.9183 13.6561 31.7701 31.71008 19.1699 26.1034 25.9861 22.3794 20.7657 20.60832 19.9892 18.7596 17.5432 16.5316 15.3471 14.43913 13.8211 11.9277 9.7156 7.3232 4.9961 3.849683 3.0217 1.5944 0.7271 0.37902 0.165775 0.0679 0.0189 0.0046 0.001 0.0002 0.000175 
0.0002 0.0002 0.00015 0.0001 0.0004 0.0021 0.0096 0.029825 0.0374 0.1323 0.4187 0.7595 1.672925 1.9638 3.4187 5.3588 7.6444 10.0467 13.53192 12.2847 14.1871 15.7153 16.905 17.8063 18.29403 17.6487 15.5113 14.2029 11.8086 10.9518 11.35233 11.383 11.8149 12.3185 13.0121 13.7081 13.354 14.3649 14.6118 16.738 12.5312 8.7442 9.891517 8.3484 8.2348 7.444117 6.679 6.0305 5.55855 5.2496 4.5301 4.0561 3.7382 4.0834 5.175133 5.0191 5.9557 6.7139 7.5623 8.7026 7.366583 8.481 6.7471 5.1876 5.057 5.4293 5.229333 5.5655 5.786 6.0893 6.3926 6.5988 6.9118 6.9915 6.2809 5.5224 6.3157 6.4733 7.08982 7.7027 9.105284 10.1501 10.7108 11.1021 11.4855 12.2296 12.714 13.2324 14.1887 28.20628 48.3933 19.9919 22.8654 22.2539 20.0027 19.91755 19.3361 18.4466 17.669 16.7643 15.9027 15.34673 14.8899 13.5176 11.69 9.4421 6.9677 5.6366 4.5953 2.6578 1.3305 0.5728 0.2122 0.1137 0.034375 0.0105 0.0024 0.0005 0.0001 0.00015 
0.0001555556 0.0002 0.00035 0.0002 0.0011 0.0045 0.01456667 0.0166 0.0557 0.1662 0.4378 1.0088 1.69515 2.975625 4.0575 6.0918 8.4816 11.197 12.0736 13.8901 16.4111 18.7612 20.8212 22.2473 22.78295 23.3233 25.1938 20.2197 17.4115 14.5266 14.61167 13.4413 13.3127 13.7062 14.1451 14.6275 15.33975 15.2951 25.5701 13.2709 9.3725 8.1514 7.800267 7.6236 7.2819 7.056 6.102383 4.9578 5.65888 4.3069 3.935 4.7895 5.7557 6.5005 6.773967 7.2551 7.8363 8.3994 8.9534 7.6422 8.474133 7.9713 8.898 8.5806 7.8273 6.8549 6.260867 6.5526 6.319 6.286 6.4134 7.1766 7.0022 7.7454 7.682 5.9153 6.9779 7.1771 7.717017 8.264 9.502 10.39053 10.9613 11.3273 11.7115 12.433 12.9943 13.6549 35.9102 27.66773 25.3193 22.3142 22.3286 20.9437 19.2314 18.46625 17.79 17.044 16.472 15.8595 15.1733 14.6714 14.2358 12.862 10.9648 8.6228 6.1125 4.8878 3.8248 2.0788 0.9719 0.3898 0.1345 0.09628 0.0402 0.01328333 0.0011 0.0002 0.000225 0.0001 
0.0001 0.0001666667 0.0002 0.0009 0.0036 0.0124 0.02266667 0.0422 0.1283 0.3443 0.7359 1.3455 1.79616 2.4625 4.478143 5.7807 7.5904 10.9006 11.74215 14.1225 16.6877 19.0499 20.6877 21.3145 24.70385 34.3576 23.5232 22.0057 22.0839 19.9687 18.43227 17.3986 15.5321 15.2967 15.8629 17.0541 14.39232 16.9888 17.0159 9.3126 8.2683 7.3436 6.89135 6.5904 6.1727 6.0837 5.8073 5.790625 5.94775 7.7496 6.4314 6.9952 7.7582 7.75155 8.5453 9.2404 9.2246 9.4239 8.8208 8.463717 8.7912 9.2565 10.8722 10.76 8.849 7.611883 6.7073 6.4556 6.3261 6.2848 6.3534 6.8577 7.0679 6.433 7.9918 6.2137 7.732 7.399583 7.8641 8.8209 9.875 10.3545 11.18 11.56224 11.9147 12.6521 13.3433 28.4061 17.7188 23.19795 24.4761 22.5902 28.3972 17.9425 17.6748 17.48287 16.7625 16.1185 15.6257 15.1039 14.4206 13.8796 13.4061 11.8903 9.8275 7.3894 4.9416 3.897167 2.8849 1.4518 0.6263 0.2318 0.074 0.0523 0.0205 0.005 0.001483333 0.0001 0.00015 0.00014375 
0.0001 0.0001 0.0002 0.001 0.004 0.0148 0.03655 0.0455 0.1245 0.3019 0.72 1.5312 2.066283 2.6328 4.0824 6.2393 8.4312 9.4003 12.76707 10.9424 13.9038 18.1126 21.2884 23.3556 24.83873 23.6248 23.821 24.739 25.1428 23.8158 22.29422 21.4426 17.7627 13.7784 25.6555 13.0078 13.38897 9.3806 5.1867 6.4797 6.5725 6.28425 6.1852 5.4539 4.4389 4.8202 5.6207 6.18466 6.7767 6.6051 7.01 7.6336 8.4842 8.81475 9.4654 10.4424 9.4687 9.0569 8.215 8.6871 8.3597 8.9959 10.2207 10.2708 8.3811 8.468017 7.0517 6.7645 6.6313 6.5769 6.6769 7.289567 7.458 7.2789 7.7186 6.1491 6.6676 7.165767 7.9788 9.1319 10.0211 10.5209 10.77878 11.60655 12.0437 12.8446 13.9941 39.0651 13.8004 21.58927 21.9629 29.8486 21.5236 18.2518 17.1756 16.78167 16.2629 15.5955 15.0583 14.4692 13.6434 12.94822 12.3984 10.615 8.3521 5.8957 3.6567 2.8496 1.9625 0.9037 0.3565 0.1209 0.0355 0.02626667 0.0091 0.0021 0.0004 0.0002 0.0001 0.000125 
0.000175 0.0001 0.0006 0.0023 0.0082 0.0267 0.07323334 0.0777 0.201 0.4593 0.9225 1.6269 3.0664 2.7988 4.3486 7.856786 12.8928 12.59246 14.7623 16.4743 18.0824 19.4042 19.682 21.17157 21.9982 24.3817 26.4777 27.6864 27.8509 27.71837 26.54 24.5996 22.5257 42.2892 20.9073 19.29878 14.0971 9.8054 6.3319 5.4946 4.6439 6.185283 4.692 5.509 6.717 6.759 6.531 6.374516 6.1876 5.4753 7.129883 8.1823 8.888 9.239734 9.7474 14.8359 10.7513 8.9647 8.6934 10.46808 9.2425 9.3288 9.6399 9.1262 7.0018 10.22095 12.8172 6.9825 6.7952 6.6754 7.2662 7.951833 8.915 8.2583 8.0171 6.4805 5.151 6.609483 7.6011 9.1862 10.0303 10.5507 11.2878 11.66938 12.48637 12.9848 29.7222 25.0343 18.53 23.93415 33.0474 20.4408 20.4966 18.0546 16.8623 16.40802 15.9519 15.2359 14.584 13.8065 12.7026 11.81532 11.1182 9.0347 6.6485 4.3317 2.455 1.90135 1.1969 0.5 0.1793 0.0555 0.0425 0.015 0.0035 0.0007 0.0001 0.00025 0.0001625 0.0001 
0.0001 0.0004 0.0016 0.0062 0.0218 0.03671667 0.0707 0.204 0.5194 1.1573 2.2509 2.692883 3.864 5.9447 8.3068 10.6964 13.06408 15.2361 17.4757 18.4542 18.537 15.6025 18.6211 22.64642 22.0841 25.3277 27.1976 29.639 31.2866 31.31332 31.6741 31.9154 54.546 33.2495 22.6542 19.98967 19.4708 19.1893 9.2337 8.0342 7.536 6.792333 7.4821 7.5591 7.4109 6.8533 6.5628 6.7836 6.5683 6.8101 7.668 8.428017 9.1147 8.6314 9.7387 10.1356 10.5008 8.9166 18.8163 14.21087 9.4816 8.9368 8.6684 8.0064 8.765 12.3472 17.3089 7.2423 7.0358 7.0682 8.3275 8.286517 9.0674 8.6597 8.7493 6.634 5.0135 6.3402 7.2449 8.9891 9.9803 10.4874 11.2736 11.56552 12.0724 18.7858 20.1662 25.376 26.86738 33.4614 22.8028 20.8316 19.7081 17.7225 17.13567 16.5491 15.6463 14.8586 14.0295 12.9649 12.13873 11.4903 9.539 7.2357 4.8984 2.9023 2.291167 1.485 0.652 0.2457 0.0799 0.0225 0.01808333 0.0056 0.0012 0.0002 0.000275 0.0001 0.000175 0.000134375 
0.0001 0.0003 0.0013 0.0055 0.0214 0.04658333 0.0715 0.2107 0.5604 1.3051 2.6727 3.8744 4.8203 7.7348 11.1988 12.8535 15.8136 17.8849 19.1829 20.7512 19.3197 22.6493 25.2627 25.99145 28.2304 32.0357 29.8862 31.1331 33.5243 42.84565 37.004 69.0983 40.5164 29.5845 23.6252 21.44097 19.1834 13.638 12.9942 8.6985 8.1761 8.181767 8.2239 8.3943 8.3367 7.9702 7.5263 8.115483 7.3256 7.6278 8.1538 8.5613 8.267825 7.990725 5.6682 10.3099 10.8556 10.7971 28.5572 18.6795 10.4742 8.7837 8.9738 9.6577 14.1455 13.71535 14.0448 7.3896 7.0729 7.0452 7.57365 8.2428 7.9002 9.3006 11.3113 7.6651 7.603617 5.8882 7.1425 8.7773 9.8666 10.4061 10.78028 11.1785 12.0153 25.7539 26.41133 35.0862 28.33634 23.7164 23.3135 21.0448 19.1718 17.3948 16.8194 16.2307 15.2923 14.3769 13.2967 11.8702 10.86753 9.9979 7.7524 5.4033 3.316 1.765 1.389433 0.808 0.3177 0.1077 0.0317 0.0081 0.00685 0.0018 0.0004 0.0001 0.00015 0.00015625 0.0001 0.0001375 
0.000175 0.0002 0.001 0.0047 0.0198 0.04765 0.0743 0.2451 0.6915 1.6915 3.5214 4.8839 6.1171 8.7124 11.1096 15.5287 18.1998 19.9354 20.0505 22.93473 28.6831 30.205 30.7214 30.1946 31.029 30.4546 36.1413 38.9471 42.5707 54.4714 81.0142 50.2566 34.3715 26.023 22.5691 19.81773 21.1431 16.2045 12.718 9.2048 8.8093 8.6918 8.8632 8.9534 8.6511 7.3526 12.8651 10.65805 7.8448 7.9528 8.0732 7.954 7.4413 6.11195 7.3258 9.3126 10.8707 15.1085 23.15642 33.3681 11.3796 9.3525 10.3831 12.1555 13.6073 15.2883 12.7396 7.4431 7.0189 6.9354 7.456967 7.8228 6.0761 9.3307 13.0737 12.5792 10.26402 7.8417 6.204 8.3766 9.7171 10.2852 10.64638 11.0509 11.9297 35.7091 16.3766 27.60883 27.11335 24.0417 23.5282 21.0448 18.7568 17.1018 16.50795 15.9175 14.8856 13.7712 12.3705 10.5495 9.421634 8.3324 5.9485 3.7566 2.0647 0.9781 0.77195 0.3982 0.1397 0.0425 0.0113 0.0026 0.002316667 0.0005 0.0001 0.0002 0.0001 0.000125 0.0001203125 0.0001 
0.0001333333 0.0001 0.0009 0.0044 0.02 0.04548333 0.0789 0.2696 0.7896 1.9844 4.2594 5.35735 7.9125 12.7962 16.9245 19.9103 21.727 22.00967 23.8861 24.9178 29.0031 31.6718 32.5348 31.76787 33.3893 35.9721 41.5714 49.229 77.2604 58.31303 55.4548 34.9463 25.1045 20.3503 20.45535 15.9518 16.4338 15.7545 13.2734 10.2456 10.29767 9.2157 8.8626 8.5582 7.5014 9.1572 14.44227 20.1449 8.2416 8.1443 7.9737 7.5445 7.503567 6.6954 4.6429 10.11696 12.5399 22.2357 24.81105 28.8719 12.0463 10.3398 11.8566 13.8194 15.309 16.5774 11.7298 7.5091 7.0267 6.9446 7.45965 7.751 6.4863 8.689 12.3024 16.6363 12.77427 10.9736 6.1572 7.9444 9.5201 10.0259 12.20835 10.9317 23.5814 23.63 33.3634 25.6091 24.99105 23.86213 23.5489 20.8582 18.3771 16.8096 16.191 15.5933 14.4246 13.0543 11.2963 9.1094 7.92065 6.6704 4.3336 2.4534 1.1972 0.5016 0.3969333 0.1808 0.0565 0.0154 0.0037 0.0008 0.00084 0.0001 0.0002333333 0.0001 0.0001333333 0.0001 0.0001125 0.0001082031 
0.0001333333 0.0001 0.0009 0.0044 0.02 0.04548333 0.0789 0.2696 0.7896 1.9844 4.2594 5.35735 7.9125 12.7962 16.9245 19.9103 21.727 22.00967 23.8861 24.9178 29.0031 31.6718 32.5348 31.76787 33.3893 35.9721 41.5714 49.229 77.2604 58.31303 55.4548 34.9463 25.1045 20.3503 20.45535 15.9518 16.4338 15.7545 13.2734 10.2456 10.29767 9.2157 8.8626 8.5582 7.5014 9.1572 14.44227 20.1449 8.2416 8.1443 7.9737 7.5445 7.503567 6.6954 4.6429 10.11696 12.5399 22.2357 24.81105 28.8719 12.0463 10.3398 11.8566 13.8194 15.309 16.5774 11.7298 7.5091 7.0267 6.9446 7.45965 7.751 6.4863 8.689 12.3024 16.6363 12.77427 10.9736 6.1572 7.9444 9.5201 10.0259 12.20835 10.9317 23.5814 23.63 33.3634 25.6091 24.99105 23.86213 23.5489 20.8582 18.3771 16.8096 16.191 15.5933 14.4246 13.0543 11.2963 9.1094 7.92065 6.6704 4.3336 2.4534 1.1972 0.5016 0.3969333 0.1808 0.0565 0.0154 0.0037 0.0008 0.00084 0.0001 0.0002333333 0.0001 0.0001333333 0.0001 0.0001125 0.0001082031 
0.0001 0.0001 0.0007 0.0035 0.0161 0.03216667 0.0638 0.2105 0.5647 1.7501 3.5787 4.64625 6.755 11.2927 17.0117 20.8743 22.9518 24.20817 25.2428 28.336 30.2049 30.40898 30.70995 29.8748 33.0579 31.1784 40.7925 93.2325 49.92042 59.5021 34.076 19.5982 19.5256 22.3561 22.04313 15.4818 16.6006 17.1854 18.6092 14.8141 18.35313 9.4965 8.6429 8.0558 6.5458 14.2865 18.89733 22.8473 10.6566 8.2283 7.7491 6.9756 8.019267 8.4106 6.744 10.1584 16.5502 23.3737 24.73802 25.9084 13.0083 11.4401 12.7439 15.9428 16.94295 18.0706 11.1918 7.6911 7.2127 7.1999 7.727083 8.1042 7.6848 9.2822 12.5324 16.1869 14.11932 12.4279 7.3851 7.9784 9.6535 9.9362 14.64285 21.0202 19.2793 31.9434 24.8669 25.9837 25.27312 24.3297 22.84798 20.5271 17.9865 16.4889 15.85535 15.2349 13.9044 12.2519 10.149 7.6837 6.495266 5.1785 3.0416 1.5356 0.6627 0.5145667 0.2449 0.078 0.0216 0.0053 0.0011 0.001033333 0.0002 0.0001333333 0.0001 0.0001444444 0.0001 0.0001111111 0.0001 0.00010625 
0.0001 0.0004 0.001175 0.0004 0.00555 0.0022 0.012 0.054 0.2043 0.643 1.914075 1.6845 3.6874 6.8924 11.3561 17.1912 17.5201 24.1322 27.3091 28.9818 28.875 28.7584 22.3332 22.00607 10.4633 15.6211 17.3085 14.7407 29.71465 5.5578 6.1841 7.5988 8.8899 39.109 16.68222 19.0098 20.6501 27.0472 35.662 36.8951 17.6218 29.4518 19.877 7.1688 7.5355 16.8522 32.22208 30.0959 12.4493 8.6244 8.4881 7.8948 9.446767 10.5947 9.1955 12.857 17.20826 23.3455 24.3642 24.6929 14.2807 12.7294 14.0938 19.8051 18.63593 17.4424 11.0114 8.0459 7.6162 7.698 8.212816 8.6648 8.7765 10.2719 13.159 15.3287 14.24325 13.1625 10.2811 6.6057 9.434 10.467 19.65452 25.4761 30.8271 24.1353 25.2699 26.0125 25.09465 24.4306 23.3934 20.41158 17.6349 16.81318 16.1633 14.8421 13.3283 11.3949 9.0022 7.726917 6.379 3.9506 2.0984 0.9467 0.3625 0.2750333 0.1185 0.0334 0.0082 0.0018 0.0003 0.00036 0.0001 0.00015 0.0001208333 0.0001 0.0001148148 0.0001 0.0001037037 0.0001 
0.00025 0.00051875 0.0004 0.0004 0.0013 0.0071 0.02273333 0.0901 0.3004333 0.42365 1.16375 2.68595 4.0881 5.487375 7.80685 11.3342 10.2592 8.6369 11.9608 14.3396 15.9961 16.0713 14.311 14.6283 10.49967 8.2948 7.4199 4.4236 4.5837 0.8312 0.8477 0.8964 1.0342 1.8366 11.22752 2.3 3.0412 3.9314 5.2747 7.4877 16.61423 7.5856 3.8051 15.9074 18.135 38.8046 42.63042 70.446 55.3857 17.2105 11.523 10.1044 14.06543 12.7005 12.1128 15.442 18.731 21.94075 24.0874 24.5005 16.1564 14.8965 17.155 19.6729 21.8687 18.686 11.1278 8.5627 8.1922 8.294833 8.3456 9.2644 9.7003 11.1886 13.509 14.20037 14.913 13.4405 10.2768 7.4888 9.6378 14.3533 15.6269 35.4007 26.0285 23.2952 24.7438 25.19085 25.5935 24.2179 23.034 19.8936 18.45757 16.6987 15.7923 14.3964 12.6926 10.5037 7.9028 6.6114 5.2448 2.9954 1.4486 0.5895 0.2024 0.1485333 0.0592 0.0149 0.0033 0.0006 0.0001 0.0001666667 0.0001 0.0001 0.000125 0.0001114583 0.0001 0.0001049383 0.0001 0.0001012346 
0.0003895833 0.0004 0.0004 0.0007 0.002933333 0.01037778 0.03997778 0.1377556 0.2713944 0.6292778 1.42445 1.5876 0.0001 0.004866667 0.0136 0.0536 3.37755 0.2071 0.6497 1.6563 3.4559 5.5184 8.0467 6.5786 7.4119 6.04125 3.6677 1.7761 1.323967 0.1728 0.2098 0.4173 0.8888 2.1729 2.171233 2.9368 3.8998 4.731 6.013 8.2187 8.6391 10.0465 13.2973 30.1825 41.5163 54.2173 46.55112 45.3665 15.3453 8.4901 6.5153 23.0453 20.31057 20.0529 19.4022 20.8958 21.8758 23.8107 22.38507 22.80636 32.1458 18.8103 21.2945 21.96032 23.8203 18.3932 12.1489 9.3745 8.8889 8.937917 9.0281 9.7953 10.4932 11.8565 13.7199 14.11063 14.5726 13.3172 9.6883 8.7426 13.3575 18.35635 27.5966 28.98 26.8153 22.8883 24.4016 24.78017 25.1238 23.8259 22.5045 19.0975 17.2043 16.2587 14.84933 13.8684 11.9811 9.5803 6.863 5.599867 4.2766 2.2663 1.008 0.3751 0.1174 0.08295 0.0312 0.0071 0.0014 0.0002 0.00025 0.0001 0.0001166667 0.0001 0.0001 0.0001125 0.0001059896 0.0001 0.0001016461 0.0001 
0.0004 0.0004 0.0005 0.001344444 0.00467037 0.01776296 0.06270371 0.1497093 0.3461426 0.7750407 0.7283056 0.0001 0.0001 0.0001 0.0009 0.0056 0.04955 0.0279 0.1134 0.3706 0.9701 2.0359 3.22515 3.4477 4.7441 4.7091 2.88704 1.98445 0.724 0.0161 0.0337 0.1232 0.3947 0.9009833 1.1949 2.5862 4.0271 5.1991 6.4723 7.446533 8.2807 10.2154 15.7106 30.608 37.353 39.90977 38.504 31.9683 17.4073 12.5563 14.5586 19.6121 27.9748 27.9855 25.3781 22.5354 21.279 22.8853 22.9359 18.2932 25.2143 22.4636 23.1197 23.72323 24.5037 18.9399 12.6506 9.9879 9.5416 9.546233 9.6311 10.218 11.1731 12.3402 13.7627 14.0264 14.1866 13.1103 10.0496 15.7356 14.2369 21.69687 29.6824 29.4874 27.2846 23.115 24.1726 24.52032 24.6457 23.2375 21.7799 18.4298 16.698 16.03858 15.3402 13.39913 11.1715 8.6121 5.8703 4.67745 3.4417 1.7018 0.7026 0.2422 0.0702 0.04801667 0.0173 0.0037 0.0007 0.0001 0.0001333333 0.0001458333 0.0001 0.0001041667 0.0001 0.0001 0.00010625 0.0001030599 0.0001 0.0001005487 
0.0004 0.0004333333 0.0007481481 0.002171605 0.007925926 0.02837901 0.07672531 0.1861852 0.4236309 0.3699378 0.0001 0.0001 0.0001 0.0003666667 0.0001 0.0004 0.0063 0.0027 0.0147 0.0671 0.221 0.6930333 0.5782 1.1921 2.6752 2.5123 1.77 0.877075 0.25215 0.0009 0.0047 0.0336 0.1734 0.4377167 0.5812 2.0387 3.6965 5.2489 6.7797 7.788733 8.9148 11.6865 20.0717 32.5819 36.183 33.3091 31.685 25.1112 17.018 16.2718 19.2635 22.56627 26.3151 28.2473 27.9441 25.0189 22.6935 23.91582 24.7169 25.1014 34.4715 27.17802 24.427 24.59996 25.1742 19.5775 13.1478 10.5167 10.0786 10.05837 10.1091 10.5673 11.7159 12.7162 13.836 14.1039 14.0806 13.7111 14.5545 14.254 17.8398 22.41167 27.468 28.7455 26.751 23.9124 24.4771 24.42342 24.3011 22.6725 20.8742 17.8086 16.1501 15.45145 14.8003 13.2333 10.55137 7.5819 6.18708 4.9064 2.7067 1.2524 0.4829 0.1555 0.1053333 0.0422 0.0098 0.0019 0.0003 0.0001 0.0001 0.0001111111 0.0001142361 0.0001 0.0001010417 0.0001 0.0001 0.000103125 0.0001015462 0.0001 
0.0004166667 0.0005271605 0.001117695 0.003615226 0.01282551 0.03767675 0.0970965 0.2288471 0.1959908 0.0001 0.0001 0.0001 0.0001888889 0.0001 0.00025 0.0002333333 0.0002 0.001 0.0046 0.0162 0.0732 0.2083333 0.2798 0.7335 1.2145 1.1347 0.7467 0.62532 0.2676 0.07142 0.0007 0.0087 0.057 0.17995 0.2251 0.5387 4.0191 5.3683 6.9109 8.423317 9.374 13.5525 25.5477 30.7415 30.0218 28.84442 26.1078 21.2861 18.4674 19.6056 21.3248 23.55857 25.9608 28.2909 29.252 27.2206 24.8197 25.8543 27.0499 28.5516 34.0777 24.5086 25.14305 25.1879 25.7752 20.299 13.5728 10.9559 10.5023 10.475 10.4875 10.8555 12.166 13.0664 14.1026 14.65987 14.6549 16.1352 13.4131 16.1721 19.5543 22.57947 25.6886 27.4703 25.8959 24.3441 24.9813 24.27093 23.9627 22.0759 19.8616 17.1671 16.33282 15.5575 14.1626 12.4688 10.2406 8.36785 5.19884 3.9647 2.0533 0.8892 0.321 0.0971 0.06518333 0.0248 0.0054 0.001 0.0002 0.000175 0.0001 0.0001 0.0001037037 0.000104485 0.0001 0.0001002604 0.0001 0.0001 0.0001015625 0.0001007772 
0.0004719136 0.0006871742 0.001753361 0.005852812 0.01803916 0.04919959 0.1212068 0.1044269 0.0001 0.0001 0.0001 0.0001296296 0.0001 0.000175 0.0001958333 0.0002 0.0004 0.0003 0.0015 0.0066 0.0256 0.08073334 0.0722 0.2791 0.4332 0.4109 0.2591 0.2415667 0.0832 0.07452 0.00264 0.0013 0.0096 0.0734 0.0334 0.1316 2.584 5.3445 7.3926 9.317634 11.1679 16.0997 27.5217 28.7452 25.9333 25.01125 23.1356 20.4851 20.2054 21.3828 22.3899 24.3215 26.0973 28.6456 30.1209 28.9831 26.9644 27.80438 28.8814 30.388 34.096 26.2614 25.3752 25.90275 23.87752 20.8528 14.0756 11.3491 11.10133 10.8613 10.8112 11.1132 12.5798 13.5163 14.33053 14.7651 16.52 15.0776 14.1733 17.3222 18.64 20.3205 24.6056 26.4563 25.4935 24.3232 24.4135 24.7218 23.1816 21.6032 18.8616 16.4368 15.61742 14.8768 13.3967 11.546 9.1674 6.4815 4.7072 3.0597 1.4818 0.5995 0.2027 0.0576 0.0388 0.0139 0.0029 0.0005 0.0001 0.00015 0.00013125 0.0001 0.0001 0.0001012346 0.0001014299 0.0001 0.0001000651 0.0001 0.0001 0.0001007813 
0.0005795439 0.0009708162 0.002764449 0.008548445 0.02436385 0.06281518 0.05500665 0.0001 0.0001 0.0001 0.0001098765 0.0001 0.0001375 0.0001677083 0.0002 0.000225 0.0002 0.0001 0.0003 0.0018 0.0076 0.02318333 0.026 0.0755 0.1185 0.1162 0.0718 0.07586667 0.021 0.02178 0.0001 0.0024 0.017 0.05206667 0.0983 0.4779 2.0148 4.7884 7.627 10.65795 13.4334 19.8514 26.1367 25.1706 23.2536 22.74573 21.6154 20.5975 21.3952 22.6758 23.10103 23.5306 26.6256 29.2255 30.7618 30.4382 29.6589 28.8426 30.2683 31.5337 34.2602 27.7324 26.93318 26.1333 26.3273 20.70155 14.6883 11.7422 11.47397 11.1972 11.1196 11.3912 13.0516 14.2702 15.03075 16.2626 15.7742 15.4133 14.8306 17.9195 19.12485 20.5514 23.8682 25.6512 25.1812 24.0772 24.04442 24.0334 22.2283 20.922 17.8212 15.6108 14.7716 14.0555 12.4518 10.4282 7.9418 5.3229 4.24744 1.9428 1.0037 0.3785 0.1198 0.0321 0.02183333 0.0073 0.0014 0.0002 0.000225 0.0001 0.000125 0.0001140625 0.0001 0.0001 0.0001004115 0.0001004603 0.0001 0.0001000163 0.0001 0.0001 
0.0007751801 0.00143827 0.00409457 0.01189225 0.03190916 0.02847714 0.0001 0.0001 0.0001 0.0001032922 0.0001 0.00011875 0.0001513021 0.0002 0.00016875 0.00015 0.0001 0.0001666667 0.0001 0.0004 0.0017 0.007 0.006 0.0178 0.0294 0.03 0.0158 0.0194 0.0043 0.004466667 0.0003 0.00395 0.011725 0.024 0.1301 0.5537 1.8184 4.2545 5.7687 7.0982 17.2286 18.1302 26.1758 22.8173 22.48878 21.6911 20.8454 20.983 22.4475 23.8982 24.30442 24.7289 27.498 30.152 31.585 31.9457 31.2999 30.7794 31.7494 32.7794 34.8528 29.2182 28.0071 26.8786 26.8413 21.424 16.26082 12.146 11.70698 11.548 11.4827 11.816 13.7835 15.4929 15.5233 15.8774 15.8419 15.3017 15.5602 18.1676 19.22047 20.4679 23.1635 25.0102 24.7296 23.7378 23.62438 23.3731 21.5003 19.7704 16.6291 14.6198 13.7453 13.0299 11.2569 9.0796 6.5776 4.1471 3.2453 2.226 0.99455 0.2213 0.0655 0.0165 0.01148333 0.0036 0.0007 0.0001 0.00015 0.00014375 0.0001 0.0001125 0.0001066406 0.0001 0.0001 0.0001001372 0.0001001494 0.0001 0.0001000041 0.0001 
0.001106725 0.002102673 0.005808363 0.01596533 0.01449571 0.0001 0.0001 0.0001 0.0001010974 0.0001 0.000109375 0.000142513 0.0002 0.0001484375 0.000125 0.0001 0.0001222222 0.0001 0.00025 0.0007333333 0.0007333333 0.0001 0.0006 0.01078 0.0001 0.0006 0.008283333 0.0028 0.0007 0.0009142857 0.0004 0.0035 0.0142 0.07765 0.1311 0.531 1.6528 3.8937 4.811217 6.9504 10.5998 21.9159 27.6036 21.2549 21.12293 20.7452 20.5588 21.5204 23.438 25.0634 25.4405 25.9296 28.565 30.9152 32.5605 33.2895 32.7963 32.504 33.0943 33.8544 35.3887 30.5496 28.99095 27.5305 27.1543 22.132 15.4324 14.13813 12.03965 11.9015 11.8214 12.6117 14.661 15.345 15.6337 15.8917 15.7836 15.2841 15.908 18.0793 18.99148 20.1371 22.4561 24.3467 24.2592 23.3311 23.21187 23.1937 19.8431 18.6106 15.3274 13.4178 12.4758 11.738 9.777 7.5108 5.1336 3.0233 2.313233 1.5072 0.6306 0.2388833 0.033 0.02524 0.0078 0.0016 0.0003 0.0003 0.0001 0.000125 0.0001171875 0.0001 0.00010625 0.0001032227 0.0001 0.0001 0.0001000457 0.0001000488 0.0001 0.0001000014 
0.001604699 0.00300592 0.007958787 0.00729388 0.0001 0.0001 0.0001 0.0001003658 0.0001 0.0001046875 0.000137972 0.0002 0.0001402344 0.0001125 0.0001 0.0001074074 0.0001 0.000175 0.0003611111 0.0004541667 0.0001 0.00035 0.00035 0.00035 0.0002666667 0.0001 0.000975 0.0004 0.0001 0.0001 0.0005 0.0039 0.01064 0.0254 0.1841167 0.3138 0.8781 3.1062 3.500283 3.5643 8.9122 26.4109 26.1464 20.1029 20.1886 20.1262 20.5361 22.1078 24.3567 26.0888 26.3996 26.9341 29.4673 31.2971 33.2404 34.3467 34.01762 33.9125 34.2461 34.7632 35.8084 31.6417 29.79378 28.1271 27.2335 22.7934 16.411 12.5631 12.43188 12.11722 12.4758 13.3877 14.6052 15.2618 15.53372 15.9334 15.5459 15.1718 15.7962 17.6248 18.40683 19.4722 21.7155 23.6033 23.6513 23.16095 22.8209 22.8146 18.2624 17.0747 13.8127 12.76177 11.9238 10.1255 8.0574 5.8289 3.7253 2.943517 2.0365 0.9393 0.364 0.1189 0.056375 0.01485 0.0034 0.0007 0.0001 0.0002 0.000175 0.0001 0.0001125 0.0001074219 0.0001 0.000103125 0.0001015869 0.0001 0.0001 0.0001000152 0.000100016 0.0001 
0.00230531 0.004189802 0.003691718 0.0001 0.0001 0.0001 0.0001001219 0.0001 0.0001023438 0.0001356649 0.0002 0.0001366211 0.00010625 0.0001 0.0001024691 0.0001 0.0001375 0.000212037 0.0002725695 0.0001 0.000225 0.0002666667 0.00035 0.0002666667 0.0001 0.0001 0.00025 0.00025 0.0002 0.000225 0.0002 0.0007 0.00905 0.0197 0.0837 0.3390333 0.5299 1.2718 2.0865 2.2153 11.0023 26.5641 22.7309 19.2264 19.45675 19.676 20.6322 22.5689 25.0953 26.8088 27.04058 27.5729 30.0959 31.3293 33.7536 35.0772 34.85062 34.9758 35.1259 35.424 36.0101 32.3694 30.27608 28.5444 27.041 22.9785 17.2885 12.9927 12.82564 12.2702 12.83125 13.0048 14.3331 14.754 15.0847 15.6857 15.3741 14.7501 15.1509 15.7285 16.6931 18.4345 20.7886 22.7563 22.8007 22.402 22.1025 21.9992 16.7774 15.208 11.9622 10.9689 10.1267 8.2423 6.2098 4.1994 2.4869 1.953883 1.2555 0.5346 0.1919 0.0584 0.0152 0.0066 0.00145 0.0003 0.0003666667 0.0001 0.00015 0.00013125 0.0001 0.00010625 0.000103418 0.0001 0.0001015625 0.0001007874 0.0001 0.0001 0.0001000051 0.0001000053 
0.003247556 0.002077366 0.0001 0.0001 0.0001 0.0001000406 0.0001 0.0001011719 0.0001345022 0.0002 0.0001349365 0.000103125 0.0001 0.000100823 0.0001 0.00011875 0.0001498457 0.0001805266 0.0001 0.0001625 0.0001972222 0.0002805555 0.0002458333 0.0001 0.0001 0.00015 0.0002 0.0002333333 0.00021875 0.0002 0.000325 0.0001 0.0046 0.0045 0.0533 0.1754 0.4646333 0.5738 1.34012 1.7876 13.8168 22.3459 19.9314 19.23612 18.4005 19.2085 20.5821 22.8281 25.4946 26.02418 26.9865 27.8524 29.9929 31.4351 33.8881 34.46395 35.3342 35.4573 35.4787 35.5511 35.7161 33.94543 32.4695 28.5044 26.3619 22.4173 17.685 15.5227 13.5074 12.7948 13.0542 13.73503 14.3463 15.09792 14.8929 15.3168 14.8856 13.9372 13.9495 14.3516 15.1565 17.0075 19.6092 21.573 21.768 21.35108 21.2686 20.0845 15.3792 13.0497 9.9076 8.975117 8.0804 6.2426 4.4165 2.7756 1.5151 1.192633 0.704 0.2766 0.0921 0.0261 0.0064 0.0052 0.0014 0.0007333333 0.0003 0.0002555556 0.0001 0.000125 0.0001140625 0.0001 0.000103125 0.0001016357 0.0001 0.0001007813 0.0001003921 0.0001 0.0001 0.0001000017 
0.001381231 0.0001 0.0001 0.0001 0.0001000135 0.0001 0.0001005859 0.0001339185 0.0002 0.0001341248 0.0001015625 0.0001 0.0001002744 0.0001 0.000109375 0.0001228652 0.0001372806 0.0001 0.00013125 0.0001532407 0.0002134259 0.0002059028 0.0001 0.0001 0.0001166667 0.00015 0.0001944444 0.0002130208 0.0002 0.00025625 0.0002 0.0003 0.001383333 0.0023 0.0117 0.0814 0.1555 0.24975 0.858475 0.8521 15.2954 18.2561 17.6017 17.54248 17.5258 18.4173 20.1715 22.6568 25.306 25.6083 26.4539 27.5771 29.3584 31.1393 33.6392 34.23685 35.0914 35.3563 35.2974 35.2068 35.0327 33.43445 32.0748 27.9973 25.3226 21.6106 17.4764 16.17132 14.1862 13.6785 12.6024 13.0122 15.7922 15.67708 16.1383 16.4781 14.841 13.0179 12.172 12.75402 12.9876 15.1232 18.044 20.0821 20.3966 19.88502 19.7701 17.9801 13.469 10.6048 7.7874 6.919617 5.9864 4.347 2.8678 1.6669 0.8366 0.6383833 0.3577 0.1299 0.0402 0.0107 0.0025 0.001983333 0.0005 0.0006666667 0.0005 0.0003 0.0002185185 0.0001 0.0001125 0.0001066406 0.0001 0.0001015625 0.0001007996 0.0001 0.0001003906 0.0001001957 0.0001 0.0001 
0.0001 0.0001 0.0001 0.0001000045 0.0001 0.000100293 0.0001336261 0.0002 0.0001337265 0.0001007813 0.0001 0.0001000914 0.0001 0.0001046875 0.0001107467 0.0001173802 0.0001 0.000115625 0.0001281636 0.0001659722 0.0001681424 0.0001 0.0001 0.0001055556 0.0001222222 0.0001537037 0.0001893663 0.0002 0.0002515625 0.00025 0.0003 0.0001666667 0.0001 0.001 0.0049 0.0192 0.0493 0.10256 0.2204 4.810117 11.8701 16.9849 15.4252 15.77398 16.3703 17.1497 19.195 21.793 24.2399 24.36742 25.1689 26.4735 28.5943 30.6077 33.0421 33.60163 34.4261 34.7858 34.6959 34.4928 34.0445 32.53743 31.2691 27.1053 24.1007 20.9344 18.1538 16.43435 16.0191 13.1663 13.4693 14.5177 14.59598 16.3197 17.2157 18.1882 16.178 13.4993 11.3537 10.95967 10.9048 12.7767 16.1104 18.1917 18.5674 17.9232 17.5394 15.6042 11.2338 8.1206 5.6839 4.977117 4.072 2.7557 1.6856 1.0715 0.2726 0.3032 0.1443 0.0528 0.0157 0.004 0.001 0.00086 0.0001 0.0003 0.0003555556 0.0003388889 0.0003 0.0002061728 0.0001 0.00010625 0.0001032227 0.0001 0.0001007813 0.0001003952 0.0001 0.0001001953 0.0001000977 0.0001 
0.0001 0.0001 0.0001000015 0.0001 0.0001001465 0.0001334798 0.0002 0.0001335293 0.0001003906 0.0001 0.0001000305 0.0001 0.0001023438 0.0001051447 0.0001082036 0.0001 0.0001078125 0.0001145962 0.0001365869 0.0001405695 0.0001 0.0001 0.0001018519 0.0001092593 0.0001271605 0.0001663231 0.0002 0.0002566406 0.000275 0.0003 0.0001666667 0.0001 0.0001 0.0003 0.0015 0.0042 0.014 0.0637 0.0736 0.5491 8.7913 16.5278 13.0902 13.72643 14.6307 15.5816 17.4625 20.0248 22.0179 22.19503 23.0179 24.7379 27.4291 29.7525 32.0477 32.56676 33.3633 33.7726 33.6325 33.3758 32.7161 31.36473 30.0874 26.0357 23.6369 21.9054 19.8257 15.30137 12.9449 11.0754 11.6181 13.5252 16.1326 15.10857 15.69398 15.98 14.095 11.4678 9.262183 8.6941 9.6458 11.4571 13.8097 15.859 16.14845 16.197 15.0687 12.8572 8.7321 5.7922 4.9272 3.8117 2.5213 1.5792 0.8923 0.492 0.3770167 0.1502 0.0578 0.0196 0.0055 0.0015 0.0012 0.0002 0.0001333333 0.0001 0.0002 0.0002185185 0.0002518519 0.0003 0.0002020576 0.0001 0.000103125 0.0001015869 0.0001 0.0001003906 0.0001001965 0.0001 0.0001000977 0.0001000489 
0.0001 0.0001000005 0.0001 0.0001000732 0.0001334066 0.0002 0.0001334312 0.0001001953 0.0001 0.0001000102 0.0001 0.0001011719 0.0001024962 0.000103923 0.0001 0.0001039062 0.0001074696 0.0001196652 0.0001229382 0.0001 0.0001 0.0001006173 0.0001037037 0.0001127572 0.0001506857 0.0002 0.0002610352 0.0002875 0.0003 0.0001666667 0.0001 0.0001 0.0001666667 0.0001 0.0004 0.0013 0.0032 0.0198 0.0217 0.1197 6.6962 10.62413 10.5042 12.0401 12.338 13.5921 15.0021 17.265 18.6573 19.12567 20.0683 22.4671 25.8032 28.4162 30.6224 31.08648 31.899 32.3281 32.1311 31.9295 31.1884 30.25468 28.8829 26.0009 24.9188 23.8845 15.675 12.46602 9.1897 7.0211 7.9618 9.8711 11.31768 12.6818 14.4042 12.42618 10.5705 6.8216 5.65805 3.7366 4.77 10.0677 12.8456 14.2217 14.71708 13.8539 12.4024 9.947 6.2314 3.825 3.22285 2.3298 1.4137 0.8152 0.425 0.2082 0.1708667 0.0676 0.0221 0.0075 0.0011 0.0004 0.00046 0.0001 0.00015 0.0001208333 0.0001 0.00015 0.0001561728 0.0002082562 0.0003 0.0002006859 0.0001 0.0001015625 0.0001007874 0.0001 0.0001001953 0.0001000979 0.0001 0.0001000488 
0.0001000002 0.0001 0.0001000366 0.0001333699 0.0002 0.0001333822 0.0001000977 0.0001 0.0001000034 0.0001 0.0001005859 0.0001012227 0.0001018978 0.0001 0.0001019531 0.0001037919 0.000110347 0.0001125182 0.0001 0.0001 0.0001002058 0.0001014403 0.0001056927 0.0001417867 0.0002 0.0002636963 0.00029375 0.0003 0.0001666667 0.0001 0.0001 0.0001222222 0.0001 0.0002 0.0001 0.0004 0.0013 0.00545 0.005 0.0269 3.4674 13.459 10.36287 10.06707 9.6374 11.1411 12.0575 13.7204 14.05467 14.5469 16.4457 19.6639 23.5011 26.4258 27.27893 28.6406 29.9459 30.4004 30.1734 30.1499 30.19808 29.9587 28.6946 27.022 26.8714 20.0655 15.60778 11.6451 5.5157 2.8954 3.4818 6.5103 7.772467 9.1851 8.5457 10.9617 7.429783 2.2665 2.85612 0.9617 1.6353 4.4849 11.1447 14.0253 12.90003 14.1456 11.5527 8.4209 4.3923 2.2872 1.95225 1.2912 0.7158 0.3791 0.1825 0.0808 0.07033333 0.0264 0.0087 0.0015 0.0003 0.0001 0.0002 0.0001 0.0001 0.000125 0.0001114583 0.0001 0.000125 0.0001270576 0.0001869534 0.0003 0.0002002286 0.0001 0.0001007813 0.0001003921 0.0001 0.0001000977 0.0001000489 0.0001 
0.0001 0.0001000183 0.0001333516 0.0002 0.0001333578 0.0001000488 0.0001 0.0001000011 0.0001 0.000100293 0.0001006029 0.0001009266 0.0001 0.0001009766 0.000101915 0.000105364 0.0001066643 0.0001 0.0001 0.0001000686 0.0001005487 0.0001024463 0.0001372299 0.0002 0.0002651428 0.000296875 0.0003 0.0001666667 0.0001 0.0001 0.0001074074 0.0001 0.0001333333 0.0001 0.0002 0.0001 0.00046 0.0004 0.0011 0.0064 1.4297 9.6996 8.4361 7.7887 8.235 8.3642 8.99 9.8763 10.20102 10.2621 12.5364 16.2534 20.4002 23.624 24.57775 25.9446 27.3454 27.8951 27.8112 28.63 29.10682 29.332 29.2277 28.5165 23.3539 15.2204 11.38248 7.1562 2.0586 0.5295 0.7168 3.0959 4.40145 5.2906 2.7311 6.4096 7.5488 3.348775 1.04025 0.4942 0.3784 0.6195 5.421 9.3608 9.408967 11.7929 9.2935 6.0173 3.2566 1.3612 1.038833 0.6191 0.3266 0.1592 0.0709 0.0288 0.02645 0.0102 0.0018 0.0005 0.0001 0.0001666667 0.0001 0.000125 0.0001 0.0001 0.0001125 0.0001059896 0.0001 0.0001125 0.0001131859 0.0001765973 0.0003 0.0002000762 0.0001 0.0001003906 0.0001001957 0.0001 0.0001000488 0.0001000244 
0.0001000092 0.0001333425 0.0002 0.0001333455 0.0001000244 0.0001 0.0001000004 0.0001 0.0001001465 0.0001002986 0.0001004556 0.0001 0.0001004883 0.0001009639 0.0001027519 0.0001034858 0.0001 0.0001 0.0001000229 0.0001002058 0.0001010212 0.0001350562 0.0002 0.0002658951 0.0002984375 0.0003 0.0001666667 0.0001 0.0001 0.0001024691 0.0001 0.0001111111 0.0001 0.0001333333 0.0001 0.0001 0.0002 0.0001 0.0002 0.0015 0.5347 5.6312 5.845683 5.602 6.8766 6.74515 6.1568 6.345 6.6913 6.4554 8.7178 12.4183 16.6049 20.233 21.81088 22.5985 23.9876 24.7885 25.6363 27.4479 28.76242 29.1224 29.8522 24.3382 16.5815 8.4449 7.8842 5.7628 1.5304 0.5476 0.5762 0.4785 1.8704 1.8483 0.7261 3.0741 3.1412 0.4386 0.4149 0.424 0.5 1.1923 1.7683 2.9256 4.874417 4.2036 3.0714 0.8703 0.3717 0.3935 0.50045 0.2808 0.1351 0.0606 0.025 0.0103 0.009066666 0.0022 0.0006 0.0001 0.0002333333 0.0001 0.0001222222 0.0001 0.00010625 0.0001 0.0001 0.00010625 0.0001030599 0.0001 0.00010625 0.0001064786 0.0001715502 0.0003 0.0002000254 0.0001 0.0001001953 0.0001000977 0.0001 0.0001000244 
0.0001444505 0.0002 0.0001333394 0.0001000122 0.0001 0.0001000001 0.0001 0.0001000732 0.0001001484 0.0001002252 0.0001 0.0001002441 0.000100484 0.0001014013 0.0001018004 0.0001 0.0001 0.0001000076 0.0001000762 0.0001004166 0.0001340708 0.0002 0.0002662785 0.0002992188 0.0003 0.0001666667 0.0001 0.0001 0.000100823 0.0001 0.0001037037 0.0001 0.0001111111 0.0001 0.0001 0.000125 0.0001 0.00015 0.00044 0.0003 0.1795 2.5691 3.457083 3.7835 4.4321 5.6512 4.422129 3.6332 3.950367 3.5758 5.4418 9.1343 14.07 18.1941 18.77375 20.2711 21.1054 21.8549 23.652 26.9241 26.76847 31.1181 24.5811 16.6438 7.2253 7.5458 4.920967 3.1751 0.2616 0.411 0.4518 0.2575 0.5479667 0.2516 0.1649 0.4572 0.4499 0.4034 0.3273 0.3234 0.43915 0.2907 0.2324 0.9836 0.4255 0.5381 0.3218 0.4923 0.3012 0.2648167 0.2311 0.117 0.0509 0.021 0.0088 0.008166667 0.0023 0.0006 0.0002 0.0003 0.0001 0.0001444444 0.0001 0.0001074074 0.0001 0.0001015625 0.0001 0.0001 0.000103125 0.0001015462 0.0001 0.000103125 0.0001032012 0.0001690785 0.0003 0.0002000085 0.0001 0.0001000977 0.0001000489 0.0001 
0.0002 0.0001333364 0.0001000061 0.0001 0.0001 0.0001 0.0001000366 0.0001000739 0.0001001117 0.0001 0.0001001221 0.0001002427 0.0001007098 0.0001009214 0.0001 0.0001 0.0001000025 0.0001000279 0.0001001668 0.0001336409 0.0002 0.000266472 0.0002996094 0.0003 0.0001666667 0.0001 0.0001 0.0001002744 0.0001 0.0001012346 0.0001 0.0001037037 0.0001 0.0001 0.00010625 0.0001 0.000125 0.000198 0.0002 0.0001 0.0541 0.9964 1.814883 2.1603 2.5281 3.1423 4.0974 1.929 2.31718 1.7638 3.5495 6.5098 10.1482 13.9265 14.2118 17.4193 18.9098 19.5138 21.752 21.51095 24.6949 21.3034 15.4496 7.6033 3.9438 4.391067 4.1125 0.4847 0.2548 0.2259 0.2329 0.2205167 0.1832 0.2687 0.2094 0.2952 0.2822 0.3094833 0.3198 0.1513 0.1772 0.1909333 0.2334 0.29596 0.3164 0.3329 0.2258 0.3145 0.204 0.1592 0.0874 0.0432 0.0175 0.0073 0.002 0.0024 0.0006 0.0002 0.0003333333 0.0002 0.0002 0.0001 0.0001148148 0.0001 0.0001024691 0.0001 0.0001003906 0.0001 0.0001 0.0001015625 0.0001007772 0.0001 0.0001015625 0.0001015879 0.0001678619 0.0003 0.0002000028 0.0001 0.0001000488 0.0001000244 
0.0001333349 0.0001000031 0.0001 0.0001 0.0001 0.0001000183 0.0001000368 0.0001000555 0.0001 0.000100061 0.0001001216 0.0001003582 0.0001004685 0.0001 0.0001 0.0001000008 0.0001000102 0.0001000658 0.0001334589 0.0002 0.0002665692 0.0002998047 0.0003 0.0001666667 0.0001 0.0001 0.0001000914 0.0001 0.0001004115 0.0001 0.0001012346 0.0001 0.0001 0.0001015625 0.0001 0.0001125 0.0001346 0.00015 0.0001 0.018125 0.0147 0.342 0.8449166 1.038 1.2758 1.612 2.2759 2.06578 1.32325 0.6841 0.8821 2.0262 3.6925 5.899483 6.0657 9.3941 12.9675 16.3994 17.473 14.97083 14.5697 10.3386 5.7816 2.4407 2.8963 2.0649 0.6227 0.3703 0.2027 0.0976 0.0956 0.1151333 0.1021 0.1935 0.1833 0.2554 0.2062 0.20525 0.1954 0.0571 0.0617 0.1502 0.1577 0.251225 0.2721 0.2511 0.1745 0.1692 0.103 0.07903333 0.0285 0.0153 0.0048 0.0017 0.0005 0.00068 0.0002 0.0003333333 0.0002 0.0002444444 0.0002 0.0001666667 0.0001 0.0001049383 0.0001 0.000100823 0.0001 0.0001000977 0.0001 0.0001 0.0001007813 0.0001003896 0.0001 0.0001007813 0.0001007897 0.0001672606 0.0003 0.0002000009 0.0001 0.0001000244 
0.0001000015 0.0001 0.0001 0.0001 0.0001000092 0.0001000184 0.0001000277 0.0001 0.0001000305 0.0001000609 0.0001001803 0.0001002371 0.0001 0.0001 0.0001000003 0.0001000037 0.0001000256 0.0001333837 0.0002 0.0002666179 0.0002999023 0.0003 0.0001666667 0.0001 0.0001 0.0001000305 0.0001 0.0001001372 0.0001 0.0001004115 0.0001 0.0001 0.0001003906 0.0001 0.00010625 0.00011442 0.000125 0.0001 0.00653125 0.006366667 0.0036 0.08221667 0.104 0.4288 0.5686 0.7454 1.1105 1.03074 0.9161 0.5799667 0.3879 0.2913 0.5058 2.0238 1.0582 3.582 5.7771 7.7115 6.4911 7.45665 4.8443 2.5309 0.9429 0.4967 0.3961 0.83165 0.418 0.3344 0.1216 0.0349 0.0322 0.04996667 0.0448 0.1016 0.1163 0.1766 0.133 0.1230333 0.0949 0.0181 0.0178 0.0642 0.183 0.187425 0.2179 0.1587 0.1068 0.0768 0.04 0.0334 0.0113 0.0042 0.0012 0.0004 0.0001 0.0002666667 0.0002 0.0002 0.0002444444 0.0002 0.0002148148 0.0002 0.0001555556 0.0001 0.0001016461 0.0001 0.0001002744 0.0001 0.0001000244 0.0001 0.0001 0.0001003906 0.0001001951 0.0001 0.0001003906 0.0001003934 0.0001669623 0.0003 0.0002000003 0.0001 
0.0001 0.0001 0.0001 0.0001000046 0.0001000092 0.0001000138 0.0001 0.0001000153 0.0001000305 0.0001000906 0.0001001196 0.0001 0.0001 0.0001000001 0.0001000013 0.0001000098 0.0001333532 0.0002 0.0002666423 0.0002999512 0.0003 0.0001666667 0.0001 0.0001 0.0001000102 0.0001 0.0001000457 0.0001 0.0001001372 0.0001 0.0001 0.0001000977 0.0001 0.000103125 0.000106634 0.0001125 0.0001 0.002543924 0.0028 0.001533333 0.0008 0.02395 0.0282 0.1401 0.2391 0.3289 0.49 0.5333667 0.3612 0.2484 0.2295 0.2152 0.3421 0.4811333 0.4785 0.4456 0.9172 1.3586 0.8856 2.231633 0.4762 0.2985 0.1663 0.452 0.2675 0.33955 0.3893 0.2486 0.0577 0.0107 0.0091 0.01818333 0.016 0.0423 0.0622 0.0925 0.0706 0.06345 0.0381 0.0049 0.0043 0.0236 0.1049 0.12608 0.1897 0.1158 0.0522 0.0301 0.0137 0.01238333 0.0039 0.0011 0.0003 0.0001 0.0002 0.0001 0.0001916667 0.0002 0.0002 0.0002148148 0.0002 0.0002049383 0.0002 0.0001518519 0.0001 0.0001005487 0.0001 0.0001000914 0.0001 0.0001000061 0.0001 0.0001 0.0001001953 0.0001000976 0.0001 0.0001001953 0.0001001963 0.0001668141 0.0003 0.0002000001 
0.0001 0.0001 0.0001000023 0.0001000046 0.0001000069 0.0001 0.0001000076 0.0001000152 0.0001000454 0.0001000601 0.0001 0.0001 0.0001 0.0001000005 0.0001000038 0.0001333411 0.0002 0.0002666545 0.0002999756 0.0003 0.0001666667 0.0001 0.0001 0.0001000034 0.0001 0.0001000152 0.0001 0.0001000457 0.0001 0.0001 0.0001000244 0.0001 0.0001015625 0.0001032018 0.00010625 0.0001 0.001093388 0.001298148 0.0007444444 0.0005 0.0002 0.00752 0.0069 0.0405 0.0813 0.1342 0.1933 0.2140333 0.1291 0.0803 0.1539 0.17995 0.2027 0.29506 0.2995 0.2806 0.4053 0.2509 0.4676 0.4237833 0.225 0.1639 0.1817 0.4283 0.2503 0.2732167 0.3161 0.149 0.0227 0.0029 0.0022 0.005633333 0.0048 0.0159 0.0253 0.0404 0.0309 0.02805 0.0132 0.0012 0.0009 0.0073 0.0469 0.08555 0.1059 0.0815 0.03835 0.0103 0.01192 0.0044 0.001 0.0002 0.0001 0.0001666667 0.0001 0.0001333333 0.0001 0.0001729167 0.0002 0.0002 0.0002049383 0.0002 0.0002016461 0.0002 0.0001506173 0.0001 0.0001001829 0.0001 0.0001000305 0.0001 0.0001000015 0.0001 0.0001 0.0001000977 0.0001000488 0.0001 0.0001000977 0.000100098 0.0001667402 0.0003 
0.0001 0.0001000011 0.0001000023 0.0001000034 0.0001 0.0001000038 0.0001000076 0.0001000228 0.0001000302 0.0001 0.0001 0.0001 0.0001000002 0.0001000014 0.0001333363 0.0002 0.0002666606 0.0002999878 0.0003 0.0001666667 0.0001 0.0001 0.0001000011 0.0001 0.0001000051 0.0001 0.0001000152 0.0001 0.0001 0.0001000061 0.0001 0.0001007813 0.0001015779 0.000103125 0.0001 0.0005409397 0.0006682099 0.0004314815 0.00035 0.0002 0.0002 0.002225 0.0015 0.0104 0.0245 0.0479 0.0685 0.0779 0.0421 0.0232 0.0543 0.1115 0.112425 0.186725 0.1525 0.181 0.2648 0.2412 0.2699667 0.3103 0.178 0.1111 0.158 0.3385 0.2630833 0.2048 0.2113 0.0737 0.0077 0.0007 0.001083333 0.0005 0.0012 0.005 0.0087 0.015 0.01773333 0.0116 0.0039 0.0003 0.0002 0.002 0.01325 0.0173 0.0486 0.036 0.02 0.010025 0.00388 0.0011 0.0003 0.0001 0.0001333333 0.0001 0.0001222222 0.0001 0.0001111111 0.0001 0.0001682292 0.0002 0.0002 0.0002016461 0.0002 0.0002005487 0.0002 0.0001502058 0.0001 0.000100061 0.0001 0.0001000102 0.0001 0.0001000004 0.0001 0.0001 0.0001000488 0.0001000244 0.0001 0.0001000488 0.0001000489 0.0001667034 
0.0001000006 0.0001000011 0.0001000017 0.0001 0.0001000019 0.0001000038 0.0001000114 0.0001000151 0.0001 0.0001 0.0001 0.0001000001 0.0001000005 0.0001333345 0.0002 0.0002666636 0.0002999939 0.0003 0.0001666667 0.0001 0.0001 0.0001000004 0.0001 0.0001000017 0.0001 0.0001000051 0.0001 0.0001 0.0001000015 0.0001 0.0001003906 0.0001007843 0.0001015625 0.0001 0.0003225291 0.0004026235 0.0003021605 0.000275 0.0002 0.0002 0.0006916667 0.0006333333 0.0003 0.0027 0.0068 0.0146 0.0219 0.02578333 0.0125 0.006 0.0166 0.0433 0.0588 0.0922 0.09973333 0.0772 0.137 0.1748 0.17615 0.175 0.1146 0.0762 0.1063 0.2188 0.1824 0.1378 0.1175 0.0309 0.0023 0.0001 0.00035 0.0001 0.0003 0.0013 0.0027 0.0048 0.006266667 0.0037 0.001 0.0001 0.0005333333 0.0005 0.004483333 0.0055 0.0189 0.0135 0.0065 0.0033 0.001375 0.0003 0.0001 0.0001666667 0.0001 0.0001111111 0.0001 0.0001074074 0.0001 0.0001037037 0.0001 0.0001670573 0.0002 0.0002 0.0002005487 0.0002 0.0002001829 0.0002 0.0001500686 0.0001 0.0001000203 0.0001 0.0001000034 0.0001 0.0001000001 0.0001 0.0001 0.0001000244 0.0001000122 0.0001 0.0001000244 0.0001000245 
0.0001000009 0.0001000009 0.0001 0.000100001 0.0001000019 0.0001000057 0.0001000076 0.0001 0.0001 0.0001 0.0001 0.0001000002 0.0001333338 0.0002 0.0002666651 0.000299997 0.0003 0.0001666667 0.0001 0.0001 0.0001000001 0.0001 0.0001000006 0.0001 0.0001000017 0.0001 0.0001 0.0001000004 0.0001 0.0001001953 0.0001003912 0.0001007813 0.0001 0.0002334015 0.000289309 0.0002465535 0.0002375 0.0002 0.0002 0.0003105556 0.0003111111 0.0002 0.0001 0.0006 0.0017 0.004 0.00825 0.0063 0.0034 0.0014 0.0044 0.0136 0.0327 0.0334 0.0621 0.06446667 0.0575 0.0725 0.09373333 0.0831 0.0654 0.036 0.0666 0.1176 0.1068167 0.0769 0.0555 0.0112 0.0006 0.000775 0.0001 0.0001666667 0.0001 0.0003 0.0007 0.0014 0.001933333 0.0011 0.0002 0.00035 0.0002333333 0.0001 0.0016 0.0015 0.0063 0.0044 0.0019 0.0008 0.00094 0.0001666667 0.0001666667 0.0001 0.0001222222 0.0001 0.0001037037 0.0001 0.0001024691 0.0001 0.0001012346 0.0001 0.0001667643 0.0002 0.0002 0.0002001829 0.0002 0.000200061 0.0002 0.0001500229 0.0001 0.0001000068 0.0001 0.0001000011 0.0001 0.0001 0.0001 0.0001 0.0001000122 0.0001000061 0.0001 0.0001000122 
0.0001000006 0.0001 0.0001000005 0.000100001 0.0001000029 0.0001000038 0.0001 0.0001 0.0001 0.0001 0.0001000001 0.0001333335 0.0002 0.0002666659 0.0002999985 0.0003 0.0001666667 0.0001 0.0001 0.0001 0.0001 0.0001000002 0.0001 0.0001000006 0.0001 0.0001 0.0001000001 0.0001 0.0001000977 0.0001001954 0.0001003906 0.0001 0.0001959833 0.0002401506 0.0002217678 0.00021875 0.0002 0.0002 0.0002045185 0.000187037 0.00015 0.0001 0.0002666667 0.0001 0.0004 0.001 0.002266667 0.0017 0.0009 0.0003 0.001 0.0036 0.01068333 0.0101 0.0211 0.0319 0.03611667 0.0247 0.04464 0.0323 0.0281 0.0158 0.0336 0.0535 0.05333333 0.0363 0.0227 0.0036 0.0001 0.00035 0.0002652778 0.0001 0.0001666667 0.0001 0.0002 0.0003 0.00055 0.0003 0.0001 0.00015 0.0001 0.0001 0.000525 0.0004 0.0019 0.0012 0.0005 0.0002 0.0003666667 0.0001 0.0001 0.0001166667 0.0001 0.0001074074 0.0001 0.0001012346 0.0001 0.000100823 0.0001 0.0001004115 0.0001 0.0001666911 0.0002 0.0002 0.000200061 0.0002 0.0002000203 0.0002 0.0001500076 0.0001 0.0001000023 0.0001 0.0001000004 0.0001 0.0001 0.0001 0.0001 0.0001000061 0.0001000031 0.0001 
0.0001 0.0001000002 0.0001000005 0.0001000014 0.0001000019 0.0001 0.0001 0.0001 0.0001 0.0001 0.0001333334 0.0002 0.0002666663 0.0002999992 0.0003 0.0001666667 0.0001 0.0001 0.0001 0.0001 0.0001000001 0.0001 0.0001000002 0.0001 0.0001 0.0001 0.0001 0.0001000488 0.0001000977 0.0001001953 0.0001 0.0001798531 0.0002184063 0.0002103809 0.000209375 0.0002 0.0002 0.0001708728 0.0001373457 0.000125 0.0001 0.0001555556 0.0001 0.0002 0.0001 0.0002 0.0005833333 0.0004 0.0002 0.0001 0.0002 0.0008 0.002983333 0.0026 0.0061 0.0106 0.0195 0.014225 0.018675 0.0106 0.0101 0.0059 0.014 0.021 0.02298333 0.0147 0.0081 0.001 0.00125 0.0001 0.0001833333 0.0001222222 0.0001 0.00015 0.000175 0.0001 0.0002 0.0001 0.0001666667 0.0001 0.0001125 0.000215 0.00025 0.0001 0.0005 0.0003 0.0001 0.0002666667 0.00015 0.0001 0.0001 0.0001 0.0001041667 0.0001 0.0001024691 0.0001 0.0001004115 0.0001 0.0001002744 0.0001 0.0001001372 0.0001 0.0001666728 0.0002 0.0002 0.0002000203 0.0002 0.0002000068 0.0002 0.0001500025 0.0001 0.0001000008 0.0001 0.0001000001 0.0001 0.0001 0.0001 0.0001 0.0001000031 0.0001000015 
0.0001000001 0.0001000002 0.0001000007 0.000100001 0.0001 0.0001 0.0001 0.0001 0.0001 0.0001333333 0.0002 0.0002666665 0.0002999996 0.0003 0.0001666667 0.0001 0.0001 0.0001 0.0001 0.0001 0.0001 0.0001000001 0.0001 0.0001 0.0001 0.0001 0.0001000244 0.0001000488 0.0001000977 0.0001 0.0001727249 0.000208591 0.0002050228 0.0002046875 0.0002 0.0002 0.0001587476 0.0001166152 0.0001125 0.0001 0.0001185185 0.0001 0.0001333333 0.0001 0.0001333333 0.0001 0.0002 0.0001 0.0002 0.0001666667 0.000325 0.0002 0.00086 0.0006 0.0015 0.003 0.0056 0.0071 0.00565 0.0057 0.0029 0.0018 0.005 0.008483334 0.0072 0.0052 0.0026 0.0003 0.0004666667 0.0005041666 0.0001 0.0001 0.000125 0.00013125 0.0001 0.0001 0.0001 0.0001 0.0001 0.0001222222 0.0001 0.000175 0.0001 0.0002333333 0.0001 0.0001 0.0001666667 0.0001 0.0001541667 0.0001166667 0.0001 0.0001 0.0001 0.0001010417 0.0001 0.000100823 0.0001 0.0001001372 0.0001 0.0001000914 0.0001 0.0001000457 0.0001 0.0001666682 0.0002 0.0002 0.0002000068 0.0002 0.0002000023 0.0002 0.0001500009 0.0001 0.0001000003 0.0001 0.0001 0.0001 0.0001 0.0001 0.0001 0.0001000015 
0.0001000002 0.0001000004 0.0001000005 0.0001 0.0001 0.0001 0.0001 0.0001 0.0001333333 0.0002 0.0002666666 0.0002999998 0.0003 0.0001666667 0.0001 0.0001 0.0001 0.0001 0.0001 0.0001 0.0001 0.0001 0.0001 0.0001 0.0001 0.0001000122 0.0001000244 0.0001000488 0.0001 0.0001695017 0.0002040728 0.0002024555 0.0002023438 0.0002 0.0002 0.0001538989 0.0001076217 0.00010625 0.0001 0.0001061728 0.0001 0.0001111111 0.0001 0.0001111111 0.0001 0.0001 0.0001 0.0001 0.0001 0.0001983333 0.0002 0.0002 0.0003 0.0001 0.0003 0.0007 0.0014 0.0028 0.0019 0.003 0.0016 0.0005 0.0015 0.002816667 0.0022 0.0016 0.0007 0.0001 0.0002 0.0002555556 0.0002219444 0.0001083333 0.0001140625 0.0001 0.0001 0.0001 0.0001 0.0001 0.0001 0.0001 0.0001194444 0.0001 0.0001444444 0.0001 0.0001 0.0001 0.0001 0.0001222222 0.0001 0.0001177083 0.0001055556 0.0001 0.0001 0.0001 0.0001002604 0.0001 0.0001002744 0.0001 0.0001000457 0.0001 0.0001000305 0.0001 0.0001000152 0.0001 0.000166667 0.0002 0.0002 0.0002000023 0.0002 0.0002000008 0.0002 0.0001500003 0.0001 0.0001000001 0.0001 0.0001 0.0001 0.0001 0.0001 0.0001 
0.0001000003 0.0001000003 0.0001 0.0001 0.0001 0.0001 0.0001 0.0001333333 0.0002 0.0002666666 0.0002999999 0.0003 0.0001666667 0.0001 0.0001 0.0001 0.0001 0.0001 0.0001 0.0001 0.0001 0.0001 0.0001 0.0001 0.0001000061 0.0001000122 0.0001000244 0.0001 0.0001680888 0.0002019559 0.0002012091 0.0002011719 0.0002 0.0002 0.0001518087 0.0001035822 0.000103125 0.0001 0.0001020576 0.0001 0.0001037037 0.0001 0.0001037037 0.0001 0.0001 0.0001 0.0001 0.0001 0.0001 0.00015 0.0002 0.0002 0.0001 0.0001666667 0.0001 0.0002 0.0003 0.0007166667 0.0005 0.0007 0.0007 0.0005 0.0004 0.0008166667 0.0006 0.0005 0.0002 0.0003333333 0.0001 0.00015 0.0001685185 0.0001396431 0.0001 0.0001 0.0001 0.0001 0.0001 0.0001 0.0001 0.0001 0.0001 0.0001148148 0.0001 0.0001 0.0001 0.0001 0.0001 0.0001 0.0001074074 0.0001 0.000105816 0.0001018519 0.0001 0.0001 0.0001 0.0001000651 0.0001 0.0001000914 0.0001 0.0001000152 0.0001 0.0001000102 0.0001 0.0001000051 0.0001 0.0001666668 0.0002 0.0002 0.0002000008 0.0002 0.0002000003 0.0002 0.0001500001 0.0001 0.0001 0.0001 0.0001 0.0001 0.0001 0.0001 
0.0001000002 0.0001 0.0001 0.0001 0.0001 0.0001 0.0001333333 0.0002 0.0002555555 0.0003 0.0003 0.0001888889 0.0001 0.0001 0.0001 0.0001 0.0001 0.0001 0.0001 0.0001 0.0001 0.0001 0.0001 0.0001000031 0.0001000076 0.0001000122 0.0001 0.0001565052 0.0002014267 0.0002008975 0.0002005859 0.0002 0.0002 0.0001635953 0.0001025724 0.0001015625 0.0001 0.0001006859 0.0001 0.0001012346 0.0001 0.0001012346 0.0001 0.0001 0.0001 0.0001 0.0001 0.0001 0.0001166667 0.00015 0.0001625 0.0001 0.0001222222 0.0001 0.00015 0.000175 0.0001 0.00025 0.0001 0.0002 0.0002 0.0001 0.0001 0.0003 0.0001 0.0001 0.0002666667 0.0002 0.0002111111 0.0001 0.000125 0.0001311728 0.0001 0.0001 0.0001 0.0001 0.0001 0.0001 0.0001 0.0001 0.0001037037 0.0001 0.0001 0.0001 0.0001 0.0001 0.0001 0.0001 0.0001 0.0001024691 0.0001 0.000101917 0.0001006173 0.0001 0.0001 0.0001 0.0001000217 0.0001 0.0001000305 0.0001 0.0001000051 0.0001 0.0001000034 0.0001 0.0001000017 0.0001 0.0001666667 0.0002 0.0002 0.0002000003 0.0002 0.0002000001 0.0002 0.00015 0.0001 0.0001 0.0001 0.0001 0.0001 0.0001 
