ncols         82
nrows         42
xllcorner     94.942900763236
yllcorner     29.786863088541
cellsize      0.00030829986001652
NODATA_value  -9999
0.0002333547 0.000100032 0.0001000214 0.0001 0.0001 0.0001000002 0.0001666672 0.0003 0.0002500022 0.0002 0.0001500042 0.0001 0.0001500138 0.0002 0.0002 0.0002 0.0002 0.0002001219 0.0002671067 0.0004 0.0004335938 0.0003355667 0.0001 0.0001 0.0001182292 0.00014375 0.0001 0.000146875 0.0002619141 0.0004 0.0004098765 0.0003 0.0004407408 0.0003 0.0003 0.000525 0.0002 0.0006666667 0.0001 0.0013 0.0151 0.1447 1.66615 0.858 2.0604 5.4133 3.3261 32.40892 0.9404 1.1192 39.98008 48.837 43.2294 37.6218 44.6729 45.3655 38.53303 34.72165 29.7437 40.35831 43.06936 39.17887 34.06789 26.5309 18.49853 8.789156 3.522272 0.009705556 0.001775 0.0003 1.195346 0.2567222 0.08646481 0.01117963 0.001472222 0.0001722222 0.0001 0.0001 0.00013125 0.0001478 0.000134375 0.0001 
0.0004 0.000200032 0.0001000426 0.0001000427 0.0001 0.0001 0.0001000005 0.0001666681 0.0003 0.0002500067 0.0002 0.0001500127 0.0001 0.0001500415 0.0002 0.0002 0.0002 0.0002 0.0002003658 0.0002680611 0.0004 0.0004671875 0.0003750793 0.0001 0.0001 0.0001291667 0.0001875 0.0001 0.00019375 0.0003539062 0.0004 0.0005296296 0.0003 0.0007222222 0.0003 0.0003 0.0013 0.0002 0.0017 0.0156 0.1358 0.9556 4.559633 4.7063 11.2924 24.8152 63.7571 39.86189 61.6121 61.2055 48.7586 48.69245 46.45332 45.6989 50.2411 46.1558 39.6996 29.7437 40.89633 46.30657 44.48663 38.41487 34.6351 29.1537 15.8039 10.538 0.02556667 0.00325 0.0003 4.040137 0.5147722 0.2261722 0.02922222 0.004 0.0003166667 0.0001 0.0001 0.0001625 0.0001912 0.00016875 0.0001 0.00010625 
0.0002889275 0.0004 0.0002000639 0.0001000852 0.0001000854 0.0001 0.0001 0.0001000014 0.0001666711 0.0003 0.00025002 0.0002 0.0001500381 0.0001 0.0001501245 0.0002 0.0002 0.0002 0.0002 0.0002010974 0.000271147 0.0004 0.000534375 0.0004659424 0.0001 0.0001 0.0001583333 0.000275 0.0001 0.0002875 0.000628125 0.0004 0.0008888889 0.0003 0.001566667 0.0003 0.01182 0.0034 0.0267 0.1609 1.0276 5.2546 16.57652 15.4386 23.6079 65.8969 53.882 56.68485 55.6536 60.9436 47.0535 50.1207 50.2836 49.2338 50.22355 48.26667 49.6518 41.76382 47.9602 44.9851 45.9744 42.5004 26.7698 38.3702 31.5376 0.0702 0.0062 0.0003 14.6917 0.87695 0.5916 0.07576667 0.01115 0.00075 0.0001 0.0001 0.000225 0.000356 0.0002375 0.0001 0.0001125 0.0001768555 
0.000200058 0.0002667247 0.0004 0.0002001276 0.0001001702 0.0001001709 0.0001 0.0001 0.0001000042 0.0001666804 0.0003 0.0002500601 0.0002 0.0001501143 0.0001 0.0001503734 0.0002 0.0002 0.0002 0.0002 0.0002032922 0.0002812958 0.0004 0.00066875 0.0006950196 0.0001 0.0001 0.0002166667 0.00045 0.0001 0.000475 0.0015375 0.0004 0.001966667 0.0003 0.0041 0.10155 0.0511 0.353 1.4179 5.794 14.78137 15.1572 57.9468 56.2769 48.0433 49.4766 53.9777 55.7277 38.1591 45.8188 49.921 50.15243 51.8589 52.422 51.4297 50.1632 51.65147 53.4897 62.8072 39.858 38.3443 40.60665 46.6623 48.5111 42.8332 40.8108 42.5259 20.57302 1.5489 0.205 0.0209 0.0014 0.002775 0.0001 0.00035 0.00098 0.000375 0.0001 0.000125 0.0001949219 0.0003 
0.0002 0.000200116 0.0002667827 0.0004 0.0002002546 0.0001003398 0.0001003418 0.0001 0.0001 0.0001000127 0.0001667088 0.0003 0.0002501804 0.0002 0.0001503429 0.0001 0.0001511203 0.0002 0.0002 0.0002 0.0002 0.0002098765 0.0003153067 0.0004 0.0009375 0.001342578 0.0001 0.0001 0.0003333333 0.0008 0.0001 0.00085 0.0048 0.0004 0.0052 0.0585 0.8481167 0.4919 3.0652 4.9778 14.8118 27.21982 46.643 44.6486 38.9373 38.4078 50.2187 51.47478 58.9076 43.5754 47.2539 49.6864 50.11537 50.0938 48.6581 48.7837 50.7876 53.9957 58.2063 53.92547 47.60923 40.1698 43.59243 49.1933 52.3086 51.1332 51.0619 53.5515 35.00253 5.2385 0.7988 0.1025 0.009 0.03208333 0.0006 0.0037 0.00065 0.0001 0.00015 0.0002546875 0.0003 0.00025 
0.0001500003 0.0002 0.0002002319 0.0002668989 0.0004 0.0002005075 0.0001006777 0.0001006836 0.0001 0.0001 0.0001000381 0.000166797 0.0003 0.0002505411 0.0002 0.0001510288 0.0001 0.0001533608 0.0002 0.0002 0.0002 0.0002 0.0002296296 0.0004315972 0.0004 0.001475 0.003395312 0.0001 0.0001 0.0005666667 0.0015 0.0001 0.0016 0.0171 0.1402 0.8446 5.649317 3.6385 12.9644 45.2224 42.0383 37.30873 38.8746 37.8711 33.4627 35.6825 42.35501 49.0868 45.4313 49.2382 49.5328 51.0729 48.71518 48.0592 48.4705 48.8734 48.7837 52.67187 58.2052 67.3288 37.1473 41.16235 43.53772 48.75703 49.0886 51.0773 52.2912 52.81837 53.8003 53.3501 6.6875 1.1427 0.1649 0.1322333 0.0165 0.0012 0.0001 0.0002 0.00046875 0.0003 0.00025 0.0002 
0.0001 0.0001500008 0.0002 0.0002004639 0.0002671316 0.0004 0.0002010104 0.0001013494 0.0001013672 0.0001 0.0001 0.0001001143 0.0001670737 0.0003 0.0002516232 0.0002 0.0001530864 0.0001 0.0001600823 0.0002 0.0002 0.0002 0.0002 0.0002888889 0.0008375 0.0004 0.00255 0.01053125 0.0001 0.0001 0.001033333 0.0029 0.0459 0.5008 3.432 11.4704 19.8753 17.392 40.5789 40.2208 40.6793 42.8646 40.8054 38.9248 34.3534 34.6497 43.04975 46.0846 46.067 49.8433 47.9954 46.91358 47.6665 45.7123 47.8217 47.8591 47.7325 51.41607 52.3159 54.5133 46.9821 40.3502 44.31195 44.4376 47.5721 50.2424 52.0466 51.84446 54.1587 56.5907 9.1146 3.1795 0.5408 0.5949166 0.0616 0.0049 0.0003 0.001275 0.0003 0.00025 0.0002 0.0002 
0.0002111112 0.0001 0.0001500023 0.0002 0.0002009277 0.0002675985 0.0004 0.0002020086 0.000102681 0.0001027344 0.0001 0.0001 0.0001003429 0.0001679518 0.0003 0.0002548697 0.0002 0.0001592593 0.0001 0.0001802469 0.0002 0.0002 0.0002 0.0002 0.0004666667 0.002283333 0.0004 0.0047 0.036925 0.0001 0.235875 1.0026 2.329817 9.4677 22.8225 25.52218 41.007 44.8993 46.1323 43.7789 45.6347 46.38212 49.1553 49.4653 45.5742 42.0983 41.51458 50.6966 39.8552 46.6485 43.6631 43.24497 41.5508 43.2833 45.26 44.6149 42.2828 49.80232 59.1763 55.5915 57.1673 48.7234 45.00635 43.7366 46.8501 47.72149 48.88808 50.01868 46.9255 45.0415 60.8999 11.2565 4.800667 2.3724 0.4133 0.0501 0.0044 0.0003 0.00025 0.0002 0.0003 0.0001 
0.0003 0.0002333336 0.0001 0.0001500071 0.0002 0.0002018555 0.0002685387 0.0004 0.0002039863 0.0001053087 0.0001054688 0.0001 0.0001 0.0001010288 0.0001707785 0.0003 0.0002646091 0.0002 0.0001777778 0.0001 0.0002407407 0.0002 0.0002 0.0002 0.0002 0.001 0.007533333 0.0004 0.009 0.1382 1.15594 0.8023 3.1593 22.65255 30.7768 45.31097 48.879 54.57 54.2948 51.5702 51.43553 49.9941 52.0239 54.0188 50.6247 43.0913 43.44763 32.467 38.9323 42.2062 38.4016 40.07628 40.1924 42.941 43.8006 43.2908 45.4846 49.9826 47.3238 44.9223 49.9117 49.5311 44.65452 43.2592 43.9265 46.3194 46.9439 45.05677 43.35252 48.31282 55.5669 9.0222 6.47432 2.4326 0.4004 0.0439 0.0035 0.0049 0.0002 0.0006 0.0001 0.0001 
0.0003 0.0003 0.0002333344 0.0001 0.0001500212 0.0002 0.0002037109 0.0002704437 0.0004 0.000207902 0.0001104574 0.0001109375 0.0001 0.0001 0.0001030864 0.0001800275 0.0003 0.0002938272 0.0002 0.0002333333 0.0001 0.0004222222 0.0002 0.0002 0.0002 0.00675 0.0018 0.0204 0.1634 0.8942 4.8497 3.9449 9.6488 22.2816 68.5354 58.57322 54.18943 62.2485 63.4272 60.5844 56.66718 57.0509 55.8312 54.4573 52.4245 52.4664 47.57122 39.8662 44.0574 39.2703 35.5708 39.91257 41.079 43.0803 45.3261 47.7152 45.71205 45.0213 33.7762 37.4935 41.7411 42.24 43.32561 40.4368 42.5466 44.1739 44.0069 44.0764 42.3508 39.0923 43.73862 42.79877 18.3925 7.2879 1.2953 0.1913 0.0195 0.0061 0.0015 0.0001 0.0001 0.0001916667 
0.0003500217 0.0003 0.0003 0.0002333375 0.0001 0.0001500635 0.0002 0.0002074219 0.000274353 0.0004 0.0002156821 0.0001204347 0.000121875 0.0001 0.0001 0.0001092593 0.0002108507 0.0003 0.0003814815 0.0002 0.0004 0.0001 0.0009666667 0.0002 0.0081 0.0029 0.0221 0.2031 1.304 6.1914 19.16667 17.1272 72.653 69.4276 65.8183 56.91356 51.0602 61.15808 62.95903 59.1936 59.6097 61.6099 65.9927 65.4073 64.5919 59.65807 69.6154 47.921 48.5986 44.044 41.6592 42.74138 42.5724 44.5609 45.4354 45.2668 44.75443 42.9956 30.8246 35.8939 39.4234 41.84743 40.9765 43.5101 45.5166 46.2061 45.0771 43.66895 42.0033 52.1443 51.7787 54.8273 29.7527 3.741125 2.545633 0.118 0.0111 0.0096 0.0008 0.003133333 0.0004666667 0.0001 
0.0004 0.0003500652 0.0003 0.0003 0.0002333501 0.0001 0.0001501905 0.0002 0.0002148437 0.0002825684 0.0004 0.0002313561 0.000139429 0.00014375 0.0001 0.0001 0.0001277778 0.000315625 0.0003 0.0006444444 0.0002 0.0009 0.0001 0.0026 0.06213333 0.0346 0.192 1.3397 6.6951 19.20832 17.7174 69.1249 62.2721 61.7756 41.2418 53.48725 57.9121 67.557 64.7435 58.40583 57.98392 63.20295 66.738 73.3041 70.0017 62.5281 48.8485 54.9923 54.0847 51.2406 49.8604 45.46067 45.7065 40.7011 45.5838 44.8033 42.78105 42.7244 35.0216 39.5091 42.6459 43.09292 44.0577 46.8713 48.5177 48.1092 46.60705 46.2597 42.3159 50.0999 48.737 51.3839 39.65724 5.5117 0.8696 1.194067 0.30135 0.0424 0.0151 0.0012 0.0001 0.0001 
0.0003000305 0.0004 0.0003501956 0.0003 0.0003 0.0002334005 0.0001 0.0001505716 0.0002 0.0002296875 0.0003005859 0.0004 0.0002641204 0.000174537 0.0001875 0.0001 0.0001 0.0001833333 0.0006791666 0.0003 0.001433333 0.0002 0.0024 0.0313 0.4089333 0.3012 1.1675 6.6241 18.0593 37.94288 65.2827 57.1954 56.0379 59.8124 48.2039 49.77288 56.6872 60.8065 57.0252 52.661 54.96587 58.4712 62.45743 66.45 66.4928 60.24033 55.6183 60.116 60.0113 54.8255 51.95578 52.1766 40.7889 44.153 47.2504 45.5506 42.14985 35.3456 38.9362 42.4197 45.2217 45.12027 46.2323 48.1205 49.1716 48.3725 46.32773 45.6177 39.9229 46.9953 45.0507 43.8188 40.13778 42.7445 5.0894 0.9337 0.1426 0.09955 0.0105 0.0019 0.0001 0.0001 
0.0002 0.0003000915 0.0004 0.0003505868 0.0003 0.0003 0.0002336019 0.0001 0.0001517147 0.0002 0.000259375 0.0003429688 0.0004 0.0003381945 0.0002361111 0.000275 0.0001 0.0001 0.00035 0.001966667 0.0003 0.0038 0.0352 0.3024 2.216017 1.7815 5.0971 17.0118 64.5857 52.95303 55.3171 53.0557 55.8719 43.2404 47.41138 47.2357 47.3566 52.2785 55.8554 54.6634 55.30292 54.0679 58.9714 63.192 58.96655 57.15358 58.12893 59.6728 58.1671 55.8549 53.46938 47.7767 44.4823 45.2574 47.4047 46.83353 46.5686 37.9066 40.7412 43.2322 45.9193 46.06578 46.6447 47.7033 48.2668 46.8765 44.92437 42.7308 48.3417 49.1913 49.2031 49.57568 48.1025 49.2653 7.3946 1.3703 0.2167 0.13274 0.0238 0.00925 0.001075 0.0001 
0.0001465729 0.0002 0.0003002743 0.0004 0.0003517604 0.0003 0.0003 0.0002344075 0.0001 0.000155144 0.0002 0.00031875 0.000453125 0.0004 0.0005291667 0.0003333333 0.00045 0.0001 0.0029 0.0006 0.005 0.0547 0.3843 2.4192 13.3258 8.4605 12.0401 66.1422 59.732 58.21218 54.7414 54.4035 59.8523 43.1783 43.75168 42.7976 44.9603 54.2585 59.5501 57.5289 55.15752 54.4251 56.0725 56.7868 49.3946 52.5794 57.1086 57.30373 57.26572 55.2478 53.45355 54.9348 49.3722 45.5462 46.5864 44.7877 47.6405 39.4855 41.3787 43.3737 45.7998 46.42028 46.5769 47.2514 47.3183 45.5005 43.70657 40.4482 47.5977 53.112 55.939 53.07969 55.34 55.4361 8.8416 1.6207 0.2532 0.3698667 0.0274 0.0022 0.0001 0.0007 
0.000103125 0.0001365936 0.0002 0.000300823 0.0004 0.0003552812 0.0003 0.0003 0.0002376302 0.0001 0.0001654321 0.0002 0.0004375 0.000775 0.0004 0.001108333 0.00045 0.0008 0.0274 0.0101 0.0613 0.5465 3.1259 14.45715 9.8479 57.1433 57.3575 61.1077 60.2438 56.56863 54.6531 55.0718 57.6343 42.316 43.74708 43.7421 51.5286 61.7388 58.2402 55.63055 53.5275 56.7323 57.1841 57.2766 49.5922 50.74022 54.2222 57.4425 57.2092 57.96447 55.81805 52.94283 50.6885 44.9733 45.7802 42.98623 34.7458 41.7047 42.5572 44.2236 45.0799 46.2893 47.2917 47.9753 47.8997 46.1118 44.76593 40.5716 47.2736 51.6567 55.673 53.42283 54.2205 52.6001 53.6069 7.7913 3.865533 1.4703 0.2278 0.0246 0.0019 0.0001 
0.0001 0.00010625 0.0001401245 0.0002 0.0003024691 0.0004 0.0003658436 0.0003 0.0003 0.0002505208 0.0001 0.0001962963 0.0002 0.000675 0.001825 0.0004 0.003133333 0.003133333 0.036125 0.1254 0.5026 3.7328 10.9425 32.71285 60.0231 54.006 56.1712 62.2118 58.0428 55.57563 51.9987 50.8047 40.1496 43.3617 44.24457 47.0868 55.4393 60.9214 53.6254 52.04727 51.3112 53.7786 53.1022 54.055 48.85627 45.8441 48.2796 50.7827 63.0871 56.3138 57.75048 56.7758 50.89425 44.2446 46.4897 40.6448 36.6748 42.2398 42.6525 44.3099 45.39687 46.4831 47.4256 48.1238 48.0324 45.6185 46.4997 50.345 48.8496 48.2987 48.8436 49.80913 50.5209 54.7334 62.5724 10.1988 4.177233 1.8589 0.2889 0.0311 0.0024 0.0002 
0.0001001736 0.0001 0.0001125 0.000147998 0.0002 0.0003074074 0.0004 0.0003975309 0.0003 0.0003 0.0003020833 0.0001 0.0002888889 0.0002 0.00115 0.00555 0.0004 0.0082 0.355225 1.2217 3.453383 12.1007 59.4839 46.96576 52.8538 52.0356 55.28 59.1428 57.84627 56.0746 52.4408 50.1401 38.0326 42.5973 44.29838 46.3635 50.9642 49.9461 47.3609 46.60963 48.2184 48.3679 47.5872 41.1095 44.74917 45.2602 46.0698 61.8632 60.9235 59.4152 55.86587 58.4971 50.1862 43.94423 42.16853 39.44952 39.5335 43.1584 43.0791 44.5206 45.29928 46.5547 47.3244 48.1295 47.9006 45.8294 45.0811 51.2702 49.4766 44.1488 40.21 46.36212 49.3868 63.0444 12.4427 3.2747 2.910783 0.4694 0.0463 0.0033 0.0002 0.000725 
0.0001 0.0001005208 0.0001 0.000125 0.0001669922 0.0002 0.0003222222 0.0004 0.0004925926 0.0003 0.0003 0.0005083333 0.0001 0.0005666667 0.0002 0.0021 0.0195 0.2191 1.85656 1.0682 3.1906 32.00751 45.14035 54.22475 51.5255 51.4219 53.1764 56.5815 54.74103 55.0241 52.1732 47.1637 38.4889 40.51272 43.3845 42.9965 45.5132 44.119 41.0975 40.21461 38.0444 36.7665 41.3095 39.3883 43.6582 42.8379 59.5741 52.1989 53.9127 53.11475 54.4182 49.7751 44.8051 42.8397 35.1001 38.13515 41.59703 42.0826 43.0284 44.2589 45.2028 45.6685 46.1848 46.5638 45.9061 45.71738 42.4377 49.8945 48.7329 42.8596 42.95738 37.8788 51.3326 65.6179 8.9556 1.4702 0.95565 0.1927 0.0171 0.0011 0.0001 0.00015 
0.0001 0.0001 0.0001020833 0.0001 0.00015 0.0002179687 0.0002 0.0003666667 0.0004 0.0007777778 0.0003 0.0003 0.001333333 0.0001 0.0014 0.0198 0.2095 1.5083 6.525517 6.479 8.2931 55.941 53.0358 51.45452 51.99355 53.0274 53.4302 52.0814 51.61833 49.5418 46.2205 34.0844 39.9166 39.88297 40.6564 40.9245 41.8807 38.5175 32.6375 34.98757 33.929 35.5796 38.3749 36.8454 44.37265 56.5079 49.7409 45.6182 46.0915 45.91425 43.9274 41.468 40.623 42.5675 37.4039 38.74618 40.5031 43.1931 43.50414 43.64183 44.77445 45.0113 45.2235 45.3811 43.5711 45.74182 49.4077 48.6451 47.894 46.1105 46.1165 46.5366 57.7631 10.4336 2.4844 0.301 0.3394 0.0259 0.0016 0.0001 0.0004333333 0.0001 
0.000121875 0.0001 0.0001 0.0001083333 0.0001 0.0002 0.000371875 0.0002 0.0005 0.0004 0.001633333 0.0003 0.00936 0.0036 0.0372 0.2914 1.6561 5.862733 6.8848 22.9937 41.6125 45.7287 49.2574 50.98778 51.9994 51.26422 50.6425 47.0936 49.5261 49.3876 52.1276 39.8531 38.6897 37.8998 38.1617 37.9444 38.7693 33.5387 35.07072 28.6445 35.5725 39.6336 35.2226 45.8422 44.1702 44.8142 42.6042 41.6976 39.514 40.44552 37.6217 40.083 42.9905 44.4152 41.54962 39.5082 41.2156 43.2644 43.1209 44.1591 45.36058 45.78484 45.74142 45.9545 43.1686 47.13114 49.9597 48.8766 48.2817 48.619 50.57277 54.6945 14.2423 3.9466 0.4763 0.58305 0.0438 0.0028 0.0001 0.0006 0.0001 0.0002111111 
0.000139429 0.00014375 0.0001 0.0001 0.0001333333 0.0001 0.0003 0.0008875 0.0002 0.0009 0.0004 0.0042 0.04338333 0.0386 0.2759 1.458 5.6518 19.2143 19.2659 42.2204 42.8645 45.3295 47.04187 49.7404 50.9059 50.0168 48.2056 46.02375 47.46 45.98307 33.7151 35.6251 33.1836 35.49508 36.7908 39.6165 42.5593 40.3984 39.92338 36.6877 40.0522 45.3886 35.3574 39.5006 42.88823 41.5109 42.7034 41.8937 39.0658 38.66222 36.4527 36.5505 42.6692 41.6042 42.23003 43.7987 44.0724 45.1203 44.9974 45.04327 45.8113 46.4606 46.4175 46.30693 46.21613 48.43163 49.5486 48.1223 47.6105 49.5562 47.58493 57.9198 8.3841 1.4918 0.1782 0.1264167 0.0146 0.0009 0.000975 0.0001 0.0002666667 0.0001 
0.0002971933 0.000174537 0.0001875 0.0001 0.0001 0.0002333333 0.0001 0.0005 0.00275 0.0002 0.0021 0.023 0.3729833 0.1906 1.1561 5.0376 19.145 36.3301 62.6822 46.9314 46.0026 45.6217 45.57173 46.5735 46.337 46.0446 44.139 44.6568 47.79353 48.702 39.31118 33.49115 30.9334 34.02977 35.2113 41.976 48.8584 50.5535 45.03308 49.7175 29.3461 36.6835 31.477 35.91942 38.736 46.9255 48.5593 43.7683 40.8003 39.1389 38.5188 32.0291 28.6993 39.4649 40.42045 44.589 44.4486 46.1029 45.7828 45.2327 46.3881 47.2377 46.5596 44.6918 51.0496 50.8221 49.9481 49.3794 49.924 56.6472 34.65867 18.0729 4.3212 0.4833 0.0429 0.04013333 0.0027 0.0001 0.0005 0.00041875 0.0001 0.0001555556 
0.0005 0.0003704861 0.0002361111 0.000275 0.0001 0.0001 0.0006333333 0.0001 0.0009 0.0098 0.0748 1.2643 0.3113 1.6702 6.3885 21.3351 52.6046 46.25903 58.6311 46.7037 47.0902 44.9171 42.49987 41.2482 38.7408 42.4231 45.2934 45.63645 47.4801 50.3352 34.6851 32.8046 35.72567 35.5582 39.2069 42.3282 52.2481 59.5652 44.80018 33.2762 35.3815 33.7656 32.4909 37.11403 37.9546 47.7326 48.9562 43.423 43.32612 39.6547 40.3411 40.5798 33.0678 33.872 39.97073 39.1939 39.8739 44.0162 43.7931 43.89623 44.6235 46.9493 46.7845 44.7445 48.04027 52.1683 50.5219 50.90357 46.48892 18.3319 25.119 7.424 1.1436 0.1157 0.0022 0.00968 0.0002 0.001 0.0001 0.0003 0.0002296875 0.0001 
0.0004555556 0.0005 0.0005583334 0.0003333333 0.00045 0.0001 0.00274 0.0017 0.0209 0.1973 1.3375 4.206316 5.8371 16.8791 57.7409 53.3303 49.4306 49.93468 35.0607 43.9764 43.4804 41.3665 37.99932 35.2722 33.5453 38.6798 44.1021 45.69387 48.1473 51.2048 39.1601 40.3887 38.776 41.8567 37.3121 48.18313 50.5518 37.7081 42.99372 37.9806 41.0653 44.2673 40.0053 40.63685 42.0204 42.692 44.938 47.1001 47.14338 45.2103 44.772 50.5287 39.0109 40.2243 43.5124 42.4803 40.7286 39.0815 40.4676 43.2926 42.3223 41.8736 43.5894 43.4605 49.43517 52.1269 50.9451 50.7795 53.8715 33.70203 8.78245 3.63566 0.2368 0.0082 0.0004 0.000725 0.0002 0.0002 0.0004333333 0.0001 0.0002 0.0001574219 
0.0003 0.0005666667 0.0005 0.001125 0.00045 0.0008 0.02044 0.011 0.118 0.9085 4.4258 15.92627 13.2514 62 56.9342 57.7827 59.88037 61.3914 42.4897 41.9544 37.8383 34.3902 34.28155 30.8017 36.2788 41.6719 43.3603 45.1335 45.78 37.5022 41.764 43.5902 41.58658 45.5895 45.7492 49.2912 62.17 45.16115 41.57325 46.4385 41.6077 49.1315 48.1008 43.68108 43.2491 41.9292 53.3684 58.683 52.85303 48.7892 39.8882 42.7567 51.8031 47.36818 53.3163 51.9876 42.1195 38.1682 42.853 44.23635 45.6961 42.6534 42.0489 52.2997 51.22195 51.8111 51.2943 52.1932 55.3179 28.85498 7.2868 2.0871 0.5199667 0.04446667 0.0001 0.00025 0.000295 0.0002 0.0002 0.0002444444 0.0001 0.00015 
0.0003888889 0.0003 0.0009 0.0005 0.0031 0.0031 0.0271 0.0886 0.7283 3.83 12.7876 34.16372 57.9182 56.5782 58.0209 62.6716 61.27943 74.6756 50.6155 45.3346 39.8408 33.7031 34.2771 30.1556 35.489 41.1729 43.2547 44.83392 46.1566 42.3246 42.0155 40.1475 42.25443 41.0276 47.4082 63.9651 36.6007 45.80952 44.1658 47.73215 48.7757 47.0359 46.4795 45.09714 42.2314 45.5789 60.6799 66.7904 56.50718 50.5452 41.7137 39.1752 48.9649 48.09255 50.8896 52.1003 45.799 42.5341 45.4624 45.58317 48.6167 45.3635 40.4777 54.0422 52.89997 53.5913 55.1178 59.9592 22.2245 17.25197 5.5742 0.7664 0.0201 0.0012 0.0005 0.0001 0.000175 0.000194 0.0002 0.0002 0.0001814815 0.0001 
0.0002 0.0006666667 0.0003 0.0019 0.0005 0.008 0.14315 0.81786 3.049867 10.4343 62.0594 48.92748 54.5399 55.1856 61.4955 64.9954 60.86533 46.1599 51.7614 47.9186 49.1055 45.83942 44.0981 32.5139 32.5004 36.3108 41.4547 48.34865 48.9972 42.5793 43.5798 41.7945 44.85427 41.3773 50.881 36.0514 40.3708 42.73833 45.7403 58.7428 49.6978 50.18176 45.33258 44.35873 45.4249 52.4679 63.2837 63.3689 58.90737 50.8664 39.5207 29.7104 38.8925 44.01805 44.6889 50.638 48.2634 45.9142 45.44897 45.8382 45.0326 44.426 38.491 51.2073 52.28303 54.4482 60.8724 25.3978 10.9654 7.558233 2.143 0.0799 0.0051 0.0002 0.0007 0.000375 0.0001 0.0001375 0.0001663 0.0002 0.0002 0.0001604938 
0.0007333333 0.0002 0.0015 0.0003 0.0049 0.1192 0.0544 0.4216 2.7964 33.92095 47.8114 58.4475 57.3323 55.8694 62.0054 68.8193 51.72018 47.8702 46.4458 49.4251 55.2422 50.53917 53.0468 43.5131 40.0535 42.5262 48.25127 54.6633 55.5654 46.3087 46.5262 47.1525 46.83952 57.6262 25.8862 39.2403 43.2438 45.17883 46.3086 67.7446 63.1798 44.5158 46.27248 43.2991 50.7372 58.00042 72.7196 68.7212 57.85394 53.1521 46.5062 29.4153 35.2842 41.05177 45.3882 53.0327 55.8127 49.3681 47.14478 43.5768 42.818 43.1943 42.8925 47.7128 48.0806 52.3286 61.0155 11.698 4.1569 3.03935 0.2854 0.02 0.001 0.001625 0.0002 0.00045 0.00028125 0.0001 0.00011875 0.00015701 0.0002 0.0002 
0.0003 0.0017 0.0002 0.004 0.0563 0.7238833 0.5911 3.4993 9.4837 58.8935 59.8584 56.7403 55.01364 52.096 51.6123 41.2509 44.83002 41.2254 43.3523 48.2979 51.1981 50.37723 50.5443 45.1487 41.5368 48.4231 53.93998 66.1295 57.8014 50.6571 51.5026 61.6166 44.92603 31.47 32.8737 40.8986 44.6523 48.06723 50.7572 76.4319 66.855 48.1501 47.45958 49.1249 53.3206 60.7858 66.13956 68.21425 59.7691 53.1611 35.6569 34.0372 38.0634 41.72328 43.9934 50.6616 61.3277 54.0384 47.37198 44.133 41.8935 36.2247 51.4775 54.13202 54.1279 57.4591 23.5055 7.4281 0.6304 0.87975 0.055 0.0034 0.0002 0.0006 0.00065625 0.0002 0.000325 0.0002265625 0.0001 0.000109375 0.000153277 0.0002 
0.0006333333 0.0003 0.0046 0.0576 0.5214 2.155417 3.1152 12.0593 56.7654 51.9758 52.00265 54.9653 54.8052 50.47225 48.70876 44.53807 35.7945 34.0198 42.4558 46.8164 46.2996 47.656 45.9324 42.2321 39.996 48.2222 56.9508 63.6756 70.1979 59.9564 59.5009 45.98185 32.5587 39.1322 42.2705 44.3955 46.4509 49.87962 56.9906 65.0301 58.1656 49.2519 47.19197 50.4157 53.5434 61.097 67.3742 63.64108 64.042 50.76397 42.2805 39.6611 38.5766 42.5447 45.0658 48.5887 52.2757 49.5411 48.20873 43.5745 35.6812 43.4173 60.6736 49.98198 67.54 26.3882 9.684 1.2275 1.613067 0.1409 0.0099 0.0005 0.00105 0.0002 0.0004 0.0003640625 0.0002 0.0002625 0.0001972656 0.0001 0.0001046875 0.0001394911 
0.0001 0.0015 0.0198 0.1933 1.2943 2.052283 7.3542 55.6514 48.1812 43.4194 32.50128 42.9035 45.7354 49.09 49.4946 43.3402 34.54515 37.29653 43.1428 47.5065 47.0402 33.68862 44.9214 38.2583 38.1786 46.4259 59.35735 68.8285 75.2105 69.8605 32.5372 41.52872 38.1751 45.4486 48.8718 48.5251 48.5914 50.63362 51.8353 46.369 43.3895 41.9789 45.76073 44.2303 49.816 59.1108 62.591 61.25285 60.5571 54.9652 36.2015 38.91093 42.9263 45.26503 47.4511 49.3791 50.5707 49.7777 40.4514 48.1877 16.0801 24.52 32.4988 35.81428 33.5741 11.663 2.2138 0.2303 0.2743667 0.0212 0.0013 0.0001 0.0003 0.0004125 0.0002 0.0003 0.0002660156 0.0002 0.00023125 0.0001821289 0.0001 0.0001023438 
0.0008 0.007133333 0.07153333 0.3771 0.001 1.73544 0.0276 0.0019 0.0246 0.2317 17.61356 1.512 7.9418 54.9734 53.087 27.7108 34.9847 33.3816 22.10132 29.00966 26.97313 8.5017 9.4364 41.9388 43.7371 52.6506 48.56413 76.3413 83.8462 48.9688 41.0552 37.51483 45.3452 50.9925 53.1893 53.7307 53.59248 53.1424 46.7911 46.0495 44.6286 43.5278 45.81102 45.1598 53.5626 59.9242 56.8649 57.29048 56.0879 55.655 36.2802 43.5009 35.25425 45.9985 37.49512 28.0601 28.3265 32.92916 27.7498 23.8776 8.5289 7.7038 9.8634 15.38612 10.7358 2.7279 0.4032 0.024 0.04675 0.0023 0.0001 0.0005 0.0001 0.0002 0.000228125 0.0002 0.00025 0.0002290039 0.0002 0.000215625 0.0001744385 0.0001 
0.003966667 0.02648889 0.1141917 0.001 0.001 0.009566667 0.0001 0.01355 0.08606666 0.12815 0.5816333 0.0012 0.0431 0.6992 0.0809 14.86567 0.9068 1.2182 2.5147 4.8441 3.921825 5.5651 13.70342 18.0213 22.3899 26.0323 31.2732 21.1062 9.3709 15.1566 14.5053 30.26393 53.471 55.76 58.0518 58.8824 46.19513 58.6829 52.9101 52.1313 49.99 49.68895 48.6329 51.3364 54.5914 56.7022 54.1107 45.46582 53.5313 44.4533 41.8285 24.8138 26.19465 26.7038 27.3781 18.12187 18.28913 18.1673 8.2211 6.7479 2.4779 2.0845 2.8383 4.5618 2.8063 0.5016 0.0539 0.0025 0.00584 0.0002 0.0008666667 0.0001 0.0002333333 0.0001 0.00015 0.0001695313 0.0002 0.000225 0.000213501 0.0002 0.0002078125 0.0001705628 
0.01522778 0.03641181 0.001 0.001 0.002916667 0.0001 0.0001 0.0001 0.05696667 0.1992625 0.0012 0.0151 0.001 0.0209 0.0079 0.1892667 0.1267 0.1879 0.3413 0.7718 1.51032 1.5697 2.7526 9.349733 15.77512 15.72695 7.162 4.3468 1.4913 3.7693 6.0529 17.10272 21.154 23.9051 25.4938 25.9626 30.89437 26.7698 24.0578 22.8383 57.0502 42.75165 54.3042 22.8206 24.9806 25.4545 25.6605 29.10333 26.5396 21.9829 20.0388 8.033 12.00242 8.1179 8.1966 8.3981 8.3718 5.26285 4.743475 3.65895 0.5019 0.3965 1.19214 0.5592 0.5678 0.0693 0.0056 0.0002 0.0009666667 0.0002 0.0002 0.0003888889 0.0001 0.0001444444 0.0001 0.000125 0.0001486328 0.0002 0.0002125 0.0002065002 0.0002 0.0002039063 
0.01754653 0.001 0.001 0.001254167 0.0001 0.0001 0.0001 0.0001 0.0001 0.0012 0.005766666 0.001 0.01095 0.0076 0.0006 0.02976 0.0127 0.0212 0.0363 0.0993 0.4580833 0.2667 0.5025 5.1085 7.3236 4.6422 3.543475 0.8264 0.1636 0.7601 2.063417 1.444 5.9891 6.7367 7.2771 7.5002 11.93962 7.5683 7.4502 10.3395 23.599 28.57417 22.9336 8.1186 7.0582 7.031 11.50208 7.2413 7.5366 6.5816 5.8938 2.1519 3.558183 2.1941 2.2235 2.2687 2.2535 2.74164 2.205 1.7999 0.5295666 0.25565 0.273875 0.0822 0.0834 0.0079 0.0005 0.0021 0.0002 0.0003916667 0.0002 0.0002 0.0002296296 0.0001 0.0001148148 0.0001 0.0001125 0.0001402832 0.0002 0.00020625 0.0002031876 0.0002 
0.001 0.001 0.0008385417 0.0001 0.0001 0.0001 0.0001 0.0001 0.0004666667 0.002016667 0.001 0.005975 0.0050375 0.0006 0.0006 0.004733333 0.0009 0.0016 0.0027 0.0088 0.06841667 0.0322 0.0672 1.3941 2.2445 2.35136 1.8387 0.5502 0.3309167 0.1112 0.639575 0.243 1.507 1.7031 1.836 1.8774 3.268583 1.9594 1.9418 2.8999 6.9875 10.60222 6.5705 2.0286 1.7994 1.764 3.094133 1.8612 1.9758 1.7198 1.5714 0.4213 0.8868833 0.4309 0.4364 0.4455 0.4429 0.9105667 0.435 0.3549 0.0666 0.0576 0.03885 0.04605 0.03213333 0.0007 0.003033333 0.0005 0.0009333334 0.0002 0.0002479167 0.0002 0.0002 0.0001765432 0.0001 0.0001049383 0.0001 0.00010625 0.0001366333 0.0002 0.000203125 0.0002015781 
0.001 0.0007346354 0.0001 0.0001 0.0001 0.0001 0.0001 0.0002222222 0.0008958333 0.001 0.0034875 0.003153125 0.0006 0.0006 0.001708333 0.0009 0.0008666667 0.0001 0.0001 0.0006 0.00894 0.0029 0.0083 0.2584 0.0017 0.7469833 0.3483 0.1109 0.0133 0.034325 0.099675 0.513575 0.2718 0.3062 0.3317 0.7458 0.3399 0.3663 0.3642 0.5629 1.8284 2.9577 1.6943 0.3761 0.3329 0.3202 0.7305167 0.3471 0.3771 0.3243 0.306 0.4017 0.0608 0.0623 0.063 0.0644 0.0639 0.1698333 0.0631 0.0514 0.007 0.0064 0.01492 0.0092 0.0094 0.00275 0.0004 0.001008333 0.0005 0.0005444444 0.0002 0.0002119792 0.0002 0.0002 0.0001588477 0.0001 0.0001016461 0.0001 0.000103125 0.0001349396 0.0002 0.0002015625 
0.0006115451 0.0001 0.0001 0.0001 0.0001 0.0001 0.0001407407 0.0005545139 0.001 0.00224375 0.002060156 0.0006 0.0006 0.0009520833 0.0009 0.0006222222 0.0001 0.0001 0.0002666667 0.00035 0.001233333 0.0002 0.0007 0.0356 0.0001 0.08078 0.0486 0.0112 0.0008 0.012 0.012175 0.0325 0.1150333 0.1717333 0.0442 0.19035 0.0456 0.0504 0.0504 0.0772 0.3455 0.7135 0.32 0.0522 0.0455 0.0428 0.1279 0.0478 0.0532 0.045 0.044 0.0705 0.0067 0.0069 0.007 0.0071 0.0071 0.02371667 0.007 0.0057 0.0006 0.0006 0.00342 0.0008 0.0008 0.0001 0.0001 0.0002 0.0004520833 0.0005 0.0004148148 0.0002 0.0002029948 0.0002 0.0002 0.0001529492 0.0001 0.0001005487 0.0001 0.0001015625 0.0001341255 0.0002 
0.0001 0.0001 0.0001 0.0001 0.0001 0.0001135802 0.0004488137 0.001 0.001621875 0.001475977 0.0006 0.0006 0.0007630208 0.0009 0.0005407407 0.0001 0.0001 0.0001555556 0.0002388889 0.0005125 0.0002 0.00045 0.00812 0.0038 0.00995 0.0136 0.0052 0.0009 0.003728571 0.001 0.008183333 0.0032 0.036 0.0405 0.023325 0.02475 0.0265 0.0053 0.0054 0.008 0.0808 0.0482 0.0446 0.0056 0.0048 0.0044 0.01681667 0.0051 0.0058 0.0048 0.0049 0.01132 0.0006 0.0006 0.0006 0.0006 0.00385 0.0006 0.0006 0.0005 0.00185 0.0006 0.0005 0.0001 0.0001 0.0003333333 0.0001 0.0001 0.0001333333 0.0002963542 0.0005 0.0003716049 0.0002 0.0002007487 0.0002 0.0002 0.0001509831 0.0001 0.0001001829 0.0001 0.0001007813 0.0001337267 
0.0001 0.0001 0.0001 0.0001 0.0001045267 0.0004155985 0.001 0.001310937 0.001174463 0.0006 0.0006 0.0007157552 0.0009 0.0005135802 0.0001 0.0001 0.0001185185 0.0001648148 0.0002767361 0.0002 0.000325 0.002224 0.00205 0.0003 0.00205 0.00285 0.0005 0.0001 0.000525 0.0001 0.00115 0.0003 0.0037 0.0041 0.0045 0.0025 0.0047 0.002783333 0.003383333 0.0007 0.0125 0.0052 0.0048 0.0005 0.0004 0.0025 0.0004 0.0004 0.0005 0.0004 0.0004 0.001966667 0.0006 0.0006 0.0006 0.0006 0.0006 0.0006 0.0005666667 0.00055 0.0005 0.00071 0.0001 0.0001 0.0001 0.0001 0.0001777778 0.0001 0.0001 0.0001111111 0.0002518663 0.0005 0.0003572016 0.0002 0.0002001872 0.0002 0.0002 0.0001503277 0.0001 0.000100061 0.0001 0.0001003906 
0.0001 0.0001 0.0001 0.0001015089 0.0004050313 0.001 0.001155469 0.00102135 0.0006 0.0006 0.0007039388 0.0009 0.0005045268 0.0001 0.0001 0.0001061728 0.0001277778 0.0001900174 0.0002 0.0002625 0.000981 0.001175 0.0003 0.0003 0.0003 0.0005 0.0003 0.0003 0.0001 0.0001 0.0002 0.001433333 0.0003 0.0003 0.0004 0.0025 0.0004 0.0004 0.0005 0.0006 0.0021 0.0004 0.0004 0.001525 0.00045 0.0004 0.0004 0.0004333333 0.0004333333 0.0004333333 0.0004 0.0004 0.0008916667 0.0006 0.0006 0.0006 0.0006 0.0005888889 0.0005722222 0.0005388889 0.000525 0.0003 0.0001 0.0001 0.0001 0.0001 0.0001 0.0001259259 0.0001 0.0001 0.0001055556 0.0002858073 0.0005 0.0003524006 0.0002 0.0002000468 0.0002 0.0002 0.0001501092 0.0001 0.0001000203 0.0001 
