ncols         86
nrows         47
xllcorner     94.942141370589
yllcorner     29.785857860595
cellsize      0.00030751516363744
NODATA_value  -9999
0.00015 0.0002 0.0002 0.0002000001 0.0001625065 0.0001000153 0.0001 0.0001000002 0.0001 0.0001000366 0.0001001119 0.0001001953 0.0001 0.0001 0.0001000004 0.0001 0.0001008789 0.0001017595 0.0001397039 0.0002 0.0002 0.0002078125 0.0002151677 0.0002559444 0.0003 0.0003179687 0.0003855469 0.0005 0.0002854492 0.000109375 0.0001 0.0001074074 0.0001 0.0001 0.0001166667 0.0001 0.0001888889 0.0001 0.0004 0.001766667 0.004375 0.0004 0.0052 0.0367 0.0701 0.5954 1.1827 9.1983 1.7178 0.0265 5.431975 4.51455 3.5153 34.54522 45.30309 39.91723 37.51392 33.9521 35.33458 31.17407 26.41212 22.75059 21.38305 19.9269 24.29045 21.57784 15.5245 9.6126 4.797148 1.698669 0.3640926 0.005555556 0.001956173 0.000875 0.0004 0.119718 0.04970319 0.01534285 0.004070165 0.0007259516 0.0001899949 0.000128125 0.0001 0.0001991374 0.0002328125 0.0002 
0.0001 0.00015 0.0002 0.0002 0.0002000002 0.0001500104 0.0001000305 0.0001 0.0001000005 0.0001 0.0001000732 0.0001001791 0.0001003906 0.0001 0.0001 0.0001000018 0.0001 0.0001017578 0.0001035207 0.000153537 0.0002 0.0002 0.000215625 0.0002298783 0.0002782741 0.0003 0.0003359375 0.00040625 0.0005 0.0002469727 0.00011875 0.0001 0.0001222222 0.0001 0.0001 0.0001666667 0.0001 0.0003666667 0.0001 0.0007 0.0045 0.0119 0.3779 0.0033 2.92465 5.367133 15.0152 9.1983 18.8775 12.6723 5.5138 3.5153 39.83207 50.1097 44.72383 41.07575 33.9521 39.34966 37.12506 30.91149 25.48565 22.8392 19.9269 28.02467 27.46667 21.74354 15.52332 9.306635 4.007848 1.076961 0.01119815 0.004118518 0.00135 0.0004 0.3395515 0.1047889 0.03413179 0.01018889 0.00170787 0.0003137346 0.00015625 0.0001 0.0002309245 0.000265625 0.0002 0.0001567383 
0.0002 0.0001 0.0001500001 0.0002 0.0002 0.0002000005 0.0001500211 0.000100061 0.0001 0.0001000015 0.0001 0.0001001465 0.0001003582 0.0001007813 0.0001 0.0001 0.0001000071 0.0001 0.0001035156 0.0001070465 0.0001571229 0.0002 0.0002 0.00023125 0.0002583848 0.0003234616 0.0003 0.000371875 0.000453125 0.0005 0.0002691406 0.0001375 0.0001 0.0001666667 0.0001 0.0001 0.0003666667 0.0001 0.0009 0.0076 0.0553 0.2873667 0.3342 1.5397 4.8796 10.4598 19.19552 26.77535 37.7251 76.2065 69.2268 63.9609 45.41298 52.02 48.1994 33.9521 42.84993 44.3922 36.2044 30.77857 25.7515 19.9269 31.62142 33.08739 27.46299 21.84964 15.918 8.802317 3.199589 0.02163889 0.009655556 0.0023 0.0004 1.069095 0.2162537 0.07245741 0.02565556 0.004282407 0.0006287037 0.0002125 0.0001 0.0002924479 0.00033125 0.0002 0.0001545898 0.000115625 
0.0003 0.0002 0.0001 0.0001500002 0.0002 0.0002 0.0002000015 0.000150043 0.0001001221 0.0001 0.0001000045 0.0001 0.000100293 0.0001007168 0.0001015625 0.0001 0.0001 0.0001000285 0.0001 0.0001070313 0.0001141082 0.0001644751 0.0002 0.0002 0.0002625 0.0003126543 0.0004186921 0.0003 0.00044375 0.00056875 0.0005 0.0003390625 0.000175 0.0001 0.0003 0.0001 0.00178 0.0009 0.0072 0.047 0.2485 0.9798167 1.0698 3.7525 10.3571 21.2425 30.0646 46.69955 43.1441 63.91777 64.52631 59.159 53.96974 48.4097 49.0999 46.646 47.9517 47.5269 40.8327 31.5761 19.9269 34.62957 38.2566 33.6726 27.33297 21.3834 16.83255 9.53805 0.03635 0.02436667 0.0042 0.0004 3.691663 0.44245 0.1418667 0.06444445 0.01106111 0.001461111 0.000325 0.0001 0.0004072917 0.0004625 0.0002 0.0001871094 0.00013125 0.0001 
0.0003 0.0003 0.0002 0.0001 0.0001500005 0.0002 0.0002 0.0002000045 0.0001500882 0.0001002441 0.0001 0.0001000135 0.0001 0.0001005859 0.0001014356 0.000103125 0.0001 0.0001 0.0001001139 0.0001 0.0001140625 0.0001282622 0.0001800508 0.0002 0.0002 0.000325 0.000412963 0.0006368055 0.0003 0.0005875 0.0008875 0.0005 0.00058125 0.00025 0.0001 0.0007 0.008116666 0.0071 0.048 0.252 1.0016 2.7086 3.1695 8.5367 17.345 27.8616 39.37302 37.265 76.3245 59.62 58.9847 52.50932 48.35812 46.2991 49.5877 50.9574 51.62 47.99682 49.7032 47.1979 44.3087 39.6531 42.46207 36.8601 30.4851 14.6537 19.0114 23.10342 0.0647 0.008 0.0004 13.5996 0.93065 0.236 0.1607 0.0289 0.003733333 0.00055 0.0001 0.0006041666 0.000725 0.0002 0.0002859375 0.0001625 0.0001 0.00013125 
0.0004 0.0003 0.0003 0.0002000001 0.0001 0.0001500016 0.0002 0.0002 0.0002000135 0.0001501833 0.0001004883 0.0001 0.0001000406 0.0001 0.0001011719 0.0001028809 0.00010625 0.0001 0.0001 0.0001004557 0.0001 0.000128125 0.0001566615 0.0002154673 0.0002 0.0002 0.00045 0.0005888889 0.001208333 0.0003 0.000875 0.001875 0.0005 0.001475 0.0004 0.0044 0.05126667 0.0355 0.2354 1.1921 3.6515 5.210783 7.1107 14.1897 22.1184 63.4481 42.75915 56.3563 47.9805 49.8076 52.3289 49.2123 39.5647 45.52902 48.41043 48.8399 48.4505 49.61308 49.4228 52.4916 59.6 60.0467 44.8692 33.2884 29.2096 36.3053 38.342 30.89015 34.9956 34.8283 39.3335 1.4649 3.089925 0.3964 0.0756 0.0101 0.001 0.0001 0.0008666667 0.00125 0.0002 0.00061875 0.000225 0.0001 0.0001625 0.000286375 
0.0006 0.0004 0.0003 0.0003 0.0002000002 0.0001 0.0001500048 0.0002 0.0002 0.0002000406 0.0001503878 0.0001009766 0.0001 0.0001001219 0.0001 0.0001023438 0.0001058107 0.0001125 0.0001 0.0001 0.0001018229 0.0001 0.00015625 0.0002137346 0.0003073518 0.0002 0.0002 0.0007 0.0008666667 0.002966667 0.0003 0.00145 0.00525 0.0005 0.0049 0.09491666 0.0376 0.2223 0.9769 3.1411 7.8075 13.48852 8.5239 16.9073 43.6177 37.7602 40.8778 33.8637 37.0064 47.6007 52.2391 45.78497 42.9441 46.3547 48.4238 47.72644 47.4152 48.41243 48.8689 51.4036 61.471 66.6951 48.52087 32.6718 32.9643 42.0002 46.1976 43.25283 46.7296 48.3365 53.9926 8.023 13.809 2.4754 0.6944 0.1417 0.0209 0.06153333 0.0023 0.0002 0.001825 0.00035 0.0001 0.000225 0.000383 0.0005 
0.0004000004 0.0006 0.0004000001 0.0003 0.0003 0.0002000006 0.0001 0.0001500144 0.0002 0.0002 0.0002001219 0.0001508406 0.0001019531 0.0001 0.0001003658 0.0001 0.0001046875 0.0001118658 0.000125 0.0001 0.0001 0.0001072917 0.0001 0.0002125 0.0003287037 0.0005955556 0.0002 0.0002 0.0012 0.0012 0.009166666 0.0003 0.0026 0.0176 0.0971 1.839067 0.4251 1.4458 3.8278 8.1672 14.9071 22.8884 38.9304 33.3205 29.6035 26.7371 29.98843 27.1014 33.2723 43.2752 41.7411 44.58358 45.8919 46.5223 47.4551 45.4629 44.42093 46.9075 47.47502 51.60162 54.2096 59.2356 54.5667 43.8565 34.9103 39.0173 44.9761 45.95873 48.2761 51.1171 54.8724 57.9671 26.45487 12.5272 4.0508 1.2681 0.2949 0.3542667 0.05 0.0064 0.0006 0.0001 0.00035 0.00059 0.0005 0.0005 
0.0002 0.0004000011 0.0006 0.0004000003 0.0003 0.0003 0.0002000017 0.0001 0.0001500432 0.0002 0.0002 0.0002003658 0.0001518838 0.0001039062 0.0001 0.0001010974 0.0001 0.000109375 0.000124954 0.00015 0.0001 0.0001 0.0001291667 0.0001 0.000325 0.0005611111 0.001691667 0.0002 0.0002 0.0022 0.31942 0.025 0.2465 1.457 3.2104 9.255733 7.2593 12.4008 17.2829 20.2154 26.43168 32.6837 34.4778 32.4937 30.2108 27.5862 30.49672 26.882 30.8639 39.5538 40.9702 40.7893 43.7151 42.4059 42.003 41.2998 42.41572 44.0135 45.6056 48.051 50.06133 55.13445 51.6998 54.3371 44.5221 38.6573 39.97773 42.5121 47.0609 50.7018 55.2661 61.7792 43.36103 15.9573 11.1639 4.7194 1.4447 1.039483 0.3128 0.0493 0.0059 0.0006 0.0015 0.0005 0.0005 0.000425 
0.0001449287 0.0002 0.0004000034 0.0006 0.0004000014 0.0003 0.0003 0.0002000051 0.0001 0.0001501295 0.0002 0.0002 0.0002010974 0.0001544156 0.0001078125 0.0001 0.0001032922 0.0001 0.00011875 0.00015602 0.0002 0.0001 0.0001 0.0002166667 0.0001 0.00055 0.001033333 0.006475 0.0452 0.1989 0.3992 1.3707 5.8895 11.8511 19.0762 21.63122 25.4663 30.7969 41.0483 41.5754 41.75947 41.0413 39.9024 39.6377 40.2012 38.4602 38.4757 36.1979 36.3231 41.7148 34.2889 36.49473 38.1286 36.0163 34.9544 37.2374 39.2343 39.5732 40.1055 40.2621 57.7226 47.853 54.0389 46.76768 43.9466 36.7633 38.19464 37.9403 41.2975 43.4147 45.3713 46.3806 47.50478 65.5548 19.3752 7.9855 3.1817 1.5831 0.9528 0.213 0.0362 0.0048 0.00172 0.0005 0.00035 0.00034375 
0.0001007282 0.000134058 0.0002 0.0004000101 0.0006 0.0004000056 0.0003 0.0003 0.0002000152 0.0001 0.0001503887 0.0002 0.0002 0.0002032922 0.0001609733 0.000115625 0.0001 0.0001098765 0.0001 0.0001375 0.0002426 0.0003 0.0001 0.0001 0.0005666667 0.0001 0.001 0.002 0.0227 0.759375 2.49785 6.4184 12.2386 22.1398 31.7596 50.99698 43.0155 81.1476 58.1296 59.2136 58.35777 55.8274 51.6465 48.7829 48.0213 48.29407 46.266 41.0585 34.2788 25.2145 30.0793 32.99058 31.7863 31.169 32.8465 36.0025 37.39228 37.2794 37.5316 43.2184 40.5841 40.48723 39.0664 44.695 37.54787 36.81665 35.55122 35.1002 37.6608 38.5492 38.2139 41.71833 37.1449 58.2119 15.489 7.3097 2.8249 2.2902 0.7817 0.154 0.0223 0.0025 0.002883333 0.0002 0.000425 0.0001 
0.0001004883 0.0001009681 0.0001347757 0.0002 0.0004000305 0.0006 0.0004000224 0.0003 0.0003 0.0002000457 0.0001 0.000151166 0.0002 0.0002 0.0002098765 0.0001793648 0.00013125 0.0001 0.0001296296 0.0001 0.000175 0.000538 0.0005 0.0001 0.00258 0.0015 0.015 0.111 0.5689 2.247 7.196275 6.1748 20.63315 38.97088 98.7783 66.22042 87.886 77.5661 68.5483 76.6673 72.65144 75.8216 71.5431 66.1833 61.3224 62.14693 55.4778 49.4647 44.01 32.4726 33.908 33.2258 30.4346 29.5125 33.8471 36.1341 37.16375 38.1271 39.2043 34.8212 23.773 29.10475 27.7384 33.3256 34.1556 32.4011 35.147 37.59697 38.01435 39.149 36.8845 40.61142 46.3148 51.2359 58.8644 13.1784 6.826533 4.5356 1.4645 0.3531 0.063 0.0084 0.0026 0.0009 0.0001 0.0001 
0.0001 0.0001009766 0.0001019277 0.0001361984 0.0002 0.0004000915 0.0006 0.0004000895 0.0003 0.0003 0.0002001372 0.0001 0.0001534979 0.0002 0.0002 0.0002296296 0.0002359444 0.0001625 0.0001 0.0001888889 0.0001 0.00025 0.00174 0.0009 0.01353333 0.0103 0.0873 0.4841 1.8933 4.938183 6.0266 14.3367 26.6533 42.2557 77.3909 83.26875 69.6627 56.1895 75.1025 85.35 78.04352 83.0287 79.1352 82.0838 83.8964 76.49918 77.8977 70.4214 66.7037 42.4834 42.47218 39.9724 36.8885 35.8545 36.2148 36.53875 37.8474 37.592 35.6557 31.3873 19.0607 24.41788 24.4059 29.4873 31.8518 35.0692 37.35794 38.0175 39.6094 39.3715 38.54287 41.25195 44.499 47.09 55.0576 10.0889 13.53715 3.0217 0.8864 0.1912 0.0293 0.0033 0.007266667 0.0003 0.00102 0.0002 
0.0001500212 0.0001 0.0001019531 0.00010383 0.0001390104 0.0002 0.0004002744 0.0006 0.0004003581 0.0003 0.0003 0.0002004115 0.0001 0.0001604938 0.0002 0.0002 0.0002888889 0.0004283333 0.000225 0.0001 0.0003666667 0.0001 0.0004 0.0072 0.07276667 0.0612 0.4115 1.7895 5.2492 10.727 13.6441 26.7242 39.4328 91.7816 67.49916 76.748 62.7719 63.617 66.9118 75.35407 74.052 73.3415 73.203 81.4363 89.2342 83.02409 91.1666 79.4904 54.53 55.9384 53.0007 50.7405 46.3619 43.2556 39.9519 37.59426 35.2372 37.7579 35.0542 31.3001 26.31835 23.3862 28.1431 32.5974 35.2816 39.2418 40.0264 42.0601 42.4481 40.8285 37.3095 39.65628 43.79493 45.59407 43.3271 43.064 21.2074 7.3343 2.4225 0.7302 0.164 0.1042 0.0272 0.0035 0.0003 0.0004666667 
0.0002 0.0001500635 0.0001 0.0001039062 0.0001075839 0.0001445513 0.0002 0.000400823 0.0006 0.0004014323 0.0003 0.0003 0.0002012346 0.0001 0.0001814815 0.0002 0.0002 0.0004666667 0.00115 0.00035 0.0001 0.0009 0.0067 0.0503 0.3390833 0.3067 1.5106 5.1419 11.8304 19.29593 25.7184 38.1694 84.5411 66.5148 67.244 60.1957 58.2425 55.593 56.208 64.11725 68.98245 66.6982 68.1785 71.0806 76.9186 77.32567 79.031 76.8531 66.8877 67.3221 61.43007 61.5474 52.9654 47.2513 37.4928 39.01322 38.8215 39.516 35.5579 25.066 27.60372 27.7098 31.7177 35.9735 38.5148 41.7981 42.2174 43.9717 43.6485 40.8686 35.3815 39.91428 41.4351 42.1556 45.43665 51.8259 28.53345 11.9096 4.1379 1.372 0.3392 0.2016167 0.0622 0.0087 0.001 0.0001 
0.0002500991 0.0002 0.0001501905 0.0001 0.0001078125 0.0001149391 0.0001554538 0.0002 0.0004024691 0.0006 0.0004057292 0.0003 0.0003 0.0002037037 0.0001 0.0002444444 0.0002 0.0002 0.001 0.0041 0.0006 0.0094 0.0551 0.3121 1.374383 1.297 4.3893 11.7943 21.9995 35.91425 37.334 84.5353 63.605 55.417 56.54213 52.8069 43.6997 48.6601 53.6671 57.20818 61.8381 64.1155 65.7301 61.947 68.5161 64.1182 63.4854 59.6453 68.0512 69.351 65.53398 63.681 56.5995 46.2018 41.786 41.18292 40.7899 40.469 37.1648 27.9679 28.71833 30.1923 33.4763 37.6974 39.9961 40.9605 42.3985 43.8342 42.6996 38.4956 41.6065 41.96073 43.8388 45.5548 46.6925 53.49435 35.05632 9.4659 5.7862 1.9971 0.5178 0.5756333 0.0993 0.0144 0.0016 0.0002 
0.0003 0.0002502972 0.0002 0.0001505716 0.0001 0.000115625 0.0001291924 0.0001769977 0.0002 0.0004074074 0.0006 0.0004229167 0.0003 0.0003 0.0002111111 0.0001 0.0004333333 0.0002 0.0035 0.0018 0.0139 0.0763 0.3404 1.549483 1.5115 4.7687 12.2431 21.9301 30.0325 54.66573 88.5707 70.9555 57.2371 52.749 51.43315 51.5694 42.3543 45.015 51.8256 57.56795 61.5019 64.2161 62.2602 58.40175 59.77303 60.33425 56.8265 55.1389 62.6012 63.66457 66.968 64.3344 58.9049 54.2224 46.7077 43.09975 41.4996 40.0723 39.003 29.9091 30.76328 31.4649 34.4378 38.3764 40.6139 41.74098 42.4416 43.1358 41.3985 36.5118 39.47493 41.6359 47.8666 52.7047 54.9991 60.4599 48.76223 16.0299 17.75745 5.26925 1.9429 0.7631 0.4924 0.0918 0.0129 0.0016 
0.0005508154 0.0003 0.0002508916 0.0002 0.0001517147 0.0001 0.00013125 0.0001563272 0.0002204138 0.0002 0.0004222222 0.0006 0.0004916667 0.0003 0.0003 0.0002333333 0.0001 0.001 0.01025 0.011 0.0866 0.4548 1.5082 4.6531 5.5696 13.4622 22.3613 75.8834 56.22557 75.6411 74.4166 63.9026 52.7661 49.2926 46.85458 46.764 41.5294 45.6241 54.7687 55.98355 61.8063 56.4528 53.2798 56.12 52.15548 56.9069 52.31193 47.9247 54.4068 62.07884 60.6092 68.6461 60.2432 56.2724 47.6716 43.38768 40.1437 37.8029 26.7146 32.0859 32.09438 32.9596 35.8052 39.34 41.6724 42.3309 43.3234 43.6767 41.8408 36.5485 40.9859 42.0513 48.1867 54.2587 55.716 57.1991 55.37888 61.36 15.5729 5.7986 4.64675 1.51565 0.378575 0.1553 0.0264 0.010325 
0.0008 0.0005524463 0.0003 0.0002526749 0.0002 0.000155144 0.0001 0.0001625 0.0002064815 0.0003126736 0.0002 0.0004666667 0.0006 0.0007666667 0.0003 0.0003 0.0003 0.0038 0.1474667 0.0437 0.3964 1.9387 4.9959 9.845166 13.993 22.3258 75.5788 66.5415 67.56992 67.3248 67.6019 56.3782 47.3349 46.20945 43.0048 37.7477 40.6652 45.2692 52.2525 51.20862 53.7463 47.1956 45.8748 47.5904 47.90525 48.0046 49.07 47.86447 50.0412 58.25037 65.809 63.6011 60.4687 56.0932 48.0581 46.0069 38.2966 37.8862 27.7134 32.6729 33.16435 33.4739 36.3801 39.9292 42.1775 42.85255 43.7566 44.0504 41.6686 44.2533 43.4484 44.9146 46.4768 48.9426 52.3182 58.24148 60.9079 76.3165 21.8402 7.993 2.8525 1.323775 0.7748 0.2136333 0.04566 0.0004 
0.0006338325 0.0008 0.0005573388 0.0003 0.0002580247 0.0002 0.0001654321 0.0001 0.000225 0.0002944444 0.00053125 0.0002 0.0006 0.0006 0.001866667 0.00766 0.03456667 0.1659 0.71772 0.6594 2.6306 5.9309 11.134 22.03995 21.8703 72.3255 61.9529 59.2855 60.45678 60.7432 59.4004 51.3895 44.893 42.11143 39.9653 35.168 37.9594 40.9589 43.4783 43.16753 41.1996 38.3735 38.3999 38.8221 39.56863 39.9875 37.952 45.6568 52.1765 56.76683 57.84478 56.93058 49.7357 44.039 43.3476 38.2655 34.4347 26.4986 29.8227 31.39708 33.5624 34.2314 36.9136 40.2611 42.2924 42.68207 43.893 44.1307 41.6962 46.4484 45.71232 46.4743 43.0971 40.586 50.2462 61.4816 73.0615 25.2421 13.811 4.9488 3.470367 1.3887 0.2791 0.0414 0.0048 0.00175 
0.0005 0.0006014974 0.0008 0.0005720165 0.0003 0.0002740741 0.0002 0.0001962963 0.0001 0.00035 0.0004333333 0.001141667 0.0002 0.001 0.0006 0.0047 0.0324 0.2487 1.052775 2.7158 7.0625 13.4906 14.8668 34.39988 65.3797 58.6244 55.3581 54.3936 54.99968 54.4521 52.8464 47.2771 41.8349 37.8824 35.6357 33.3105 35.4766 35.0356 35.84622 35.4725 32.856 30.0539 29.261 29.7425 32.84933 33.2647 34.9971 43.0212 58.1931 48.91012 50.8887 51.0803 41.96702 40.67345 36.9959 32.3334 32.9835 27.8522 30.7086 32.36123 33.9025 34.661 37.0376 39.7217 40.56982 41.3961 42.5768 42.5124 39.7269 45.9869 46.10755 46.1964 41.2813 37.1619 53.2396 57.00191 79.1162 20.7203 8.918 2.9189 1.862067 0.7203 0.1291 0.0171 0.0017 0.0001 
0.0005 0.0005 0.0006059896 0.0008 0.0006160494 0.0003 0.0003222222 0.0002 0.0002888889 0.0001 0.0006 0.0006 0.003166667 0.0002 0.0022 0.0187 0.1265 0.94708 0.67 5.7089 12.13068 28.6391 25.63665 45.5501 47.5984 49.8725 51.5553 51.4716 49.60303 49.6521 45.4554 40.8261 35.7959 35.0492 29.1696 31.2208 31.0155 30.5724 30.4032 29.5596 25.3409 23.1173 23.8601 26.83537 25.9031 29.3761 31.4755 51.7831 44.1384 43.04498 39.1539 38.028 35.5734 33.3457 32.55267 33.38292 31.86808 29.8246 31.691 33.70747 34.4802 35.2444 37.2785 39.2727 40.46307 40.4749 41.3152 40.2139 44.2022 45.8455 46.17265 45.6938 43.5965 45.2259 65.5415 42.55872 20.8065 12.0513 3.9068 1.0051 0.8581 0.1906 0.0267 0.0028 0.0002 0.0006666667 
0.0003061728 0.0005 0.0005 0.0006239584 0.0008 0.0007481481 0.0003 0.0004666667 0.0002 0.0005666667 0.0001 0.0011 0.01492 0.0082 0.0508 0.252 0.9775 2.46435 2.929 6.8512 14.0249 27.4415 39.65052 44.5667 43.2742 46.1236 46.4738 45.50237 45.1611 42.4877 39.9326 38.8198 37.1772 30.11652 30.6819 28.6181 27.4145 26.5926 28.69982 25.1865 19.8982 18.9757 24.3523 27.37442 27.8932 26.1182 37.394 37.3517 34.2405 35.70713 31.6553 28.9612 27.8695 30.8216 31.71162 33.71 34.5048 32.92898 34.7731 34.40842 36.6894 37.3511 38.9912 40.5591 40.89123 41.3539 41.626 39.7387 45.5868 46.10548 46.6534 46.6599 47.4598 57.8006 22.6674 24.86817 13.9811 5.1275 1.3596 0.2735 0.2689167 0.0402 0.0044 0.0004 0.000875 0.0002 
0.0001 0.0003185185 0.0005 0.0005 0.0006958334 0.0008 0.001144444 0.0003 0.0009 0.0002 0.0014 0.0096 0.05756667 0.0555 0.2616 0.9857 2.9488 6.03575 7.1343 14.8688 24.5332 42.5688 42.61557 41.8441 42.03532 42.44228 39.2106 41.01862 39.1418 37.2621 35.9286 34.4525 22.8817 26.87937 24.9928 24.0332 26.761 29.5287 31.02723 30.7591 27.9018 25.6585 29.3453 27.14793 32.8925 25.4474 30.8546 33.8319 36.57868 33.8188 31.2359 27.9832 26.0597 27.4764 28.62087 33.2044 32.6096 34.1708 35.31462 36.55983 37.86285 38.9038 40.2057 41.7288 41.65272 41.958 40.9546 45.5782 47.0905 47.58968 47.2545 47.6251 51.2952 66.1208 34.75845 17.903 8.3095 2.4939 0.5705 0.093 0.07551666 0.0111 0.001 0.0001 0.00025 0.00035625 
0.000108642 0.0001 0.0003555556 0.0005 0.0005 0.0009833333 0.0008 0.002333333 0.0003 0.0022 0.0121 0.0441 0.6966 0.2269 0.9197 2.8983 7.2094 13.21233 15.0155 28.2308 64.2151 44.6509 41.87717 41.3985 39.9357 39.6358 35.53313 36.12383 35.1058 37.5505 37.4845 35.128 30.528 23.2198 22.3228 22.7814 27.7025 34.8061 36.18705 39.2904 37.8736 35.169 22.2179 27.26785 26.1864 22.6901 31.573 40.1586 38.96077 40.0706 33.9232 30.1483 27.5845 27.75707 24.1665 22.3463 31.2349 36.0449 36.2697 36.6712 38.5071 38.82148 40.05565 41.903 42.00082 42.4135 41.2668 47.8074 49.2426 49.66195 49.7103 52.2038 64.2192 28.9977 26.11368 15.0612 4.846 1.2507 0.2363 0.0321 0.02428333 0.0032 0.0003 0.0004666667 0.0001 0.000175 
0.0001 0.0001259259 0.0001 0.0004666667 0.0005 0.0005 0.002133333 0.0008 0.0059 0.0414 0.2299 1.121967 0.9955 2.848 5.2893 10.3893 16.831 32.16605 30.135 52.7007 57.5798 41.5827 39.14273 39.218 35.7119 32.249 31.0371 30.58343 35.03795 36.06795 38.7714 38.4123 31.77556 29.0737 29.5397 29.4302 31.0239 36.00274 37.8197 44.9183 46.3834 27.485 26.9901 27.96662 25.9749 26.1105 33.2469 43.0102 41.6033 42.8745 35.9165 32.3568 31.5834 30.94673 29.6719 23.9593 27.1978 33.4752 34.72012 34.1883 37.7197 38.1172 39.4754 39.76335 41.03535 41.36065 41.0888 48.9877 51.264 52.24968 53.4098 60.9414 29.165 19.7237 14.8303 8.8757 2.7582 0.1613 0.0402 0.05408333 0.0057 0.0006 0.00105 0.0003 0.0002888889 0.0001 
0.0001 0.0001 0.0001777778 0.0001 0.0008 0.0005 0.00542 0.0051 0.0411 0.2572 1.2186 2.997883 4.2316 10.3072 19.8586 32.0804 45.46449 67.5352 56.2702 46.1979 28.9084 35.0259 34.44655 32.9804 30.1185 26.3102 25.2037 29.60406 30.9871 36.5084 36.0302 35.88325 32.54225 33.044 34.8514 37.2522 39.6719 42.20727 44.9923 53.695 34.7026 31.3745 32.2989 32.4207 34.1315 31.9043 36.4288 40.6449 43.64186 42.861 41.8145 37.5325 35.8999 34.00222 36.7742 28.638 31.1399 34.5179 35.24377 33.8247 34.1588 36.1358 38.5236 39.1514 39.0555 40.6735 44.0577 48.31098 53.0665 56.76138 56.8049 64.026 17.4905 11.6268 9.12285 4.6967 0.4784 0.0706 0.0092 0.009733333 0.001 0.0001 0.00035 0.00045 0.0003 0.0002296296 
0.0001166667 0.0001 0.0001 0.0003333333 0.0001 0.0018 0.01823333 0.0189 0.137 0.7373 2.9816 6.5229 8.3301 16.779 29.8836 79.1214 64.11455 66.8296 62.7396 57.5565 33.9593 34.70481 31.5422 26.3301 23.144 22.634 27.3574 29.76292 33.435 36.1398 36.7103 29.639 32.88403 34.14727 35.0521 36.4713 42.8185 44.2653 56.9173 38.1091 40.1374 38.2943 38.93703 34.4924 40.6364 39.5301 37.5696 39.9239 47.3594 52.5367 51.5885 40.1998 34.6085 35.32147 35.4754 40.4297 41.9495 41.4584 37.83463 33.9981 30.7484 35.8522 39.5487 39.04325 38.2598 38.1373 45.3557 50.1032 53.4634 59.37032 69.2617 35.2414 17.1017 8.7992 4.800717 1.015 0.166 0.0208 0.0021 0.0026 0.0002 0.0004333333 0.0001 0.000225 0.00026875 0.0003 
0.000265625 0.00015 0.0001 0.0001 0.0008 0.0086 0.08183333 0.0745 0.5145 2.1769 6.7878 11.39747 15.5877 28.8698 76.4674 70.9582 69.95306 68.1625 68.1097 70.2578 43.357 39.17322 35.4361 28.3369 22.8832 22.7365 27.46 30.27328 34.1343 37.4748 38.703 34.4438 34.76386 34.4093 34.2844 38.74693 40.34507 45.25205 36.9265 38.7959 42.5498 53.9673 49.63802 43.1948 40.6933 39.7049 37.6396 43.19835 45.2576 62.9323 60.4817 42.3738 35.7043 33.44235 33.4665 41.595 44.1176 45.0849 41.5161 38.1238 34.1966 37.1254 39.9945 39.11683 38.7815 36.0555 47.3896 52.3357 57.04274 58.3482 50.1395 34.16473 15.003 2.246 2.52954 0.4206 0.0569 0.0058 0.0005 0.000725 0.0002 0.0002 0.0002444444 0.0001 0.0001625 0.0002078125 
0.0003 0.0005125 0.00025 0.0015 0.0047 0.015 0.0459 0.3413 1.5126 4.6619 11.1001 25.09577 23.5975 79.0659 67.384 66.0565 66.17577 68.5902 65.7838 45.7796 49.228 43.9236 41.5167 37.7947 30.7465 25.9115 27.58895 26.6966 32.5564 38.8783 43.2336 37.4921 37.70892 37.8351 36.8169 37.7446 44.3459 35.58778 37.6084 39.2029 44.675 67.846 61.86018 60.0333 40.625 38.9148 43.4319 50.17328 55.3675 67.3088 60.0621 42.7077 38.63533 33.402 27.9974 36.3286 42.6129 47.7896 46.25923 42.6418 38.8706 38.7639 39.3306 38.5033 38.7859 34.5211 46.3105 54.8215 60.33675 69.6051 41.5352 26.8454 14.0243 5.744825 0.968125 0.1669 0.0192 0.0017 0.0001 0.0003 0.000305 0.0002 0.0002 0.0001814815 0.0001 0.00013125 
0.0007777778 0.0003 0.0014 0.0004 0.01025 0.0786 0.4594 1.219 4.9673 11.8954 22.48682 20.5969 72.9046 70.1017 64.1653 60.8751 58.65792 62.4121 62.8292 46.9269 47.0228 45.76603 46.981 47.2243 40.9014 32.1399 30.81005 30.5892 36.878 51.9658 51.1437 46.18087 41.4459 40.6273 40.0612 43.7536 25.5704 33.06244 35.5083 40.50877 53.39538 78.6278 68.49975 67.4919 45.6623 46.1077 53.9036 57.75615 65.4395 74.6799 62.8974 43.3637 38.02088 34.2605 24.9678 29.7352 42.0521 51.1659 50.51455 52.7494 44.5235 37.5199 36.9389 36.50352 37.1884 37.2064 45.2137 55.1225 59.18068 71.7875 27.863 21.3358 4.6913 2.056225 1.039 0.28175 0.04161667 0.0004 0.0007333333 0.0001 0.0002 0.000201 0.0002 0.0002 0.0001604938 0.0001 
0.0004 0.001633333 0.0003 0.0035 0.0324 0.4006 0.2314 3.715233 9.0334 21.3568 33.86068 65.3098 57.7028 57.6306 54.4347 52.63628 49.8809 44.1327 35.6488 39.0594 42.8351 44.76163 47.0126 47.2803 42.9467 35.7544 33.59842 33.7687 44.9642 66.7445 57.3394 54.23808 46.4305 44.2235 46.8689 28.9129 26.2418 31.78705 33.6458 39.3969 50.6237 64.9698 70.65195 56.68642 49.6533 50.7759 58.334 62.94557 70.0604 74.8682 61.9793 43.418 38.01126 30.9734 25.96 30.3814 39.3012 44.86462 49.3828 59.3578 50.4566 38.6952 35.5996 34.56793 31.1777 43.0817 52.4374 64.8904 50.09475 38.8571 28.4919 7.6984 2.0907 1.533233 0.4039 0.0559 0.0056 0.001875 0.00025 0.0002958333 0.0001 0.00015 0.0001702 0.0002 0.0002 0.0001534979 
0.0004666667 0.0004 0.0042 0.0349 0.2268 0.5887667 1.1118 4.1624 10.5995 26.9967 49.96127 50.1445 42.1481 40.0918 41.8206 42.43097 44.6411 38.7147 28.3597 30.9501 39.7099 43.70278 45.0084 44.0654 41.1971 35.2783 34.4451 34.06 48.8325 71.3947 73.4917 64.64487 55.5773 48.6895 31.2605 32.7334 33.31758 33.2742 36.4818 42.1619 58.0778 72.5499 61.6708 63.9382 51.89125 51.9598 58.5311 64.58257 71.4048 72.7832 61.0205 45.4901 38.26087 30.5619 30.5264 34.1315 39.8992 44.6068 47.3865 53.4915 48.3287 38.6069 33.89668 29.7804 36.7226 56.4847 74.1585 39.4131 37.46262 30.4979 10.3878 3.8544 0.839 0.6307333 0.1355 0.0159 0.0014 0.0001 0.0001 0.00015 0.0001614583 0.0001 0.000125 0.00015904 0.0002 0.0002 
0.0001 0.0009 0.009 0.0675 0.3794 0.5478833 1.5508 4.4912 12.9965 63.034 28.4683 23.61075 23.20455 4.6925 11.4637 30.29566 52.3448 40.3503 26.2977 29.7344 24.30658 40.4087 47.242 47.594 43.9103 33.27 36.3232 34.5392 50.8903 82.2635 86.32 75.60638 68.7103 33.9786 33.6204 38.3767 39.59762 40.3665 42.4577 46.2695 55.2925 57.4182 57.6795 52.5156 45.7994 48.6651 54.26865 65.72323 68.98996 67.8048 58.6162 47.4743 39.14639 31.6475 35.8325 39.2614 43.3736 42.13268 48.2975 51.2359 49.1988 45.5597 29.04033 15.1383 28.0107 44.4373 54.5463 38.1867 24.0288 12.9305 5.2495 1.4736 0.2777 0.2281833 0.0376 0.0038 0.0003 0.000475 0.0001 0.0001 0.0001166667 0.0001195313 0.0001 0.0001125 0.000154308 0.0002 
0.0005 0.003333333 0.019375 0.0001 0.0016 0.325 0.0169 0.1366 0.7839 0.2395 12.74598 0.4552 1.6952 3.103483 4.22805 16.41402 1.2081 0.1562 0.8364 1.441 12.78197 3.5954 7.5505 12.4171 12.3226 26.35372 38.1099 42.6818 63.9293 101.1374 108.1982 63.93282 61.3408 39.7742 39.5022 44.6201 47.8317 48.2148 50.2308 51.6504 49.888 53.47642 51.0215 47.4531 44.1179 48.0894 55.10526 61.789 71.168 64.55978 56.0834 43.0579 36.82144 36.6466 28.5615 32.6604 35.51 34.72427 38.3293 39.5647 37.1976 29.8677 21.9165 15.289 17.8182 25.7013 35.4471 28.55823 17.2202 5.9244 1.8326 0.4339 0.071 0.06838334 0.0083 0.0007 0.0001 0.0002 0.00021875 0.0001 0.0001 0.0001055556 0.0001062717 0.0001 0.00010625 0.0001401395 
0.001916667 0.005827083 0.0001 0.00085 0.0006 0.0001 0.0012 0.0084 0.035 0.0001 0.173975 0.0011 0.0135 0.1165 0.6395 0.503475 0.380375 0.4298333 0.2211 0.4069 1.3561 1.1054 2.6004 4.4326 7.3249 15.94413 23.1846 32.1362 46.953 51.0423 30.7818 42.59855 28.2458 19.4437 54.1107 55.9144 48.2691 59.4977 61.0571 60.4163 54.0818 46.68062 52.8952 49.7142 48.3935 53.8061 51.29193 63.1767 69.2498 64.4365 50.60468 42.76083 33.7531 25.2809 18.1087 18.8606 20.4983 23.45132 22.3369 23.1298 21.2532 15.6884 14.1173 9.9559 10.2418 18.1198 17.397 15.15363 8.5521 2.0206 0.4911 0.0993 0.1064667 0.0142 0.0015 0.0001 0.0003 0.0001 0.00015 0.0001421875 0.0001 0.0001 0.0001018519 0.0001020309 0.0001 0.000103125 
0.002614583 0.0001 0.000475 0.0004125 0.0001 0.00065 0.0025 0.0003 0.0013 0.01213333 0.0006 0.005066667 0.0006 0.0056 0.0352 0.16142 0.1311 0.0261 0.1282333 0.18505 0.45505 0.2318 0.7238 1.4152 2.7974 8.81605 11.9254 19.9643 24.6106 20.5899 21.53105 13.4592 13.5655 15.1981 32.367 38.6159 39.94842 42.7517 44.1145 43.9019 38.4755 37.75142 33.7217 62.4779 57.7357 35.6333 40.76397 45.2571 49.1656 47.5706 41.875 27.84163 30.027 19.1361 16.23973 10.7844 15.42653 11.5628 12.4706 12.7225 11.7012 8.3755 7.5569 5.5273 4.1218 8.345 8.8956 7.151117 3.4098 0.5473 0.1041 0.0181 0.02271667 0.0023 0.0002 0.0006 0.0001 0.0001666667 0.0001 0.000125 0.0001167969 0.0001 0.0001 0.0001006173 0.000100662 0.0001 
0.0001 0.0002875 0.000271875 0.0001 0.000375 0.0008875 0.0003 0.0008 0.0008 0.0013 0.00394 0.0006 0.002133333 0.0002 0.0012 0.0419 0.0001 0.0031 0.0361 0.0761 0.08835 0.28415 0.1457 0.3745 0.8962 4.251283 6.7678 12.8967 11.8363 8.786 8.629333 4.5271 5.8728 8.3296 16.4054 21.13635 20.0669 22.8439 23.8396 22.9975 22.1548 24.33027 25.1795 37.9468 36.2983 23.0452 25.47668 23.6654 25.2214 24.536 22.4683 22.03557 16.9962 13.936 10.4678 7.842175 8.2596 8.85335 5.8777 5.9063 5.4496 4.0129 3.605817 1.7814 1.536 3.125 3.5669 3.059467 1.0853 0.1549 0.02 0.0021 0.0046 0.0003 0.0009333334 0.0002 0.0003 0.0001 0.0001222222 0.0001 0.0001125 0.0001073242 0.0001 0.0001 0.0001002058 0.000100217 
0.00019375 0.0001898437 0.0001 0.0002375 0.000415625 0.0003 0.00055 0.0006333333 0.0009666667 0.00105 0.00095 0.0009777778 0.0002 0.0007 0.0007 0.00065 0.001166667 0.0003 0.0042 0.0102 0.0253 0.0353 0.1093667 0.3065 0.3258 2.696225 2.7951 3.5631 4.9052 3.1084 3.156417 1.3054 1.9994 3.5701 8.5527 10.71602 10.8102 12.4058 13.172 12.5526 13.53358 12.2545 14.1956 19.485 18.7452 12.6956 13.84833 12.5635 13.2413 12.9178 11.8048 11.59492 9.0421 7.2155 4.9276 5.1889 3.6851 5.5023 3.9732 3.957983 2.0477 2.66684 1.412 0.5258 0.4386 0.9422 1.1337 1.0638 0.2655 0.0338 0.0033 0.0002 0.0008666667 0.0003 0.0003 0.0004777778 0.0002 0.0002 0.0001 0.0001074074 0.0001 0.00010625 0.0001033936 0.0001 0.0001 0.0001000686 
0.0001611979 0.0001 0.00016875 0.0002632813 0.0003 0.000425 0.0004944445 0.0007166667 0.0008833333 0.0009888889 0.0007944445 0.0002 0.00045 0.0005333333 0.0006833333 0.0007041667 0.0003 0.001633333 0.0004 0.00318 0.001 0.0039 0.0202 0.0766 0.12355 1.02605 2.05155 0.9446 1.633 0.9408 0.9807 0.2708 0.5691 1.1725 3.6995 5.124333 4.7614 5.62 5.8073 5.6918 6.674467 5.5503 6.9115 10.2491 9.6854 5.6543 6.702333 5.466 5.7249 5.6654 5.2847 5.562583 3.9734 3.1217 1.8396 1.9629 2.656383 2.0863 2.2274 2.2392 1.390825 1.120225 0.412 0.1118 0.1018 0.235 0.44975 0.2832 0.0482 0.0049 0.0004 0.0013 0.0002 0.0004166667 0.0003 0.0003 0.0003259259 0.0002 0.0001666667 0.0001 0.0001024691 0.0001 0.000103125 0.0001016296 0.0001 0.0001 
0.0001 0.000134375 0.0002080078 0.0003 0.0003625 0.0004064815 0.0005453704 0.0006981482 0.000862963 0.0007166667 0.0002 0.000325 0.0003944444 0.0005555556 0.0005552084 0.0003 0.0007777778 0.0004 0.0004 0.0005 0.0001 0.0003 0.0022 0.0119 0.0799 0.307075 0.9034 0.7244 0.72785 0.2143 0.3676 0.0445 0.1183 0.2984 1.2677 2.027183 1.6545 1.9549 2.0493 2.0302 2.726133 1.9674 2.6783 4.6022 4.1816 3.908983 1.9454 1.8892 1.975 1.9854 1.8913 2.239317 1.3792 1.0851 0.5383 0.5801 0.9214166 0.6178 0.6624 0.6672 0.6092 0.315225 0.159675 0.1266 0.0191 0.0474 0.12642 0.057 0.0073 0.0006 0.0015 0.0004 0.0006333333 0.0002 0.0003041667 0.0003 0.0003 0.0002753086 0.0002 0.0001555556 0.0001 0.000100823 0.0001 0.0001015625 0.000100798 0.0001 
0.0001171875 0.0001855957 0.0003 0.00033125 0.0003563272 0.0004381173 0.00055 0.0007021605 0.0006194445 0.0002 0.0002625 0.0003064815 0.000425 0.0004513021 0.0003 0.0004925926 0.0004 0.0004 0.00035 0.0001 0.0002 0.0007 0.0002 0.0015 0.01823333 0.014 0.231 0.1931 0.4413 0.197525 0.07525 0.04488 0.0194 0.0578 0.3346 0.6443667 0.4454 0.5319 0.5677 0.5732 0.8935834 0.5439 0.7791 1.6493 1.459 1.439 0.5282 0.5145 0.5328 0.5465 0.86585 0.5333 0.374 0.2976 0.1254 0.1363 0.2554833 0.1451 0.156 0.1572 0.144 0.17888 0.0957 0.0192 0.01655 0.01935 0.03045 0.0095 0.0009 0.0001 0.00035 0.0005875 0.0004 0.0004111111 0.0002 0.0002760417 0.0003 0.0003 0.0002584362 0.0002 0.0001518519 0.0001 0.0001002744 0.0001 0.0001007813 0.0001003948 
0.0002009277 0.0003 0.000315625 0.0003291924 0.0003752315 0.0004481481 0.0005634259 0.0005179012 0.0002 0.00023125 0.0002563272 0.0003313272 0.0003706959 0.0003 0.0003975309 0.0004 0.0004 0.0003125 0.0001 0.00015 0.0003 0.0002 0.0006333333 0.0002 0.00356 0.0019 0.0476 0.0309 0.0977 0.11968 0.0368 0.0054 0.01576667 0.0089 0.117725 0.0696 0.0944 0.1148 0.1242 0.128 0.2346667 0.1188 0.1739 0.4617 0.405 0.43615 0.1148 0.1109 0.1136 0.1192 0.2269333 0.1194 0.0808 0.065 0.0238 0.0256 0.05725 0.028 0.0298 0.03 0.0275 0.04873333 0.018 0.0027 0.003 0.0079 0.00495 0.00295 0.00238 0.0003666667 0.0001 0.000225 0.000328125 0.0004 0.000337037 0.0002 0.0002690104 0.0003 0.0003 0.0002528121 0.0002 0.0001506173 0.0001 0.0001000914 0.0001 0.0001003906 
0.0003 0.0003078125 0.0003149391 0.0003400163 0.0003841907 0.0004622685 0.0004323688 0.0002 0.000215625 0.0002291924 0.0002729681 0.0003145876 0.0003 0.0003658436 0.0004 0.0004 0.000303125 0.0001 0.000125 0.0001875 0.0002 0.0003444444 0.0002 0.0002 0.0007666667 0.0002 0.0081 0.004 0.0176 0.02671667 0.005 0.0005 0.0026 0.003225 0.022825 0.047975 0.0162 0.02 0.0219 0.0231 0.04958333 0.021 0.0311 0.1021 0.0896 0.1081333 0.0203 0.0193 0.0191 0.0215 0.04803333 0.0217 0.0142 0.0115 0.0037 0.0097 0.0041 0.0044 0.0048 0.0047 0.0044 0.00895 0.0028 0.0003 0.0004 0.0011 0.00212 0.0013 0.0001 0.0001 0.0001666667 0.0001 0.0001625 0.0002476563 0.0004 0.0003123457 0.0002 0.0002672526 0.0003 0.0003 0.0002509374 0.0002 0.0001502058 0.0001 0.0001000305 0.0001 
0.0003039062 0.0003075839 0.0003209226 0.000346382 0.0003954918 0.000369707 0.0002 0.0002078125 0.0002149391 0.0002392618 0.000279187 0.0003 0.0003552812 0.0004 0.0004 0.0003007812 0.0001 0.0001125 0.000153125 0.0002 0.0002481481 0.0002 0.0002 0.0003416667 0.0002 0.002375 0.0011 0.0004 0.0026 0.004366667 0.0006 0.001516667 0.0003 0.0011 0.003625 0.0117 0.009116666 0.01108333 0.0032 0.012925 0.0035 0.0031 0.0046 0.0183 0.0161 0.02196667 0.003 0.0028 0.0027 0.0031 0.0084 0.0033 0.0021 0.0017 0.0005 0.0015 0.0005 0.0006 0.0006 0.0006 0.00175 0.0006 0.0004 0.000975 0.000475 0.0001 0.000675 0.0002 0.0005333333 0.0001 0.0001 0.0001166667 0.0001 0.00013125 0.0002197266 0.0004 0.0003041152 0.0002 0.0002668131 0.0003 0.0003 0.0002503124 0.0002 0.0001500686 0.0001 0.0001000102 
0.0003057451 0.0003108043 0.0003249628 0.0003542655 0.0003278952 0.0002 0.0002039063 0.0002075839 0.0002206712 0.000258347 0.0003 0.0003517604 0.0004 0.0004 0.0003001953 0.0001 0.00010625 0.0001414063 0.0002 0.0002160494 0.0002 0.0002 0.0002354167 0.0002 0.00081875 0.0006 0.0001 0.0009 0.0003 0.0009 0.0001 0.0003333333 0.0005 0.0001 0.00294 0.0016 0.0023 0.0029 0.001725 0.001875 0.00185 0.0004 0.0006 0.0027 0.006683333 0.0024 0.0004 0.0003 0.0003 0.0004 0.0018 0.0004 0.0003 0.0002 0.0001 0.0003 0.0001 0.0001 0.0001 0.0001 0.00035 0.0001 0.0003666667 0.0004 0.0001 0.0001 0.00015 0.0002 0.0002 0.0002777778 0.0001 0.0001 0.0001041667 0.0001 0.000115625 0.0002088379 0.0004 0.0003013717 0.0002 0.0002667033 0.0003 0.0003 0.0002501041 0.0002 0.0001500229 0.0001 
0.0003082747 0.0003138374 0.0003300109 0.0003017809 0.0002 0.0002019531 0.00020383 0.0002107204 0.0002466505 0.0003 0.0003505868 0.0004 0.0004 0.0003000488 0.0001 0.000103125 0.0001369141 0.0002 0.0002053498 0.0002 0.0002 0.0002088542 0.0002 0.00045625 0.00035 0.0001 0.0001 0.0002 0.0003 0.0002 0.0001 0.0001 0.0001 0.0001 0.0006333333 0.0002 0.0003 0.0004 0.0004 0.0004 0.0004 0.000375 0.0001 0.0003 0.001425 0.0003 0.00085 0.0003333333 0.0003333333 0.00035 0.0004 0.00035 0.0003 0.0002 0.00015 0.0001 0.0001 0.0001 0.0001 0.0001 0.0001 0.0001 0.0001 0.0002416667 0.0002 0.0001166667 0.00015 0.0001833333 0.0002 0.0002 0.0001925926 0.0001 0.0001 0.0001013889 0.0001 0.0001078125 0.0002388835 0.0004 0.0003004572 0.0002 0.0002666758 0.0003 0.0003 0.0002500347 0.0002 0.0001500076 
