ncols         191
nrows         115
xllcorner     94.92138545173
yllcorner     29.769321184327
cellsize      0.00033104869987792
NODATA_value  -9999
0.005033333 0.0002 0.000275 0.00045 0.00125 0.004 0.00775 0.02021667 0.0615 0.1597055 0.44995 0.6992188 0.0402 0.08485 0.2104 0.2955 0.60085 0.82955 0.6919 0.0001 0.01715 2.498413 1.943067 1.20845 0.5541 5.379559 5.8162 3.935183 2.132172 1.458625 0.841 2.723104 2.341372 1.547353 1.305575 1.274263 1.2179 0.6468169 0.1387594 0.05650625 0.009 0.7225776 0.588823 0.2321226 0.07762526 0.01993092 0.00806875 0.0003 0.003054654 0.001763002 0.0009765625 0.0009 0.00089375 0.001158412 0.0008540009 0.0006082305 0.0005998628 0.0006 0.0006 0.0006 0.0006 0.002607063 0.001817285 0.0009443568 0.0007917969 0.0007 0.0004176311 0.0002197683 0.0002011533 0.0002000559 0.0002 0.0002 0.000695339 0.0006096361 0.0003844075 0.0002807861 0.0002333179 0.0002130227 0.0002048266 0.0002017945 0.0002005905 0.000200293 0.0002 0.0002353516 0.0002531674 0.0002509537 0.0001730079 0.0001364807 0.0001 0.02983768 0.04455017 0.04445451 0.04442031 0.04440675 0.04440337 0.0444 0.04436482 0.04320357 0.04231247 0.04183661 0.04159782 0.04148512 0.0414349 0.04141377 0.04140521 0.04140199 0.04140067 0.04140034 0.0414 0.04140004 0.01565148 0.0002011658 0.0002005798 0.0002 0.0002057816 0.0001842414 0.0001323934 0.0001068645 0.0001012143 0.0001001785 0.0001000245 0.0001000048 0.0001000015 0.0001000006 0.0001000002 0.0001000001 0.0001 0.0001 0.0001 0.0001 0.0001000001 0.0001000001 0.0001 0.1804619 0.27062 0.2706069 0.2706024 0.2706009 0.2706003 0.2706001 0.2706001 0.2706 0.09033572 0.0002016613 0.0002005609 0.0002001926 0.0002000675 0.0002000241 0.0002000087 0.0002000032 0.0002000012 0.0002000004 0.0002000002 0.0002 0.0001333529 0.0001000143 0.0001000052 0.0001000019 0.0001000007 0.0001000002 0.0001000001 0.0001 0.0004538394 0.0006167936 0.0006072183 0.0006029827 0.0006011916 0.0006004632 0.0006001763 0.0006000662 0.0006000246 0.0006000091 0.0006000033 0.0006000012 0.0006000004 0.0006000001 0.0006000001 0.0006 0.0005576754 0.000490929 0.0004525112 0.0004177995 0.0003822283 0.0003475472 0.0003153968 0.0002871012 0.0002635452 0.000245159 0.0002320048 0.0002239308 0.0002207421 
0.0086 0.0063 0.0002 0.00035 0.0008 0.0026 0.0086 0.01205 0.04 0.13245 0.3066667 0.9107333 1.539275 0.0402 0.1295 0.4615 3.32555 0.7402 0.9189 1.1084 4.7014 3.4123 1.8628 0.5541 6.9948 7.7193 6.250033 3.479267 2.07625 0.841 4.3955 3.712683 1.943233 1.3682 1.330625 1.2179 0.9620894 0.3032658 0.1040125 0.009 1.288224 1.113756 0.4793296 0.173383 0.04365525 0.0158375 0.0003 0.007529612 0.00333588 0.001053125 0.0009 0.0008875 0.001777482 0.001337311 0.0006251029 0.0005995885 0.0006 0.0006 0.0006 0.0006 0.005259991 0.003318785 0.001249477 0.0008835937 0.0007 0.0005113872 0.0002558451 0.0002032922 0.0002001677 0.0002 0.0002 0.001104534 0.0009401838 0.0005366378 0.0003520869 0.0002644978 0.0002257736 0.0002096824 0.0002036122 0.0002011854 0.0002005859 0.0002 0.0002707031 0.0002709831 0.0003316235 0.0002460624 0.0001729614 0.0001 0.03004092 0.04470046 0.04450935 0.0444407 0.0444135 0.04440674 0.0444 0.04563232 0.0444384 0.04298857 0.04218373 0.04176511 0.04156099 0.04146737 0.041427 0.04141033 0.04140397 0.04140133 0.04140067 0.0414 0.04140008 0.02080237 0.0002023378 0.0002011597 0.0002 0.0002115631 0.0002371212 0.0001770519 0.000117011 0.0001031173 0.0001004651 0.0001000604 0.0001000101 0.000100003 0.0001000011 0.0001000004 0.0001000002 0.0001 0.0001 0.0001 0.0001 0.0001000002 0.0001000002 0.0001 0.1804922 0.2706412 0.2706141 0.2706049 0.2706017 0.2706006 0.2706002 0.2706001 0.2706 0.09033827 0.0002034377 0.0002011535 0.0002003926 0.0002001366 0.0002000485 0.0002000175 0.0002000063 0.0002000024 0.0002000008 0.0002000004 0.0002 0.0001333724 0.0001000286 0.0001000105 0.0001000038 0.0001000014 0.0001000005 0.0001000002 0.0001 0.0004706989 0.0006310425 0.0006136164 0.000605722 0.0006023166 0.0006009095 0.0006003487 0.0006001314 0.000600049 0.0006000181 0.0006000067 0.0006000024 0.0006000009 0.0006000003 0.0006000001 0.0006 0.0006112932 0.0005333551 0.0004860533 0.0004533788 0.0004181016 0.000381918 0.0003466652 0.0003140585 0.0002854666 0.0002617784 0.0002433907 0.0002303081 0.0002223156 0.0002191686 
0.1271 0.0086 0.0101 0.0002 0.0005 0.0017 0.0056 0.0185 1.612625 0.0615 0.2034 0.6551 1.8737 3.5881 4.9926 5.7337 6.850017 6.3668 6.6531 4.5236 14.9146 14.6865 13.9843 11.277 12.47146 9.1533 6.2853 3.3115 0.841 7.0463 6.7517 2.943 1.44335 1.44335 1.2179 1.72966 0.7017722 0.199025 0.009 2.192112 2.00257 0.9492148 0.3894833 0.09929074 0.031375 0.0003 0.02071081 0.007901389 0.00120625 0.0009 0.000875 0.003686741 0.002736625 0.0006765432 0.0005987654 0.0006 0.0006 0.0006 0.0006 0.0115508 0.006907926 0.001981243 0.001067188 0.0007 0.0007785164 0.0003576589 0.0002093736 0.000200503 0.0002 0.0002 0.001879737 0.001534091 0.0008043108 0.0004821497 0.0003234528 0.0002506582 0.0002193825 0.0002072802 0.0002023844 0.0002011719 0.0002 0.0003414062 0.0003422462 0.0005135958 0.0003922642 0.0002459229 0.0001 0.0304439 0.04500037 0.04461942 0.0444816 0.04442702 0.04441348 0.0444 0.04759895 0.04641452 0.04411581 0.04278488 0.04206502 0.04170128 0.04152903 0.04145268 0.04142042 0.04140791 0.04140267 0.04140134 0.0414 0.04140017 0.02080478 0.0002046942 0.0002023193 0.0002 0.0002231262 0.0003508653 0.0002813432 0.0001418343 0.0001079783 0.0001012203 0.0001001531 0.000100022 0.000100006 0.0001000023 0.0001000008 0.0001000004 0.0001 0.0001 0.0001 0.0001 0.0001000005 0.0001000005 0.0001 0.1805549 0.270685 0.2706288 0.2706099 0.2706035 0.2706013 0.2706004 0.2706002 0.2706 0.09034359 0.0002071296 0.0002023806 0.0002008031 0.000200277 0.0002000977 0.0002000351 0.0002000127 0.0002000047 0.0002000016 0.0002000008 0.0002 0.0001334116 0.0001000571 0.0001000209 0.0001000076 0.0001000029 0.000100001 0.0001000005 0.0001 0.0005005723 0.0006567601 0.0006254631 0.0006109042 0.0006044818 0.0006017799 0.000600688 0.0006002607 0.0006000975 0.0006000361 0.0006000133 0.0006000049 0.0006000018 0.0006000006 0.0006000003 0.0006 0.000732532 0.0005961969 0.0005164441 0.0004874242 0.0004542915 0.0004184207 0.0003815928 0.0003457407 0.000312662 0.0002837728 0.000259965 0.0002415973 0.0002286097 0.0002207172 0.00021762 
0.155925 0.2456 0.0086 0.0215 0.0728 0.2325 0.6887 1.8683 5.137367 4.5022 8.0855 10.5106 11.5089 12.1224 12.7666 13.4859 12.86637 14.312 12.771 14.7154 20.9753 20.4908 19.8364 19.25503 20.9872 20.3857 19.2528 17.1205 13.8408 9.2862 4.2172 9.895075 1.6688 1.2179 3.604425 1.707267 0.38905 0.009 3.622617 3.395189 1.741645 0.8708778 0.2351222 0.06245 0.0003 0.05973906 0.02129167 0.0015125 0.0009 0.00085 0.009045126 0.006780247 0.0008333334 0.0005962963 0.0006 0.0006 0.0006 0.0006 0.02631378 0.01548005 0.003809354 0.001434375 0.0007 0.001542598 0.000644856 0.0002266118 0.0002015089 0.0002 0.0002 0.003431415 0.002622411 0.00126512 0.0007147415 0.0004330714 0.0002986364 0.0002386507 0.0002146874 0.0002048094 0.0002023438 0.0002 0.0004828125 0.0004853324 0.0008782371 0.0006849468 0.0003918457 0.0001 0.03123822 0.04559696 0.04484041 0.04456375 0.04445411 0.04442695 0.0444 0.0505566 0.04948945 0.04594975 0.04380437 0.04259332 0.04195697 0.04164478 0.04150209 0.0414402 0.04141573 0.04140533 0.04140267 0.0414 0.04140034 0.02080964 0.0002094439 0.0002046387 0.0002 0.0002462524 0.0006074944 0.0005217402 0.0002019658 0.0001203236 0.0001032135 0.0001003979 0.0001000494 0.000100012 0.0001000046 0.0001000015 0.0001000008 0.0001 0.0001 0.0001 0.0001 0.000100001 0.000100001 0.0001 0.1806848 0.2707757 0.2706591 0.2706202 0.270607 0.2706026 0.2706009 0.2706004 0.2706 0.09035464 0.0002148103 0.0002049296 0.0002016488 0.0002005633 0.0002001972 0.0002000706 0.0002000254 0.0002000095 0.0002000032 0.0002000016 0.0002 0.00013349 0.0001001143 0.0001000418 0.0001000152 0.0001000057 0.0001000019 0.000100001 0.0001 0.00055263 0.0007025131 0.0006471463 0.0006206208 0.0006086222 0.0006034695 0.0006013539 0.0006005163 0.0006001938 0.000600072 0.0006000266 0.0006000097 0.0006000036 0.0006000012 0.0006000006 0.0006 0.001059694 0.0007281213 0.0005423131 0.0005181562 0.0004888631 0.0004552533 0.000418758 0.0003812507 0.0003447695 0.0003112018 0.0002820147 0.0002581019 0.0002397783 0.0002269116 0.0002191392 0.0002161008 
0.1623 0.2072 0.4826 0.6495 1.3976 2.8647 5.6014 10.2061 9.363684 14.1676 15.4451 16.5711 17.2639 18.3302 20.1087 19.5422 18.5661 17.7576 20.411 21.0801 24.1577 24.6349 24.7087 23.15412 24.7366 24.331 23.9551 23.9175 23.4988 23.0628 19.3015 13.68112 14.3928 8.087 4.3437 0.7691 0.009 6.203467 5.5411 2.7369 1.907567 0.5804667 0.1246 0.0003 0.1756812 0.06085 0.002125 0.0009 0.0008 0.02372378 0.01844074 0.001311111 0.0005888889 0.0006 0.0006 0.0006 0.0006 0.06038372 0.03571209 0.008559311 0.00216875 0.0007 0.00374035 0.001454732 0.0002753086 0.0002045267 0.0002 0.0002 0.006780017 0.004704813 0.002040832 0.001121588 0.0006329389 0.0003896976 0.0002765775 0.0002296339 0.0002097408 0.0002046875 0.0002 0.000765625 0.0007731848 0.001609606 0.001271149 0.0006836914 0.0001 0.03279091 0.04677806 0.04528389 0.04472892 0.04450841 0.04445391 0.0444 0.0548505 0.05412446 0.04885146 0.04549243 0.04350535 0.04241532 0.04185928 0.0415963 0.04147876 0.04143121 0.04141063 0.04140535 0.0414 0.04140067 0.02081953 0.0002190543 0.0002092774 0.0002 0.0002925049 0.001177445 0.001067794 0.0003459814 0.0001514455 0.0001084705 0.0001010547 0.0001001154 0.0001000238 0.0001000091 0.000100003 0.0001000015 0.0001 0.0001 0.0001 0.0001 0.0001000019 0.0001000019 0.0001 0.1809533 0.2709637 0.2707221 0.2706412 0.2706141 0.2706051 0.2706017 0.2706009 0.2706 0.09037754 0.000230791 0.0002102414 0.0002033985 0.0002011491 0.0002003988 0.0002001419 0.0002000508 0.0002000189 0.0002000063 0.0002000032 0.0002 0.0001336476 0.000100229 0.0001000836 0.0001000304 0.0001000114 0.0001000038 0.0001000019 0.0001 0.0006416326 0.0007825792 0.0006863083 0.0006386518 0.0006164787 0.0006067319 0.000602656 0.0006010206 0.000600385 0.0006001434 0.0006000531 0.0006000194 0.0006000073 0.0006000024 0.0006000012 0.0006 0.001998558 0.00107737 0.0005628464 0.000544148 0.0005199448 0.0004903758 0.0004562687 0.0004191153 0.0003808901 0.0003437468 0.0003096716 0.0002801868 0.0002561858 0.0002379332 0.000225216 0.0002175857 0.0002146159 
0.09583333 0.1623 0.1753 0.337 0.711 2.1357 5.8382 11.0695 13.61295 14.3684 17.2383 19.2956 22.1895 21.3414 19.0267 21.44932 21.721 24.5779 24.4471 24.1118 23.6546 23.766 24.7524 23.95202 23.9034 23.2556 23.1945 23.0238 22.521 21.8504 21.4917 17.81085 21.0147 20.5924 18.8915 16.2854 11.5008 7.1006 6.17675 3.9816 1.4922 0.2489 0.0003 0.520775 0.1783 0.00335 0.0009 0.0007 0.06216333 0.05198889 0.002766667 0.0005666667 0.0006 0.0006 0.0006 0.0006 0.1374361 0.08215833 0.02134043 0.0036375 0.0007 0.01011078 0.003738272 0.0004123457 0.0002135802 0.0002 0.0002 0.01462178 0.008981344 0.003316941 0.001816152 0.0009894033 0.0005592078 0.0003502058 0.0002596794 0.0002198474 0.000209375 0.0002 0.00133125 0.00135393 0.003078585 0.002446065 0.001267383 0.0001 0.03579102 0.0490999 0.04617272 0.04506155 0.04461741 0.04450781 0.0444 0.06084055 0.06086291 0.05329852 0.04821194 0.04504392 0.04322144 0.04225069 0.04177383 0.04155333 0.04146175 0.0414212 0.04141069 0.0414 0.04140134 0.02083981 0.0002386082 0.0002185547 0.0002 0.0003850098 0.002420543 0.002287732 0.0006864439 0.0002292056 0.0001222947 0.0001028361 0.0001002808 0.0001000472 0.0001000181 0.0001000061 0.0001000031 0.0001 0.0001 0.0001 0.0001 0.0001000038 0.0001000038 0.0001 0.1815068 0.2713535 0.270853 0.2706846 0.2706287 0.2706103 0.2706034 0.2706017 0.2706 0.09042484 0.0002640018 0.0002213372 0.0002070342 0.0002023527 0.0002008086 0.0002002858 0.000200102 0.0002000379 0.0002000126 0.0002000063 0.0002 0.0001339643 0.0001004588 0.0001001672 0.0001000608 0.0001000229 0.0001000076 0.0001000038 0.0001 0.000790504 0.0009200658 0.0007559606 0.0006717112 0.0006312531 0.0006129912 0.0006051918 0.0006020126 0.0006007636 0.0006002854 0.000600106 0.0006000388 0.0006000146 0.0006000049 0.0006000024 0.0006 0.004726701 0.002089619 0.0005779111 0.0005645783 0.00054605 0.0005218157 0.0004919687 0.0004573429 0.0004194945 0.0003805087 0.0003426672 0.0003080646 0.000278283 0.0002542129 0.0002360615 0.0002235252 0.0002160612 0.0002131706 
0.0623 0.0629 0.1164 0.2352 0.6576 2.6639 7.4677 10.03463 12.9488 18.9173 24.4504 27.9327 30.6297 24.718 24.5946 23.87387 23.7027 23.7515 23.8541 23.7764 24.5432 23.684 22.8471 25.15603 22.7639 22.4383 21.1462 19.9244 19.0213 17.6792 19.55275 16.0841 14.5803 13.1007 12.0959 10.9616 9.4932 7.7601 8.0614 5.8647 4.6438 3.3707 1.5488 0.5282 0.0058 0.0009 0.0005 0.15375 0.1482667 0.0072 0.0005 0.0006 0.0006 0.0006 0.0006 0.3092445 0.1831537 0.0567463 0.006575 0.0007 0.02876905 0.01017778 0.0007962963 0.0002407407 0.0002 0.0002 0.03431368 0.01860329 0.005370165 0.002970576 0.001610082 0.0008677983 0.0004903292 0.0003194959 0.0002407922 0.00021875 0.0002 0.0024625 0.002530538 0.006035179 0.004803428 0.002434766 0.0001 0.04149681 0.05361816 0.04794912 0.04573242 0.04483661 0.04461563 0.0444 0.06882976 0.07026433 0.0598681 0.0524563 0.04757116 0.04460835 0.04295225 0.04210372 0.04169611 0.04152165 0.04144222 0.04142139 0.0414 0.04140269 0.02088186 0.0002787154 0.0002371094 0.0002 0.0005700195 0.005075954 0.004962333 0.001479417 0.0004214458 0.0001584689 0.0001077022 0.000100713 0.0001000932 0.0001000361 0.0001000122 0.0001000061 0.0001 0.0001 0.0001 0.0001 0.0001000076 0.0001000076 0.0001 0.1826413 0.2721597 0.2711261 0.2707746 0.2706584 0.2706208 0.2706068 0.2706034 0.2706 0.09052195 0.000332831 0.0002445534 0.000214621 0.0002048372 0.0002016442 0.0002005768 0.0002002048 0.0002000759 0.0002000252 0.0002000126 0.0002 0.0001346027 0.0001009203 0.0001003344 0.0001001216 0.0001000457 0.0001000153 0.0001000076 0.0001 0.001033298 0.00115106 0.0008776586 0.0007314793 0.0006587438 0.0006249103 0.0006101052 0.0006039583 0.000601512 0.0006005676 0.0006002113 0.0006000774 0.0006000291 0.0006000097 0.0006000049 0.0006 0.01261731 0.005101477 0.0005880211 0.0005793599 0.0005663523 0.0005480226 0.0005237751 0.0004936493 0.0004584818 0.0004198976 0.000380104 0.0003415244 0.0003063731 0.0002762964 0.0002521794 0.0002341629 0.0002218422 0.0002145706 0.0002117707 
0.032675 0.0002 0.0033 0.043 0.4142 3.6818 8.4701 10.21043 14.4135 21.8237 27.9945 35.7208 30.4014 31.8936 28.7504 27.16537 25.4478 24.4296 24.6366 24.823 29.4884 29.1885 27.30275 28.5762 28.0932 26.6868 24.6131 22.6451 21.0781 20.3649 21.28757 19.8462 18.7398 17.0014 15.0819 13.9058 13.4011 12.559 10.73233 11.1024 9.1024 6.5504 4.5805 2.5803 1.0732 0.0001 0.32295 0.4304 0.014 0.0004 0.228035 0.0006 0.0006 0.0006 0.6993667 0.3799222 0.1570889 0.01245 0.0007 0.0841651 0.02834444 0.001866667 0.0003222222 0.0002 0.0002 0.08607632 0.04236235 0.00861605 0.004831481 0.002662963 0.001417284 0.00075 0.0004361111 0.0002848765 0.0002375 0.0002 0.004725 0.004929115 0.01200382 0.009540754 0.004769531 0.0001 0.05212021 0.06228568 0.05148136 0.04708742 0.04527858 0.04483125 0.0444 0.07896533 0.08278383 0.06916988 0.05883929 0.05159515 0.04693445 0.04418389 0.0427067 0.04196616 0.0416383 0.04148388 0.04144277 0.0414 0.04140537 0.02097049 0.0003619274 0.0002742188 0.0002 0.0009400391 0.01061357 0.01070123 0.003294953 0.0008908144 0.0002524837 0.0001210393 0.0001018837 0.0001001835 0.0001000718 0.0001000243 0.0001000122 0.0001 0.0001 0.0001 0.0001 0.0001000153 0.0001000153 0.0001 0.1849484 0.2738202 0.2716965 0.2709623 0.2707195 0.270642 0.2706136 0.2706068 0.2706 0.09071982 0.0004748237 0.0002931515 0.0002305177 0.000209991 0.0002033545 0.0002011661 0.0002004119 0.0002001522 0.0002000504 0.0002000252 0.0002 0.0001358926 0.0001018491 0.000100669 0.0001002429 0.0001000913 0.0001000305 0.0001000153 0.0001 0.001417786 0.001529463 0.001085942 0.0008377741 0.0007092601 0.0006474036 0.0006195679 0.0006077595 0.0006029879 0.0006011273 0.0006004209 0.0006001546 0.0006000582 0.0006000195 0.0006000097 0.0006 0.03515389 0.01412119 0.000594152 0.0005890922 0.0005808191 0.0005681684 0.0005500694 0.00052583 0.0004954259 0.0004596921 0.0004203273 0.0003796734 0.0003403114 0.0003045883 0.0002742197 0.0002500812 0.0002322373 0.0002201702 0.0002131192 0.0002104223 
0.0203 0.0053 0.0226 0.1087 0.4772 1.9226 5.5763 8.725516 12.3862 20.532 28.8053 29.048 33.7638 32.6681 31.1921 30.16708 29.3046 27.4236 27.7163 28.5704 32.1435 30.029 28.27973 29.4917 28.315 27.5515 27.6456 27.5286 27.4275 27.1495 24.45867 26.6015 25.4014 24.5066 22.9699 20.6471 17.6333 14.806 14.26267 12.3018 10.0291 8.2094 6.4128 4.6341 2.835 2.448717 1.2632 0.0276 0.0004 0.1454 0.0481 0.945675 0.0006 1.6813 0.6692 0.4463667 0.0242 0.0007 0.2514938 0.07963333 0.004833333 0.0005666667 0.0002 0.0002 0.2247404 0.1056296 0.01373519 0.007722222 0.004390741 0.002381481 0.001216667 0.0006537037 0.0003796296 0.000275 0.0002 0.00925 0.009862346 0.02410522 0.0190832 0.009439062 0.0001 0.07135031 0.07858621 0.05844431 0.04982653 0.04617324 0.0452625 0.0444 0.09113707 0.09861171 0.08171254 0.06802727 0.05776983 0.05072078 0.04629483 0.04378773 0.04246911 0.04186326 0.04156609 0.04148555 0.0414 0.04141074 0.02116128 0.0005373448 0.0003484375 0.0002 0.001680078 0.02184424 0.02271353 0.007370024 0.002020141 0.0004946924 0.0001576094 0.0001051493 0.0001003593 0.0001001425 0.0001000485 0.0001000244 0.0001 0.0001 0.0001 0.0001 0.0001000305 0.0001000305 0.0001 0.1895888 0.277217 0.2728878 0.2713557 0.2708461 0.270685 0.2706274 0.2706136 0.2706 0.09111875 0.0007657555 0.0003947719 0.0002639436 0.000220739 0.0002068703 0.0002023635 0.0002008297 0.0002003052 0.0002001009 0.0002000504 0.0002 0.0001385083 0.000103723 0.0001013392 0.0001004852 0.0001001825 0.000100061 0.0001000305 0.0001 0.002005958 0.002131286 0.0014339 0.001023203 0.000800722 0.0006893974 0.0006376607 0.0006151525 0.0006058906 0.0006022355 0.0006008378 0.0006003085 0.0006001164 0.0006000389 0.0006000195 0.0006 0.09824684 0.04117125 0.0005974644 0.0005948454 0.0005901461 0.0005822852 0.000570026 0.000552194 0.0005279881 0.000497308 0.0004609817 0.0004207866 0.0003792137 0.00033902 0.0003027003 0.0002720446 0.0002479141 0.000230285 0.0002185129 0.0002117128 0.0002091318 
0.0481 0.0276 0.0448 0.0929 0.2633 0.9416 2.205683 3.251 8.256 15.3415 20.3359 29.3874 32.7662 34.3501 34.26888 33.5743 32.7333 29.7968 27.983 26.4387 25.178 25.7231 26.50522 26.6699 27.2616 27.6697 27.8695 27.9009 27.4339 26.7006 26.68562 26.0893 26.3606 25.6338 24.2433 22.5112 20.6622 20.19957 18.5075 16.2993 14.1309 12.0889 10.2158 8.36 6.0113 9.441383 3.5095 1.5603 0.4418 0.1148 0.0246 0.0049 3.7526 5.06652 1.2907 0.0477 0.0007 0.767675 0.2246 0.013 0.0013 0.0002 0.0002 0.5939062 0.2827333 0.02212222 0.01203333 0.00705 0.004083334 0.002038889 0.001022222 0.0005888889 0.00035 0.0002 0.0183 0.02013704 0.04878916 0.03837148 0.01877812 0.0001 0.1049025 0.1084204 0.07197832 0.05535988 0.04799472 0.046125 0.0444 0.1048983 0.1175277 0.09772235 0.0805851 0.06683016 0.05666653 0.0498128 0.04568302 0.04338866 0.04229151 0.04172717 0.0415711 0.0414 0.04142148 0.02158362 0.0009151594 0.000496875 0.0002 0.003160156 0.04389137 0.04714246 0.01630731 0.004690814 0.001111948 0.0002576624 0.0001144667 0.0001006991 0.000100282 0.0001000968 0.0001000488 0.0001 0.0001 0.0001 0.0001 0.000100061 0.000100061 0.0001 0.198788 0.2840976 0.2753694 0.2721839 0.2711102 0.270773 0.270655 0.2706271 0.2706 0.09191212 0.001356231 0.0006066185 0.0003344171 0.0002432802 0.0002141335 0.0002048034 0.0002016741 0.0002006129 0.000200202 0.0002001007 0.0002 0.0001438333 0.0001075162 0.0001026838 0.0001009691 0.0001003646 0.0001001219 0.000100061 0.0001 0.002869365 0.003055585 0.001998882 0.001339393 0.0009634254 0.0007667907 0.0006719499 0.0006294518 0.0006115804 0.0006044255 0.0006016658 0.0006006151 0.0006002326 0.0006000777 0.0006000389 0.0006 0.2694715 0.1223169 0.0005990346 0.0005978522 0.0005955065 0.0005911777 0.000583754 0.0005719239 0.0005544001 0.0005302579 0.0004993064 0.0004623596 0.0004212789 0.0003787212 0.000337641 0.0003006979 0.000269762 0.0002456738 0.0002283065 0.0002168746 0.0002103575 0.0002079061 
0.0481 0.0276 0.0448 0.0929 0.2633 0.9416 2.205683 3.251 8.256 15.3415 20.3359 29.3874 32.7662 34.3501 34.26888 33.5743 32.7333 29.7968 27.983 26.4387 25.178 25.7231 26.50522 26.6699 27.2616 27.6697 27.8695 27.9009 27.4339 26.7006 26.68562 26.0893 26.3606 25.6338 24.2433 22.5112 20.6622 20.19957 18.5075 16.2993 14.1309 12.0889 10.2158 8.36 6.0113 9.441383 3.5095 1.5603 0.4418 0.1148 0.0246 0.0049 3.7526 5.06652 1.2907 0.0477 0.0007 0.767675 0.2246 0.013 0.0013 0.0002 0.0002 0.5939062 0.2827333 0.02212222 0.01203333 0.00705 0.004083334 0.002038889 0.001022222 0.0005888889 0.00035 0.0002 0.0183 0.02013704 0.04878916 0.03837148 0.01877812 0.0001 0.1049025 0.1084204 0.07197832 0.05535988 0.04799472 0.046125 0.0444 0.1048983 0.1175277 0.09772235 0.0805851 0.06683016 0.05666653 0.0498128 0.04568302 0.04338866 0.04229151 0.04172717 0.0415711 0.0414 0.04142148 0.02158362 0.0009151594 0.000496875 0.0002 0.003160156 0.04389137 0.04714246 0.01630731 0.004690814 0.001111948 0.0002576624 0.0001144667 0.0001006991 0.000100282 0.0001000968 0.0001000488 0.0001 0.0001 0.0001 0.0001 0.000100061 0.000100061 0.0001 0.198788 0.2840976 0.2753694 0.2721839 0.2711102 0.270773 0.270655 0.2706271 0.2706 0.09191212 0.001356231 0.0006066185 0.0003344171 0.0002432802 0.0002141335 0.0002048034 0.0002016741 0.0002006129 0.000200202 0.0002001007 0.0002 0.0001438333 0.0001075162 0.0001026838 0.0001009691 0.0001003646 0.0001001219 0.000100061 0.0001 0.002869365 0.003055585 0.001998882 0.001339393 0.0009634254 0.0007667907 0.0006719499 0.0006294518 0.0006115804 0.0006044255 0.0006016658 0.0006006151 0.0006002326 0.0006000777 0.0006000389 0.0006 0.2694715 0.1223169 0.0005990346 0.0005978522 0.0005955065 0.0005911777 0.000583754 0.0005719239 0.0005544001 0.0005302579 0.0004993064 0.0004623596 0.0004212789 0.0003787212 0.000337641 0.0003006979 0.000269762 0.0002456738 0.0002283065 0.0002168746 0.0002103575 0.0002079061 
0.0191 0.0005 0.0024 0.0129 0.0646 0.2956 1.046783 1.247 4.2386 8.181 17.6598 24.3725 30.7504 35.41 36.4949 38.4187 36.5067 31.4581 27.83 26.8694 23.2571 23.2222 23.95267 23.8954 24.8287 25.8539 26.3053 26.6011 26.7895 26.80595 26.7506 26.8222 26.6825 26.5865 26.3241 25.972 25.4311 23.88998 24.1573 22.5685 20.5824 18.3441 16.337 16.8317 20.1204 15.49478 22.9089 24.047 21.5682 17.389 12.763 10.0504 7.677567 11.2988 8.9899 5.8014 2.3986 0.6478 0.0236 0.0024 2.3736 0.0002 1.545725 0.7922333 0.03746667 0.0185 0.0104 0.0072 0.00355 0.0015 0.001066667 0.0005 0.0002 0.0364 0.04191111 0.09954433 0.07755818 0.03745625 0.0001 0.1607441 0.1610605 0.09770535 0.06649547 0.05173416 0.04785 0.0444 0.1193572 0.1388292 0.1170066 0.09674722 0.07941324 0.06559484 0.05548239 0.04892237 0.04503364 0.04309304 0.04203931 0.04174219 0.0414 0.04144297 0.02255114 0.001751728 0.00079375 0.0002 0.006120312 0.0855474 0.09516966 0.03537963 0.01087809 0.002664206 0.0005301425 0.0001414956 0.0001013491 0.0001005555 0.0001001928 0.0001000977 0.0001 0.0001000001 0.0001 0.0001 0.0001001221 0.0001001221 0.0001 0.2166909 0.2978503 0.2805107 0.2739319 0.2716658 0.270954 0.2707107 0.2706543 0.2706 0.093463 0.002539662 0.001045827 0.000483203 0.0002908251 0.0002292232 0.0002097923 0.0002033851 0.0002012327 0.0002004047 0.0002002014 0.0002 0.0001547201 0.0001152252 0.0001053878 0.0001019356 0.0001007279 0.0001002437 0.0001001221 0.0001 0.004074845 0.004416935 0.00288568 0.001864139 0.001246826 0.0009072127 0.0007362377 0.0006569218 0.0006226902 0.0006087433 0.0006033077 0.0006012254 0.0006004644 0.0006001554 0.0006000778 0.0006 0.7109344 0.3657517 0.0005996783 0.0005992186 0.0005982068 0.000596131 0.0005921816 0.0005852203 0.0005738601 0.0005566913 0.0005326488 0.0005014337 0.0004638367 0.0004218085 0.0003781915 0.0003361634 0.0002985682 0.0002673621 0.0002433559 0.0002263033 0.0002152604 0.0002090601 0.0002067522 
0.00035 0.0002 0.0009 0.0045 0.0223 0.1035 0.36475 0.442 1.6959 6.0788 11.6378 19.3761 28.9903 36.9763 37.79239 40.24 38.2601 35.7508 30.4525 26.9276 24.3962 24.07007 22.2752 21.9302 22.4332 22.9872 24.0592 25.1875 26.1241 26.25068 27.037 26.9344 27.0525 27.6937 28.4228 28.2635 27.4796 26.52268 27.1022 26.3336 24.983 23.1299 24.9954 24.4146 21.8331 18.86838 18.5855 15.2802 13.8597 13.1381 12.5688 10.2958 9.185966 10.6629 11.0296 11.2706 11.4255 10.6256 8.2058 5.6566 4.021367 3.8352 2.2811 0.0664 0.0292 0.0168 0.0095 0.0049 0.257325 0.0022 0.0008 0.0002 0.0726 0.08913333 0.204936 0.157762 0.0748125 0.0001 0.2483787 0.2495679 0.1449296 0.08868395 0.05950247 0.0513 0.0444 0.1327843 0.1612228 0.1390216 0.1162432 0.09575494 0.07824352 0.06424125 0.05429974 0.04790617 0.04456119 0.04263356 0.04208437 0.0414 0.04148594 0.02485755 0.003667684 0.0013875 0.0002 0.01204063 0.1607702 0.1858749 0.07477164 0.02486248 0.006504768 0.001267028 0.0002208226 0.0001025763 0.000101088 0.000100383 0.0001001953 0.0001 0.0001000004 0.0001 0.0001 0.0001002442 0.0001002441 0.0001 0.2507347 0.3248625 0.2910665 0.277622 0.2728437 0.2713299 0.2708237 0.2707085 0.2706 0.09643018 0.00487317 0.00194865 0.0007971665 0.0003916657 0.0002607766 0.000220033 0.00020686 0.0002024839 0.0002008113 0.0002004028 0.0002 0.000177072 0.0001309646 0.0001108438 0.0001038671 0.0001014527 0.000100487 0.0001002441 0.0001 0.005655699 0.006321856 0.004221826 0.002707122 0.001728092 0.001157204 0.0008551817 0.0007092524 0.0006442791 0.0006172338 0.0006065576 0.0006024386 0.0006009269 0.0006003107 0.0006001556 0.0006 1.746482 1.096056 0.000599905 0.000599751 0.0005993788 0.0005985263 0.0005967154 0.0005931514 0.000586678 0.0005758316 0.000559071 0.0005351712 0.0005037043 0.0004654255 0.0004223804 0.0003776196 0.0003345745 0.0002962962 0.0002648337 0.0002409563 0.0002242776 0.000213676 0.0002078274 0.0002056769 
0.0002 0.00055 0.001866667 0.0057 0.0005 0.008 0.161475 0.0924 1.3454 4.0613 9.3619 17.0509 28.4586 28.42145 37.4903 38.219 36.4153 34.1225 30.7461 29.8522 26.9984 25.95795 24.2713 23.2072 22.981 23.6157 24.1129 24.4524 24.9649 25.51982 25.838 27.5638 28.2842 27.9021 27.465 27.4554 27.61 27.90538 27.3559 26.8269 26.9535 29.5646 30.4898 22.361 21.82783 16.6902 13.0722 10.7072 9.5014 9.433 9.7693 6.3388 6.954617 6.4691 6.9713 7.4935 7.4693 7.0757 7.4626 7.5591 5.30495 7.0747 6.4119 6.6415 4.8849 3.2954 1.896 1.436517 0.7087 0.3135 0.2426 0.145 0.1946 0.4259607 0.3236611 0.149525 0.0001 0.3766555 0.3898222 0.226937 0.1319444 0.07590741 0.0582 0.0444 0.141541 0.1820506 0.1631457 0.1384722 0.1154469 0.09481049 0.07700741 0.06291266 0.0528037 0.04718287 0.04373194 0.04276875 0.0414 0.04157187 0.03059874 0.008228052 0.002575 0.0002 0.02388125 0.2895142 0.3491278 0.1529682 0.05552864 0.01581807 0.003240733 0.0004554972 0.0001048554 0.0001021151 0.0001007584 0.0001003906 0.0001 0.0001000015 0.0001 0.0001 0.0001004886 0.0001004883 0.0001 0.3136403 0.3767466 0.3124521 0.2853888 0.2753585 0.2721186 0.2710539 0.2708171 0.2706 0.1019588 0.009380162 0.003781699 0.00145765 0.0006066014 0.0003272484 0.0002411473 0.0002139341 0.0002050177 0.0002016283 0.0002008057 0.0002 0.0002231255 0.0001632596 0.0001219027 0.0001077316 0.0001028969 0.0001009728 0.0001004883 0.0001 0.007565984 0.008820653 0.006136161 0.004008755 0.002520562 0.001592049 0.001071665 0.0008078982 0.0006859823 0.0006338768 0.0006129781 0.0006048465 0.0006018483 0.000600621 0.0006003113 0.0006 3.697762 3.286967 0.0005999756 0.0005999275 0.000599812 0.0005995135 0.0005988107 0.0005972545 0.0005940809 0.0005881187 0.0005778341 0.0005615418 0.0005378369 0.000506135 0.0004671411 0.0004230004 0.0003769996 0.0003328589 0.000293865 0.0002621647 0.0002384715 0.0002222328 0.0002121286 0.0002066667 0.0002046871 
0.0002375 0.0001 0.00025 0.00074 0.0003 0.0047 0.039375 0.4446333 0.4904 1.6951 5.3614 12.147 17.2369 20.76025 21.3763 26.4113 30.1502 31.8493 32.2607 30.9002 29.9182 26.92182 27.8884 25.4982 24.442 23.4253 23.1669 23.6304 22.98163 24.3524 24.8025 24.7219 25.1513 26.0811 27.034 27.5664 29.00942 29.1888 28.6958 31.2108 37.9028 33.2306 28.4674 24.4466 23.34098 21.2215 18.1117 14.5626 11.2855 8.9175 7.3765 4.393 6.698133 3.5681 4.0481 4.0647 3.8665 3.6901 3.6993 4.88705 3.7026 4.0015 3.8747 3.7096 3.5248 3.3217 3.1113 2.4938 2.8887 2.0783 1.1455 0.4386 0.89172 0.6719334 0.29895 0.0001 0.5495667 0.5999778 0.3569778 0.2125111 0.1113222 0.072 0.0444 0.138725 0.1946093 0.1884296 0.163113 0.1378945 0.1144093 0.09403703 0.07598519 0.061 0.05175278 0.04565834 0.0441375 0.0414 0.04174375 0.04553765 0.01953416 0.00495 0.0002 0.0475625 0.4963918 0.6263196 0.3007785 0.1202851 0.03784102 0.008459777 0.001153419 0.0001090021 0.0001040702 0.0001014939 0.0001007813 0.0001 0.0001000061 0.0001 0.0001 0.0001009777 0.0001009766 0.0001 0.42584 0.4736373 0.354984 0.3016184 0.2807539 0.273794 0.2715277 0.2710342 0.2706 0.1119329 0.01786181 0.007440618 0.002838059 0.001066419 0.0004684716 0.0002849131 0.0002283605 0.0002101684 0.0002032735 0.0002016113 0.0002 0.0003182036 0.0002298431 0.0001444553 0.0001154805 0.0001057724 0.0001019418 0.0001009766 0.0001 0.009624234 0.0118304 0.008709303 0.005922258 0.003776921 0.002327087 0.001457677 0.0009913829 0.0007659335 0.0006663781 0.0006256353 0.0006096172 0.000603682 0.0006012403 0.0006006226 0.0006 4.930149 9.8597 0.0006 0.0005999756 0.0005999513 0.0005998557 0.0005996291 0.0005990557 0.0005977473 0.0005949606 0.000589535 0.0005798606 0.0005641068 0.0005406579 0.0005087459 0.0004690012 0.0004236762 0.0003763238 0.0003309989 0.0002912541 0.0002593421 0.000235898 0.0002201743 0.000210626 0.0002055855 0.0002037886 
0.0001 0.0001 0.0001 0.0004 0.0024 0.005 0.0123 0.0448 0.6825 0.5194 1.6703 4.4829 8.085 11.57498 11.9144 17.0359 21.9643 25.9272 28.7942 25.0414 23.87642 26.37 26.0846 24.6948 22.5398 20.8765 20.6162 20.2767 20.01237 20.213 20.7284 22.0452 23.2352 24.0519 26.4795 31.6072 29.81948 30.6287 34.7866 37.7326 34.0528 31.2763 29.347 28.3037 26.63507 27.0229 24.5133 21.2154 16.6986 11.5172 6.791 12.8648 11.9516 7.4682 4.3788 3.4948 3.5879 2.9462 3.149 3.756467 3.7497 4.0062 3.9997 3.9067 3.78 3.593 3.3369 3.33525 3.0212 2.6709 2.2768 1.8593 1.4179 0.5978 0.0001 0.7462 0.9189667 0.533 0.3479667 0.1899667 0.0996 0.0444 0.1161667 0.18265 0.2116833 0.1894944 0.1641111 0.1357333 0.1138389 0.09365556 0.07461666 0.05968333 0.0487 0.046875 0.0414 0.0420875 0.08614204 0.04870247 0.0097 0.0002 0.094925 0.8058062 1.064884 0.563507 0.2505684 0.0882601 0.0220268 0.003236171 0.000116358 0.0001077289 0.0001029192 0.0001015625 0.0001 0.0001000244 0.0001 0.0001 0.0001019577 0.0001019531 0.0001 0.6174564 0.6483081 0.4374956 0.3351082 0.2923481 0.2773989 0.2725147 0.2714684 0.2706 0.1292373 0.03331522 0.01457904 0.005691173 0.002051642 0.0007713603 0.0003762555 0.0002577988 0.0002206848 0.0002065977 0.0002032227 0.0002 0.0005143622 0.0003676553 0.0001907967 0.0001310773 0.0001114918 0.0001038724 0.0001019531 0.0001 0.01147019 0.01503967 0.01188708 0.008564446 0.005676381 0.003525947 0.002128436 0.001326878 0.0009177169 0.0007295535 0.0006505302 0.0006190506 0.0006073251 0.0006024758 0.0006012451 0.0006 4.930148 9.8597 4.360438 1.002979 0.0006 0.0005999512 0.0005999027 0.0005997131 0.0005992716 0.0005981826 0.0005957878 0.0005909116 0.0005819057 0.0005667647 0.00054365 0.0005115589 0.0004710287 0.0004244159 0.0003755841 0.0003289713 0.0002884411 0.00025635 0.0002332353 0.0002181086 0.0002091792 0.0002045901 0.0002029871 
0.0001 0.0001 0.00025 0.0009666667 0.0014 0.00735 0.0191 0.0002 0.0018 0.0156 0.1136 0.646 3.8528 5.33935 6.9845 8.9011 12.0514 16.9517 21.814 14.5361 16.8488 16.4926 17.6037 18.028 17.747 17.1957 15.8793 15.6107 16.7175 15.991 16.4172 17.9008 20.6282 25.6163 28.8431 25.4173 27.83767 34.5085 33.0455 32.0472 30.388 30.6911 30.6855 30.0297 29.0549 28.786 27.379 25.6071 23.4927 20.5094 16.6205 22.1108 30.0562 26.151 20.1116 13.8523 8.0839 6.0291 4.5368 6.233817 3.7014 3.3695 3.8435 3.8931 3.9823 4.0162 3.9426 3.758617 3.7108 3.4319 3.1497 2.7809 2.3861 1.9693 1.4792 1.5286 0.7099 0.5184 0.3707 0.1548 0.0444 0.08336667 0.1075 0.2294 0.21105 0.1946 0.1628333 0.1349 0.1094667 0.09715 0.07435 0.05235 0.05235 0.0414 0.042775 0.2013153 0.1267074 0.0192 0.0002 0.18965 1.235645 1.702959 0.9953018 0.4963901 0.1988289 0.05648632 0.009465072 0.0001290123 0.000114429 0.0001056327 0.000103125 0.0001 0.0001000977 0.0001 0.0001 0.0001039246 0.0001039062 0.0001 0.927689 0.9496215 0.5924151 0.4028876 0.3171841 0.2852528 0.2746073 0.2723367 0.2706 0.157891 0.06036717 0.02809117 0.01148731 0.004158634 0.001427576 0.000568718 0.0003177874 0.0002422613 0.0002133479 0.0002064453 0.0002 0.0009171454 0.0006534339 0.0002868693 0.0001626626 0.0001228583 0.0001077109 0.0001039062 0.0001 0.01258225 0.01783591 0.0153626 0.01192049 0.008378162 0.005394689 0.00325629 0.00192686 0.001202157 0.0008516173 0.0006993762 0.0006376667 0.0006145476 0.0006049373 0.0006024902 0.0006 4.930143 9.8597 4.464196 1.638844 1.479013 0.8934588 0.0006 0.0005999024 0.0005998058 0.000599431 0.0005985781 0.0005965386 0.0005922466 0.0005839496 0.0005695209 0.0005468238 0.0005146054 0.0004732475 0.0004252332 0.0003747668 0.0003267525 0.0002853946 0.0002531762 0.0002304791 0.0002160505 0.0002077962 0.0002036908 0.0002022834 
0.0001 0.000175 0.0004388889 0.0008722222 0.003238889 0.0070125 0.0002 0.001 0.115825 0.2656833 0.6305 0.9079 1.010767 0.3412 0.8582 2.6117 5.9696 9.6135 8.87505 8.238 9.820066 10.4147 12.8587 14.3839 14.6979 14.668 14.7953 13.9423 15.88688 14.2713 18.0514 21.0021 22.5961 21.5937 18.2883 20.8648 23.103 21.7613 21.2914 21.6134 23.8675 25.9469 28.0221 27.18807 29.4474 30.7397 31.8292 32.5966 33.0133 33.0449 32.3041 29.54038 34.9414 33.3676 30.6167 26.3737 22.152 17.4676 13.0183 11.7182 9.2477 3.9959 2.8785 2.8975 3.2857 3.7844 4.433383 4.3569 4.1833 3.8743 3.794 3.4324 3.0426 2.6123 2.5464 2.1671 1.7335 0.9597 0.4449 0.2314 0.0982 0.1075 0.2050333 1.598367 0.2294 0.1927 0.1617 0.1341 0.1089 0.0854 0.753125 0.0633 0.0414 0.04415 0.5424793 0.3417222 0.0382 0.0002 0.3791 1.800302 2.550148 1.637925 0.9208025 0.4271778 0.1411901 0.02811883 0.00015 0.0001263889 0.0001106482 0.00010625 0.0001 0.0001003906 0.0001 0.0001 0.0001078857 0.0001078125 0.0001 1.39805 1.441486 0.8711193 0.5362589 0.3698672 0.3025368 0.2791483 0.2740735 0.2706 0.2028284 0.1054606 0.05267488 0.02296597 0.008632644 0.002863313 0.0009799447 0.000439469 0.0002867402 0.000227153 0.0002128906 0.0002 0.001735505 0.001245136 0.0004879404 0.0002272253 0.0001454423 0.0001153202 0.0001078125 0.0001 0.01242208 0.01933944 0.01846748 0.01570082 0.01191949 0.008141153 0.005073844 0.002969069 0.001725958 0.001085554 0.0007949598 0.0006743377 0.0006288312 0.0006098314 0.0006049805 0.0006 4.93013 9.8597 4.562761 1.792595 1.641729 1.482207 1.313102 0.7779264 0.0006 0.0005998047 0.0005996128 0.0005988755 0.0005972459 0.0005934943 0.0005859996 0.0005723547 0.0005502083 0.0005179084 0.0004756995 0.0004261348 0.0003738652 0.0003243005 0.0002820916 0.0002497917 0.0002276453 0.0002140004 0.0002065056 0.0002028826 0.0002016841 
0.0001375 0.000237963 0.0004953704 0.001516667 0.002830903 0.0002 0.004166667 0.1545458 0.5305 0.4457 0.3869 0.1366 0.2977667 0.1801 0.2852 0.5651 1.3713 2.8686 1.6494 3.224 5.004066 6.015 8.4789 10.1881 11.3141 10.9925 11.7016 14.55782 15.2692 20.2368 19.5852 16.7262 13.9792 11.9353 15.0676 14.62758 14.4695 15.2448 16.3813 16.7714 18.3593 19.7917 21.4053 21.56977 23.5384 25.6894 27.795 29.812 31.6281 33.4045 35.0789 27.6105 28.2412 29.986 31.3054 32.0085 30.8365 27.2074 22.78428 22.6331 17.1719 13.5235 8.696 6.5427 5.9637 5.7174 5.097167 4.7828 5.3318 5.4664 5.0006 4.6937 4.3155 3.8305 4.676317 3.1706 2.3409 1.486 0.8918 0.4824 0.3211 0.232 2.93708 0.2756 4.2901 4.004 3.7306 3.4457 2.6002 2.669033 1.9669 0.8969 0.0469 1.60188 0.9487666 0.0762 0.0002 0.758 2.536667 3.594815 2.49073 1.5649 0.8581463 0.3393611 0.08402593 0.0001833333 0.0001472222 0.0001194444 0.0001125 0.0001 0.0001015625 0.0001 0.0001 0.000115918 0.000115625 0.0001 2.056114 2.190639 1.345347 0.7884732 0.4795381 0.3407653 0.2892981 0.2775469 0.2706 0.2692088 0.1763492 0.0951556 0.04487709 0.01799196 0.006028866 0.001877105 0.0006839678 0.0003787616 0.0002556777 0.0002257812 0.0002 0.003367587 0.002461953 0.0009124809 0.0003609739 0.0001903664 0.0001303355 0.000115625 0.0001 0.01075709 0.01866163 0.0201696 0.0191871 0.01604574 0.01186962 0.007843109 0.004710734 0.00266769 0.001528783 0.0009813997 0.0007464806 0.0006569993 0.0006195332 0.0006099609 0.0006 4.930089 9.8597 4.658538 1.93837 1.794435 1.644981 1.485772 1.315867 1.137667 0.6575714 0.0006 0.0005996094 0.0005992289 0.0005977884 0.0005947204 0.0005879743 0.000575304 0.0005537858 0.0005215351 0.0004784043 0.0004271592 0.0003728408 0.0003215957 0.0002784649 0.0002462142 0.000224696 0.0002120257 0.0002052796 0.0002022117 0.0002011566 
0.0001877315 0.0002902778 0.00075 0.001260735 0.0002 0.006741667 0.0113 0.0113 0.26845 0.6153 0.0974 0.104 0.09001666 0.1168 0.147 0.2226 0.4059 0.8215 0.1682 0.9302 0.5363 1.5964 3.5726 6.1545 9.4054 13.7933 16.22 12.64758 15.4185 12.6243 10.67 10.3725 8.7293 9.0187 8.1496 10.6377 8.6875 8.8904 8.9294 10.5307 10.8076 11.5284 12.6968 14.74642 14.3086 16.1048 18.0557 20.1332 22.2565 24.424 26.2467 17.2095 19.2517 21.4364 23.7609 26.1114 27.9781 28.6405 25.13885 27.7388 26.24 24.219 20.2004 14.6237 9.8723 5.6849 7.789533 6.2566 6.426 7.1342 7.6881 7.8221 7.9098 8.1261 6.758217 8.1513 8.1674 8.5722 8.7923 9.656 10.1754 6.300967 7.8638 6.2065 8.8299 7.5202 6.3146 5.3943 5.6543 4.413767 5.5985 6.4459 5.075 2.6939 0.1522 0.0002 1.5158 3.512615 4.868845 3.543678 2.371922 1.556589 0.7661889 0.2516611 0.0002333333 0.0001833333 0.0001333333 0.000125 0.0001 0.00010625 0.0001 0.0001 0.0001324219 0.00013125 0.0001 2.892046 3.23669 2.095622 1.239606 0.7008119 0.4250016 0.3128007 0.2844937 0.2706 0.3617377 0.2806374 0.1638601 0.08455028 0.03705646 0.01302454 0.003894882 0.001167181 0.0005692515 0.0003154707 0.0002515625 0.0002 0.00652756 0.004928509 0.001814277 0.0006430727 0.0002800926 0.0001597565 0.00013125 0.0001 0.008119219 0.01547702 0.01933213 0.02117574 0.02000093 0.01638462 0.01175167 0.007472565 0.004305088 0.002354548 0.001343435 0.0008883659 0.0007123982 0.0006386778 0.0006199219 0.0006 4.929968 9.8597 4.755918 2.080436 1.938097 1.796577 1.648629 1.489737 1.31895 1.138914 0.9551366 0.5356349 0.0006 0.0005992188 0.000598468 0.0005956783 0.0005900149 0.0005782298 0.0005576675 0.0005254601 0.0004814777 0.000428275 0.000371725 0.0003185223 0.0002745399 0.0002423325 0.0002217702 0.0002099851 0.0002043217 0.000201532 0.0002007812 
0.0002390046 0.0004093364 0.0006252532 0.0002 0.007385417 0.0113 0.0113 0.0113 0.0113 0.0015 0.0014 0.0013 0.05585 0.0013 0.0018 0.0038 0.0135 0.0492 0.0002 0.17695 0.0031 0.0349 0.3003 2.8546 11.3241 11.1755 10.1448 9.754383 7.1314 7.6605 10.0543 9.7142 10.802 10.1871 9.4656 7.652867 7.9864 6.5028 6.1601 6.1295 6.6082 7.178 8.451317 7.8586 8.6708 9.6347 10.7675 12.0832 13.5964 15.3195 15.78444 10.5282 11.7631 13.2154 14.9339 16.9419 19.154 21.3633 22.28178 23.25 24.4633 24.4332 23.0393 21.4519 17.1395 14.5705 12.94805 9.725 6.8739 6.5134 6.8323 7.2916 7.3899 7.5415 8.2041 9.0667 9.7906 10.0896 9.9203 9.6536 9.1534 8.500983 10.0601 9.4955 8.3556 8.1702 7.7551 6.9388 5.3974 6.012933 5.2653 5.3006 5.5568 5.7044 5.6733 3.0314 4.640975 6.347 5.0591 3.200433 2.3715 1.543833 0.7544333 0.0003 0.00025 0.00015 0.00015 0.0001 0.000125 0.0001 0.0001 0.0001671875 0.0001625 0.0001 3.843811 4.549022 3.175251 1.985797 1.125818 0.6072028 0.3694145 0.2983875 0.2706 0.4855463 0.4245247 0.2662796 0.1511078 0.0741927 0.02835031 0.008626389 0.002096914 0.0009613426 0.000443287 0.000303125 0.0002 0.01237615 0.009803704 0.003730384 0.00125144 0.0004610082 0.0002167695 0.0001625 0.0001 0.006162059 0.01082746 0.01538736 0.02021625 0.02239276 0.02091821 0.01669182 0.01154383 0.007019367 0.003854501 0.002041397 0.001167747 0.0008211613 0.0006761895 0.0006398438 0.0006 4.929603 9.8597 4.860636 2.226064 2.077271 1.937973 1.799048 1.652712 1.494129 1.32237 1.140352 0.95402 0.7710375 0.4168822 0.0006 0.0005984375 0.0005969665 0.0005916309 0.0005814472 0.0005616112 0.000529944 0.0004848251 0.0004296639 0.0003703361 0.0003151749 0.000270056 0.0002383888 0.0002185528 0.000208369 0.0002030335 0.0002015625 0.0002 
0.0007391975 0.0008002057 0.0007947531 0.004542117 0.0113 0.0113 0.0113 0.0113 0.0064 0.004733333 0.0014 0.00135 0.0013 0.00155 0.0023 0.006366667 0.02216667 0.02096667 0.0247 0.00165 0.019 0.729675 1.2593 1.3402 4.3955 3.8412 3.7116 5.770233 5.9 8.3135 7.0012 9.135 9.2444 8.8251 8.18715 6.8604 4.7677 4.6726 4.767 5.0001 5.2636 5.5572 6.0453 5.8889 6.2696 6.7129 7.2351 7.8555 8.5956 9.48 9.22855 7.2832 7.8654 8.6119 9.5947 10.907 12.6574 13.89695 14.9408 17.7573 20.8187 23.2136 21.341 22.6165 23.8081 18.18267 22.2258 19.2255 14.8949 9.3697 5.7023 5.9529 6.7431 7.174783 6.876 7.2669 7.8585 7.5948 7.4303 7.2862 6.9192 6.90435 6.834 7.4502 5.1256 5.5785 6.0927 6.6831 5.5834 7.3414 6.8207 5.5142 6.1163 6.7232 7.2169 7.5878 6.69562 7.9445 4.7495 2.4833 2.3685 2.2627 0.0003 0.0003 0.8687 0.0002 0.0001 0.0002 0.0001 0.0001 0.00024375 0.000225 0.0001 4.81948 6.003337 4.552326 3.091404 1.882022 0.9839648 0.5114685 0.326175 0.2706 0.6490685 0.6160753 0.4064414 0.2510574 0.1413401 0.06092593 0.02031204 0.003812963 0.001754167 0.0007236111 0.00040625 0.0002 0.0224898 0.01905267 0.00776214 0.002596296 0.0008327161 0.0003253086 0.000225 0.0001 0.007454548 0.007687174 0.009406515 0.01538868 0.02136687 0.02389321 0.02191821 0.01694321 0.01121404 0.006474229 0.00336983 0.001719444 0.001034915 0.0007488812 0.0006796875 0.0006 4.928509 9.8597 4.978689 2.384374 2.219779 2.074039 1.937994 1.801885 1.657265 1.498985 1.326136 1.141989 0.9529319 0.7671394 0.5930412 0.3067485 0.0006 0.000596875 0.0005940244 0.0005839935 0.0005663238 0.0005345165 0.0004889918 0.0004309671 0.0003690329 0.0003110082 0.0002654835 0.0002336763 0.0002160065 0.0002059757 0.000203125 0.0002 0.0001500229 
0.0007166667 0.0007617284 0.0009222222 0.001295062 0.00615 0.0113 0.0113 0.00885 0.007477778 0.004177778 0.002494444 0.00135 0.0014 0.001716667 0.003405556 0.01027778 0.0165 0.2516333 0.3089133 0.6239714 1.9984 1.616533 2.5804 0.4454 0.6925 1.1322 2.251033 2.9273 4.8063 5.2727 8.6484 9.4525 8.9384 7.5667 7.1274 6.218 4.7522 4.1263 4.1739 4.3553 4.5631 4.7808 4.9822 5.0083 5.248 5.5032 5.7787 6.0811 6.4209 6.8137 6.794317 5.9467 6.136 6.3196 6.5176 6.7804 7.217 8.860766 8.0492 9.7102 12.5423 23.3702 13.6222 14.6365 15.4671 17.49902 15.885 15.6158 14.6053 12.4452 11.9833 10.3498 8.2646 8.334333 5.571 4.4006 4.0182 4.3766 4.9424 4.6604 4.0799 4.536083 4.3795 3.7028 2.844 3.0311 3.2347 3.4546 4.405033 3.6851 3.744 3.9231 4.431 5.4342 6.0736 6.9181 6.5109 7.9963 9.4335 9.84 7.8067 5.4324 5.0243 2.6248 3.134883 0.8495 0.0005 0.0001 0.0001 0.000425 0.00035 0.0001 5.778008 7.428956 6.070856 4.5102 3.075922 1.688089 0.8820556 0.38175 0.2706 0.8574556 0.8769333 0.5912852 0.3800074 0.2480315 0.1251333 0.05085555 0.006788889 0.003291667 0.001358333 0.0006125 0.0002 0.0382419 0.03549383 0.01602346 0.005640741 0.001622222 0.0005259259 0.00035 0.0001 0.0144184 0.01028889 0.005010905 0.007761728 0.01544691 0.02295741 0.0256963 0.02302593 0.01703241 0.0107713 0.005838426 0.002812963 0.001458102 0.0008872685 0.000759375 0.0006 4.925228 9.8597 5.115187 2.564469 2.375401 2.213253 2.070684 1.938181 1.805116 1.662358 1.504322 1.330276 1.14381 0.9518808 0.7631051 0.5864322 0.4295863 0.2103755 0.0006 0.00059375 0.000588323 0.0005699074 0.0005407407 0.0004929013 0.0004333333 0.0003666667 0.0003070988 0.0002592593 0.0002300926 0.000211677 0.00020625 0.0002 0.0001500686 0.0001 
0.0007 0.0007333333 0.0008518518 0.001181482 0.001851852 0.005116667 0.00701 0.008336111 0.008758334 0.009748148 0.01135926 0.014175 0.01797778 0.02319907 0.04066111 0.0954 0.0954 0.3763333 0.9387 0.55855 0.8268 1.9984 0.2708 0.3071 0.389 0.7718 1.117383 1.1221 1.8949 4.2582 5.8319 6.6107 6.8888 6.8293 6.448633 6.4649 5.3139 3.8473 3.6668 3.8101 4.0117 4.222 4.332883 4.436 4.6532 4.8732 5.0948 5.3161 5.5343 5.807317 5.7458 5.4965 5.6836 5.8194 5.8703 5.7834 5.4764 6.4943 4.8238 3.6301 23.0514 9.8586 10.7673 11.8597 13.12 13.28197 14.4881 15.3083 16.421 18.181 16.7438 14.063 12.0716 8.668783 10.4797 7.4856 4.2637 2.7394 2.5582 2.3515 2.8832 2.4491 2.5548 2.0178 2.113 2.2453 2.389 2.5457 2.740383 2.7203 2.923 3.1769 3.6178 3.3597 3.7663 4.1236 5.063267 4.4951 4.8828 5.3133 5.8243 6.4738 7.3112 5.679934 7.7797 7.5548 6.1509 3.3539 0.0009 0.0006 0.0001 7.010567 8.7307 7.370667 6.1855 4.6564 2.6887 1.882667 0.4929 0.2706 1.0594 1.237156 0.8626667 0.5309778 0.3802111 0.2288333 0.13505 0.01151667 0.006 0.00285 0.001025 0.0002 0.05894167 0.0618 0.03202593 0.01265556 0.003388889 0.0008777778 0.0006 0.0001 0.0287736 0.02150247 0.007297531 0.002066667 0.005668519 0.01555 0.02512222 0.0282 0.02376667 0.01711111 0.01021944 0.004983333 0.0023125 0.001143056 0.00091875 0.0006 4.915384 9.8597 5.273859 2.773554 2.553633 2.36622 2.206349 2.067191 1.938512 1.808839 1.667998 1.510236 1.334733 1.145859 0.9508374 0.7589459 0.579532 0.4208185 0.2884084 0.1316752 0.0006 0.0005875 0.0005774691 0.0005447531 0.0005 0.0004339506 0.0003660494 0.0003 0.0002552469 0.0002225309 0.0002125 0.0002 0.0001502058 0.0001 0.0001 
0.0007 0.0007 0.0008 0.001055556 0.001688889 0.002811111 0.004666667 0.007422222 0.0103 0.01432222 0.01971667 0.02609444 0.03399444 0.04331111 0.05536667 0.07515 0.0954 0.0954 0.3758333 0.9387 0.1784 0.1917 0.2057 0.2225 0.2456 0.2835 0.47515 0.4674 0.8367 1.2475 1.8469 2.7581 4.2948 5.6003 5.581483 6.0126 5.2891 3.9495 3.2001 3.242 3.4446 3.533083 3.6635 3.8867 4.1134 4.3438 4.5775 4.8133 5.049 5.152417 5.2802 5.0677 5.3554 5.6493 5.9486 6.2517 6.5531 5.9652 6.8463 7.0889 7.3952 7.7329 8.1309 8.6364 9.57225 9.281 11.4506 11.0287 9.9727 10.3991 10.3798 9.3651 10.0437 8.1987 7.4271 6.9133 6.3381 4.6325 2.2188 1.8104 2.092533 1.9479 2.0089 1.6003 1.5878 1.7045 1.8302 1.9586 2.058683 2.078 2.1701 2.2867 1.8177 2.2571 2.8616 2.93535 3.2298 3.6167 3.9676 4.3093 4.6557 5.0254 5.4306 5.734433 5.909 6.5168 7.4357 8.4484 21.9618 12.5381 11.2906 6.26974 9.741 7.7204 4.6506 6.84866 4.6622 0.7152 0.2706 1.084933 1.596 1.286067 0.8294 0.4725333 0.291 0.3771 0.0184 0.00965 0.0065 0.00185 0.0002 0.07906666 0.09695555 0.05954444 0.0289 0.007633334 0.001433333 0.0011 0.0001 0.05523142 0.04357037 0.01619259 0.004744445 0.0009555555 0.0005 0.01555 0.0306 0.02921667 0.02478333 0.0173 0.00925 0.004108333 0.001591667 0.0012375 0.0006 4.885853 9.8597 5.458151 3.016346 2.76124 2.543078 2.356583 2.198998 2.063466 1.939109 1.81296 1.674448 1.516586 1.339673 1.147939 0.9499654 0.7546076 0.5722648 0.4117235 0.2784673 0.1750346 0.07259876 0.0006 0.000575 0.0005574074 0.0005018518 0.0004407408 0.0003592593 0.0002981481 0.0002425926 0.000225 0.0002 0.0001506173 0.0001 0.0001 0.0001 
0.0007 0.0007 0.0007 0.001 0.001466667 0.0026 0.004366667 0.007033333 0.01086667 0.013 0.0191 0.02705 0.03213333 0.0428 0.055 0.0683 0.0819 0.0954 0.24294 0.0934 0.081 0.0862 0.09 0.0927 0.0944 0.1351667 0.0791 0.127 0.1861 0.3045 0.5751 1.2392 2.3979 3.1811 3.7882 4.7936 4.8762 4.0902 2.8425 2.6227 2.8143 2.9017 3.0424 3.2772 3.5157 3.7583 4.0057 4.2582 4.5173 4.608 4.7879 4.4217 4.7106 5.0039 5.3001 5.6026 5.764983 5.9053 6.1863 6.4448 6.6776 6.8817 7.054 7.1984 7.697783 7.338 9.3004 12.9211 8.6929 8.6972 8.616 8.4322 8.58725 8.1316 7.7019 7.1374 6.4524 5.7067 4.8161 2.4529 2.93875 1.5434 1.8142 1.4347 1.0058 1.1087 1.2417 1.657233 1.4139 1.6356 1.5849 1.4832 1.7509 1.6999 1.6269 2.120367 2.0039 2.5268 2.8041 3.1201 3.3923 3.6623 3.9076 4.333367 4.0685 4.0485 4.8429 22.2651 4.113 4.4874 4.9268 6.792333 5.3902 5.9029 7.1819 8.7276 9.021 6.3711 4.445533 1.4954 1.4888 1.8038 0.5656 0.1188 0.7332 0.021 0.4573 0.0158 0.0035 0.0002 0.0911 0.1309333 0.09403333 0.0659 0.0187 0.0021 0.0021 0.0001 0.1019813 0.084 0.03484444 0.01186667 0.001866667 0.0005 0.0005 0.150874 0.0306 0.0306 0.02645 0.0173 0.00815 0.0023 0.001875 0.0006 4.797259 9.8597 5.674227 3.297854 3.000823 2.75036 2.532535 2.346338 2.190875 2.059782 1.939739 1.817807 1.681334 1.524202 1.344222 1.150595 0.9490006 0.7503006 0.5645216 0.4019722 0.2686765 0.1647531 0.09167407 0.03336788 0.0006 0.00055 0.0005222222 0.0004333333 0.0003666667 0.0002777778 0.00025 0.0002 0.0001518519 0.0001 0.0001 0.0001 0.0001 
0.0007 0.0007 0.0007 0.0007 0.0013 0.0024 0.0041 0.0066 0.0104 0.0156 0.0191 0.0226 0.0315 0.0423 0.0546 0.0681 0.0822 0.05614 0.0341 0.0531 0.0798 0.085 0.0728 0.0576 0.0444 0.06158333 0.064 0.066 0.1041 0.1559 0.2605 0.4901 0.9929 1.776917 2.0125 3.233 4.0789 3.9498 2.8444 1.9667 2.1075 2.19775 2.3379 2.5848 2.8372 3.0925 3.3517 3.6121 3.8719 3.92235 4.1417 3.7224 4.0261 4.3392 4.6471 4.9746 5.075033 5.3026 5.6413 5.9582 6.2499 6.5123 6.7276 6.8632 7.0598 6.8697 6.6134 13.1076 8.5519 8.6921 8.7628 8.7513 8.593984 8.6446 8.4273 8.0768 7.5502 6.8812 6.3023 5.7173 4.17305 4.1606 2.1237 3.0754 2.042 1.7427 1.7485 1.517367 1.7505 1.7459 1.8693 1.9817 1.6612 1.5982 1.5329 1.552033 1.4671 1.3676 1.6839 2.1319 2.4173 2.7455 3.1438 4.167933 3.5407 24.7159 5.0337 3.2573 3.6447 4.0695 4.154716 4.4772 4.9282 5.5331 6.7512 7.80075 7.9025 8.7743 7.14215 9.0466 5.2714 0.5537 0.2818 0.4981 0.9398 0.909 0.9211167 0.8834 1.8742 0.0699 0.144 0.1503 0.0985 0.0333 0.214225 0.0041 0.0001 0.186325 0.1520667 0.06943333 0.0305 0.0046 0.0005 0.0005 0.2585562 0.3013555 0.1633583 0.0306 0.0306 0.01815 0.00315 0.00315 0.0006 4.531478 9.8597 5.930776 3.63173 3.274702 2.98713 2.740637 2.523315 2.333654 2.182045 2.056928 1.940374 1.821917 1.69113 1.530956 1.350522 1.151187 0.9500759 0.7457389 0.555087 0.3927389 0.2580907 0.1552 0.08096852 0.0388537 0.01304931 0.0006 0.0005 0.0004666667 0.0003333333 0.0003 0.0002 0.0001555556 0.0001 0.0001 0.0001 0.0001 0.0001 
0.0007 0.0007 0.0007 0.001 0.001466667 0.0026 0.004366667 0.007033333 0.01086667 0.013 0.0191 0.02705 0.035875 0.04368334 0.0642 0.0237 0.0287 0.03896667 0.0403 0.0469 0.0453 0.0382 0.0386 0.0321 0.0444 0.05911667 0.0432 0.0429 0.0458 0.0765 0.1419 0.2903 0.5187 0.9754167 0.9513 1.8637 2.9353 3.2143 2.4439 1.3505 1.3447 1.447033 1.5397 1.7895 2.0572 2.3307 2.5957 2.9061 3.008183 3.169 3.0463 2.9008 3.2021 3.5593 3.8345 4.1449 4.2609 4.5202 4.9314 5.3219 5.6896 6.0619 6.4479 6.8437 6.701317 7.2458 7.5871 7.9072 8.2056 8.4599 8.6563 8.665883 8.7813 8.8229 8.7729 8.6334 8.2655 7.502 6.8326 6.7976 6.0309 5.1332 4.1911 4.9684 4.0872 2.428 1.5218 1.856833 1.4278 1.0667 1.1621 1.3106 1.5053 1.4397 1.3736 1.140117 1.3078 1.2434 1.1849 1.0952 1.3238 1.5489 2.721333 1.9753 8.3717 1.927 2.2725 2.6706 2.999 3.3353 3.473883 3.6321 3.9875 4.4321 5.0638 5.3185 6.6509 7.3009 7.380967 9.8646 11.0276 0.5431 0.2915 1.0854 1.5836 1.809867 1.8163 1.8812 4.3967 0.1397 0.3322 0.4252 0.443 0.4153 0.4255 0.394 0.3413 0.2566 0.1473 0.0523 0.0087 0.24555 0.0005 0.334925 0.3915 0.3073 0.2052667 0.1102667 0.0306 0.759875 0.0057 0.0006 3.734133 9.8597 6.216737 4.03925 3.607417 3.248522 2.968167 2.7447 2.509044 2.3162 2.175717 2.054217 1.94085 1.826056 1.698844 1.548489 1.345533 1.157544 0.9504833 0.7422 0.5445333 0.3785278 0.2551556 0.1405889 0.06985556 0.03246111 0.01424444 0.004891667 0.0006 0.0004 0.0004 0.0002 0.0001666667 0.0001 0.0001 0.0001 0.0001 0.0001 0.0001 
0.0007 0.0007 0.0008 0.001055556 0.001688889 0.002811111 0.004666667 0.007422222 0.0103 0.009793334 0.003 0.0024 0.013625 0.0471 0.0224 0.0281 0.0329 0.0261 0.0156 0.0182 0.0272 0.0399 0.0573 0.08 0.0797 0.06081667 0.079 0.0803 0.0878 0.1091 0.1584 0.2604 0.5124167 0.5636 0.8135 0.9987 1.912 2.6282 2.2233 0.9464 1.053017 0.6629 0.6895 0.8895 1.1504 1.4783 1.6208 2.1077 2.205217 2.3823 1.8887 2.0052 2.1423 2.7861 2.9658 3.1596 3.263367 3.4635 3.9663 4.4448 4.821 5.1838 5.572 5.721717 5.9811 6.4044 6.833 7.2563 7.6628 8.0404 8.3793 8.415667 8.6643 8.8787 8.9997 8.9986 9.488 8.6771 8.2561 7.9251 7.6464 6.8561 5.931 6.611 5.4994 4.2827 3.719917 2.9644 1.728 1.2456 1.1842 1.102 0.9885 0.8324 1.24725 0.6653 0.494 0.3305 0.1892 0.079 0.0027 5.786 2.382717 1.1285 0.9439 1.085 1.3688 1.866 2.1575 2.5411 2.673433 2.7881 3.1121 3.5303 4.22 3.5574 3.8386 4.4047 4.254 5.0454 3.6967 1.0971 0.3402 0.9966 2.3373 2.745283 3.2732 3.7812 5.2672 14.2924 0.2933 0.5897 0.7248 1.888633 0.7667 0.7568 0.7108 0.6385 0.563 0.5135 0.4927 1.279433 0.4803 0.4557 0.4032 0.3156 0.2031 0.0971 1.8152 1.5624 1.4408 1.3421 9.8597 6.4567 4.4609 4.08965 3.5672 3.1654 3.012967 2.726133 2.495 2.306 2.1476 2.07355 1.9415 1.8075 1.729167 1.559867 1.356433 1.1203 0.9959 0.73525 0.49545 0.4029 0.2372333 0.1253333 0.0592 0.02503333 0.01315 0.00455 0.001266667 0.0006 0.0002 0.0002 0.0001 0.0001 0.0001 0.0001 0.0001 0.0001 0.0001 
0.0007 0.0007333333 0.0008518518 0.001181482 0.001851852 0.003055556 0.004966666 0.007462963 0.006703111 0.003 0.003 0.003 0.0018 0.0026 0.0046 0.0079 0.013 0.0205 0.0169 0.02033333 0.02843333 0.132675 0.1695667 0.3372 0.1272833 0.057 0.0616 0.0731 0.1014 0.165 0.2932 0.5237 1.692967 0.9178 1.6395 0.6024 1.2042 1.7878 1.5886 0.9344 2.182633 1.0792 1.1703 1.098 1.0314 0.9839 1.2257 1.1734 1.953617 1.4928 2.1601 2.4849 2.8095 2.1878 2.3865 2.79385 2.2862 2.0058 2.6294 3.4477 3.8659 4.185 4.5436 4.694383 4.942 5.3776 5.8436 6.3295 6.8215 7.309 7.7817 7.8422 8.2311 8.6519 9.0325 9.3398 9.473 9.5814 9.5315 9.418817 9.2531 8.6876 7.7956 9.4821 8.4359 6.6298 6.990083 4.4928 2.9292 2.4488 2.3907 2.3273 2.091 1.7256 2.191583 1.4469 1.4887 1.5718 1.7075 1.9151 2.1605 2.6266 2.348917 1.231 1.19 1.166 1.0913 0.8881 1.1106 1.7626 1.9284 1.9814 2.29 2.663 3.1721 2.7072 2.5026 2.8517 1.8812 9.8968 4.825 6.2607 2.6497 0.8979 2.7943 2.797683 4.667 6.2761 8.1735 20.3679 0.42 2.2781 3.9367 2.245267 5.0351 5.7906 6.4205 6.6488 5.5869 4.6163 3.6328 3.0404 3.0616 2.665 2.3602 2.1088 1.8939 1.7121 4.014658 5.6738 5.3741 5.4333 6.3771 5.2034 4.3866 3.7927 4.454375 3.3417 2.9891 2.7081 2.4812 2.2957 2.1411 2.006 2.735225 1.877 1.738 1.5725 1.3691 1.1277 0.8641 1.028225 0.6064 0.3845 0.2178 0.1094 0.0488 0.0194 0.0069 0.005875 0.0022 0.001 0.0003 0.0001 0.0001 0.0001 0.0001 0.0001 0.0001 0.0001 0.0001 
0.0007166667 0.0007617284 0.0009222222 0.001295062 0.00202963 0.003291358 0.005161728 0.005026548 0.003 0.003 0.003 0.0024 0.002466667 0.003 0.005033333 0.0085 0.01045 0.0096 0.0062 0.0062 0.3493 0.2904 0.4063 0.0967 0.1483 0.1131 0.148 0.2353 0.4498 0.9198 1.7962 3.1479 2.559633 4.7444 6.286 9.0144 9.3357 8.6553 7.335 5.6045 3.6754 3.8684 3.6008 3.4379 3.2609 2.5399 2.433 2.164617 2.3312 2.2343 2.5951 2.471 1.8804 2.3323 2.6459 2.526917 3.3191 4.1255 3.5817 2.9088 2.9018 3.1292 3.4011 3.56025 3.7265 4.1136 4.5643 5.0715 5.6095 6.1648 6.7229 6.789767 7.2739 7.8299 8.3865 8.9594 9.524 10.1327 10.20897 10.718 11.1078 11.1899 12.88525 13.6757 13.8599 13.9347 10.18163 9.6361 8.3438 6.8997 6.3158 6.1737 5.7645 4.7136 3.040233 3.7657 2.9532 1.9503 1.9864 2.0046 1.9666 1.8428 1.700883 1.4786 1.4628 1.4519 1.448 1.5379 1.9015 1.126233 1.143 1.3542 1.689 2.0053 2.5172 2.1661 2.0541 2.005483 2.5797 1.483 1.5898 2.585 2.3371 0.9663 1.4202 2.4343 2.2941 3.1778 4.5247 10.1294 23.1697 0.5857 1.442617 1.2082 1.8001 2.2292 2.3158 2.4204 3.6677 5.2171 3.796333 4.3947 6.1803 6.6682 6.6862 6.2624 5.8081 6.72225 4.073275 8.3203 7.375 6.2277 6.4631 6.264 5.9108 5.5263 5.088233 5.1568 4.8196 4.5196 4.2566 4.0267 3.8222 3.538017 3.6295 3.4284 3.1925 2.8942 2.5155 2.0608 1.5633 1.138017 1.0791 0.6665 0.367 0.1803 0.0791 0.031 0.0109 0.0056 0.0035 0.0006 0.0002 0.0002 0.0001 0.0001 0.0001 0.0001 0.0001 0.0001 0.0001 
0.0007391975 0.0008002057 0.0009930041 0.001415638 0.00220535 0.003494239 0.003895927 0.003 0.003 0.003 0.0027 0.002622222 0.002622222 0.0035 0.005511111 0.01034583 0.01110833 0.0096 0.0062 0.02035 0.1164 0.3493 0.1156 0.1338 0.1211667 0.152 0.1757 0.2214 0.3313 0.5962 1.148 2.1585 3.0676 3.8655 6.0548 8.2215 9.273 9.0347 7.8699 7.368433 6.2954 4.2705 3.0719 2.8584 2.7168 3.1459 2.9846 2.796967 2.8398 2.7105 2.719 2.3544 2.7455 2.6011 2.4536 2.198083 2.0702 1.9576 1.9216 1.9928 2.0749 2.1726 2.2943 2.495917 2.454 2.6775 3.0011 3.463 3.984 4.5447 4.69925 5.1017 5.6273 6.176 6.7653 7.4884 8.4522 9.8728 10.1363 11.4174 12.699 13.8271 17.4524 13.745 21.1255 13.5453 12.22808 12.8511 12.5865 11.6508 9.2602 6.6142 4.6637 5.546633 3.684 2.9056 3.7092 17.5666 3.9775 1.8276 1.7246 2.694817 1.5895 1.4368 1.3616 1.2641 1.1342 0.9034 0.3846 0.9142 0.4551 0.6349 1.0842 1.1973 1.8755 1.5411 2.0997 1.4974 0.9156 0.4818 0.1984 0.5284 0.4496 0.5008 1.174017 1.4557 1.9745 2.2639 2.5802 5.5781 18.1092 0.1293 2.89135 0.5177 0.8764 1.0659 1.1348 1.1565 1.2339 1.3074 2.695417 3.6097 3.301 3.8721 4.7101 5.889 7.0407 1.0046 3.201992 1.0066 2.5619 4.4587 6.3589 7.3249 6.9812 5.5253 6.5474 6.1645 5.8486 5.5785 5.3424 5.1299 4.9241 4.667167 4.7052 4.4395 4.0859 3.612 3.0149 2.3356 1.6544 1.25615 1.0608 0.6142 0.3195 0.1487 0.0619 0.0231 0.0078 0.004983333 0.0023 0.0004 0.0004 0.0002 0.0001666667 0.0001 0.0001 0.0001 0.0001 0.0001 0.0001 
0.0007697017 0.0008441358 0.001069616 0.001537997 0.002371742 0.003119103 0.003 0.003 0.003 0.00285 0.002774074 0.002648148 0.002914815 0.003877778 0.01083139 0.0174 0.0174 0.0111 0.013 0.0248 0.0374 0.0541 0.075 0.1004 0.09971666 0.131 0.1694 0.2103 0.2861 0.49 0.9138 1.101317 1.5874 2.9019 4.7816 7.0578 8.8527 9.5717 9.1711 8.008966 7.9347 6.1417 4.1402 3.61 3.4654 3.3221 3.1721 2.64635 3.0211 2.8734 1.4368 1.5747 1.4647 1.3613 1.8944 1.2719 1.4278 1.334 1.5211 1.554 1.5799 1.5914 1.79075 1.5773 1.5223 1.4323 1.3229 1.6346 2.043 2.5705 3.032533 3.0909 3.3988 3.7119 4.1624 5.2339 6.7848 8.5253 8.914284 10.1516 11.4753 13.0168 20.12 11.9573 12.5986 13.45037 11.9666 11.4347 10.5997 9.7419 9.168 8.394 7.5525 11.61757 6.9015 37.7722 10.0676 7.5183 6.2261 6.0865 5.2143 3.901083 3.8311 1.3407 1.2469 1.1608 1.0518 0.9316 0.7981 0.78895 0.8029 0.7688 0.5675 0.9669 0.9331 0.9794 1.23935 0.6339 0.7014 0.1547 0.0778 0.1817 0.6686 1.0195 1.349633 1.6816 2.2501 2.6576 3.0058 4.6542 10.3946 14.7152 5.493717 0.192 0.4801 0.5333 0.4399 0.4095 0.6694 0.7854 1.273133 0.8582 0.9172 0.9658 1.0075 1.0458 1.0892 1.863883 0.8933 1.2649 1.2199 1.2084 1.0137 1.2977 3.1505 3.76655 5.0356 6.745 8.2447 8.2783 7.2471 6.4142 5.7501 4.81435 5.1719 4.6152 4.0306 3.3901 2.6982 1.9966 1.3519 1.0631 0.8274 0.454 0.2225 0.0973 0.038 0.0133 0.0094 0.0042 0.0012 0.001125 0.0004 0.0003333333 0.0002 0.0001555556 0.0001 0.0001 0.0001 0.0001 0.0001 
0.0008069187 0.0008944845 0.001150583 0.001659785 0.002605768 0.003 0.003 0.003 0.002925 0.002874691 0.002757407 0.002779012 0.003146914 0.0104848 0.0174 0.0174 0.0174 0.0174 0.0078 0.0065 0.0107 0.0168 0.0245 0.04146667 0.035 0.0461 0.0582 0.0858 0.1264 0.1631 0.2649 0.6182 0.5353 1.1037 2.4295 4.2851 6.5784 8.2428 8.6915 8.180717 8.0912 6.8271 5.5733 4.2794 2.3026 2.1401 1.9974 2.4398 1.8631 1.7277 2.0456 1.8948 1.8001 2.1011 1.81635 1.5774 1.5089 1.2664 1.1519 1.2335 1.337 1.4702 1.536917 1.6387 1.6801 1.6784 1.9559 1.7895 1.6275 1.4646 1.617817 1.4228 1.4708 1.7387 2.4334 3.3637 4.604 6.1005 7.355267 7.4181 7.7545 6.7524 8.4562 9.3899 10.6396 10.44327 10.8266 11.1138 10.7059 9.8559 9.941 8.9779 8.4745 16.94302 38.4292 9.7873 5.6722 5.5833 5.9283 6.5897 5.7807 4.691783 5.2663 6.1483 3.9299 1.4991 1.6971 2.2299 1.1276 1.138383 1.1654 1.2347 1.3834 1.7164 1.8932 1.2857 1.037183 0.8963 0.7483 0.2757 0.3622 0.5744 0.9891 1.4351 1.719983 2.0051 2.5481 2.9477 3.1798 4.1169 6.8174 17.3352 8.644883 0.0729 0.1919 0.4754 0.7163 0.8076 0.6195 0.7214833 0.556 0.5221 0.496 0.4746 0.4574 0.4444 0.4768 0.79095 0.6787 0.6198 0.5783 0.7547 0.7945 0.7114 0.546 1.620317 0.3386 0.1605 0.0537 1.263 3.4644 4.3167 4.2719 4.131883 4.0629 3.7262 3.2688 2.7078 2.0867 1.4742 1.225833 0.9429 0.5412 0.2773 0.1267 0.0517 0.0189 0.0062 0.004783333 0.0018 0.0006 0.0009 0.00075625 0.0004 0.0003111111 0.0002 0.0001518519 0.0001 0.0001 0.0001 0.000100013 
0.0008507016 0.0009506621 0.001234951 0.002283227 0.003 0.003 0.003 0.0029625 0.00293323 0.002852366 0.002803704 0.002894444 0.009768811 0.0174 0.0174 0.0174 0.0174 0.0087 0.0009 0.0009 0.0017 0.0029 0.0054 0.0124 0.0085 0.0146 0.0242 0.039 0.0619 0.0985 0.1431 0.2179833 0.2647 0.5528 1.1169 2.1469 3.6392 5.6732 7.43 6.9742 7.7658 6.8504 5.6585 3.6045 2.7403 2.455 2.459233 2.3445 2.2406 1.9751 2.1064 2.0596 2.1115 2.0778 2.5832 2.5086 2.3863 2.2343 2.1117 1.8734 1.6626 1.5352 1.908367 1.4087 1.4483 1.2395 1.0853 0.9364 0.7944 0.6518 1.741633 0.5063 0.5583 0.7313 1.1873 1.8355 2.8858 5.985133 4.82 7.1161 8.0412 8.0376 6.8632 7.2471 7.7595 8.598833 8.8687 9.7651 9.6819 8.1728 9.0454 7.6816 33.2664 16.02105 7.034 5.4482 5.1869 4.278 3.957 3.9329 4.544967 3.9759 4.0824 4.4098 5.2434 6.6537 4.657 0.9528 2.749633 1.4104 1.5259 1.7343 2.0569 2.4169 1.5151 1.4761 1.238167 0.9517 0.2868 0.2878 0.6081 0.9314 1.3542 1.8285 2.074917 2.3501 2.825 3.1312 3.2344 3.8213 5.5518 8.689517 10.3279 9.2261 0.1816 0.4557 0.6948 0.8456 0.8522 0.7520334 0.8464 0.8359 0.82 0.8042 0.7934 0.7994 0.7839 0.7233334 0.8238 0.9061 0.9437 0.7461 0.5985 0.4574 0.53675 0.3963 0.2549 0.1273 0.0484 0.0133 0.0024 0.9625 2.37204 2.309 3.2255 3.6065 3.4702 2.4064 1.6066 1.0082 0.7659667 0.5812 0.3034 0.1423 0.0599 0.0226 0.0077 0.0024 0.00242 0.0008 0.001066667 0.0006 0.00075 0.0006265625 0.0004 0.0002527778 0.0002 0.0001316204 0.0001 0.0001000521 0.0001 
0.0009006818 0.001012105 0.002093768 0.003 0.003 0.003 0.00298125 0.002965244 0.002916032 0.0028631 0.002850171 0.008002281 0.01424444 0.01503333 0.0174 0.0174 0.009 0.0009 0.0009 0.0009 0.0001 0.0002 0.0003 0.003 0.0007 0.0015 0.0029 0.0056 0.0103 0.0187 0.0528 0.0343 0.0656 0.132 0.2776 0.589 1.1863 2.2133 4.542383 3.9155 5.9512 7.4562 7.4646 6.4618 4.8621 3.0965 3.046917 2.7219 2.3154 2.73625 3.3072 3.4463 3.604 3.6614 3.495633 3.5729 3.3716 2.9872 2.9436 2.9393 2.892 2.98175 2.7408 2.6566 2.4348 2.7704 2.8218 2.8606 2.8523 3.350717 2.9056 3.4987 4.2236 5.0992 6.461 8.1737 9.4727 7.456533 8.0278 6.7221 6.3561 6.7057 5.4886 5.7418 6.2503 6.870533 7.2483 8.5582 8.9213 6.3342 9.4905 33.5474 14.60612 4.3854 4.5368 4.7778 4.9212 4.6508 3.7123 3.4935 3.723717 3.4971 3.5134 3.474 3.5368 3.7042 4.5099 6.0905 3.574317 4.6866 3.2673 2.1637 2.5867 1.589 2.0209 2.029283 1.68 1.1392 0.6032 0.2962 0.7733 1.2152 1.6882 1.905717 2.1781 2.6526 3.0275 3.1929 3.2033 3.5975 4.8427 6.36215 7.2621 13.1333 0.1228 0.3254 0.5363 0.7022 0.7918 0.7953333 0.8463 0.8767 0.893 0.9038 2.6097 0.4286 0.6838 0.8320667 0.893 1.0083 1.0853 1.0327 0.8998 0.7042 0.5376 0.4052 0.2093 0.0879 0.0282 0.0069 0.0012 0.0001 0.817925 2.76725 3.047 3.434067 2.5042 0.5337 0.5142 0.3687 0.3882833 0.2206 0.114 0.0517 0.0208 0.0075 0.0024 0.0009 0.001366667 0.0008 0.0008 0.0008222222 0.0006 0.00039375 0.0001 0.000165625 0.00010625 0.0001 0.0001002604 0.0001 0.0001 
0.0009563933 0.002001311 0.003 0.003 0.003 0.002990625 0.002982165 0.002954175 0.06243609 0.133854 0.2885 0.1037154 0.0103 0.0103 0.0103 0.006695 0.0009 0.0009 0.0007 0.0001 0.00015 0.0002 0.0002 0.00026 0.0001 0.0002 0.0006 0.0014 0.0033 0.007 0.018 0.0152 0.038 0.0977 0.248 0.5989 1.3657 2.8713 3.7381 5.151 7.7762 9.7244 10.7874 8.1029 6.5285 4.5609 4.05595 3.1027 3.243 5.7846 6.1467 6.5495 6.6278 5.063117 4.6922 4.4609 4.2958 4.3861 4.3368 4.3656 4.4586 4.592683 4.6013 4.7405 4.8267 4.9016 4.8637 4.7851 5.7612 5.476083 7.139 8.9162 11.0991 13.6076 16.1556 12.4093 11.4607 7.605817 8.0722 3.7293 4.4711 5.1653 4.1569 4.5144 4.87595 5.0842 6.0122 7.6099 8.4459 2.5537 39.6087 5.6535 8.331516 3.1024 3.3484 3.7914 4.2644 4.462 4.1806 3.7499 3.683267 3.693 3.7002 3.5732 3.528 3.4972 3.4666 3.6936 4.271683 4.612 4.4334 3.5731 1.712 2.0421 2.7485 2.477217 2.7351 2.8224 0.7938 0.2979 0.8775 1.4171 1.9451 2.155267 2.4402 2.853 3.1028 3.1225 3.1031 3.3644 4.2807 5.1874 5.9077 15.1497 0.0641 0.1969 0.3679 0.5347 0.6675 0.7271667 0.7678 0.8422 0.8985 3.5274 0.8852 0.7219 0.7700167 0.7785 1.0294 1.1 1.1493 1.1184 0.9878 0.7682 0.6098667 0.4943 0.2608 0.1076 0.0327 0.0062 0.0008 0.0001 0.005925 0.01086667 0.009 0.0069 0.13705 0.19105 0.0892 0.0933 0.1246 0.0577 0.0299 0.0134 0.0052 0.0018 0.0007 0.001025 0.0009 0.0006095238 0.00041 0.0003 0.000125 0.0001 0.000115625 0.0001125 0.0001 0.0001010417 0.0001 0.0001 0.0001045573 
0.002239426 0.003 0.003 0.003 0.002995312 0.00299093 0.002975655 0.1111406 0.2428305 0.241 0.2649945 0.2885 0.1018171 0.005566667 0.0032 0.0032 0.002975 0.003027778 0.002554167 0.00293 0.003386111 0.003683333 0.0001 0.0001 0.0001 0.0003 0.0008 0.0019 0.0041 0.0097 0.01225 0.0231 0.0525 0.1232 0.2905 0.6709 1.4748 2.9946 4.078617 5.2829 7.748 9.6445 9.643 10.154 8.1135 5.5197 5.47635 5.334 5.4475 6.0451 5.76 5.3381 5.0952 6.304783 6.6981 6.5764 6.4843 6.433 6.431 6.4375 6.4387 4.790767 6.4247 6.4355 5.2256 5.5838 5.9605 6.2879 6.7805 7.463284 7.4179 8.1246 8.4316 7.5978 5.3005 7.0219 6.5011 3.9962 4.6053 6.199 4.9272 4.118 3.1959 3.5495 3.831183 4.1155 4.8915 6.8417 42.4655 26.7271 8.3665 1.6 2.2639 1.7004 2.0035 2.4614 3.0816 3.7184 3.9703 3.8536 3.578917 3.8125 3.8552 3.7943 3.8586 3.8975 3.7613 3.652083 3.2505 3.2969 3.7826 4.2954 3.4161 2.8559 3.485 3.084267 2.1938 0.6008 0.9022 0.2952 0.9373 1.5414 2.1022 2.299633 2.5778 2.9057 3.0212 2.9672 2.932 3.0924 3.7744 4.4669 5.0568 10.0951 11.7462 0.1074 0.2569 0.4243 0.9514167 0.5794 0.7102 0.816 2.902 1.4684 1.1825 1.0212 1.032925 0.9861 1.2281 1.2425 1.2381 1.1664 1.007 0.7741 0.6579167 0.5132 0.2917 0.1455 0.0689 0.0347 0.0199 0.02733333 0.0125 0.011 0.0091 0.0069 0.0047 0.0029 0.0016 0.03338333 0.0008 0.0065 0.0046 0.0023 0.0009 0.0003 0.0001 0.000275 0.0001 0.00015 0.00015 0.00015 0.0001 0.0001375 0.000125 0.0001 0.0001041667 0.0001 0.0001 0.0001074219 0.00010625 
0.003 0.003 0.003 0.002997656 0.002995414 0.002987299 0.1229753 0.2459022 0.2445002 0.2446609 0.241 0.2654835 0.2885 0.1029016 0.0032 0.0032 0.0032 0.00275 0.003133333 0.004233333 0.007033333 0.0086 0.0095 0.0118 0.01371429 0.0001 0.0003 0.0007 0.0019 0.005 0.12605 0.0135 0.0367 0.0997 0.2615 0.6415 1.4441 2.356517 2.9483 5.2236 7.7994 9.8868 11.2556 11.5847 8.6518 8.836766 7.5893 6.7515 6.3742 10.5739 11.6822 10.828 8.1528 10.7598 6.5626 5.8362 5.1263 4.4895 3.9764 3.616 3.4244 4.77315 3.3969 3.6451 5.5895 6.1338 6.8276 7.6871 6.54105 8.5924 9.0887 8.8545 7.6706 5.7163 3.3555 2.2142 3.158783 1.9043 1.5193 1.8493 2.2807 2.2396 2.3022 2.634 2.881083 3.0895 3.4666 38.6559 11.5821 1.0876 0.7055 0.7216 0.9491833 0.8055 0.9693 1.2564 1.7276 2.3799 2.9863 2.85025 3.1721 3.1924 3.3252 3.4635 3.7375 4.0028 4.1259 3.63675 3.6146 3.3892 5.0999 5.0232 5.5315 5.0564 3.579 2.652983 3.7642 1.0786 0.947 0.3245 0.9851 1.605 1.865483 2.1559 2.5766 2.803 2.8116 2.7612 2.7044 2.7996 3.084917 3.3354 4.4464 8.6781 43.4632 6.1213 3.3172 2.0604 1.536267 1.4422 1.1713 3.0221 1.2776 1.4666 1.3922 1.2938 1.375842 1.39605 1.4814 1.4268 1.3577 1.238 1.0523 0.964 0.8184 0.5793 0.3798 0.2401 0.1539 0.1039 0.0746 0.08206667 0.0561 0.0415 0.0312 0.0236 0.0176 0.0129 0.0092 0.01605 0.0062 0.0041 0.0029 0.0017 0.0009 0.0005 0.0002 0.00068 0.0001 0.00054 0.0002 0.0001 0.0002 0.00015 0.0001 0.0001166667 0.0001 0.0001 0.0001171875 0.0001125 0.0001 
0.003 0.003 0.002998828 0.00299769 0.002993457 0.1297012 0.2537519 0.2518673 0.2503758 0.2478398 0.2483219 0.241 0.2669506 0.2885 0.1167063 0.0032 0.0032 0.0032 0.0023 0.0039 0.0065 0.0107 0.03165 0.0177 0.0293 0.0484 0.0791 0.1265 0.196 0.39565 0.2914 0.4136 0.5606 0.7328 0.9375 1.2354 1.9424 2.644317 3.3349 5.522 8.3946 11.7555 13.0619 12.2315 12.3497 13.20137 10.7966 9.6601 9.7217 24.0534 24.5534 25.2509 21.7675 17.98305 16.2826 9.8086 6.5839 5.843 5.3185 4.9025 5.543833 4.5868 4.3674 4.2848 4.2592 4.3991 4.7084 4.9818 5.1002 4.9166 4.318 3.2607 2.2076 1.6401 2.079 1.8853 1.813217 1.9308 1.8026 0.8046 1.1718 1.6387 1.3662 1.582967 1.6768 2.2212 34.3541 3.3625 0.4191 0.4105 0.4112 0.5006334 0.4216 0.446 0.4936 0.5784 0.7371 1.0379 1.4462 1.71505 1.673 1.7289 1.852 2.0381 2.4046 3.1282 3.6637 3.5147 3.4045 3.6721 3.3745 4.7158 5.442 4.802 3.22515 2.1754 0.7205 1.2019 0.7288 0.6471 1.1163 1.6542 1.892367 2.1342 2.4674 2.5973 2.5732 2.532 2.4599 2.5329 2.772683 2.9748 3.9664 28.7954 3.0004 3.7402 3.2271 2.6087 2.462217 2.1026 1.7541 2.4363 2.0738 1.9462 1.8055 1.665 1.752742 1.8929 1.7701 1.6586 1.536 1.3788 1.1793 1.090817 0.9529 0.7305 0.5406 0.3963 0.295 0.2268 0.1808 0.1545 0.1485 0.1238 0.1038 0.0866 0.0713 0.0574 0.0448 0.05103333 0.0337 0.0242 0.0166 0.0107 0.0065 0.0037 0.002 0.002566667 0.001 0.0005 0.0009 0.0004 0.0002 0.0001 0.0001666667 0.0001 0.0001 0.00014375 0.000125 0.0001 0.0001074074 
0.003 0.002999414 0.002998839 0.002996658 0.138105 0.26807 0.2657963 0.2634862 0.2607259 0.2586267 0.2541974 0.2556438 0.241 0.2713518 0.2885 0.171925 0.0032 0.00275 0.10612 0.0212 0.0176 0.2346667 0.0336 0.0646 0.1225 0.2226 0.3789 0.5941 0.843 1.662967 1.0366 1.0796 1.2662 1.4501 1.689 2.0459 2.5988 4.06885 3.5974 5.3458 8.0629 11.4184 14.3904 18.2773 19.6944 19.61088 20.1264 20.902 22.2304 26.5348 25.8519 25.4913 23.29953 27.862 27.2708 24.5774 19.4387 15.0716 12.1647 9.4636 8.942 7.2697 5.4766 2.9627 2.7404 2.5969 2.4767 2.3172 3.021033 2.1061 1.8846 1.655 1.4288 1.2402 0.999 1.3006 1.202433 1.6441 2.1089 2.6079 1.9255 0.5535 0.6662 0.9589834 0.8524 30.5137 1.2751 0.3798 0.3723 0.37 0.3711 0.3896167 0.3728 0.3738 0.373 0.3622 0.3369 0.3474 0.4654 0.7603667 0.5473 0.5903 0.6366 0.6759 0.7349 1.1515 1.8473 2.599517 4.4322 1.4876 1.5397 1.6163 1.7093 1.8489 2.2435 1.8892 1.0844 0.9284 0.788 0.9713 1.3071 1.7185 1.90405 2.0864 2.3178 2.3732 2.3581 2.3125 2.2394 2.3096 3.104783 2.6838 12.1596 50.955 8.4594 5.6769 4.4369 3.5981 3.122733 2.9613 2.5309 2.6006 2.4702 2.3386 2.1912 2.107667 2.036 2.2327 2.0794 1.9297 1.7707 1.5891 1.3817 1.2873 1.1603 0.9458 0.7571 1.3464 0.2227 0.2395 0.2381 0.2889833 0.2289 0.2157 0.1999 0.1821 0.1622 0.1405 0.1437167 0.1177 0.0946 0.0725 0.0527 0.0362 0.0233 0.0141 0.01498333 0.0079 0.0042 0.0021 0.0035 0.0016 0.0007 0.0003 0.00044 0.0001 0.000225 0.00015 0.0001 0.0001222222 0.0001 
0.002999707 0.002999418 0.002998304 0.1486768 0.2884858 0.2867627 0.2846617 0.2820353 0.279357 0.2757111 0.2733609 0.2659486 0.2702875 0.241 0.2845556 0.2885 0.3928 0.5124 0.58774 0.5 0.5265 0.82875 0.8131 1.0356 1.2073 1.5098 1.9848 2.6159 3.3695 4.201483 4.2413 5.1219 5.4241 5.5467 5.601 5.7274 6.0711 6.573783 6.8685 8.589 11.7888 13.14 19.8847 24.662 24.94522 26.9852 27.713 28.1967 27.9476 26.6348 25.3175 19.7598 20.78808 19.6657 20.9798 22.3849 22.483 20.1472 17.7038 15.2333 10.77573 12.1961 8.2943 6.837 4.7516 3.5797 2.7501 2.1392 3.128933 1.6653 0.9793 0.8726 0.7206 0.1937 0.2488 0.8180667 0.1948 0.259 0.3462 0.4692 0.6441 0.3283 0.4902 0.6209167 0.7021 0.4883 0.4176 0.4013 0.3899 0.3845 0.3825 0.3823333 0.3785 0.3688 0.3539 0.3278 0.2621 0.1654 0.1972 0.3675167 0.2331 0.2705 0.2934 0.2801 0.2958 0.3885 1.003017 1.5657 0.6837 0.8978 0.956 1.0099 1.0716 1.0121 1.612142 1.7334 1.0995 0.5767 0.9324 1.1956 1.4813 1.7874 1.913017 2.0436 2.182 2.1962 2.1803 2.1254 2.0611 2.1141 2.1332 5.9944 33.9891 5.4505 6.1252 4.8099 4.3701 4.09885 3.92 3.5457 3.1315 2.9818 2.8438 2.7051 2.5547 2.46255 2.3936 2.557 2.3899 2.2197 2.0404 1.8452 1.634 1.533 1.4156 1.2043 1.0137 1.0992 0.784 0.606 0.54845 0.5014 0.4362 0.3921 0.3585 0.3291 0.2998 0.2683 0.26765 0.2336 0.1964 0.1581 0.1213 0.088 0.0602 0.0388 0.03845 0.0234 0.0132 0.007 0.0107 0.0054 0.0026 0.0012 0.0012 0.0005 0.0002 0.0001 0.0001666667 0.0001 0.0001111111 
0.002999563 0.002999143 0.1589062 0.3105239 0.3107976 0.3106247 0.30983 0.3084637 0.3060231 0.3037331 0.299575 0.2984903 0.2865583 0.299575 0.241 0.3241667 0.2885 0.4971 0.7516 1.1688 1.6398 2.035967 1.9419 2.4566 3.1952 4.11 5.175 6.2887 7.3589 8.7969 8.3596 8.9625 9.4971 9.3733 9.2204 9.186 11.09905 9.6273 10.6796 12.6093 11.6442 18.377 24.0042 28.6534 28.6651 31.399 31.3145 29.0779 27.5548 18.4166 14.7082 16.8246 13.73872 15.1251 13.3202 12.68 12.9631 12.5814 11.2531 10.3405 8.382367 10.1512 11.1599 11.2152 10.2419 8.8061 7.3869 3.706817 5.9719 4.5739 3.5389 2.1213 1.3207 1.5544 1.2435 0.6897 0.9217 0.6549 0.4845 0.3887 0.3428 0.5542 0.5259 0.5749334 0.4887 0.4668 0.4461 0.4272 0.4116 0.402 0.4072333 0.3975 0.3916 0.377 0.3592 0.361 0.3605 0.2669 0.57425 0.3611 0.401 0.4343 0.3197 0.1638 0.2266 0.441 0.6497167 0.6241 0.2852 0.3065 0.3543 0.4751 0.7928 1.59275 1.371558 1.5965 1.0343 0.4166 0.9504 1.3093 1.5947 1.70915 1.8354 2.0068 2.0724 2.0686 2.0377 1.976 1.9334 2.03645 2.0079 8.3369 5.1705 5.1357 5.3778 4.4073 4.1946 4.11235 4.0734 3.7883 3.4893 3.3041 3.1593 3.0228 2.8783 2.78105 2.7215 2.8447 2.6797 2.5054 2.3198 2.121 2.015633 1.9106 1.6958 1.4872 1.295 1.2135 1.0595 0.9124 0.8433 0.7933 0.7021 0.6328 0.5786 0.533 0.4904 0.4467 0.4361833 0.3991 0.3468 0.2912 0.234 0.1791 0.1299 0.089 0.08396666 0.0575 0.035 0.02 0.027 0.0146 0.0074 0.0059 0.0035 0.0016 0.0007 0.0003 0.0001 0.0001333333 0.0001 
0.002999353 0.1649079 0.326272 0.3293326 0.3322883 0.3350055 0.3373824 0.338991 0.340011 0.338625 0.3382634 0.3342861 0.338625 0.3191 0.35815 0.241 0.443 0.7384 1.365 2.3152 2.761317 3.1896 4.1049 5.4928 7.4247 9.8217 12.4282 14.2581 12.67492 15.3405 14.1116 15.6218 16.5728 16.6294 16.7306 17.3489 17.4732 18.6336 20.1929 18.7767 24.9574 29.1019 31.4984 31.522 28.05155 28.769 24.9724 23.015 18.34495 12.9669 10.1278 9.522567 7.0351 4.022 2.3024 1.5632 1.2028 1.153 1.1401 4.1948 1.1604 1.2127 1.2938 1.3956 1.5257 1.691 1.8868 3.206967 2.106 2.3396 2.5341 1.6087 1.4681 1.1192 0.8517 0.8845333 0.6777 0.5926 0.5696 0.5709 0.5692 11.681 2.466217 0.7345 0.5082 0.4889 0.4734 0.4608 0.4485 0.4387 0.4560833 0.4382 0.444 0.4384 0.4062 0.3916 0.6451 1.0369 0.705 1.418 1.2501 0.9588 0.6064 0.2798 0.2714 0.3919 0.6725 0.4871 0.7672 0.8419 0.9002 1.0176 1.3084 1.130092 0.8583 1.4363 1.8094 1.0022 1.1921 1.4554 1.6887 1.7771 1.8674 1.9731 1.9909 1.9764 1.9245 1.8603 1.8606 4.008367 2.2225 21.5257 2.9706 4.2498 4.6584 4.0886 4.1164 4.015067 3.9996 3.8472 3.6601 3.5093 3.3839 3.2654 3.1393 3.046233 2.9989 3.0797 2.9303 2.7656 2.5863 2.3933 2.285467 2.1897 1.9817 1.7777 1.5862 1.4452 1.3089 1.1802 1.120733 1.0665 0.9705 0.8915 0.8259 0.7694 0.7169 0.6636 0.7749333 0.6058 0.5427 0.4712 0.3943 0.3161 0.2415 0.2060833 0.1751 0.12 0.0776 0.06395 0.048 0.0267 0.0139 0.01133333 0.0068 0.0031 0.0013 0.0005 0.0002 0.0001 0.0001333333 
0.2035846 0.3281174 0.3333625 0.3389596 0.344912 0.3512346 0.357804 0.3646924 0.3709389 0.377675 0.3780366 0.3820139 0.377675 0.3972 0.35815 0.4753 0.2587 1.8047 1.9678 3.371 4.82325 4.8835 6.704 9.2341 11.9777 13.9417 14.9652 15.8774 17.24352 16.9259 20.633 22.2374 22.333 21.9517 22.4465 24.0147 22.76573 26.0287 26.3987 33.0763 34.5305 33.7487 30.9996 26.5821 25.2825 21.3838 17.9975 16.4724 8.774 7.0355 5.1792 4.799067 3.2605 2.0921 1.4922 1.016 0.6797 0.6491 0.6349 0.7210667 0.6398 0.6691 0.7276 0.778 0.8099 0.8479 0.9011 1.079633 0.9891 1.0767 4.432 1.2092 1.2026 0.8279 0.8051 0.7439 0.8075 0.8134 0.8064 0.7748 0.7097 0.7768 2.429183 0.5249 0.5356 0.5199 0.5124 0.5179 0.5281 0.5259 0.6462833 0.5342 0.5867 0.6807 0.8718 1.0046 0.848 0.6517 0.7993333 0.4954 0.4023 0.3615 0.3376 0.3978 0.5196 0.56485 0.7093 1.3816 0.9381 1.1959 1.2657 1.2368 1.1655 1.221283 1.0628 0.8098 1.6122 1.4784 1.4991 1.6345 1.7828 1.8472 1.8936 1.9428 1.9424 1.905 1.8347 1.9594 2.5173 4.812517 13.5085 4.616 3.9134 4.5046 4.41 3.9414 3.908733 3.8654 3.841 3.7897 3.6979 3.6034 3.5145 3.4255 3.352117 3.327 3.2124 3.2555 3.1304 2.9858 2.823 2.6444 2.538983 2.4538 2.2571 2.0614 1.8741 1.7131 1.5702 1.4424 1.38525 1.3296 1.2321 1.1492 1.0785 1.0165 0.9588 1.194067 2.0872 0.4472 0.5127 0.5173 0.4805 0.4171 0.3401 0.3197667 0.2609 0.1881 0.1272 0.1291 0.0787 0.0451 0.0242 0.01995 0.0122 0.0057 0.0026 0.0011 0.0004 0.0002 0.0001 
0.3124861 0.3183136 0.3247177 0.3317952 0.3396784 0.348496 0.3585174 0.3697287 0.3831273 0.3965167 0.416725 0.4178097 0.4297417 0.416725 0.4753 1.3183 0.6985 3.4726 4.1627 6.5019 8.113483 8.6783 10.5704 12.7072 14.6306 15.9871 17.6049 19.5831 20.29595 21.4761 23.4266 24.2928 24.5974 24.78 25.3345 25.7987 26.11643 24.7698 28.3262 29.0388 28.7196 27.509 25.8696 27.54323 23.4764 19.9617 15.4603 11.597 4.6022 2.5744 2.1408 4.37305 1.051 0.5167 0.334 0.373 0.4177 0.404 0.3879 0.45325 0.3633 0.3271 0.4143 0.5192 0.5192 0.4805 0.6883166 0.3838 0.211 3.8456 0.8585 0.8501 0.8702 0.929 0.7397333 0.7348 0.5866 0.6 0.6176 0.6456 1.1917 0.3698 0.60015 0.4881 0.6125 0.6054 0.5902 0.6107 0.7617 0.9068 0.8269666 1.0339 1.1183 1.0921 1.017 0.9381 0.8024 0.75235 0.6459 0.5481 0.519 0.4776 0.5209 0.5631 0.6573 0.7587833 0.8396 2.2028 1.0372 1.4378 1.5679 1.4825 1.3266 1.705167 1.6061 1.5636 1.6802 1.2222 0.9605 1.5071 1.8225 1.653317 2.0282 2.1626 2.1811 2.1523 2.3631 2.8047 4.5033 5.702 3.0642 6.2064 6.7455 13.1512 3.3582 3.7243 4.546867 3.7163 3.7299 3.7082 3.666 3.6178 3.5672 3.5113 3.46395 3.4442 3.36 3.3748 3.2779 3.1592 3.0198 2.927583 2.8623 2.6904 2.5098 2.3267 2.1478 1.9834 1.8357 1.7676 1.7042 1.5886 1.4884 1.4024 1.3284 1.2636 1.2037 1.272833 1.5342 1.213 1.0125 0.87 0.7473 0.6278 0.5083 0.4610167 0.3927 0.2875 0.1986 0.2003 0.126 0.0744 0.05966667 0.0412 0.0214 0.0104 0.0048 0.002 0.0013 0.00084 0.00015 
0.2857722 0.2910272 0.2968608 0.3033982 0.3107951 0.3193046 0.3291666 0.3411311 0.3551199 0.3751903 0.3947884 0.4503514 0.4460125 0.4753 2.511025 3.401033 3.8407 7.2215 8.4202 11.4104 11.09208 13.8358 15.4653 16.5241 17.9243 19.7427 21.5128 20.41787 23.5769 24.3363 26.1888 26.7049 26.5005 27.0408 27.5052 28.58647 26.9434 29.1433 28.8511 27.914 28.3857 29.1462 29.3229 30.82283 29.0088 25.6083 18.8086 10.6208 22.5975 14.4269 9.357 8.389767 5.2498 1.7248 0.4214 0.2882 0.2306 0.2638 0.83635 0.3122 0.3814 0.4682 0.4313 0.4118 0.5279 0.6731 0.63245 0.8435 0.8772 0.8797 0.8409 0.787 0.7185 0.6299 0.7886333 0.5117 0.3448 0.0408 14.5556 0.3452 0.51055 0.7007 0.7534167 0.7406 0.7865 0.9574 1.0934 1.1558 1.0625 0.8874667 1.0012 0.9598 0.9235 0.9516 0.9182 0.8859 0.8291 1.480233 0.737 0.6898 0.684 0.7058 0.7216 0.7411 0.8354 0.8531 0.9915 1.4437 1.2272 1.5617 1.7395 1.7642 1.7132 1.910967 3.3568 1.9015 1.6725 1.0742 0.5431 0.8691 0.996 0.9975 1.3953 1.761 2.1488 2.6459 3.2374 3.4404 6.086767 10.596 1.1573 4.1342 15.4274 5.0239 4.8832 5.9283 5.25765 6.1055 5.8037 5.0235 4.0637 3.7662 3.6368 3.5651 3.656867 3.5106 3.5237 3.4838 3.3896 3.29 3.1746 3.112033 3.0414 2.8922 2.7316 2.5652 2.3989 2.24 2.093 2.02145 1.9601 1.8421 1.7389 1.6499 4.6853 0.4784 0.7767 1.1511 1.0764 1.1605 1.1426 1.0729 0.9707 0.8451 0.7046 0.6227167 0.5595 0.4212 0.2994 0.2801 0.1816 0.1103 0.08618333 0.0628 0.0334 0.0167 0.0078 0.0034 0.0022 0.002233333 0.0013225 
0.2447504 0.2479758 0.2515033 0.2553889 0.2597212 0.2645846 0.2702298 0.2766399 0.2851461 0.2936529 0.3140574 0.3162042 0.4753 2.777965 4.188222 4.849467 5.6639 7.3027 9.3417 9.9509 12.14 13.9861 14.7548 15.2336 16.2539 17.8086 19.3465 20.88493 20.883 24.6145 26.1909 27.188 28.461 30.3422 31.5658 32.18092 34.3712 35.6967 36.3605 35.9101 37.9328 39.7011 39.8441 34.9687 37.4152 34.9677 33.0004 29.1175 28.0337 24.5537 19.34488 18.9293 13.6107 9.6673 6.1691 3.8325 2.7283 2.0515 1.591367 1.5987 1.2975 1.0996 0.978 0.9124 0.8703 0.8149 0.72125 0.5989 0.7384 0.8987 0.9244 0.936 0.955 0.9682 0.8453166 0.9582 0.9096 23.3635 1.1158 0.6356 1.2641 0.8391083 1.1302 1.0911 1.0281 0.9578 0.8933 0.8337 0.7973 0.7817833 0.7953 0.8096 0.8156 0.7884 0.6744 0.4634 0.1976 1.532317 5.6694 0.4822 1.0436 0.5531 0.5322 0.8608 0.8406 0.7287 0.9542 0.9031 3.6259 1.543 1.5051 1.4828 1.516683 1.1412 2.3219 1.5624 1.9276 0.8411 0.2451 0.3412 0.5004833 0.4386 0.6427 0.8629 1.1706 1.6883 2.5527 10.6712 5.615983 3.3063 2.3137 12.0405 4.1227 4.0124 4.2297 5.3694 5.518883 6.7021 7.6842 7.8657 7.3767 6.5308 5.2255 5.65355 4.1364 3.7736 6.1043 4.5609 3.8716 3.5596 3.3643 3.8164 3.2098 3.0664 2.9218 2.773 2.622 2.4739 2.333 2.2614 2.2027 2.0849 1.9807 5.2825 1.7997 1.3531 1.1615 1.210733 1.1541 1.182 1.1917 1.1659 1.1003 0.9966 0.9189166 0.8621 0.7091 0.5521 0.4055 0.3518 0.2332 0.1446 0.11285 0.0838 0.0454 0.023 0.0109 0.0048 0.0032 0.002066667 0.0019 
0.19482 0.1952481 0.1955634 0.1957226 0.1956505 0.1952745 0.1943575 0.1929182 0.1896538 0.1865952 0.1721129 0.1756167 0.0273 2.521766 3.937311 4.314167 5.0438 5.3039 7.9127 8.33625 10.4804 11.9216 12.2021 13.0897 14.6276 16.6419 19.0972 18.84363 20.8932 23.6171 25.7069 27.4163 29.1636 30.4646 34.664 34.23606 38.0359 39.7649 40.7183 44.9682 45.6575 43.4316 38.8506 35.04897 35.3706 33.7895 32.7582 30.4028 27.1855 25.875 21.10812 22.9274 19.1803 15.4691 11.5073 7.4696 4.288 3.0464 2.422617 2.2756 1.414 1.2008 1.0639 0.974 0.9067 0.6321 0.9003333 0.765 0.7075 0.652 0.752 0.7446 0.8038 0.6477333 0.9119 1.092 21.6983 1.2281 1.0867 1.302 0.6963 0.6795667 0.7328 0.6858 0.6752 0.6494 0.6044 0.5568 0.5239 0.99895 0.5105 0.5138 0.5292 0.5554 0.5961 0.6649 0.7833 1.404233 0.9775 1.1236 1.8649 4.9306 0.6993 0.604 0.6289833 0.4335 0.317 0.5096 5.0805 1.4704 1.2368 1.3578 1.323183 1.6409 1.1952 1.3462 2.8106 1.2022 0.4836 0.1349 0.2008333 0.2216 0.3134 0.426 0.5675 0.8101 8.1443 2.8975 4.246017 2.7845 11.1308 2.5721 2.6253 2.6617 2.9325 3.381217 3.8278 5.1802 6.6339 7.8255 8.771 9.2739 9.0466 7.719633 8.3109 7.3336 10.2156 9.4419 8.3618 7.2003 5.846 6.1298 4.2623 3.5583 3.2292 3.0111 2.8384 2.6887 2.676333 2.5525 2.4271 2.3125 5.837 2.1062 2.0608 1.8339 1.689383 1.618 1.4777 1.3966 1.3434 1.2908 1.2193 1.1196 1.13225 0.9855 0.8283 0.6605 0.4972 0.3961 0.2731 0.1735 0.13395 0.1021 0.0558 0.0285 0.0136 0.0093 0.0008 0.0014 0.001322222 
0.1433678 0.1412362 0.1386776 0.1355788 0.131796 0.1270924 0.1212362 0.1135144 0.1039545 0.08871322 0.07361522 0.0245179 0.02425 0.0273 1.934229 2.6483 2.2348 2.4617 4.2744 5.465384 5.8683 7.0445 8.2845 9.7743 11.1748 12.9457 14.9479 16.25115 17.894 20.1241 22.2358 23.6468 25.3524 29.1553 27.38195 32.0229 34.7566 37.7753 38.5192 36.0471 32.6335 29.8866 29.75832 29.1453 29.668 29.9299 28.8141 27.9224 18.5749 17.7584 16.98397 16.6049 15.2463 13.0122 10.2575 7.7315 5.6749 3.4496 2.7893 2.1139 2.1298 1.8096 1.611 1.4692 1.2137 1.1134 1.3599 1.2312 1.0888 0.9319 0.5587 0.2946 0.2213 5.337333 0.0262 29.2261 0.8733 0.8221 0.8684 0.7798 0.1539 0.3309833 0.1001 0.0494 0.025 0.0103 0.0032 0.0007 0.0003 3.137967 3.3664 0.0464 0.0447 0.0504 0.0607 0.069 0.2648 0.0644 0.7332 1.9488 2.7567 8.7379 0.6776 0.6086 0.5405167 0.4264 0.5372 3.4088 3.658 1.5616 1.202 1.1445 1.282408 1.1719 0.9012 1.2552 2.05 3.6247 0.4104 0.3690833 0.0195 0.0492 0.0901 0.1464 0.2231 0.3806 13.4594 6.8357 0.6436 5.173 2.3755 2.045 1.8588 1.7764 1.8018 2.18405 2.1261 2.9434 4.2436 5.8141 7.3432 8.611 9.4861 8.906834 10.1123 10.4556 10.6337 10.9867 11.2128 11.1534 9.6305 10.5603 9.5361 8.2732 6.9342 5.4804 3.904 3.1493 4.242067 2.8606 2.6895 6.3392 2.4064 2.361 2.2936 2.1661 2.079 2.0037 1.8468 1.7133 1.6015 1.4994 1.3917 1.2712 1.525567 1.5585 0.9371 0.6786 0.5299 0.4005 0.2841 0.2292667 0.1865 0.1132 0.0636 0.0331 0.016 0.0119 0.0002 0.0005 0.0007 
0.09727701 0.09361921 0.08946747 0.08473156 0.07928978 0.07302109 0.06568357 0.05727604 0.04693482 0.03655525 0.02041152 0.02071111 0.0220037 0.0212 0.0273 0.74715 0.6663 0.7464 1.5599 2.568617 2.6966 3.7685 4.9601 6.5929 8.5787 10.2396 9.75375 11.6745 13.0001 13.8949 14.7731 16.2215 17.5723 18.7641 18.43277 19.2208 18.8337 17.9984 17.9201 17.6304 17.6703 18.2497 19.25865 18.9861 19.4359 19.2623 18.9692 18.9302 10.5202 11.15658 9.834 8.9041 7.8143 6.6702 5.5675 4.5854 3.7763 3.468417 3.159 2.6913 1.887 1.4026 1.329 1.1194 1.2898 1.442017 1.2782 1.2546 1.2158 1.1814 1.3186 1.207 0.8999 9.388467 29.1609 1.6525 0.3811 0.3031 0.2449 0.2027 0.2909167 0.1764 0.1264 0.0618 0.0264 0.0087 0.0019 0.0002 1.980267 3.5386 10.8881 0.0669 0.0307 0.0111 0.0038 0.0036 0.6919333 0.0036 1.1415 2.6394 3.3795 12.2301 0.4733 0.4968 0.7239833 0.6738 1.2237 3.2352 3.5879 1.8409 1.3678 1.1669 1.217158 1.21245 0.8625 1.0539 1.6491 4.6808 0.8624 0.6918 0.3037 0.004 0.0115 0.0258 0.0533 3.9964 4.0436 6.666017 11.8258 1.0587 1.1913 1.1699 1.1444 1.1287 1.1458 1.386317 1.2703 1.5837 2.1525 3.0597 4.3997 5.9997 7.574 7.82475 8.9111 9.9589 8.9801 10.0207 10.8435 11.397 10.9117 11.626 11.6017 11.4694 11.1715 10.4266 9.206 7.7645 8.450434 6.4368 9.2741 4.9145 3.7302 2.8658 2.6305 2.4949 2.5479 2.3574 2.212 2.0657 1.9229 1.7812 1.6357 1.9514 2.094817 2.2672 1.3489 0.6866 0.5269 0.373 0.2723 0.2262 0.1861 0.1176 0.0684 0.0367 0.0182 0.0141 0.01065 0.0002 0.003625 
0.06090496 0.05697565 0.0527125 0.0480921 0.0431089 0.03775583 0.03214351 0.02626028 0.02093874 0.01553601 0.01563899 0.01600556 0.01587963 0.01751111 0.0151 0.0273 0.0602 0.1471 0.47765 0.342 0.6705 1.13 1.7466 2.5156 3.3361 4.0554 5.33965 4.6594 4.7033 4.8563 5.2685 5.8211 8.5625 5.9777 8.531783 5.4558 5.448 5.83 6.8642 7.7717 8.5763 9.311 10.9659 9.9732 10.5172 10.8461 11.005 8.2075 5.301 5.6806 4.951 4.5009 4.0096 3.5342 3.1113 2.7593 2.4825 2.5862 2.2682 2.0862 1.8976 1.7043 1.4763 1.7105 1.7427 1.390283 1.7678 1.777 1.7675 1.731 1.4819 1.4256 24.2935 9.779734 1.729 0.7362 0.6059 0.4347 0.2572 0.2176 0.2477667 0.2151 0.1974 0.1853 0.1055 0.046 0.0137 0.0021 4.297067 8.3397 15.3569 4.1713 0.3035 0.203 0.0787 2.7206 1.992583 1.2904 1.3452 1.9372 10.7735 6.5502 0.847 0.9479 0.8601667 1.1904 1.6486 3.9288 3.3878 2.3963 1.8265 1.624767 1.4643 1.1429 0.8862 1.1444 1.5957 4.2187 2.2173 1.21895 0.3375 0.2502 0.3548 0.425 3.7856 4.2841 6.7845 5.020783 3.2392 2.0963 1.5084 1.2265 1.0888 1.0063 0.9751 1.047833 0.9988 1.125 1.4012 1.8769 2.5782 3.5093 4.537367 4.703 6.162 7.6718 6.3365 7.7001 8.9646 9.9744 10.0717 10.7591 11.368 11.8314 12.0963 12.1113 11.9072 11.5303 13.22478 18.9611 9.4974 8.2356 6.9285 5.7123 4.5863 4.807867 3.4874 2.7779 2.564 2.4134 2.2628 2.1033 1.9439 2.351433 2.7121 2.8085 1.7076 0.7505 0.48695 0.3395 0.251 0.21355 0.1772 0.1163 0.0703 0.0391 0.0201 0.0164 0.012375 0.0069 0.0069 
0.03539367 0.03212004 0.02874697 0.02531385 0.02187763 0.01854978 0.01544042 0.01289422 0.01090727 0.01072495 0.01055751 0.01020031 0.01013333 0.008927777 0.01013333 0.0029 0.0068 0.0197 0.09363333 0.0508 0.1139 0.2141 0.3588 0.5403 0.7051 0.7551 1.700133 0.6539 0.9044 0.6809 0.4269 0.482 0.354 0.6635 2.264717 1.1088 1.6508 2.2321 2.8174 3.3831 3.9239 4.7979 4.423 4.8524 5.1984 5.4418 5.5531 1.8052 1.7655 2.454533 1.7119 1.663 1.6326 1.6329 1.6707 1.745 1.8515 1.7876 1.9797 2.1024 2.1561 1.3869 1.4207 1.2606 1.1573 1.06 1.1059 1.1029 1.1452 1.2206 1.4447 31.6341 9.8524 1.473 1.1221 1.2263 1.3384 1.3927 0.3001 0.249 0.2840833 0.4258 0.2793 0.1586 0.0721 0.0241 0.0044 2.2814 10.51033 11.6204 23.9446 4.425 1.5935 1.7468 1.9512 5.2179 3.44915 2.7194 3.0896 3.9256 5.5292 3.3238 1.0421 0.9899 1.011 0.8411 2.5594 4.9867 2.7542 2.6034 2.3072 2.007 1.6159 1.353 1.1654 1.4164 2.0147 3.8772 2.9266 1.712567 0.6662 0.1482 0.2177 0.219 4.4285 7.6366 4.85925 2.1016 2.13 1.8125 1.4981 1.2792 1.1329 1.0191 0.98145 0.957 0.94 0.9737 1.1018 1.3578 1.7647 2.342 2.924133 3.0962 4.0094 5.0796 4.4451 5.4338 6.5418 7.7578 8.349167 8.9159 9.887 10.6914 11.3398 11.8533 12.2383 14.91728 21.9679 12.6881 12.1569 11.2601 10.2447 9.3234 8.398 7.540017 7.2501 5.8034 4.3708 3.1741 2.6574 2.4435 2.4028 3.04555 3.4627 3.5156 2.0446 0.8292 0.4664 0.3125 0.2293 0.1985 0.1654 0.1122 0.0705 0.0408 0.0218 0.0121 0.01136 0.0069 0.0081 
0.01934039 0.01708533 0.01490065 0.01283496 0.01095501 0.009327291 0.008065405 0.007166758 0.006836651 0.006460854 0.005978344 0.005466667 0.004587963 0.003961111 0.00155 0.0002 0.0003 0.0008 0.018175 0.0014 0.0001 0.0004 0.0012 0.0033 0.0088 0.0226 0.2481 0.0544 0.0054 0.0165 0.0416 0.0512 0.0766 0.2387833 0.1414 0.2411 0.3829 0.572 0.8053 0.9865 1.1801 1.86965 1.3731 1.537 1.6663 1.7543 1.8015 0.4114 0.467 0.8319833 0.5308 0.5992 0.666 0.7252 0.7927 0.877 1.071117 0.9913 1.1524 1.286 5.4165 0.8244 0.664 0.5021 0.8877333 0.3548 0.2315 0.1405 0.0926 0.117 0.1401 0.1567 5.624817 0.1315 0.0958 0.0566 0.0224 10.4916 0.7255 0.5806 0.6546571 0.0164 0.0077 0.0028 0.0007 0.0001 24.9197 11.7745 13.9085 26.9099 35.8805 5.9867 4.6512 4.1139 3.9021 8.58755 4.9233 3.8233 3.8341 3.8075 3.5977 2.1739 1.1055 1.3493 0.9859 0.7353 5.6166 3.6147 2.3452 2.6688 2.7523 2.409133 2.0758 2.1045 1.9025 2.0924 2.7147 4.0619 3.471517 3.4283 0.6995 0.4057 0.3834 0.4476 6.6509 7.345 4.248083 1.0037 1.1443 1.2402 1.2057 1.1327 1.0476 0.9872 0.9646667 0.944 0.929 0.9452 0.9852 1.1071 1.3416 1.7023 2.05615 2.192 2.8121 3.5678 3.3154 4.0756 4.923 5.6314 5.8455 6.8423 7.9107 8.9216 9.7854 10.5602 19.8421 14.4154 12.0179 12.5493 12.7617 12.6216 12.2015 11.6462 11.0549 10.282 10.4634 9.7678 8.6108 6.9114 5.0869 3.5927 3.3817 4.24305 4.3701 4.0144 2.2518 0.9028 0.4809 0.2975 0.2606833 0.2129 0.1552 0.1082 0.0703 0.0422 0.0233 0.0121 0.01066667 0.0093 0.008966667 
0.01014733 0.008815795 0.007608376 0.006553159 0.00567223 0.004987955 0.004476049 0.00413524 0.003756353 0.003324151 0.002846708 0.002268055 0.001678704 0.000875 0.0002 0.00025 0.0004333333 0.00055 0.0011 0.00075 0.0006333333 0.0005666667 0.00125 0.00272 0.007 0.00696 0.0022 0.0004 0.0018 0.0066 0.018 0.0402 0.075 0.1378667 0.1222 0.1799 0.246 0.3155 0.3727 0.2949 0.1445 0.8226 0.1733 0.204 0.2388 0.2815 0.3376 0.1664 0.38015 0.2213 0.2954 0.3934 0.5137 0.5549 0.5657 0.5305 0.8935333 0.4314 0.2453 7.3879 1.5488 1.4645 1.3255 1.1356 1.253983 0.916 0.6752 0.4196 0.1921 0.1898 0.1821 0.1696 0.7372167 0.184 0.1867 0.1764 0.1537 0.1191 0.0443 0.0291 1.5945 1.6872 1.8294 2.0417 2.357 6.3919 13.6969 16.86505 15.8361 16.5677 2.875 0.1537 0.2081 0.2878 27.3648 9.454467 8.166 7.6431 6.3545 5.1408 3.4203 2.3876 1.9376 3.65165 2.0137 2.6248 5.7128 4.534 2.2081 2.7167 3.0281 2.781217 2.6755 2.4589 2.1699 2.22 2.6463 3.4263 3.303583 3.1088 0.7294 0.7574 0.8121 2.2071 6.4182 6.8386 3.823067 0.563 0.9062 0.9976 1.0103 0.9984 0.994 0.9579 0.9383667 0.9228 0.9031 0.9045 0.939 0.9878 1.1135 1.34 1.587233 1.6644 2.1014 2.4485 2.7637 3.3539 4.0049 4.5266 4.7154 5.4858 6.31 7.1697 8.0996 16.9656 9.8146 11.68965 10.6116 11.3267 11.9257 12.3312 12.5021 12.483 12.3462 11.87765 12.1794 11.9634 11.5697 10.8349 9.4589 7.42 7.141366 6.1412 5.6998 4.5045 2.491 1.0109 0.5414 0.3037 0.2662167 0.2082 0.151 0.1067 0.0708 0.0435 0.0247 0.0129 0.01166667 0.0107 0.007833334 
0.005243317 0.004540849 0.003938356 0.00343701 0.00303224 0.002701445 0.00242241 0.002126149 0.001812716 0.001484053 0.001147402 0.0008054012 0.0005375 0.0002 0.000225 0.0002944444 0.0004111111 0.0006944445 0.0008 0.0006458333 0.0003916667 0.0001 0.0001666667 0.0001 0.0002 0.00152 0.001 0.0033 0.009 0.0213 0.045 0.0869 0.1551 0.20215 0.2569 0.3943 0.5602 0.7357 0.8962 1.0434 1.1414 0.7692 0.9232 0.6633 0.3992 0.169 0.1627 0.5038 0.54315 0.511 0.5262 0.4363 0.4859 0.6506 0.8606 1.1214 0.8829333 1.4096 1.5984 1.794 1.9734 2.1277 2.2422 2.3032 1.968633 2.3122 2.3042 2.2875 2.253 1.9422 1.9323 1.9066 1.678167 1.8749 1.8423 1.8073 1.7631 1.7085 1.5835 1.973614 2.9484 3.0074 3.1153 3.2777 3.4581 9.7866 18.1963 13.98503 14.6328 6.7257 3.1225 2.6975 3.1569 4.4662 9.2755 9.4512 3.0951 2.9486 2.0735 2.1257 2.2241 1.3999 4.801116 12.4485 3.4187 3.0907 3.3932 1.9663 2.2615 2.856 2.995217 3.1215 3.0341 3.0733 2.773 2.6119 2.7453 2.8479 2.96575 2.9483 0.9103 2.426 0.3219 1.6242 4.4016 5.7338 3.453717 1.4543 1.1007 1.045 1.0135 0.9614 0.9346 0.9583167 0.9157 0.9026 0.8917 0.8878 0.9045 0.9485 1.0185 1.159133 1.1811 1.4436 1.8006 2.1966 2.6057 3.0602 3.5597 3.9706 4.1111 4.7178 5.3706 6.0684 13.5114 7.821 8.5724 9.08065 9.2793 9.9902 10.6861 11.3236 11.8553 12.2403 12.20775 12.5113 12.7107 12.8651 12.949 12.853 12.4094 11.5819 10.77633 10.7307 9.7917 7.254 3.6554 1.3386 0.824 0.3537 0.3283 0.2213 0.1565 0.1098 0.073 0.0451 0.0258 0.0215 0.009583334 0.0035 0.005066667 
0.002725516 0.002373306 0.002075816 0.001824898 0.001606559 0.001407319 0.001205876 0.00100584 0.0008093793 0.0006299426 0.0004580504 0.00036875 0.0002 0.0002125 0.0002398148 0.0003101852 0.000375 0.0003694444 0.0001 0.0001222222 0.0001 0.0002 0.0001 0.0003 0.0011 0.00255 0.0031 0.0078 0.0179 0.038 0.0749 0.1374 0.2341 0.3095833 0.3696 0.5406 0.7329 0.916 0.9348 1.0594 1.204083 1.1227 1.1101 1.0386 0.9159 0.7894 0.5137 1.0654 1.1511 0.791 0.6156 0.7663 0.8027 0.8486 0.9013 0.9498 1.379967 0.8549 1.0794 1.319 1.5829 1.8805 2.2016 2.308567 2.5179 2.6269 2.7167 2.7971 3.0504 3.2471 3.0327 2.612117 2.9782 2.9557 2.9695 3.0092 3.0659 3.1311 2.9444 4.214417 4.6711 5.0183 5.4386 6.037 6.7687 12.7684 13.3375 11.03142 8.2106 4.6356 3.0788 2.3704 6.7203 8.3258 6.69045 5.8628 2.943 2.4233 2.0813 2.3962 2.8652 3.6643 5.6229 6.9688 2.9666 2.827 2.5069 1.8127 2.312 3.0041 3.41605 3.2449 3.2135 4.0183 3.6039 3.1763 2.9812 2.6177 2.991583 2.8455 2.5136 1.9194 0.733 1.1545 2.518 3.421733 3.6994 2.4332 1.9255 1.4459 1.3007 1.1525 1.016 1.021167 0.9317 0.8786 0.8401 0.8167 0.8265 0.8934 1.045 1.2345 1.2567 1.5167 1.8332 2.3584 2.6915 3.0663 3.356817 3.4836 3.9489 4.4559 4.9942 7.4827 6.7205 7.2682 7.479317 7.8132 8.3928 9.0097 9.6607 10.3282 10.9783 11.5655 11.73487 12.1002 12.5774 13.0132 13.4194 13.7818 14.0614 14.2608 14.09885 14.5234 14.6033 12.5473 7.3006 2.6915 1.985 1.606367 0.6059 0.277 0.1759 0.1185 0.0768 0.0466 0.0426 0.01948333 0.0079 0.001 0.0016 
0.001442579 0.001262395 0.001105746 0.0009655388 0.0008358961 0.0007109142 0.0005936733 0.0004856377 0.000395424 0.0003141418 0.000284375 0.0002 0.00020625 0.0002174383 0.0001925 0.0001 0.0001 0.0001 0.0001111111 0.0001 0.0001666667 0.0001 0.0004 0.0011 0.002133333 0.0029 0.007 0.0158 0.0335 0.0663 0.1225 0.2107 0.2581167 0.3377 0.5041 0.6964 0.8027 0.8625 1.0163 1.3135 1.335083 1.5441 1.6196 1.6289 1.5842 1.5025 1.3869 1.9974 2.033583 2.038 2.1928 2.1813 2.1912 2.2075 2.0217 2.137533 1.8547 2.0894 2.1496 2.1976 2.2355 2.2624 2.28 2.652733 2.3065 2.5426 2.7711 2.7565 2.7603 2.775 2.9043 2.858433 2.9186 2.9676 3.0569 3.1933 3.3843 3.6543 4.3301 5.495966 8.809 5.3601 5.0709 5.3679 7.4406 15.6262 11.73695 7.1281 4.6832 4.0944 3.4077 7.0032 9.0844 7.4737 5.92205 4.7387 2.9388 2.7725 2.8413 3.2325 3.6873 4.2309 4.6893 5.025 2.8594 2.7575 2.4396 2.2166 3.1988 4.022 4.176917 4.2478 4.1573 4.932 4.3501 3.6915 3.3424 3.300283 2.8622 3.8279 2.2884 1.9843 0.9168 0.9886 1.6896 2.492633 2.488 2.3516 3.0879 1.6601 1.4026 1.3381 1.2263 1.1086 1.1027 1.0108 0.9554 0.9444 0.9991 1.1416 1.3476 1.4481 1.5581 1.7944 2.0616 2.6153 2.9364 3.2931 3.49485 3.678 4.0886 4.5152 4.9241 5.5505 5.9921 6.4547 6.733483 6.9464 7.4644 8.0228 8.629 9.276 9.9542 10.6426 10.95858 11.3493 12.0512 12.7498 13.4651 14.2362 15.1194 16.1704 16.46553 17.3259 18.0471 16.8348 12.1684 5.9845 4.4321 3.007767 1.4375 0.4693 0.2255 0.1353 0.0825 0.0786 0.0105 0.01456667 0.0086 0.0003 0.0004666667 
0.0007882253 0.0006920363 0.0006056227 0.0005268013 0.0004541607 0.0003894546 0.0003331938 0.0002895425 0.0002521098 0.0002421875 0.0002 0.000203125 0.0002078961 0.0001632377 0.0001 0.0001 0.0001 0.0001 0.0001 0.0001333333 0.0001 0.0003 0.0009 0.0022 0.0034 0.0052 0.0116 0.0245 0.0484 0.0895 0.1548 0.2504 0.2941833 0.3784 0.5314 0.6409 0.8086 0.9745 1.2563 1.3897 1.431733 1.5811 1.811 1.9408 2.0253 2.0612 2.0473 2.956958 3.0719 3.2378 3.282 3.3317 3.3683 3.1085 3.4016 3.53885 3.6961 3.739 3.7435 3.707 3.6283 3.5145 3.3783 3.115617 3.2321 3.086 2.9537 3.0285 2.881 2.7701 2.6887 2.712767 2.6281 2.6041 2.6033 2.656 2.7985 3.0751 3.3766 5.818383 8.8446 6.3975 6.1382 7.4912 8.625 15.1981 10.07022 6.3634 5.553 5.4637 5.6835 7.8825 6.7194 5.1938 4.9097 3.9375 3.2587 3.2791 3.4547 3.7388 3.9932 4.1537 4.0943 4.0931 2.8047 2.7537 2.6611 2.9678 4.3685 4.6398 5.1728 5.3699 5.53755 5.4181 4.739 4.0071 3.8333 3.96375 4.1649 4.1877 1.8906 2.1636 1.252 1.0862 2.0486 2.4751 2.5122 2.551 3.1737 0.9927 1.1994 1.2403 1.2126 1.1356 1.1623 1.132 1.1302 1.1801 1.2879 1.4503 1.4981 1.6425 1.8387 2.0709 2.3293 2.878 3.212 3.5552 3.69055 3.8929 4.2246 4.5344 4.829 5.1175 5.4148 5.7572 6.0659 6.1612 6.6194 7.1246 7.6795 8.29 8.9393 9.656 10.16702 10.4379 11.2805 12.1907 13.1999 14.372 15.7874 16.84695 17.4393 19.0734 20.0295 19.3218 15.794 9.9964 6.8384 4.55235 2.7477 0.8644 0.3264 0.1639 0.1488 0.0192 0.0151 0.009216666 0.0027 0.0001 0.0002 
0.0004613664 0.0004102447 0.0003647401 0.0003245279 0.0002903471 0.0002621133 0.0002414968 0.0002244012 0.0002210938 0.0002 0.0002015625 0.0002036737 0.0001548517 0.0001 0.0001 0.0001 0.0001 0.0001 0.0001 0.0001 0.0002 0.0005 0.0013 0.0027 0.00665 0.0063 0.0135 0.0273 0.0517 0.0919 0.153 0.2387 0.4510333 0.3492 0.4838 0.6968 0.9544 1.24 1.4014 1.87845 1.3229 1.4391 1.6283 1.9066 2.1922 2.4845 3.95145 4.670025 5.2868 5.3876 5.4451 5.4384 4.9812 5.2918 5.2484 5.315267 5.0106 4.8904 4.73 4.5368 4.3202 4.0903 3.8588 4.423767 3.638 3.4321 3.2465 3.0522 2.8789 2.7442 2.961333 2.6302 2.5067 2.3999 2.37 2.4482 2.6472 2.9822 3.720667 3.9319 5.6181 5.6398 6.0537 9.441 12.2258 9.4745 10.00777 6.631 6.4419 6.317 6.247 6.2815 5.2264 4.3609 4.201017 3.7536 3.4768 3.48 3.5617 3.6623 3.7198 3.6694 3.6612 3.4019 2.7053 2.7505 2.9144 3.7504 5.1911 5.264633 5.8856 6.0115 5.7316 5.6801 5.2067 5.0333 5.5041 4.500867 4.0756 5.3333 2.2214 2.5475 1.8044 1.6859 2.8468 3.288 3.2654 3.1095 3.3963 0.5551 0.9223 1.0224 1.036633 1.0489 1.0608 1.0969 1.1639 1.2751 1.4271 1.6137 1.685267 1.7929 2.0121 2.2728 2.5643 3.0687 3.3983 3.7155 3.905233 4.0086 4.2709 4.5096 4.6709 4.8662 5.0955 5.358733 5.3721 5.7038 6.0953 6.5528 7.083 7.675 8.3082 8.9109 9.0379 9.8784 10.8627 12.0347 13.456 15.1914 17.2311 18.37162 19.3341 20.8834 21.4211 20.3829 17.3329 12.5978 7.98 5.717683 3.8784 1.3663 0.714 0.0384 0.0491 0.0235 0.01748333 0.0176 0.0008 0.00095 0.0001 
0.0003070446 0.0002818181 0.0002603713 0.0002428911 0.0002290758 0.0002194732 0.0002116494 0.0002105469 0.0002 0.0002007812 0.0002017454 0.0001520176 0.0001 0.0001 0.0001 0.0001 0.0001 0.0001 0.0001 0.0001 0.0004 0.0011 0.0029 0.0072 0.01 0.0163 0.0348 0.0698 0.1319 0.2341 0.3895 0.4363667 0.6069 0.8826 1.1803 1.5067 1.8623 2.2421 2.6442 2.656833 3.2562 3.6433 4.0002 4.328 4.6325 4.9005 6.7242 5.892792 6.9385 7.0631 7.0996 6.7176 7.1855 7.2091 7.2081 6.234967 7.3268 7.2539 7.1428 6.9948 6.8089 6.5885 5.132717 6.344 6.0914 5.8082 4.9695 4.6992 4.1638 3.5428 3.312883 3.392 3.3294 3.2896 3.2962 3.4026 3.6913 4.1493 4.0207 4.8089 4.5384 4.791 5.0365 13.3229 7.5225 15.2345 11.31355 7.1451 6.8534 6.4894 6.0712 5.5287 4.7576 4.630233 4.1747 3.7856 3.5786 3.4901 3.438 3.3804 3.3118 3.3105 3.1767 2.9483 2.6181 2.7344 3.0405 4.0933 5.1177 5.366066 5.8521 5.8897 5.7017 6.3424 6.7317 8.1355 5.6244 4.4715 4.9558 5.0294 3.6223 3.2758 2.6146 2.548 3.383317 4.2464 4.8086 4.3281 3.9362 0.6781 0.441 0.7594 0.8359333 0.9362 0.997 1.0434 1.1486 1.3054 1.4956 1.7081 1.8183 1.9041 2.149 2.4317 2.7433 3.3013 3.6565 3.89755 3.987 4.2722 4.5216 4.65 4.7763 4.9334 5.1323 5.338833 5.3805 5.6838 6.0488 6.4858 7.0014 7.606 8.3147 9.215083 9.2093 10.3064 11.6441 13.2494 15.1088 17.1663 19.2797 21.02235 21.1581 22.3278 22.1901 20.46 17.2666 12.506 10.51027 8.2996 4.562 2.5128 0.1322 0.0569 0.031 0.0161 0.01501667 0.0134 0.0002 0.0003666667 0.0003916667 
0.0002401848 0.0002290711 0.0002203429 0.0002136951 0.0002092503 0.0002056409 0.0002052734 0.0002 0.0002003906 0.0002008422 0.0001509088 0.0001 0.0001 0.0001 0.0001 0.0001 0.0001 0.0001 0.0001666667 0.0003 0.0005 0.0013 0.0034 0.00395 0.0083 0.0192 0.0417 0.0853 0.1638 0.2936 0.4874 0.4578667 0.7427 1.0358 1.3608 1.7337 2.1842 2.7194 3.3299 3.0442 3.9864 4.6602 5.3259 5.9279 6.0282 6.4186 5.718917 6.1094 6.3464 6.455 6.2675 6.6528 6.6161 6.5072 6.136317 6.3848 6.2311 6.033 5.8146 5.578 5.3278 5.0767 5.047833 4.838 4.6201 4.4619 4.8517 4.5409 4.2215 4.051 3.589983 3.5171 3.4773 3.4715 3.4947 3.5702 3.7499 3.9933 3.979408 4.2586 3.5086 3.5783 3.6471 3.745 22.3305 19.6738 21.6178 7.7784 7.3046 6.7895 6.1975 5.5393 4.8833 4.755367 4.3785 4.0154 3.7574 3.5617 3.3817 3.2172 3.074 3.084317 2.9195 2.7549 2.611 2.7364 3.0526 3.9408 4.7423 5.104867 5.4076 5.4998 6.1086 7.7328 9.978 5.7051 5.8051 4.8969 5.7197 5.3068 4.6416 3.9561 3.5592 3.4161 4.344017 5.5567 6.5854 5.8939 6.3308 0.7411 0.2502 0.5188 0.6965 0.7299 0.8733 0.9999 1.1743 1.3815 1.6134 1.848 2.021167 2.043 2.2988 2.6019 2.943 3.7677 4.1509 4.619467 4.4771 4.7501 4.8983 4.9767 5.0784 5.2118 5.3987 5.5617 5.6539 5.9886 6.4153 6.9487 7.6015 8.3927 9.4868 10.66217 10.9336 12.7573 14.9364 17.3798 19.9308 22.33 24.1943 24.80882 24.9368 24.8839 23.451 20.5604 16.7099 12.9874 10.48568 8.6908 7.5829 0.4581 0.1491 0.0549 0.0237 0.0158 0.01058333 0.0037 0.0001 0.00015 0.0002055556 
0.0002139483 0.0002096652 0.000206499 0.0002044426 0.0002027592 0.0002026367 0.0002 0.0002001953 0.0002004109 0.0001504283 0.0001 0.0001 0.0001 0.0001 0.0001 0.0001 0.0001 0.0001888889 0.0003 0.0003 0.0001 0.0002 0.0005 0.002316667 0.0014 0.0037 0.0092 0.0216 0.0473 0.0971 0.1866 0.3256 0.3341 0.553 0.8351 1.1373 1.4369 1.8141 2.2675 2.635833 2.781 3.3299 3.8764 4.4092 5.2999 5.7564 4.969267 4.4044 4.6363 4.723 5.0395 5.0963 5.068 4.9896 4.915566 4.5191 4.3954 4.2645 4.1347 4.0049 3.8793 3.7683 4.137483 3.6715 3.586 3.5297 3.4382 3.3768 3.624 3.486 3.617133 3.551 3.5442 3.5677 3.5964 3.6183 3.6178 3.714417 3.5941 3.07225 2.0369 2.7409 1.1762 15.3447 33.2878 22.51793 18.0497 8.6163 7.9895 7.4097 6.7445 6.0612 5.4259 5.233433 4.9122 4.5117 4.1693 3.8426 3.5371 3.2928 3.0959 3.0781 2.928 2.7952 2.7176 2.8086 3.0878 3.727 4.106566 4.4436 5.0659 5.4039 7.4479 10.7791 6.737 5.8735 5.8218 5.7481 6.1196 5.7739 5.1389 4.4539 4.0961 4.1318 5.043067 6.1651 7.2465 6.7159 9.2496 1.1833 0.5016 0.5628 0.8515167 0.6719 0.8884 1.1792 1.4582 1.7193 1.9962 2.240667 2.2177 2.4061 2.6577 2.9826 3.7282 4.5052 6.5257 5.0493 4.9196 5.1322 5.2103 5.2798 5.3842 5.537 5.7542 5.876733 6.0506 6.4442 7.1239 8.0251 8.7468 10.224 10.15853 11.9978 14.0308 16.4056 19.1035 22.072 25.1061 27.611 26.2139 29.3087 29.9753 28.913 26.2559 22.3011 17.6558 11.7261 9.7896 8.7042 4.5554 1.6363 0.4534 0.1181 0.0309 0.0135 0.008833333 0.001 0.001275 0.0001 0.000125 
0.0002046086 0.0002031085 0.0002021537 0.0002013592 0.0002013184 0.0002 0.0002000977 0.0002002021 0.0001502069 0.0001 0.0001 0.0001 0.0001 0.0001 0.0001 0.0001 0.0001962963 0.0003 0.0002333333 0.0001 0.00015 0.000225 0.0001 0.0004166667 0.0002 0.0007 0.0019 0.0052 0.0131 0.0307 0.0669 0.142 0.1359 0.2522 0.4329 0.6754 0.9708 1.2391 1.484117 1.5417 1.9085 2.3279 2.7819 3.2495 3.701 4.0864 3.7885 3.0404 3.222 3.41 3.4789 3.475 3.4288 3.3848 4.00665 3.7079 3.6901 3.6738 3.6693 3.6731 3.6879 3.7186 3.78465 3.7518 3.7571 3.3703 3.3392 3.2646 3.1493 3.795033 3.4393 3.6584 3.6422 3.6528 3.6336 3.5122 4.2384 4.474083 3.093 5.0363 5.0194 5.6066 13.2034 23.8117 27.2804 20.35172 12.5414 9.4282 8.8263 8.205 7.5331 6.8337 6.527417 6.1724 5.6283 5.1898 4.7828 4.3356 3.8879 3.5715 3.498733 3.3227 3.1285 2.9883 2.9126 2.9572 3.1759 3.5463 3.951117 4.2394 5.0131 5.9133 10.5923 7.4183 6.6572 6.3689 6.36625 6.3383 6.6721 6.253 5.4403 4.8913 4.3923 4.522167 4.4565 6.5322 7.0594 6.8403 9.6361 2.8921 1.6956 1.791183 1.2386 1.3871 1.6641 1.9843 2.2715 2.5313 2.8034 2.958517 2.9653 3.1084 3.3376 3.6758 5.1133 12.5001 4.9903 5.46835 5.2322 5.3437 5.3947 5.4842 5.616 5.7983 5.988234 6.0425 6.3605 6.7658 7.1266 7.5806 8.7981 9.7835 10.50013 11.0664 12.7806 14.9864 17.6695 20.6381 23.5341 26.0228 26.31473 27.8166 28.4779 27.4853 24.8062 20.7727 16.1679 9.8879 8.240183 6.7412 3.8558 1.6331 0.5494 0.1741 0.0511 0.03266667 0.0187 0.0003 0.0023 0.00207 0.0013 
0.0002014982 0.000201052 0.0002006728 0.0002006592 0.0002 0.0002000488 0.0002000999 0.0001501013 0.0001 0.0001 0.0001 0.0001 0.0001 0.0001 0.0001 0.0001987654 0.0003 0.0002111111 0.0001 0.0001166667 0.0001291667 0.0001 0.0001 0.0001 0.0002 0.0005 0.0014 0.0035 0.0086 0.0197 0.03571667 0.0424 0.0861 0.1656 0.2897 0.468 0.6921 0.9264 1.096617 1.1159 1.3137 1.577 1.8827 2.2052 2.5179 2.803 2.950417 2.6404 2.9036 3.1419 3.3269 3.4673 3.5762 3.779267 3.6772 3.7613 3.7976 3.822 3.8459 3.8637 3.8821 4.301784 3.8974 3.9003 3.9356 4.372 4.4532 4.5074 4.5289 4.703917 4.5427 4.5479 4.607 4.7804 5.0112 5.2167 6.1438 6.035133 6.1574 8.8624 8.699 14.5392 24.3933 26.8351 23.83043 19.1982 11.7528 10.28 9.7233 9.1075 8.4269 7.6839 7.331267 6.9874 6.424 5.9551 5.5011 4.9391 4.3882 4.0059 3.891833 3.7036 3.4712 3.3019 3.2058 3.1892 3.3004 3.385 4.002133 4.3654 5.5633 7.3887 7.4695 7.1017 7.0845 6.974817 6.9173 6.9514 7.2941 6.9519 6.1075 5.527 5.0123 5.0878 5.044 6.4963 7.0753 8.1063 7.5533 4.9162 3.7352 3.37795 3.0133 3.0301 3.1833 3.3811 3.5547 3.7006 3.8653 3.914133 3.9032 4.0183 4.2709 4.6769 18.3227 5.5536 6.8427 5.5597 5.5826 5.6273 5.6864 5.827 6.0194 6.2586 6.440317 6.5388 6.8548 7.2103 7.6038 8.0289 8.556 9.3992 9.8245 10.5299 11.9761 13.7516 15.8951 18.3583 20.8908 23.1776 22.73452 23.9517 24.3873 23.5224 21.2073 17.7278 13.7413 10.46298 7.4043 4.9774 2.9146 1.3308 0.5126 0.1887 0.0629 0.04265 0.0189 0.0056 0.004175 0.0025 0.00415 
0.000200517 0.0002003341 0.0002003296 0.0002 0.0002000244 0.0002000496 0.00015005 0.0001 0.0001 0.0001 0.0001 0.0001 0.0001 0.0001 0.0001995885 0.0003 0.0002037037 0.0001 0.0001041667 0.0001 0.0001 0.0001 0.0001 0.0001 0.0002 0.0006 0.0014 0.0035 0.0081 0.0177 0.03008333 0.0369 0.0723 0.1337 0.2314 0.3732 0.5595 0.775 0.9024333 0.9816 1.1346 1.3172 1.5515 1.8085 2.0819 2.3616 2.673267 2.7707 3.1124 3.434 3.7223 3.9743 4.1967 4.406783 4.4119 4.6096 4.7803 4.9297 5.063 5.1775 5.2797 5.511983 5.345 5.4297 5.5608 5.7817 5.9914 6.1828 6.2891 6.424284 6.2742 6.1953 6.1862 6.4222 6.9006 7.5005 8.1802 8.263567 8.398 11.3199 13.2884 16.927 27.8523 29.3324 23.07393 16.5248 12.5123 11.1758 10.6314 10.0153 9.3126 8.5237 8.128917 7.7865 7.2107 6.7313 6.2337 5.5681 4.9809 4.5487 4.39895 4.1986 3.9332 3.7378 3.5963 3.4765 3.4043 3.5973 4.413466 4.8794 6.8226 10.3582 6.904 7.1719 7.4366 7.40355 7.3844 7.9018 8.0536 7.8083 7.0592 6.4007 5.9167 5.800066 5.705 6.6781 7.283 8.3335 7.4225 6.1948 5.4985 5.212266 5.0865 4.9345 4.9121 4.9443 4.9825 5.0268 4.905066 4.9912 4.9564 5.1109 5.479 5.9125 6.3945 6.2761 6.29285 6.1764 6.1591 6.1522 6.2256 6.3788 6.5932 6.8534 7.026967 7.1503 7.4718 7.8065 8.1505 8.5119 8.6672 8.8527 9.542666 9.3153 10.0765 11.1205 12.3868 13.838 15.4357 16.8556 16.9962 18.4422 18.5402 17.7172 15.8727 13.2547 10.2739 8.081567 5.3026 3.6298 2.183 1.0462 0.4619 0.1966 0.0772 0.05833333 0.0271 0.0083 0.0025 0.0058 0.006788889 
0.0002001663 0.0002001648 0.0002 0.0002000122 0.0002000247 0.0001500248 0.0001 0.0001 0.0001 0.0001 0.0001 0.0001 0.0001 0.0001998628 0.0003 0.0002012346 0.0001 0.0001010417 0.0001 0.0001 0.0001 0.0001 0.0001 0.0001 0.0003 0.0008 0.0021 0.0048 0.0104 0.0216 0.02915 0.0422 0.0771 0.135 0.223 0.3472 0.5085 0.7032 0.8342333 0.9125 1.0938 1.2811 1.5306 1.8086 2.1117 2.3029 2.436 3.0279 3.4472 3.8688 4.2854 4.6903 5.0896 4.92225 5.4891 5.8816 6.2559 6.6052 6.8513 6.997 7.1575 6.68405 7.5102 7.8386 7.0403 7.2358 7.5782 8.0081 8.3807 8.442433 8.5301 8.3059 9.7379 8.1664 8.5621 9.199 9.469283 10.0124 10.6896 12.2085 15.0365 19.6979 24.9783 25.3346 24.62952 21.2185 13.9924 12.3408 11.5685 10.8665 10.1218 9.2789 8.874634 8.5131 7.911 7.4533 6.8921 6.1841 5.6084 5.39505 5.1563 4.7806 4.5001 4.2733 4.0685 3.8587 3.5927 4.01765 4.2293 6.0244 9.2321 7.06915 6.6504 7.079 7.6353 7.754933 7.9632 8.9443 9.0541 8.7081 8.1442 7.5235 6.6145 6.486583 6.5079 6.9124 7.5469 7.8725 7.957 7.5276 7.202567 7.1249 6.8152 6.5971 6.4488 6.345 7.298 5.953 6.085783 5.8935 5.9731 6.3337 6.7517 21.8612 7.3436 7.1447 7.186917 7.0466 7.0124 6.9893 7.0476 7.1626 7.3348 7.5526 7.6966 7.8081 8.0916 8.3908 8.6923 8.9529 9.2225 9.320167 9.4829 9.676 9.9212 10.2853 10.8 11.4009 12.0177 13.3729 12.6156 13.2814 13.2895 12.5692 11.204 9.3584 7.3015 6.1583 4.4658 3.2208 2.0389 1.0111 0.4951 0.2441 0.1146 0.08796667 0.0493 0.0191 0.0091 0.01206667 0.01586667 
0.0002000824 0.0002 0.0002000061 0.0002000123 0.0001500123 0.0001 0.0001 0.0001 0.0001 0.0001 0.0001 0.0001 0.0001999543 0.0003 0.0002004115 0.0001 0.0001002604 0.0001 0.0001 0.0001 0.0001 0.0001 0.0001 0.0001 0.0003 0.0007 0.0017 0.0041 0.009 0.01411667 0.0189 0.0376 0.0713 0.1251 0.2075 0.3255 0.4871 0.5767334 0.6955 0.9376 1.1815 1.4585 1.5834 1.8929 2.2403 2.366667 2.5859 2.9283 3.3087 3.6997 4.1077 4.5308 4.9695 5.26305 5.3767 5.7457 6.0847 6.3869 6.7178 7.0406 7.598166 7.3272 7.4847 7.6594 8.9512 9.1127 9.2334 9.7647 9.7505 10.3608 10.8197 10.8841 11.1841 10.7241 10.2091 10.6487 10.95202 11.2749 11.9694 13.3435 14.6062 16.2312 20.3354 22.6333 28.18528 32.7335 15.2022 13.7855 12.54 11.716 10.87 10.40357 9.9648 9.1808 8.5547 8.0738 7.4102 6.7626 6.2519 6.062933 5.8241 5.4482 5.1448 4.871 4.623 4.3451 4.0019 4.805883 5.2804 7.9396 6.9129 6.0471 6.3103 6.8299 7.6758 7.963017 8.4343 9.8449 9.8814 9.978 9.4172 8.418 7.679867 7.195 6.9804 6.9705 7.736 8.18 8.5398 8.5191 8.32565 8.3505 8.1546 7.9159 7.6966 7.5313 7.7801 7.4585 7.21575 7.1917 7.3721 7.733 23.8085 7.555 8.6291 8.21705 8.3255 8.1522 8.0363 7.9502 7.9669 8.034 8.1516 8.16655 8.3109 8.5043 8.7234 8.9668 9.2256 9.4831 9.7313 9.80785 9.9644 10.1996 10.468 10.7827 11.1185 11.413 11.5919 11.85472 11.5803 11.3848 10.9004 10.0687 8.9013 7.4915 5.9419 5.5453 4.2771 3.2201 2.2109 1.1812 0.6059 0.3298 0.26015 0.174 0.0856 0.0386 0.0246 0.02973333 0.03108889 
0.0002 0.0002000031 0.0002000061 0.0001500061 0.0001 0.0001 0.0001 0.0001 0.0001 0.0001 0.0001 0.0001999848 0.0003 0.0002001372 0.0001 0.0001000651 0.0001 0.0001 0.0001 0.0001 0.0001 0.0001 0.0001 0.000225 0.0003 0.0006 0.0015 0.0035 0.0079 0.01245 0.0169 0.0339 0.064 0.1137 0.1898 0.2991 0.4443 0.55715 0.6218 0.8182 1.0042 1.1628 1.5648 1.8678 2.194 2.444817 2.6321 2.9998 3.3746 3.7629 4.175 4.6188 4.765817 5.0803 5.5731 6.0916 6.6091 7.1218 7.641 8.2242 7.610483 8.8425 9.391 8.5359 8.9437 9.4629 10.0904 10.6436 11.14437 11.3451 12.0531 12.5771 12.5793 12.0955 12.0379 12.1637 12.14022 12.4134 12.5908 13.2303 13.2228 12.0885 17.0601 27.08472 39.0668 28.125 15.5713 14.9925 13.5095 12.5884 11.5921 11.0744 10.5938 9.7705 9.145 8.7005 7.8952 7.3596 6.9587 6.793317 6.5782 6.1952 5.8441 5.5272 5.1886 4.7374 4.9217 5.4984 6.8093 6.4087 6.062 5.4336 5.6405 6.6452 7.835217 8.1977 7.8718 9.5146 11.1123 12.3131 10.5407 8.8325 7.622167 7.4957 6.8562 7.188 7.9064 8.3875 8.9983 9.2141 9.087116 9.2177 9.1039 8.8897 8.662 8.4887 8.4945 8.447 10.63047 8.3508 24.4156 4.8332 9.9299 9.1328 8.9574 8.93155 8.902 8.84 8.7226 8.6547 8.6536 8.694 8.7709 8.70295 8.8785 9.0073 9.1514 9.3272 9.537 9.7757 10.0651 10.0657 10.3809 10.712 11.0451 11.3583 11.6171 11.7766 11.7731 11.59622 11.5497 11.0826 10.3564 9.3811 8.2216 6.9015 6.084528 5.4741 4.3056 3.3179 2.4329 1.4775 0.7609 0.4417 0.3313667 0.2567 0.1402 0.0707 0.0555 0.05146667 0.03959375 
0.0002000015 0.0002000031 0.0001500031 0.0001 0.0001 0.0001 0.0001 0.0001 0.0001 0.0001 0.0001999949 0.0003 0.0002000457 0.0001 0.0001000163 0.0001 0.0001 0.0001 0.0001 0.0001 0.0001 0.0001 0.0001895833 0.0002333333 0.0002 0.0005 0.0012 0.003 0.0069 0.01078333 0.0151 0.031 0.06 0.1089 0.1862 0.2992 0.4518 0.5598167 0.6424 0.8604 1.0733 1.3076 1.6157 1.9299 2.274 2.510717 2.7426 3.0982 3.4493 3.7974 4.1482 4.5172 4.811833 4.8783 5.2455 5.6197 5.9857 6.3315 6.6615 6.9762 7.965 7.2522 7.5282 9.1497 9.7673 10.4479 11.1568 11.9103 12.2318 12.8417 13.8164 14.5252 14.3588 13.9119 13.695 13.18797 13.3106 13.03 13.1557 13.9063 13.8368 13.0739 21.2644 30.17647 42.1483 27.5639 15.3436 15.5686 14.3538 13.4546 12.2844 11.68987 11.1413 10.232 9.7395 9.2622 8.4461 8.0473 7.7599 7.57955 7.3871 6.9646 6.5464 6.1647 5.8619 5.1362 5.423316 6.1069 5.8702 5.6607 5.5748 4.5214 5.2276 6.9537 8.679334 10.709 5.4134 8.2077 14.3529 17.2246 11.5207 7.2022 6.920383 6.5896 6.7615 7.1177 7.7876 8.4891 9.174 9.536 9.4652 9.6853 9.6883 9.5182 9.3277 9.2183 9.2758 11.32703 9.2827 23.0521 9.8864 8.1056 8.7589 8.9358 9.3867 9.340266 9.3886 9.3293 9.1979 9.1057 9.0473 9.0232 9.0338 8.941967 9.072 9.1256 9.1987 9.326 9.4871 9.6979 9.9678 9.949717 10.2847 10.6319 10.9874 11.3197 11.5847 11.7239 11.28223 11.6801 11.4022 10.8786 10.1032 9.1353 7.9729 6.7251 5.416167 4.5123 3.5496 2.7361 2.0948 1.4413 0.8013 0.4907 0.3672167 0.2953 0.1664 0.087 0.0743 0.049275 0.0279 
0.0002000023 0.0001500015 0.0001 0.0001 0.0001 0.0001 0.0001 0.0001 0.0001 0.0001999983 0.0003 0.0002000152 0.0001 0.0001000041 0.0001 0.0001 0.0001 0.0001 0.0001 0.0001 0.0001 0.0001751736 0.0002111111 0.0002 0.0002 0.0003 0.0008 0.0022 0.0054 0.008116666 0.0125 0.0269 0.0547 0.1041 0.1854 0.3092 0.3596333 0.4844 0.7142 0.9848 1.2486 1.3786 1.6898 2.0346 2.1892 2.3868 2.8348 3.2548 3.7019 4.1857 4.6842 4.6725 5.132383 5.1039 5.5522 6.0174 6.4892 6.9598 7.4448 7.96 8.799183 8.5349 9.2453 10.0632 10.7575 11.4461 12.1406 12.40885 12.9079 13.7422 14.5483 15.0839 16.657 14.3197 13.9397 14.19233 13.9809 14.0601 14.6981 15.4822 15.8653 17.4904 22.3188 31.16017 39.2004 29.1168 15.8001 15.6799 15.0862 14.2778 12.8666 12.24855 11.661 10.7349 10.3988 9.7927 9.0879 8.8526 8.711717 8.6018 8.1916 7.6929 7.1198 6.8302 6.0147 6.1683 5.49705 5.4694 5.1871 5.2387 5.4358 4.4077 5.3942 7.6787 9.271916 11.8917 4.3476 7.6858 20.5202 21.6987 10.7019 6.1454 5.887434 5.2569 6.0586 6.6629 7.339 8.1625 8.9397 8.96175 9.4317 9.7064 9.8497 9.808 9.7313 9.7926 9.8471 13.9389 22.6151 10.0269 9.8231 9.2033 9.1856 9.4719 9.7298 9.644967 9.6771 9.5433 9.3508 9.2194 9.106 9.0217 8.89235 8.9663 8.9303 8.9025 8.914 8.9953 9.1041 9.2368 9.1344 9.401 9.5988 9.8216 10.0524 10.2632 10.4123 10.4459 10.10152 10.2938 9.9429 9.3802 8.6406 7.6939 6.6438 5.5623 4.424767 3.3217 2.625 2.0326 1.5622 1.1162 0.7109 0.55685 0.4502 0.2687 0.1503 0.0784 0.0394 0.0279 0.0234 
0.000137501 0.0001 0.0001 0.0001 0.0001 0.0001 0.0001 0.0001 0.0001999994 0.0003 0.0002000051 0.0001 0.000100001 0.0001 0.0001 0.0001 0.0001 0.0001 0.0001 0.0001 0.0001697193 0.0002037037 0.0002 0.0002 0.0002 0.0001 0.0003 0.0009 0.00205 0.0025 0.0063 0.015 0.0329 0.0681 0.1307 0.2322 0.3186667 0.381 0.575 0.7926 1.0042 1.3953 1.7188 2.0696 2.17045 2.4403 2.5416 2.9087 3.3131 3.7649 4.3016 5.4202 5.335033 6.2022 6.6867 6.8901 7.5056 8.3601 9.3226 8.997717 10.4427 11.6291 10.0452 10.7498 11.4452 12.126 12.7973 12.98172 13.5402 14.4321 15.4249 16.3922 16.5199 15.1834 15.0486 15.03217 15.1792 15.3499 16.7037 17.4177 18.584 20.2861 22.1355 24.7186 37.3105 31.4865 16.4713 15.7382 15.914 15.0652 14.5753 13.3723 12.1657 11.226 11.1484 10.3606 9.8019 9.6627 9.4663 9.346 8.8009 8.2261 7.5807 7.4126 6.1282 5.5756 5.04055 4.5259 4.3558 4.832 5.0868 4.4535 6.5638 7.364167 9.5003 8.8981 5.5026 9.0241 27.2473 22.6243 10.1965 8.3126 6.2204 3.9101 4.8443 5.7063 6.3729 7.1783 8.0074 8.143683 8.6817 9.1695 9.515 9.7074 9.8813 10.1052 22.089 14.54108 10.5237 9.8888 9.647 9.5467 9.5708 9.946 9.771334 9.932 9.7556 9.4832 9.2405 9.049 8.8761 8.7221 8.536567 8.587 8.4662 8.3613 8.2973 8.2743 8.2518 8.2464 8.10895 8.2565 8.2884 8.34 8.3991 8.4445 8.4424 8.3488 8.204233 8.1166 7.7391 7.2304 6.5438 5.7572 4.9249 4.0988 3.297267 2.3284 1.8662 1.4714 1.1386 0.8196 0.5465 0.4378667 0.3415 0.1995 0.1086 0.0551 0.0261 0.0189 0.01603333 
0.0001 0.0001 0.0001 0.0001 0.0001 0.0001 0.0001 0.0001999998 0.0003 0.0002000017 0.0001 0.0001000003 0.0001 0.0001 0.0001 0.0001 0.0001 0.0001 0.0001 0.0001677385 0.0002012346 0.0002 0.0002 0.0001666667 0.0001 0.0001666667 0.0001 0.0003 0.0008333334 0.001 0.0029 0.0078 0.0194 0.0441 0.0928 0.1807 0.2175 0.3245 0.5375 0.815 1.0321 1.3053 1.5881 1.8878 1.95155 2.2036 1.9128 2.2223 2.6278 3.1673 3.8907 4.094983 4.7937 5.8177 6.551 7.3025 7.3746 8.2888 9.204 8.806566 9.6122 7.8128 10.379 11.0772 11.7504 12.3884 12.9723 13.14868 13.532 14.1646 14.722 15.0054 23.6817 18.3974 16.0037 16.18923 16.0409 16.3549 18.2041 18.9028 20.0953 22.0986 23.40922 25.9005 38.1044 32.501 17.5911 16.0048 15.8908 18.2336 16.1404 13.6363 12.4074 11.843 11.7677 10.9843 10.5868 10.443 10.13475 9.8917 9.2633 8.9138 8.583 11.0238 5.339 4.859 4.297167 3.6451 3.8184 4.2977 4.6829 4.2427 6.2636 7.235967 8.7844 8.3773 6.5162 13.4492 26.8747 21.7387 9.7895 8.391817 6.8219 3.5854 4.5142 3.6021 4.8691 5.7129 6.5126 6.93445 7.289 8.0272 8.6156 9.129 9.5234 18.0488 11.5562 12.2606 10.6154 9.9407 9.7367 9.7998 9.8905 9.8216 9.52845 9.7267 9.4526 9.1199 8.8234 8.5605 8.3112 8.0727 7.824483 7.8496 7.642 7.4464 7.2662 7.0871 6.9386 6.8108 6.7216 6.7022 6.6149 6.5446 6.4818 6.4106 6.3061 6.1393 6.129467 5.881 5.5687 5.1182 4.5875 4.0092 3.4192 3.258583 2.8506 1.6218 1.3311 1.0673 0.8067 0.5611 0.3616 0.2953667 0.2165 0.1205 0.0624 0.0301 0.0215 0.0013 0.006766667 
0.0001 0.0001 0.0001 0.0001 0.0001 0.0001 0.0001999999 0.0003 0.0002000006 0.0001 0.0001000001 0.0001 0.0001 0.0001 0.0001 0.0001 0.0001 0.0001 0.0001670375 0.0002004115 0.0002 0.0002 0.0001555556 0.0001 0.0001222222 0.0001 0.0001666667 0.0001 0.0004 0.0002 0.0006 0.0016 0.0045 0.0116 0.0276 0.0613 0.1233167 0.1253 0.2336 0.3982 0.7076 0.9829 1.2235 1.266017 1.4435 1.6645 1.2692 1.5417 1.907 2.3878 2.7424 3.077483 3.4213 4.2357 5.3687 6.7028 8.0651 7.9237 7.223 8.213966 7.0349 9.1375 10.2658 10.9614 11.617 12.2255 12.7705 13.11472 13.2798 13.8271 14.4208 14.9531 29.1787 21.83 18.5253 17.4709 17.3921 17.6654 19.1079 19.7809 20.4869 22.7142 23.22455 24.7373 36.1192 31.6694 18.0486 15.9544 15.6227 22.3095 17.66202 14.2255 12.7478 12.6595 12.3363 11.7374 11.5165 11.1405 10.63295 10.3246 9.5173 9.0406 8.3503 5.6917 4.5179 4.268017 3.9891 3.1883 3.3626 3.803 4.2313 3.6959 5.1204 6.128467 7.1833 7.3416 7.0824 14.685 22.4662 19.5236 8.9902 8.518434 8.3324 3.3111 4.268 2.1308 3.372 4.1495 4.8763 5.740067 6.2397 6.1772 7.1455 7.8784 17.243 8.8134 10.53063 9.3935 9.3858 9.2939 9.3771 9.6236 9.7955 8.922 8.591416 8.8224 8.5127 8.2039 7.8882 7.5869 7.2895 6.9975 6.766883 6.718 6.4481 6.1701 5.8899 5.6286 5.4198 5.359933 5.2372 5.0765 4.9366 4.812 4.6946 4.5741 4.4353 4.506933 4.2469 4.0442 3.7704 3.4426 3.0764 2.6915 2.3093 2.246417 1.9487 1.1613 0.95 0.7191 0.5029 0.3259 0.1962 0.1684333 0.1099 0.0574 0.028 0.0127 0.0087 0.0001 0.0007 
0.0001 0.0001 0.0001 0.0001 0.0001 0.0002 0.0003 0.0002000002 0.0001 0.0001 0.0001 0.0001 0.0001 0.0001 0.0001 0.0001 0.0001 0.0001667937 0.0002001372 0.0002 0.0002 0.0001518519 0.0001 0.0001074074 0.0001 0.0001222222 0.0001 0.0001 0.00015 0.0003 0.0001 0.0003 0.0008 0.0022 0.0058 0.01873333 0.0145 0.0336 0.0722 0.1434 0.2613 0.4237 0.6224 0.7606167 0.8308 1.0439 0.5722 0.774 1.013 1.2439 1.6998 1.771967 1.917 2.0855 2.7734 3.645 4.7148 5.9813 7.3641 6.636467 8.8456 8.8525 9.8449 10.6607 11.4046 12.0928 12.34858 12.7456 13.3881 14.2448 15.4075 17.5591 27.8304 19.2637 18.64303 18.1861 18.2184 18.4142 18.805 19.469 19.6225 21.3485 21.97025 22.5482 34.2217 32.1143 19.8417 17.1641 17.6554 20.17443 22.8677 14.6995 12.9772 13.5206 12.8812 12.5419 12.3248 11.80682 11.5446 10.4533 9.4326 9.0155 7.4983 4.3584 3.6459 3.494017 3.2572 2.8571 2.9778 3.3227 3.3617 3.0358 3.9998 4.788417 5.4193 5.726 6.366 12.8204 18.6775 16.7844 13.07662 8.7465 8.4301 2.8909 3.7902 1.6086 1.8575 2.716 3.202483 3.3964 6.1264 3.9499 7.0022 11.7066 8.0728 7.6255 7.6151 7.7464 7.9555 8.1765 8.6187 9.057 8.8498 7.0915 6.87815 7.1643 6.9788 6.7544 6.4804 6.1995 5.9116 5.7111 5.6226 5.3409 5.0631 4.7675 4.4489 4.1833 3.9668 3.9795 3.7864 3.6331 3.5007 3.3803 3.2639 3.1475 3.024 3.097783 2.89 2.7223 2.5228 2.2988 2.0603 1.8186 1.5846 1.504242 1.3661 0.7479 0.5551 0.3835 0.2469 0.1482 0.1387 0.083 0.0434 0.0212 0.0097 0.0042 0.0027 0.003025 0.0001 
0.0001 0.0001 0.0001 0.0001 0.0002 0.0003 0.0002000001 0.0001 0.0001 0.0001 0.0001 0.0001 0.0001 0.0001 0.0001 0.0001 0.0001667099 0.0002000457 0.0002 0.0002 0.0001506173 0.0001 0.0001024691 0.0001 0.0001074074 0.0001 0.0001 0.0001166667 0.0001625 0.0001 0.0002 0.000325 0.0001 0.0003 0.0009 0.003966667 0.0023 0.0059 0.0138 0.0288 0.057 0.1032 0.1726 0.3222167 0.2709 0.4106 0.0281 0.0608 0.1199 0.2143 0.6722 0.3462 0.5051 0.6766 0.9668 1.3647 2.0095 2.9995 4.4619 4.0252 5.326 7.9192 8.9905 9.9746 10.9089 11.7255 11.799 12.5316 13.468 14.6411 16.7533 19.0464 20.9785 17.5381 17.562 17.5694 17.9646 18.1232 18.3858 19.3627 19.9953 18.58583 19.7134 20.7599 32.8343 34.6573 28.0408 21.1565 21.1476 21.76412 21.4437 14.4515 13.7027 14.0751 13.298 13.1775 12.7409 12.01027 11.5736 10.2692 9.0179 8.0735 6.2765 3.1973 2.8185 2.818733 2.7355 2.5198 2.6351 2.8766 2.5398 2.4672 2.821617 3.0569 3.9508 4.1081 5.4151 9.4784 13.8922 15.2844 11.85457 9.1306 6.3187 2.3908 3.1553 1.2898 1.0691 1.744 2.155583 2.3327 4.2007 3.8681 8.6387 6.9769 5.7998 5.944 5.93645 6.1678 6.4703 7.1351 8.1634 8.1232 7.2968 6.2683 4.6052 4.6635 4.8172 4.8004 4.681 4.5191 4.3261 4.2662 4.1193 3.9093 3.6885 3.4387 3.1889 2.9826 2.8068 2.901367 2.66 2.5378 2.4337 2.3365 2.2393 2.1433 2.0556 2.10505 1.9349 1.808 1.6726 1.5322 1.3901 1.2487 1.105 0.9309916 0.71175 0.353 0.2414 0.1545 0.0925 0.0518 0.05535 0.0271 0.0133 0.0061 0.0026 0.0011 0.0006 0.001133333 0.001152083 
0.0001 0.0001 0.0001 0.0002 0.0003 0.0002 0.0001 0.0001 0.0001 0.0001 0.0001 0.0001 0.0001 0.0001 0.0001 0.0001666813 0.0002000152 0.0002 0.0002 0.0001502058 0.0001 0.000100823 0.0001 0.0001024691 0.0001 0.0001 0.0001055556 0.0001197917 0.0001 0.00015 0.00018125 0.0001 0.0002 0.00035 0.0001 0.000875 0.0002 0.0005 0.0012 0.0034 0.0067 0.0119 0.0173 0.08048333 0.0193 0.009 0.0161 0.0391 0.0927 0.1873 0.2303 0.3417 0.5597 0.8217 1.1122 1.4423 1.9023 2.554 3.040417 3.8473 4.9545 6.2495 7.2933 8.3403 9.3793 10.3519 10.51233 11.3466 12.4813 14.0964 16.0959 17.5832 17.6755 16.1902 16.28952 16.6245 17.511 17.7161 16.2747 15.9654 14.3695 15.96453 16.4658 25.8313 33.3187 36.9667 35.1366 28.6386 26.7934 23.76075 20.6769 14.8371 14.4508 14.2813 13.6074 13.4068 12.7443 11.84988 11.1334 9.6109 8.262 6.6278 4.4883 2.6042 2.2353 2.249067 2.22 2.1497 2.2949 2.4721 2.0989 2.0218 2.252833 2.3482 2.8709 3.1673 4.1488 6.0978 9.5655 14.252 10.25112 6.9295 4.3264 1.8721 2.476 1.0322 0.6091 1.1407 1.414033 1.6037 2.8313 4.5639 7.7268 5.9535 2.6124 3.577433 3.7494 4.3856 4.8578 6.2499 7.7996 7.7748 5.9717 4.84865 3.7948 3.4169 3.2412 3.1378 3.0548 2.9683 2.8647 2.95735 2.7529 2.6343 2.493 2.33 2.1789 2.0537 1.9468 2.02755 2.2414 2.0551 1.8914 1.7527 1.6282 1.5233 1.5794 1.4138 1.312 1.2168 1.123 1.0187 0.8969 0.7684 0.7355 0.6281 0.1904 0.1265 0.0798 0.0475 0.0286 0.0148 0.01746667 0.0072 0.0033 0.0014 0.0006 0.0002 0.0001 0.00035 0.0005277778 
0.0001 0.0001 0.0002 0.0003 0.0002 0.0001 0.0001 0.0001 0.0001 0.0001 0.0001 0.0001 0.0001 0.0001 0.0001666716 0.0002000051 0.0002 0.0002 0.0001500686 0.0001 0.0001002744 0.0001 0.000100823 0.0001 0.0001 0.0001018519 0.0001063368 0.0001 0.000125 0.0001328125 0.0001 0.00015 0.0001875 0.0001 0.0001 0.00015 0.00035 0.0005 0.0001 0.0002 0.0003 0.0002 0.005066667 0.0007 0.0021 0.0023 0.0068 0.0185 0.0406 0.0942 0.15585 0.1981 0.3753 0.6329 0.9181 1.2098 1.5686 2.0703 2.416483 2.7462 3.5282 4.332 5.1524 6.0416 6.9968 7.60185 8.0098 9.1086 10.4918 12.0438 13.7731 15.059 15.1596 14.74417 14.6216 15.1933 16.2132 16.2867 12.6664 11.1844 7.5753 13.29417 17.6679 36.5118 40.5391 40.8919 36.1488 30.2197 30.2508 24.63725 22.2521 16.711 14.9375 14.3371 13.8855 13.2294 12.40025 12.1019 10.8052 8.8349 6.9649 5.2222 3.0997 2.0209 1.8962 1.7436 1.7415 1.7718 1.9505 2.0921 1.7484 1.7193 1.849083 1.9036 2.1469 2.7946 2.8435 3.5409 6.6323 11.3006 8.037017 4.6096 2.8626 1.4764 1.9566 0.5269 0.3906 0.5374 0.6163 1.0468 2.4905 2.8323 6.7486 4.7541 1.1942 2.054417 2.1648 2.8413 3.3366 4.1607 6.4052 5.5337 4.4938 3.638186 2.9296 3.294 1.8909 1.9264 1.9268 1.906 1.8658 1.891367 1.8153 1.7546 1.6805 1.6037 1.534 1.4726 1.51405 1.4168 1.0935 1.1838 1.1978 1.1531 1.339 1.1501 1.011283 1.1903 1.1578 1.0606 0.9177 0.7617 0.5413 0.3875 0.36775 0.2753 0.0487 0.0322 0.0197 0.012 0.0047 0.0026 0.00435 0.0013 0.0006 0.0002 0.0001 0.00025 0.00015 0.0001 0.000225 
0.0001 0.0002 0.0003 0.0002 0.0001 0.0001 0.0001 0.0001 0.0001 0.0001 0.0001 0.0001 0.0001 0.0001666683 0.0002000017 0.0002 0.0002 0.0001500229 0.0001 0.0001000914 0.0001 0.0001002744 0.0001 0.0001 0.0001006173 0.0001020472 0.0001 0.0001125 0.0001144531 0.0001 0.000125 0.000134375 0.0001 0.0001 0.0001166667 0.0002 0.000275 0.0001 0.00015 0.0002 0.0002 0.0001 0.0003 0.0002 0.0007 0.0004 0.0013 0.0043 0.0124 0.0331 0.07263333 0.0807 0.1785 0.3521 0.5647 0.8304 1.1189 1.316767 1.4381 1.843 2.2952 2.7902 3.3659 4.0575 4.9165 5.3846 5.9568 7.3115 9.0396 11.1487 10.7454 12.002 12.4298 12.23432 12.3883 12.855 13.4767 13.3455 8.3866 5.5284 6.7324 11.01842 16.9541 34.277 44.0401 44.405 36.4854 29.1564 26.88382 25.912 21.9383 17.312 15.068 14.0038 13.2347 12.1055 11.23952 10.8136 9.4266 7.5588 5.6748 4.1583 2.289 1.441 1.467533 1.3322 1.364 1.4587 1.6279 1.7418 1.4914 1.5099 1.57345 1.5917 1.663 2.0534 2.3327 2.2444 4.0414 6.364133 8.1688 2.9616 1.9125 1.192 1.5539 0.1669 0.193 0.2799667 0.2747 0.7377 1.2542 1.7372 5.8514 3.6209 1.0118 1.318983 1.5939 1.2788 1.9789 2.5761 3.7901 3.8967 3.4511 2.539 2.2873 2.3907 1.7787 1.957 2.0592 1.3874 1.45715 1.3684 0.6811 1.006 1.1272 1.161 1.1531 1.1218 1.089833 1.0726 0.925 0.8245 0.7445 0.668 0.3684 0.4851 0.5412833 0.3051 0.1701 0.0864 0.0386 0.0153 0.0709 0.0801 0.1390667 0.0671 0.0095 0.0068 0.004 0.0014 0.0004 0.00158 0.0001 0.0001 0.0001 0.00025 0.00015 0.0001 0.00015 0.000125 0.0001 
0.0002 0.0003 0.0002 0.0001 0.0001 0.0001 0.0001 0.0001 0.0001 0.0001 0.0001 0.0001 0.0001666672 0.0002000006 0.0002 0.0002 0.0001500076 0.0001 0.0001000305 0.0001 0.0001000914 0.0001 0.0001 0.0001002058 0.0001006661 0.0001 0.00010625 0.0001067383 0.0001 0.0001125 0.0001148438 0.0001 0.0001 0.0001055556 0.0001388889 0.0001729167 0.0001 0.000125 0.00015 0.0001625 0.0001 0.0001 0.00015 0.0003333333 0.0001 0.0001 0.0002 0.0008 0.0026 0.009766666 0.0078 0.0219 0.0607 0.1521 0.2758 0.4622 0.6904 0.7829834 1.0143 1.1482 1.4174 1.6898 2.0098 2.4211 2.9156 3.522333 3.5121 4.1599 4.7222 5.0489 7.6287 8.731 9.2891 9.354333 9.5175 9.9513 10.2371 7.4991 5.1233 4.3814 4.601833 4.9169 12.2639 25.8613 38.4366 42.5852 35.8045 24.6379 22.47732 21.1261 19.2211 16.608 14.7181 13.2093 11.7735 10.3894 9.605783 8.7973 7.2864 6.4313 5.1313 3.4562 1.8695 1.2143 1.2041 1.0532 1.1382 1.2287 1.3503 1.4452 1.3062 1.3464 1.3459 1.3703 1.3474 1.5281 1.6309 1.6034 2.3921 4.274433 5.6496 1.991 1.3213 0.8569 1.2224 0.0655 0.0729 0.1264 0.1323 0.2715 0.6608 1.0643 4.679 2.6586 0.7021 1.083283 1.2471 0.6946 1.1325 1.5742 2.2725 2.6009 2.480357 1.8496 1.7869 1.8463 1.5854 2.7469 1.4669 1.1174 1.076733 1.0979 0.5105 0.3625 0.6038 0.7281 0.7714 0.7563 0.7302167 0.6989 0.5942 0.8836 0.154 0.2104 0.1721 0.0822 0.1603333 0.0349 0.013 0.004 0.001 0.0002 0.0077 0.02881667 0.0118 0.0126 0.0011 0.0004 0.0004 0.0002 0.0001 0.0002 0.0001 0.0001 0.0001 0.0001 0.00015 0.000125 0.0001 0.00011875 0.0001125 
0.0003 0.0002 0.0001 0.0001 0.0001 0.0001 0.0001 0.0001 0.0001 0.0001 0.0001 0.0001666669 0.0002000002 0.0002 0.0002 0.0001500025 0.0001 0.0001000102 0.0001 0.0001000305 0.0001 0.0001 0.0001000686 0.000100218 0.0001 0.000103125 0.0001032471 0.0001 0.00010625 0.0001068359 0.0001 0.0001 0.0001018519 0.0001148148 0.0001293403 0.0001 0.0001125 0.000125 0.000134375 0.0001 0.0001 0.0001166667 0.0001708333 0.0001 0.0001 0.0001333333 0.000325 0.0002 0.0006 0.002283333 0.0021 0.0068 0.0166 0.0354 0.0639 0.1062 0.1879 0.3824333 0.2483 0.5346 0.7175 0.9164 1.1383 1.3934 1.7089 2.022983 2.1241 2.7264 3.6175 3.5272 4.839 5.6444 6.749583 6.1148 6.3865 6.6214 6.4325 3.3643 3.7545 2.9314 3.1424 3.1205 6.8468 16.4899 30.3707 33.1232 27.2925 17.6878 17.02438 16.3437 15.251 13.6013 12.6637 11.4603 10.219 8.6738 7.734117 6.8551 5.457 4.9794 3.8689 2.9454 1.6168 1.36935 1.1359 1.048 1.0392 1.0782 1.1493 1.2312 1.1955 1.18835 1.2295 1.2059 1.137 1.1883 1.1603 1.1309 1.5891 2.8381 3.8056 1.2212 0.8268 0.3988 0.7183 0.1685 0.0345 0.05828333 0.051 0.0909 0.2674 0.5656 2.2439 2.6712 1.668983 0.9035 1.0413 0.5329 0.5371 0.9633 1.4083 1.7343 1.57475 1.2909 1.3365 1.4238 1.3427 2.9975 0.9838 0.766 0.7347333 0.7233 0.3221 0.1213 0.2561 0.3499 0.3915 0.3857 0.4175667 0.346 0.4722 0.1584 0.0977 0.0752 0.0591 0.06301667 0.0366 0.0181 0.0071 0.0021 0.0005 0.0001 0.0008 0.0044 0.0016 0.0007 0.0037 0.0006333333 0.0003333333 0.0002333333 0.00015 0.0001 0.000125 0.0001 0.0001 0.0001 0.0001 0.00011875 0.0001125 0.0001 0.0001104167 
0.0002 0.0001 0.0001 0.0001 0.0001 0.0001 0.0001 0.0001 0.0001 0.0001 0.0001666667 0.0002000001 0.0002 0.0002 0.0001500009 0.0001 0.0001000034 0.0001 0.0001000102 0.0001 0.0001 0.0001000229 0.0001000716 0.0001 0.0001015625 0.000101593 0.0001 0.000103125 0.0001032715 0.0001 0.0001 0.0001006173 0.0001055556 0.0001115017 0.0001 0.00010625 0.0001125 0.0001179688 0.0001 0.0001 0.0001055556 0.000121875 0.0001 0.0001 0.0001111111 0.0001895833 0.0002 0.0003 0.0001 0.00068 0.0005 0.0013 0.0031 0.007 0.0143 0.0287 0.0556 0.1044833 0.0981 0.1753 0.2566 0.358 0.4868 0.6458 0.8520333 0.8296 1.0476 1.2672 1.4411 2.5752 3.8619 5.2041 3.766033 5.5141 4.9994 3.4099 2.4815 1.8484 2.2574 1.6992 1.901883 1.805 3.6138 9.7025 23.0455 21.1904 15.9606 10.9924 11.63348 11.3584 10.886 9.486 9.3048 8.9376 7.7333 7.215683 6.5176 5.1715 4.0201 3.459 2.6752 2.2414 1.349 1.145033 1.0306 0.8836 0.9916 1.0274 1.0576 1.1213 1.0102 0.9419 1.0428 1.0083 0.7847 0.8248 0.6431 0.6353 1.0446 1.864 2.5476 0.6353 0.354 0.1342 0.3704 0.0709 0.06358334 0.0321 0.0269 0.0394 0.0977 0.2441 1.1065 1.6655 1.458983 1.413 0.6195 0.3332 0.3383 0.4126 0.8205 1.1238 1.017667 0.849 0.9749 1.0697 1.0797 2.5477 0.4932 0.4893667 0.3683 0.3355 0.0916 0.0792 0.1082 0.1429 0.161 0.22005 0.2481 0.0704 0.1135 0.0689 0.0386 0.024 0.0171 0.02203333 0.011 0.0057 0.0022 0.0007 0.0002 0.0003 0.0001 0.0008333334 0.00115 0.00115 0.0007 0.001341667 0.0004 0.0002388889 0.0001611111 0.000125 0.0001 0.00010625 0.0001 0.0001 0.0001 0.0001 0.0001078125 0.00010625 0.0001 
0.0001 0.0001 0.0001 0.0001 0.0001 0.0001 0.0001 0.0001 0.0001 0.0001666667 0.0002 0.0002 0.0002 0.0001500003 0.0001 0.0001000011 0.0001 0.0001000034 0.0001 0.0001 0.0001000076 0.0001000236 0.0001 0.0001007813 0.0001007889 0.0001 0.0001015625 0.0001015991 0.0001 0.0001 0.0001002058 0.0001020576 0.0001044186 0.0001 0.000103125 0.00010625 0.0001091797 0.0001 0.0001 0.0001018519 0.0001068576 0.0001 0.0001 0.0001037037 0.0001501736 0.0002 0.0002 0.0001 0.0001 0.0002333333 0.0001 0.0002 0.0005 0.0012 0.0028 0.0061 0.01771667 0.0127 0.0243 0.0431 0.0684 0.1035 0.1523 0.2201 0.3517833 0.3144 0.4568 0.5273 0.5682 1.0827 0.7621 0.1148 2.16742 0.004 0.0473 1.8473 1.4198 0.8945 1.1796 1.145267 0.8983 0.9569 1.8275 6.3082 13.477 11.7866 8.6083 8.259117 6.2494 7.1692 6.9769 5.869 6.1249 6.027 5.4795 5.2048 4.6709 3.7028 2.8102 2.3836 1.7801 1.6016 1.0991 0.8410333 0.6388 0.427 0.6293 0.7807 0.8756 0.75855 0.6546583 0.5716 0.6018 0.5268 0.3252 0.3714 0.2386 0.2521 0.4723 0.5684 1.6287 0.232 0.1136 0.0455 0.1395 0.0406 0.0426 0.0349 0.0261 0.0311 0.0425 0.1044 0.5478 1.0276 1.072717 1.0731 0.8147 0.1723 0.1792 0.2547 0.3395 0.6353 0.6035833 0.4727 0.5934 0.6859 0.6968 1.676 0.1868 0.2159167 0.1381 0.1226 0.0405 0.0209 0.0374 0.0511 0.0856 0.09663333 0.0484 0.0313 0.0308 0.0215 0.0125 0.0075 0.0051 0.00665 0.0033 0.0017 0.0007 0.0002 0.0001 0.000125 0.0001 0.0001 0.0008083333 0.001 0.000925 0.0007 0.0006701389 0.0002666667 0.000175 0.0001287037 0.0001125 0.0001 0.0001015625 0.0001 0.0001 0.0001 0.0001 0.0001035156 0.000103125 
0.0001 0.0001 0.0001 0.0001 0.0001 0.0001 0.0001 0.0001 0.0001666667 0.0002 0.0002 0.0002 0.0001500001 0.0001 0.0001000004 0.0001 0.0001000011 0.0001 0.0001 0.0001000025 0.0001000078 0.0001 0.0001003906 0.0001003925 0.0001 0.0001007813 0.0001007904 0.0001 0.0001 0.0001000686 0.0001007545 0.0001016705 0.0001 0.0001015625 0.000103125 0.0001046387 0.0001 0.0001 0.0001006173 0.0001021774 0.0001 0.0001 0.0001012346 0.0001384693 0.0002 0.0001666667 0.0001 0.0001 0.0001333333 0.0001 0.00015 0.000225 0.0001 0.0002 0.0004 0.001 0.003733333 0.0022 0.0045 0.0083 0.0141 0.0228 0.0353 0.0513 0.158825 0.0495 0.337 0.5174333 0.7260666 0.8043333 0.6532 0.43845 0.03963333 0.0001 0.0021 0.8354 0.6798 0.3355 0.4864 0.52855 0.3507 0.3747 0.8327 4.0799 6.6148 5.9613 4.371 4.4394 3.373 3.8312 3.9875 3.4326 3.6622 3.822 3.6428 3.5734 3.1847 2.3777 2.1337 1.6702 1.3153 1.1911 0.6706 0.4989 0.2581 0.1355 0.2774 0.3702 0.4649 0.2417 0.332625 0.2246 0.2458 0.1564 0.0932 0.1496 0.1056 0.0944 0.2173333 0.239 0.9908 0.0675 0.0372 0.0283 0.0551 0.0391 0.03938333 0.038 0.0277 0.0333 0.0318 0.0543 0.2435 0.5779 0.6653333 0.6792 0.6336 0.081 0.0849 0.0869 0.1595 0.2764167 0.3108 0.2299 0.2955 0.3333 0.3263 0.8644 0.0612 0.0797 0.0479 0.0421 0.0107 0.0099 0.0136 0.026 0.0194 0.03113333 0.0173 0.0122 0.0105 0.0078 0.005 0.0032 0.0021 0.002283333 0.0013 0.0007 0.0003 0.0001 0.0001 0.0001 0.000105 0.0001 0.0001 0.0007083333 0.000875 0.0008125 0.0007 0.0004529514 0.0001901235 0.0001387346 0.0001137346 0.00010625 0.0001 0.0001003906 0.0001 0.0001 0.0001 0.0001 0.0001022135 
0.0001 0.0001 0.0001 0.0001 0.0001 0.0001 0.0001 0.0001666667 0.0002 0.0002 0.0002 0.00015 0.0001 0.0001000001 0.0001 0.0001000004 0.0001 0.0001 0.0001000008 0.0001000026 0.0001 0.0001001953 0.0001001958 0.0001 0.0001003906 0.0001003929 0.0001 0.0001 0.0001000229 0.0001002744 0.0001006234 0.0001 0.0001007813 0.0001015625 0.0001023315 0.0001 0.0001 0.0001002058 0.0001006987 0.0001 0.0001 0.0001004115 0.000134926 0.0002 0.0001555556 0.0001 0.0001 0.0001083333 0.0001 0.000125 0.00014375 0.0001 0.00015 0.0002 0.0001 0.0001 0.0009 0.0003 0.0006 0.0012 0.0021 0.0032 0.0035 0.0226 0.0504 0.0495 0.0495 0.4075 0.6826111 0.7278666 0.6319944 0.2828458 0.0001 0.0007666667 0.0001 0.2938 0.2522 0.0998 0.1518 0.1928333 0.1045 0.1089 0.2865 1.6446 3.7778 2.8754 2.2026 2.471167 1.8321 2.0377 2.1703 1.9318 2.139 2.3285 2.3286 2.36475 2.1339 1.5916 1.6664 1.2801 1.0937 0.9492 0.60475 0.2521 0.0747 0.0357 0.1135 0.1392 0.193 0.1185 0.1341667 0.0808 0.0902 0.0411 0.0312 0.0939 0.0816 0.0614 0.0948 0.0887 0.4104 0.0235 0.0216 0.0268 0.0393 0.04386667 0.043 0.0407 0.0293 0.0359 0.0281 0.0376 0.1179 0.2403 0.2911 0.3431 0.2746 0.1081 0.0405 0.0317 0.0702 0.1311 0.1432 0.1036 0.1257 0.1323 0.1574 0.271 0.0236 0.02981667 0.0206 0.0182 0.005 0.0031 0.0077 0.0078 0.01166667 0.0083 0.0078 0.0061 0.0051 0.004 0.0028 0.0018 0.001683333 0.0012 0.0007 0.0004 0.0002 0.0001 0.0001 0.0001 0.0001 0.000101 0.0001 0.0001 0.0006239584 0.0007958334 0.00075625 0.0007 0.0003704524 0.0001475309 0.000119573 0.0001066615 0.000103125 0.0001 0.0001000977 0.0001 0.0001 0.0001 0.0001 
0.0001 0.0001 0.0001 0.0001 0.0001 0.0001 0.0001666667 0.0002 0.0002 0.0002 0.00015 0.0001 0.0001 0.0001 0.0001000001 0.0001 0.0001 0.0001000003 0.0001000009 0.0001 0.0001000977 0.0001000978 0.0001 0.0001001953 0.0001001959 0.0001 0.0001 0.0001000076 0.0001000991 0.0001002302 0.0001 0.0001003906 0.0001007813 0.0001011688 0.0001 0.0001 0.0001000686 0.0001002261 0.0001 0.0001 0.0001001372 0.0001338344 0.0002 0.0001518519 0.0001 0.0001 0.0001020833 0.0001 0.0001125 0.0001171875 0.0001 0.000125 0.0001375 0.0001 0.0001 0.0001 0.0002 0.0003333333 0.0001 0.0001 0.0002 0.0003 0.0003 0.0019 0.02494 0.0498 0.0495 0.0495 0.4668694 0.6808241 0.4107017 0.0001 0.0003222222 0.0001 0.0987 0.0821 0.0754 0.0246 0.0382 0.05561667 0.0254 0.0245 0.0756 0.5941 2.0027 1.4344 1.508433 1.2797 1.7686 1.1114 1.1819 1.1078 1.2662 1.4125 1.547733 1.4786 1.4199 1.1337 1.2939 0.9661 0.7363 0.4961 0.3258 0.0694 0.0151 0.0149 0.076 0.0662 0.0984 0.0955 0.0775 0.0439 0.045 0.0214 0.0186 0.0758 0.08 0.06295 0.0462 0.0391 0.122 0.0147 0.0178 0.0254 0.0404 0.04328333 0.0463 0.0397 0.0338 0.0379 0.0258 0.0332 0.0717 0.1235833 0.1397 0.1509 0.1158 0.0838 0.025 0.0145 0.0349 0.06045833 0.068 0.049 0.0541 0.0521 0.069 0.0849 0.07386667 0.0134 0.0122 0.0106 0.0029 0.0018 0.003 0.004 0.0049 0.0045 0.0044 0.0037 0.003 0.0024 0.0017 0.0011 0.0009833333 0.0007 0.0004 0.0002 0.0001 0.0001 0.0001 0.0001 0.0001 0.0001 0.0001002 0.0001 0.0001 0.0005690104 0.0007506944 0.000728125 0.0007 0.0003343891 0.0001245885 0.0001097865 0.0001032622 0.0001015625 0.0001 0.0001000244 0.0001 0.0001 0.0001 
0.0001 0.0001 0.0001 0.0001 0.0001 0.0001666667 0.0002 0.0002 0.0002 0.00015 0.0001 0.0001 0.0001 0.0001 0.0001 0.0001 0.0001000001 0.0001000003 0.0001 0.0001000488 0.0001000489 0.0001 0.0001000977 0.0001000978 0.0001 0.0001 0.0001000025 0.0001000356 0.0001000842 0.0001 0.0001001953 0.0001003906 0.0001005852 0.0001 0.0001 0.0001000229 0.0001000737 0.0001 0.0001 0.0001000457 0.0001334929 0.0002 0.0001506173 0.0001 0.0001 0.0001005208 0.0001 0.00010625 0.0001074219 0.0001 0.0001125 0.000115625 0.0001 0.0001 0.0001 0.0001333333 0.0001833333 0.0001 0.0001 0.0001333333 0.0002 0.0002666667 0.0003 0.0003 0.0011 0.025128 0.0496 0.0495 0.0495 0.321599 0.0001 0.0001740741 0.0001 0.03535 0.03486667 0.0188 0.0187 0.0053 0.01321667 0.0083 0.0055 0.0045 0.0168 0.1631 0.9738 0.686 0.7465166 0.5725 0.0545 0.4844 0.5355 0.4955 0.655 0.8172 0.89705 0.921 0.9405 0.7568 0.8353 0.5047 0.3129 0.1719 0.1344 0.0161 0.0039 0.0142 0.0774 0.0555 0.0851 0.09238333 0.0941 0.0322 0.0273 0.0134 0.0127 0.0598 0.0721 0.09166667 0.0364 0.0274 0.039 0.0106 0.0146 0.0233 0.0422 0.0449 0.0485 0.0387 0.0371 0.0392 0.0231 0.032 0.0489 0.07028333 0.0722 0.071 0.0643 0.0863 0.0212 0.0113 0.0179 0.02924167 0.02855 0.0292 0.0309 0.0284 0.0458 0.0412 0.03201667 0.0091 0.0081 0.0068 0.0019 0.0008 0.0016 0.0022 0.002616667 0.0026 0.0026 0.0023 0.0018 0.0014 0.001 0.0007 0.0005833333 0.0004 0.0002 0.0001 0.0001 0.0001 0.0001 0.0001 0.0001 0.0001 0.0001 0.00010004 0.0001 0.0001 0.0005369575 0.0007262732 0.0007140625 0.0007 0.000317191 0.0001125457 0.0001048704 0.0001016082 0.0001007813 0.0001 0.0001000061 0.0001 0.0001 
0.0001 0.0001 0.0001 0.0001 0.0001666667 0.0002 0.0002 0.0002 0.00015 0.0001 0.0001 0.0001 0.0001 0.0001 0.0001 0.0001 0.0001000001 0.0001 0.0001000244 0.0001000244 0.0001 0.0001000488 0.0001000489 0.0001 0.0001 0.0001000008 0.0001000127 0.0001000306 0.0001 0.0001000977 0.0001001953 0.0001002928 0.0001 0.0001 0.0001000076 0.0001000241 0.0001 0.0001 0.0001000152 0.0001333847 0.0002 0.0001502058 0.0001 0.0001 0.0001001302 0.0001 0.000103125 0.000103418 0.0001 0.00010625 0.0001070313 0.0001 0.0001 0.0001 0.0001111111 0.0001291667 0.0001 0.0001 0.0001111111 0.0001444444 0.0002 0.0002555556 0.0002888889 0.0003 0.0003 0.0007 0.0250456 0.04953333 0.0495 0.0248 0.0001246914 0.0001 0.01334028 0.01471111 0.007733333 0.0037 0.0024 0.0011 0.0029 0.0018 0.0013 0.0007 0.0042 0.0395 0.3716 0.2776 0.33715 0.2289 0.0413 0.1801 0.1877 0.1706 0.2427 0.3379 0.4598667 0.4151 0.4517 0.3558 0.3612 0.1866 0.0975 0.0458 0.04393333 0.0071 0.006 0.0101 0.0841 0.0565 0.0894 0.09026667 0.0918 0.0231 0.0157 0.0079 0.0189 0.1259 0.2272 0.08478 0.0881 0.058 0.0219 0.0074 0.0114 0.0204 0.0425 0.04546667 0.0495 0.0399 0.0364 0.0348 0.0244 0.0308 0.0361 0.0398 0.0494 0.0499 0.0526 0.0951 0.0199 0.0103 0.01111667 0.0107 0.0154 0.0212 0.0228 0.0211 0.0295 0.0373 0.02053333 0.0062 0.0053 0.0043 0.0012 0.0004 0.0012 0.001 0.001416667 0.0014 0.0015 0.0013 0.0011 0.0008 0.0006 0.0005333333 0.0004 0.0002 0.0001 0.0001 0.0001 0.0001 0.0001 0.0001 0.0001 0.0001 0.0001 0.0001 0.000100008 0.0001 0.0001 0.0005193233 0.0007134452 0.0007070312 0.0007 0.0003086518 0.0001063415 0.00010242 0.0001007965 0.0001003906 0.0001 0.0001000015 0.0001 
0.0001 0.0001 0.0001 0.0001666667 0.0002 0.0002 0.0002 0.00015 0.0001 0.0001 0.0001 0.0001 0.0001 0.0001 0.0001 0.0001 0.0001 0.0001000122 0.0001000122 0.0001 0.0001000244 0.0001000244 0.0001 0.0001 0.0001000003 0.0001000045 0.000100011 0.0001 0.0001000488 0.0001000977 0.0001001464 0.0001 0.0001 0.0001000025 0.0001000079 0.0001 0.0001 0.0001000051 0.00013335 0.0002 0.0001500686 0.0001 0.0001 0.0001000326 0.0001 0.0001015625 0.0001016357 0.0001 0.000103125 0.0001033203 0.0001 0.0001 0.0001 0.0001037037 0.0001100694 0.0001 0.0001 0.0001037037 0.0001185185 0.0001518519 0.0002 0.0002481481 0.0002814815 0.0002962963 0.0003 0.0003 0.0005 0.02497579 0.04127778 0.01863117 0.0001 0.00524757 0.006194444 0.0032 0.001533333 0.0007 0.0002 0.0003 0.0007 0.0006 0.0005 0.0001 0.0018 0.0126 0.1709 0.1369 0.15945 0.121 0.0397 0.0886 0.0774 0.0661 0.0862 0.1485333 0.1183 0.1497 0.1705 0.1415 0.123 0.0602 0.0309 0.03651667 0.0154 0.0073 0.0074 0.0075 0.0909 0.0586 0.0945 0.08998334 0.0867 0.0155 0.0083 0.0087 0.04035 0.124 0.17655 0.0789 0.0001 0.001 0.0149 0.0049 0.0085 0.0172 0.02878333 0.041 0.0491 0.0394 0.0354 0.0302 0.0244 0.0291 0.03251667 0.036 0.0426 0.0447 0.0478 0.1004 0.0183 0.0095 0.008433334 0.007 0.011 0.0159 0.0177 0.0167 0.0273 0.0254 0.01533333 0.004 0.0033 0.0019 0.0015 0.0002 0.0006 0.00065 0.0006 0.0007 0.0008 0.0007 0.0006 0.0005 0.0003 0.0003 0.0002 0.0001 0.0001 0.0001 0.0001 0.0001 0.0001 0.0001 0.0001 0.0001 0.0001 0.0001 0.0001 0.0001000016 0.0001 0.0001 0.0005099499 0.0007068255 0.0007035156 0.0007 0.0003043533 0.000103186 0.0001012024 0.0001003957 0.0001001953 0.0001 0.0001000005 
0.0001 0.0001 0.0001666667 0.0002 0.0002 0.0002 0.00015 0.0001 0.0001 0.0001 0.0001 0.0001 0.0001 0.0001 0.0001 0.0001 0.0001000061 0.0001000061 0.0001 0.0001000122 0.0001000122 0.0001 0.0001 0.0001000001 0.0001000016 0.000100004 0.0001 0.0001000244 0.0001000488 0.0001000732 0.0001 0.0001 0.0001000008 0.0001000026 0.0001 0.0001 0.0001000017 0.0001333388 0.0002 0.0001500229 0.0001 0.0001 0.0001000081 0.0001 0.0001007813 0.0001007996 0.0001 0.0001015625 0.0001016113 0.0001 0.0001 0.0001 0.0001012346 0.0001034433 0.0001 0.0001 0.0001012346 0.0001074074 0.0001246914 0.0001567901 0.0002 0.0002432099 0.0002753086 0.0002925926 0.0002987654 0.0003 0.0003 0.0004 0.01428079 0.0001 0.002145766 0.002626852 0.001355556 0.0006722222 0.0003333333 0.0002 0.0001 0.0001 0.0002666667 0.0003 0.0003 0.001171429 0.0012 0.0276 0.1101 0.1176 0.1002 0.0921 0.0438 0.071 0.055 0.0455 0.0494 0.06711667 0.0567 0.0644 0.0716 0.0671 0.056 0.0291 0.0181 0.01745 0.0114 0.0083 0.0078 0.0057 0.0975 0.0608 0.0985 0.09005714 0.079 0.0098 0.0072 0.008066666 0.0087 0.0874 0.07596 0.00015 0.0002 0.0011 0.0099 0.0031 0.0061 0.0138 0.02558333 0.0378 0.0473 0.0376 0.0308 0.0282 0.0235 0.0268 0.02955 0.0326 0.0383 0.0408 0.0542 0.0896 0.0163 0.0085 0.00665 0.0046 0.0076 0.0116 0.0133 0.0128 0.0235 0.02036667 0.0166 0.0025 0.002 0.0008 0.0011 0.0001 0.0002 0.0003333333 0.0003 0.0004 0.0006 0.0003 0.0003 0.0002 0.0002 0.0001666667 0.0001 0.0001 0.0001 0.0001 0.0001 0.0001 0.0001 0.0001 0.0001 0.0001 0.0001 0.0001 0.0001 0.0001 0.0001000003 0.0001 0.0001 0.0005050728 0.000703447 0.0007017578 0.0007 0.0003021854 0.0001015947 0.0001005978 0.000100197 0.0001000977 0.0001 
0.0001 0.0001666667 0.0002 0.0002 0.0002 0.00015 0.0001 0.0001 0.0001 0.0001 0.0001 0.0001 0.0001 0.0001 0.0001 0.0001000031 0.0001000031 0.0001 0.0001000061 0.0001000061 0.0001 0.0001 0.0001 0.0001000006 0.0001000014 0.0001 0.0001000122 0.0001000244 0.0001000366 0.0001 0.0001 0.0001000003 0.0001000009 0.0001 0.0001 0.0001000006 0.0001333351 0.0002 0.0001500076 0.0001 0.0001 0.000100002 0.0001 0.0001003906 0.0001003952 0.0001 0.0001007813 0.0001007935 0.0001 0.0001 0.0001 0.0001004115 0.0001011695 0.0001 0.0001 0.0001004115 0.0001028807 0.0001111111 0.0001296296 0.0001604938 0.0002 0.0002395062 0.0002703704 0.0002888889 0.0002971193 0.0002995885 0.0003 0.0003 0.0002666667 0.0009239543 0.001143261 0.000608642 0.0003305555 0.0001944444 0.00015 0.0001 0.000125 0.0001 0.0001 0.0002 0.0002 0.001257143 0.0041 0.0174 0.1025 0.09371667 0.085 0.0776 0.0455 0.0652 0.0496 0.042 0.0445 0.04801667 0.0476 0.0494 0.0517 0.0519 0.0439 0.0247 0.0169 0.01478333 0.012 0.0108 0.0141 0.0267 0.0723 0.0627 0.101 0.1014 0.0693 0.0058 0.0065 0.0072 0.007988889 0.0087 0.000175 0.0002 0.0007 0.001 0.0063 0.0018 0.0041 0.0105 0.02178333 0.0332 0.0442 0.0348 0.0285 0.0232 0.0217 0.024 0.02631667 0.0288 0.0338 0.0363 0.057 0.0773 0.0139 0.01056667 0.0073 0.003 0.0051 0.0081 0.0097 0.0095 0.019 0.01505 0.0104 0.0015 0.0011 0.0003 0.0007 0.0001 0.0001 0.00018 0.0002 0.0002 0.0003 0.0002 0.0001 0.0001 0.0001 0.000125 0.0001 0.0001 0.0001 0.0001 0.0001 0.0001 0.0001 0.0001 0.0001 0.0001 0.0001 0.0001 0.0001 0.0001 0.0001 0.0001000001 0.0001 0.0001 0.0005025694 0.000701735 0.0007008789 0.0007 0.0003010945 0.0001007965 0.0001002975 0.0001000982 0.0001000488 
0.0001666667 0.0002 0.0002 0.0002 0.00015 0.0001 0.0001 0.0001 0.0001 0.0001 0.0001 0.0001 0.0001 0.0001 0.0001000015 0.0001000015 0.0001 0.0001000031 0.0001000031 0.0001 0.0001 0.0001 0.0001000002 0.0001000005 0.0001 0.0001000061 0.0001000122 0.0001000183 0.0001 0.0001 0.0001000001 0.0001000003 0.0001 0.0001 0.0001000002 0.0001333339 0.0002 0.0001500025 0.0001 0.0001 0.0001000005 0.0001 0.0001001953 0.0001001965 0.0001 0.0001003906 0.0001003937 0.0001 0.0001 0.0001 0.0001001372 0.0001003952 0.0001 0.0001 0.0001001372 0.0001010974 0.0001048011 0.0001145405 0.0001337449 0.0001633745 0.0002 0.0002366255 0.0002662551 0.0002854595 0.0002951989 0.0002989026 0.0002998628 0.0003 0.0003 0.0005297925 0.0003067901 0.0001942901 0.0001398148 0.000125 0.0001 0.0001 0.0001 0.0001 0.000125 0.0001 0.0001 0.0005 0.0024 0.0129 0.093 0.0799 0.0715 0.0651 0.0438 0.0585 0.0447 0.0392 0.043 0.04478334 0.0469 0.0491 0.0506 0.0497 0.0405 0.0242 0.0207 0.0171 0.0132 0.0132 0.0167 0.02 0.077 0.064 0.08404285 0.0995 0.0584 0.0032 0.003566667 0.004791667 0.0072 0.004852778 0.0002 0.00045 0.0006 0.0005 0.0039 0.001 0.0028 0.0076 0.01778333 0.0278 0.04 0.0312 0.0256 0.0186 0.0191 0.01996667 0.021 0.0247 0.029 0.0314 0.0563 0.0644 0.0114 0.008533333 0.006 0.0019 0.0035 0.0056 0.0067 0.0067 0.0145 0.0105 0.0063 0.0008 0.0006 0.0002 0.0004 0.0003 0.0001 0.0001333333 0.0001 0.0001 0.0001 0.0001 0.00012 0.0001 0.0001 0.0001 0.0001 0.0001 0.0001 0.0001 0.0001 0.0001 0.0001 0.0001 0.0001 0.0001 0.0001 0.0001 0.0001 0.0001 0.0001 0.0001 0.0001 0.0001 0.0001 0.0005012958 0.0007008713 0.0007004394 0.0007 0.0003005471 0.0001003974 0.0001001482 0.0001000735 
0.0002 0.0002 0.0002 0.00015 0.0001 0.0001 0.0001 0.0001 0.0001 0.0001 0.0001 0.0001 0.0001 0.0001000008 0.0001000008 0.0001 0.0001000015 0.0001000015 0.0001 0.0001 0.0001 0.0001000001 0.0001000002 0.0001 0.0001000031 0.0001000061 0.0001000092 0.0001 0.0001 0.0001 0.0001000001 0.0001 0.0001 0.0001000001 0.0001333335 0.0002 0.0001500009 0.0001 0.0001 0.0001000001 0.0001 0.0001000977 0.0001000979 0.0001 0.0001001953 0.0001001961 0.0001 0.0001 0.0001 0.0001000457 0.0001001331 0.0001 0.0001 0.0001000457 0.0001004115 0.0001020119 0.000106813 0.0001176955 0.0001372199 0.0001657064 0.0002 0.0002342935 0.0002627801 0.0002823045 0.000293187 0.0002979881 0.0002995885 0.0002999543 0.0002862492 0.0001846708 0.0001393261 0.0001174383 0.0001125 0.0001 0.0001 0.0001 0.0001 0.000105 0.0001 0.0001 0.0001 0.0003 0.0016 0.0204 0.0692 0.06468333 0.0582 0.0532 0.0396 0.0504 0.0392 0.0359 0.03816667 0.0408 0.0459 0.0492 0.0506 0.048 0.0379 0.0238 0.02056667 0.0175 0.0144 0.0149 0.0171 0.0152 0.0808 0.0644 0.07931667 0.0953 0.0473 0.0017 0.0019 0.002144445 0.003811806 0.0037 0.0002986111 0.0003555556 0.0003 0.0003 0.0023 0.0005 0.0016 0.003616667 0.0054 0.0222 0.035 0.0271 0.0221 0.0145 0.0163 0.01698333 0.0177 0.0207 0.0241 0.0262 0.0525 0.0517 0.009 0.006483333 0.0036 0.002 0.0024 0.0037 0.0045 0.0059 0.007083334 0.0072 0.0056 0.0005 0.0003 0.0001 0.0002 0.0002333333 0.0001694445 0.0001 0.0001 0.0001 0.0001 0.0001 0.0001 0.000104 0.0001 0.0001 0.0001 0.0001 0.0001 0.0001 0.0001 0.0001 0.0001 0.0001 0.0001 0.0001 0.0001 0.0001 0.0001 0.0001 0.0001 0.0001 0.0001 0.0001 0.0001 0.0001 0.0005006517 0.0007004369 0.0007002197 0.0007 0.0003002732 0.0001002064 0.0001001109 
0.0002 0.0002 0.00015 0.0001 0.0001 0.0001 0.0001 0.0001 0.0001 0.0001 0.0001 0.0001 0.0001000004 0.0001000004 0.0001 0.0001000008 0.0001000008 0.0001 0.0001 0.0001 0.0001 0.0001000001 0.0001 0.0001000015 0.0001000031 0.0001000046 0.0001 0.0001 0.0001 0.0001 0.0001 0.0001 0.0001 0.0001333334 0.0002 0.0001500003 0.0001 0.0001 0.0001 0.0001 0.0001000488 0.0001000489 0.0001 0.0001000977 0.0001000978 0.0001 0.0001 0.0001 0.0001000152 0.0001000447 0.0001 0.0001 0.0001000152 0.0001001524 0.000100823 0.0001030788 0.0001088401 0.0001205761 0.0001402073 0.0001676421 0.0002 0.0002323579 0.0002597927 0.0002794239 0.0002911599 0.0002969212 0.000299177 0.0002256348 0.0001350423 0.0001167824 0.0001078961 0.00010625 0.0001 0.0001 0.0001 0.0001 0.000101 0.0001 0.0001 0.0001 0.0001 0.0002 0.0011 0.022 0.0364 0.0506 0.0456 0.0421 0.0338 0.0417 0.0333 0.0321 0.03488333 0.038 0.044 0.048 0.0493 0.0456 0.0353 0.0232 0.02033333 0.0176 0.0153 0.0158 0.0163 0.0117 0.0833 0.0637 0.07581667 0.089 0.0368 0.0008 0.0009666667 0.001111111 0.00127037 0.001441435 0.0002222222 0.0001888889 0.0001666667 0.0001 0.0013 0.0002 0.0008 0.002283333 0.0035 0.0167 0.0286 0.0237 0.0185 0.011 0.0133 0.01396667 0.0145 0.0167 0.0194 0.0212 0.0466 0.04 0.0068 0.004616667 0.0021 0.0017 0.0016 0.0024 0.0038 0.003 0.004466667 0.0052 0.0032 0.0002 0.0002 0.0001666667 0.0001 0.00015 0.0001458333 0.0001 0.0001 0.0001 0.0001 0.0001 0.0001 0.0001 0.0001008 0.0001 0.0001 0.0001 0.0001 0.0001 0.0001 0.0001 0.0001 0.0001 0.0001 0.0001 0.0001 0.0001 0.0001 0.0001 0.0001 0.0001 0.0001 0.0001 0.0001 0.0001 0.0001 0.0005003271 0.0007002189 0.0007001099 0.0007 0.0003001476 0.0001001586 
0.0002 0.00015 0.0001 0.0001 0.0001 0.0001 0.0001 0.0001 0.0001 0.0001 0.0001 0.0001000002 0.0001000002 0.0001 0.0001000004 0.0001000004 0.0001 0.0001 0.0001 0.0001 0.0001 0.0001 0.0001000008 0.0001000015 0.0001000023 0.0001 0.0001 0.0001 0.0001 0.0001 0.0001 0.0001 0.0001333333 0.0002 0.0001500001 0.0001 0.0001 0.0001 0.0001 0.0001000244 0.0001000244 0.0001 0.0001000488 0.0001000489 0.0001 0.0001 0.0001 0.0001000051 0.000100015 0.0001 0.0001 0.0001000051 0.0001000559 0.0001003302 0.0001013514 0.0001042473 0.0001108317 0.0001232079 0.0001428085 0.0001692831 0.0002 0.0002307169 0.0002571915 0.0002767922 0.0002891683 0.0002957527 0.0002079461 0.0001147091 0.0001073395 0.0001036737 0.000103125 0.0001 0.0001 0.0001 0.0001 0.0001002 0.0001 0.0001 0.0001 0.0001 0.000125 0.0001 0.0007 0.0201 0.02843333 0.0361 0.0345 0.0321 0.0274 0.0333 0.0276 0.028 0.03118333 0.0345 0.0412 0.0457 0.0467 0.0425 0.0327 0.0224 0.01983333 0.0175 0.0157 0.0159 0.0149 0.0091 0.0842 0.06913333 0.0618 0.0807 0.0274 0.0004 0.0004666667 0.0005555556 0.00065 0.0004533951 0.000137037 0.0001222222 0.0001 0.0001 0.0007 0.0001 0.0004 0.001316667 0.002 0.0117 0.0232 0.0197 0.0138 0.0092 0.0105 0.01111667 0.0115 0.0131 0.0152 0.0198 0.0363 0.0298 0.01775 0.005 0.0012 0.0012 0.0011 0.0019 0.0019 0.0019 0.002866667 0.0036 0.0017 0.0001 0.0001 0.0001333333 0.0001 0.0001 0.000125 0.0001118056 0.0001 0.0001 0.0001 0.0001 0.0001 0.0001 0.0001 0.00010016 0.0001 0.0001 0.0001 0.0001 0.0001 0.0001 0.0001 0.0001 0.0001 0.0001 0.0001 0.0001 0.0001 0.0001 0.0001 0.0001 0.0001 0.0001 0.0001 0.0001 0.0001 0.0001 0.0005001639 0.0007001096 0.0007000549 0.0007 0.0003667687 
0.00015 0.0001 0.0001 0.0001 0.0001 0.0001 0.0001 0.0001 0.0001 0.0001 0.0001000001 0.0001000001 0.0001 0.0001000002 0.0001000002 0.0001 0.0001 0.0001 0.0001 0.0001 0.0001 0.0001000004 0.0001000008 0.0001000011 0.0001 0.0001 0.0001 0.0001 0.0001 0.0001 0.0001 0.0001333333 0.0002 0.00015 0.0001 0.0001 0.0001 0.0001 0.0001000122 0.0001000122 0.0001 0.0001000244 0.0001000244 0.0001 0.0001 0.0001 0.0001000017 0.000100005 0.0001 0.0001 0.0001000017 0.0001000203 0.0001001304 0.0001005792 0.0001019763 0.0001054768 0.0001127623 0.000125616 0.0001450998 0.0001706972 0.0002 0.0002293028 0.0002549002 0.000274384 0.0002872377 0.0002001309 0.00010628 0.0001032887 0.0001017454 0.0001015625 0.0001 0.0001 0.0001 0.0001 0.00010004 0.0001 0.0001 0.0001 0.0001 0.00010625 0.0001 0.0001 0.0004 0.0167 0.02128333 0.0251 0.025 0.0236 0.0211 0.0255 0.0222 0.0239 0.02721667 0.0306 0.0375 0.0423 0.0432 0.0389 0.0299 0.02546667 0.0212 0.0171 0.0157 0.016 0.0167 0.0224 0.0633 0.06396667 0.0585 0.0711 0.0196 0.0002 0.0002333333 0.0002833333 0.0003333333 0.0002529321 0.0001074074 0.0001 0.0001 0.000325 0.0003 0.00034 0.0002 0.0002 0.001 0.0079 0.0184 0.0144 0.0107 0.0074 0.007816667 0.0081 0.0088 0.01 0.0134 0.0154 0.0272 0.0214 0.01281667 0.0035 0.0007 0.00065 0.0009 0.001 0.0012 0.0015 0.00185 0.002 0.0009 0.0001 0.0001 0.0001 0.0001083333 0.0001 0.0001 0.0001083333 0.0001 0.0001 0.0001 0.0001 0.0001 0.0001 0.0001 0.0001 0.000100032 0.0001 0.0001 0.0001 0.0001 0.0001 0.0001 0.0001 0.0001 0.0001 0.0001 0.0001 0.0001 0.0001 0.0001 0.0001 0.0001 0.0001 0.0001 0.0001 0.0001 0.0001 0.0001 0.0005000821 0.0007000549 0.0007000274 0.0007 
0.0001 0.0001 0.0001 0.0001 0.0001 0.0001 0.0001 0.0001 0.0001 0.0001 0.0001 0.0001 0.0001000001 0.0001000001 0.0001 0.0001 0.0001 0.0001 0.0001 0.0001 0.0001000002 0.0001000004 0.0001000006 0.0001 0.0001 0.0001 0.0001 0.0001 0.0001 0.0001 0.0001333333 0.0002 0.00015 0.0001 0.0001 0.0001 0.0001 0.0001000061 0.0001000061 0.0001 0.0001000122 0.0001000122 0.0001 0.0001 0.0001 0.0001000006 0.0001000017 0.0001 0.0001 0.0001000006 0.0001000073 0.0001000508 0.0001002433 0.0001008953 0.0001026774 0.0001067385 0.0001146184 0.000127826 0.0001471377 0.0001719323 0.0002 0.0002280677 0.0002528623 0.000272174 0.000193038 0.0001027327 0.0001015072 0.0001008422 0.0001007813 0.0001 0.0001 0.0001 0.0001 0.000100008 0.0001 0.0001 0.0001 0.0001 0.0001015625 0.0001 0.0001 0.0002 0.0002 0.006566667 0.0128 0.0169 0.0175 0.0166 0.0156 0.0189 0.0174 0.01876667 0.0198 0.0265 0.0333 0.0381 0.0389 0.0348 0.0269 0.02321667 0.0197 0.0162 0.0152 0.0157 0.0164 0.0167 0.0619 0.05675 0.0541 0.0504 0.0134 0.0001 0.00015 0.0001611111 0.0001898148 0.0001598765 0.0001 0.0001 0.00019375 0.0002 0.0002 0.0002 0.00015 0.0001 0.0005 0.0051 0.0136 0.0105 0.008 0.0057 0.005966667 0.006 0.0065 0.0074 0.0112 0.0115 0.0196 0.0148 0.008916667 0.0024 0.0004 0.0003 0.0004 0.0006 0.0007 0.00085 0.0008 0.0013 0.0005 0.000425 0.0001 0.0001 0.0001 0.0001020833 0.0001 0.0001 0.0001020833 0.0001 0.0001 0.0001 0.0001 0.0001 0.0001 0.0001 0.0001 0.0001000064 0.0001 0.0001 0.0001 0.0001 0.0001 0.0001 0.0001 0.0001 0.0001 0.0001 0.0001 0.0001 0.0001 0.0001 0.0001 0.0001 0.0001 0.0001 0.0001 0.0001 0.0001 0.0001 0.0005000411 0.0007000274 0.0007000137 
0.0001 0.0001 0.0001 0.0001 0.0001 0.0001 0.0001 0.0001 0.0001 0.0001 0.0001 0.0001 0.0001 0.0001 0.0001 0.0001 0.0001 0.0001 0.0001 0.0001000001 0.0001000002 0.0001000003 0.0001 0.0001 0.0001 0.0001 0.0001 0.0001 0.0001 0.0001333333 0.0002 0.00015 0.0001 0.0001 0.0001 0.0001 0.0001000031 0.0001000031 0.0001 0.0001000061 0.0001000061 0.0001 0.0001 0.0001 0.0001000002 0.0001000006 0.0001 0.0001 0.0001000002 0.0001000026 0.0001000196 0.0001001005 0.0001003965 0.000101272 0.0001034371 0.0001080114 0.0001163943 0.0001298607 0.0001489654 0.0001730233 0.0002 0.0002269767 0.0002510347 0.0001839244 0.0001012131 0.0001007045 0.0001004109 0.0001003906 0.0001 0.0001 0.0001 0.0001 0.0001000016 0.0001 0.0001 0.0001 0.0001 0.0001003906 0.0001 0.0001 0.0001333333 0.0001333333 0.0001 0.004783333 0.0092 0.011 0.0117 0.0113 0.011 0.0135 0.0132 0.01486667 0.0161 0.0223 0.0288 0.0333 0.0341 0.0305 0.0238 0.02076667 0.0178 0.015 0.0144 0.0153 0.0174 0.0245 0.0555 0.04891667 0.0472 0.042 0.0088 0.00695 0.0001 0.000125 0.0001287037 0.0001262037 0.0001 0.0001421875 0.00015 0.00015 0.0001 0.00015 0.0001 0.000225 0.0002 0.0031 0.0096 0.0074 0.0058 0.0042 0.004383333 0.0044 0.0047 0.0052 0.0077 0.0095 0.0137 0.0099 0.006 0.0015 0.0002 0.0002 0.0003 0.0003 0.0004 0.0004666667 0.0005 0.0008 0.0002 0.0002666667 0.0002354167 0.0001 0.0001 0.0001 0.0001005208 0.0001 0.0001 0.0001005208 0.0001 0.0001 0.0001 0.0001 0.0001 0.0001 0.0001 0.0001 0.0001000013 0.0001 0.0001 0.0001 0.0001 0.0001 0.0001 0.0001 0.0001 0.0001 0.0001 0.0001 0.0001 0.0001 0.0001 0.0001 0.0001 0.0001 0.0001 0.0001 0.0001 0.0001 0.0001 0.0005000206 0.0007000206 
0.0001 0.0001 0.0001 0.0001 0.0001 0.0001 0.0001 0.0001 0.0001 0.0001 0.0001 0.0001 0.0001 0.0001 0.0001 0.0001 0.0001 0.0001 0.0001 0.0001000001 0.0001000001 0.0001 0.0001 0.0001 0.0001 0.0001 0.0001 0.0001 0.0001333333 0.0002 0.00015 0.0001 0.0001 0.0001 0.0001 0.0001000015 0.0001000015 0.0001 0.0001000031 0.0001000031 0.0001 0.0001 0.0001 0.0001000001 0.0001000002 0.0001 0.0001 0.0001000001 0.0001000009 0.0001000075 0.0001000409 0.0001001722 0.0001005897 0.0001017019 0.0001042402 0.0001092809 0.0001180888 0.0001317401 0.0001506165 0.0001739962 0.0002 0.0002260038 0.0001725292 0.0001005493 0.0001003347 0.0001002021 0.0001001953 0.0001 0.0001 0.0001 0.0001 0.0001000003 0.0001 0.0001 0.0001 0.0001 0.0001000977 0.0001 0.0001 0.0001111111 0.0001111111 0.0001 0.0001 0.00394 0.0063 0.007 0.0075 0.0074 0.0074 0.0094 0.0099 0.01151667 0.0128 0.0183 0.0242 0.0284 0.0292 0.0261 0.02333333 0.0206 0.0158 0.0136 0.0134 0.0148 0.0182 0.0274 0.03645 0.0468 0.028 0.0339 0.0055 0.005866667 0.004120833 0.0001 0.0001125 0.0001103009 0.0001199219 0.000125 0.000125 0.0001 0.0001 0.0001 0.0001375 0.00015 0.0001 0.0018 0.0064 0.0051 0.004 0.003633333 0.003 0.003 0.0032 0.0036 0.0051 0.0073 0.0092 0.008183333 0.0064 0.001 0.0002 0.0001 0.0001 0.0002 0.0002 0.0002666667 0.0002 0.0005 0.0001 0.00015 0.0001722222 0.0001581597 0.0001 0.0001 0.0001 0.0001001302 0.0001 0.0001 0.0001001302 0.0001 0.0001 0.0001 0.0001 0.0001 0.0001 0.0001 0.0001 0.0001000003 0.0001 0.0001 0.0001 0.0001 0.0001 0.0001 0.0001 0.0001 0.0001 0.0001 0.0001 0.0001 0.0001 0.0001 0.0001 0.0001 0.0001 0.0001 0.0001 0.0001 0.0001 0.0001 0.000433347 
0.0001 0.0001 0.0001 0.0001 0.0001 0.0001 0.0001 0.0001 0.0001 0.0001 0.0001 0.0001 0.0001 0.0001 0.0001 0.0001 0.0001 0.0001 0.0001 0.0001000001 0.0001 0.0001 0.0001 0.0001 0.0001 0.0001 0.0001 0.0001333333 0.0002 0.00015 0.0001 0.0001 0.0001 0.0001 0.0001000008 0.0001000008 0.0001 0.0001000015 0.0001000015 0.0001 0.0001 0.0001 0.0001 0.0001000001 0.0001 0.0001 0.0001 0.0001000003 0.0001000028 0.0001000164 0.0001000735 0.0001002676 0.0001008212 0.0001021772 0.0001050743 0.0001105366 0.0001197033 0.0001334818 0.0001521176 0.0001748709 0.0002 0.0001597729 0.0001002533 0.0001001612 0.0001000999 0.0001000977 0.0001 0.0001 0.0001 0.0001 0.0001000001 0.0001 0.0001 0.0001 0.0001 0.0001000244 0.0001 0.0001 0.0001037037 0.0001037037 0.0001 0.0001 0.0001 0.003225 0.004 0.0042 0.0047 0.0046 0.0049 0.0063 0.007016667 0.0072 0.0099 0.0146 0.0197 0.0234 0.0242 0.0217 0.01961667 0.0173 0.0136 0.0119 0.0121 0.014 0.0182 0.0268 0.03203333 0.0377 0.0157 0.0265 0.0033 0.003566667 0.003844444 0.002588542 0.0001 0.00010625 0.0001125 0.0001125 0.0001 0.0001 0.0001 0.0001 0.0001166667 0.0001 0.000875 0.001 0.0041 0.0034 0.0027 0.0025 0.0021 0.002 0.0022 0.0024 0.0033 0.0053 0.0059 0.005266667 0.004 0.0006 0.0001 0.0001166667 0.0001 0.0001 0.0001 0.00015 0.0002 0.0002 0.000225 0.0001 0.000125 0.0001324074 0.0001257668 0.0001 0.0001 0.0001 0.0001000326 0.0001 0.0001 0.0001000326 0.0001 0.0001 0.0001 0.0001 0.0001 0.0001 0.0001 0.0001 0.0001 0.0001 0.0001 0.0001 0.0001 0.0001 0.0001 0.0001 0.0001 0.0001 0.0001 0.0001 0.0001 0.0001 0.0001 0.0001 0.0001 0.0001 0.0001 0.0001 0.0001 0.0001 0.0001 
0.0001 0.0001 0.0001 0.0001 0.0001 0.0001 0.0001 0.0001 0.0001 0.0001 0.0001 0.0001 0.0001 0.0001 0.0001 0.0001 0.0001 0.0001 0.0001 0.0001 0.0001 0.0001 0.0001 0.0001 0.0001 0.0001 0.0001333333 0.0002 0.00015 0.0001 0.0001 0.0001 0.0001 0.0001000004 0.0001000004 0.0001 0.0001000008 0.0001000008 0.0001 0.0001 0.0001 0.0001 0.0001 0.0001 0.0001 0.0001 0.0001000001 0.0001000011 0.0001000065 0.0001000309 0.0001001192 0.0001003874 0.0001010887 0.0001026909 0.0001059294 0.0001117714 0.0001212406 0.0001351009 0.0001534901 0.0001756628 0.0001469602 0.0001001188 0.0001000784 0.0001000496 0.0001000488 0.0001 0.0001 0.0001 0.0001 0.0001 0.0001 0.0001 0.0001 0.0001 0.0001000061 0.0001 0.0001 0.0001012346 0.0001012346 0.0001 0.0001 0.0001 0.001538333 0.002666667 0.0025 0.0025 0.0028 0.0028 0.0031 0.0042 0.004833333 0.0051 0.0074 0.0114 0.0157 0.0188 0.0196 0.0177 0.01606667 0.0143 0.0114 0.0101 0.0101 0.0095 0.0211 0.0242 0.02675 0.0293 0.0106 0.02 0.0019 0.0021 0.002288889 0.002485185 0.001655469 0.0001 0.00010625 0.0001 0.0001 0.0001 0.0001 0.0001041667 0.0001 0.0004854167 0.0006333333 0.0006 0.0026 0.0022 0.0018 0.001666667 0.0014 0.0013 0.0014 0.0015 0.0021 0.0037 0.0037 0.003266667 0.0024 0.0003 0.0001 0.0001 0.0001 0.0001 0.0001 0.0001 0.0001 0.0001 0.00015 0.00014375 0.0001 0.0001125 0.0001149691 0.0001117465 0.0001 0.0001 0.0001 0.0001000081 0.0001 0.0001 0.0001000081 0.0001 0.0001 0.0001 0.0001 0.0001 0.0001 0.0001 0.0001 0.0001 0.0001 0.0001 0.0001 0.0001 0.0001 0.0001 0.0001 0.0001 0.0001 0.0001 0.0001 0.0001 0.0001 0.0001 0.0001 0.0001 0.0001 0.0001 0.0001 0.0001 0.0001 
0.0001 0.0001 0.0001 0.0001 0.0001 0.0001 0.0001 0.0001 0.0001 0.0001 0.0001 0.0001 0.0001 0.0001 0.0001 0.0001 0.0001 0.0001 0.0001 0.0001 0.0001 0.0001 0.0001 0.0001 0.0001 0.0001333333 0.0002 0.00015 0.0001 0.0001 0.0001 0.0001 0.0001000002 0.0001000002 0.0001 0.0001000004 0.0001000004 0.0001 0.0001 0.0001 0.0001 0.0001 0.0001 0.0001 0.0001 0.0001 0.0001000004 0.0001000026 0.0001000128 0.0001000522 0.0001001792 0.0001005318 0.000101389 0.0001032363 0.0001067972 0.0001129805 0.0001227043 0.0001366105 0.0001547513 0.0001352377 0.0001000565 0.0001000384 0.0001000247 0.0001000244 0.0001 0.0001 0.0001 0.0001 0.0001 0.0001 0.0001 0.0001 0.0001 0.0001000015 0.0001 0.0001 0.0001004115 0.0001004115 0.0001 0.0001 0.0001 0.0008898889 0.001722222 0.0016 0.0015 0.0014 0.0016 0.0016 0.0019 0.0027 0.003266667 0.0035 0.0055 0.0086 0.0121 0.0147 0.0154 0.014 0.01285 0.0114 0.0093 0.0084 0.0085 0.0096 0.0178 0.01958333 0.0205 0.022 0.0105 0.0125 0.0011 0.0012 0.001322222 0.001448148 0.001582716 0.0007409449 0.0001 0.0001 0.0001 0.0001 0.0001010417 0.0001 0.0002907986 0.0003777778 0.0003333333 0.0003 0.0015 0.0013 0.0011 0.001066667 0.0009 0.0008 0.0009 0.001 0.0013 0.0024 0.002466667 0.0022 0.0014 0.0002 0.0001 0.0001 0.0001 0.0001 0.0001 0.0001 0.0001 0.0001 0.0001 0.000125 0.0001171875 0.0001 0.00010625 0.000107073 0.0001054861 0.0001 0.0001 0.0001 0.000100002 0.0001 0.0001 0.000100002 0.0001 0.0001 0.0001 0.0001 0.0001 0.0001 0.0001 0.0001 0.0001 0.0001 0.0001 0.0001 0.0001 0.0001 0.0001 0.0001 0.0001 0.0001 0.0001 0.0001 0.0001 0.0001 0.0001 0.0001 0.0001 0.0001 0.0001 0.0001 0.0001 
0.0001 0.0001 0.0001 0.0001 0.0001 0.0001 0.0001 0.0001 0.0001 0.0001 0.0001 0.0001 0.0001 0.0001 0.0001 0.0001 0.0001 0.0001 0.0001 0.0001 0.0001 0.0001 0.0001 0.0001 0.0001333333 0.0002 0.00015 0.0001 0.0001 0.0001 0.0001 0.0001000001 0.0001000001 0.0001 0.0001000002 0.0001000002 0.0001 0.0001 0.0001 0.0001 0.0001 0.0001 0.0001 0.0001 0.0001 0.0001000001 0.000100001 0.0001000053 0.0001000225 0.0001000814 0.0001002544 0.0001007 0.000101719 0.0001038075 0.0001076713 0.0001141607 0.0001240984 0.000138022 0.0001253272 0.0001000272 0.0001000189 0.0001000123 0.0001000122 0.0001 0.0001 0.0001 0.0001 0.0001 0.0001 0.0001 0.0001 0.0001 0.0001000004 0.0001 0.0001 0.0001001372 0.0001001372 0.0001 0.0001 0.0001 0.0005546444 0.001081481 0.0009888889 0.0009 0.0008 0.0008 0.0009 0.0009 0.0011 0.0017 0.00215 0.0024 0.0039 0.0063 0.009 0.0111 0.0118 0.01148333 0.0108 0.0089 0.0073 0.0066 0.0066 0.0063 0.0176 0.016 0.0163 0.0148 0.0091 0.0077 0.0006 0.0006666667 0.0007333333 0.0008148148 0.0009012346 0.0007703704 0.0001 0.0001 0.0001 0.0001002604 0.0001 0.0001912182 0.0002333333 0.0002 0.0001666667 0.0001 0.0009 0.0008 0.0008 0.0007 0.0005 0.0005 0.0005 0.0006 0.0007 0.0015 0.0015 0.0013 0.0008 0.0001 0.000125 0.0001 0.0001 0.0001 0.0001 0.0001 0.0001 0.0001 0.0001 0.0001 0.0001125 0.0001074219 0.0001 0.000103125 0.0001033993 0.000102612 0.0001 0.0001 0.0001 0.0001000005 0.0001 0.0001 0.0001000005 0.0001 0.0001 0.0001 0.0001 0.0001 0.0001 0.0001 0.0001 0.0001 0.0001 0.0001 0.0001 0.0001 0.0001 0.0001 0.0001 0.0001 0.0001 0.0001 0.0001 0.0001 0.0001 0.0001 0.0001 0.0001 0.0001 0.0001 0.0001 
0.0001 0.0001 0.0001 0.0001 0.0001 0.0001 0.0001 0.0001 0.0001 0.0001 0.0001 0.0001 0.0001 0.0001 0.0001 0.0001 0.0001 0.0001 0.0001 0.0001 0.0001 0.0001 0.0001 0.0001333333 0.0002 0.00015 0.0001 0.0001 0.0001 0.0001 0.0001 0.0001 0.0001 0.0001000001 0.0001000001 0.0001 0.0001 0.0001 0.0001 0.0001 0.0001 0.0001 0.0001 0.0001 0.0001000001 0.0001000004 0.0001000021 0.0001000096 0.0001000364 0.0001001194 0.0001003453 0.0001008911 0.0001020755 0.0001043993 0.0001085465 0.0001153101 0.000125427 0.0001174931 0.0001000132 0.0001000094 0.0001000061 0.0001000061 0.0001 0.0001 0.0001 0.0001 0.0001 0.0001 0.0001 0.0001 0.0001 0.0001000001 0.0001 0.0001 0.0001000457 0.0001000457 0.0001 0.0001 0.0001 0.0003593857 0.0006697531 0.0006018518 0.0005333333 0.0004666667 0.0004 0.0004 0.0005 0.0005 0.0006 0.0009 0.001 0.0016 0.0027 0.0045 0.0066 0.0082 0.0088 0.008616666 0.0081 0.0068 0.0056 0.0051 0.0053 0.0062 0.0131 0.01231667 0.0107 0.0119 0.0072 0.0046 0.0003 0.0003333333 0.0003888889 0.0004407408 0.0004975309 0.0005572016 0.0003676543 0.0001 0.0001000651 0.0001 0.0001419403 0.0001604938 0.0001407407 0.0001222222 0.0001 0.0001 0.0005 0.0005 0.0004833333 0.0004 0.0003 0.0003 0.0003 0.0003 0.0005 0.0009 0.0008666667 0.0007 0.0004 0.0001 0.0001 0.00010625 0.0001 0.0001 0.0001 0.0001 0.0001 0.0001 0.0001 0.0001 0.0001 0.00010625 0.000103418 0.0001 0.0001015625 0.0001016539 0.0001012618 0.0001 0.0001 0.0001 0.0001000001 0.0001 0.0001 0.0001000001 0.0001 0.0001 0.0001 0.0001 0.0001 0.0001 0.0001 0.0001 0.0001 0.0001 0.0001 0.0001 0.0001 0.0001 0.0001 0.0001 0.0001 0.0001 0.0001 0.0001 0.0001 0.0001 0.0001 0.0001 0.0001 0.0001 0.0001 
0.0001 0.0001 0.0001 0.0001 0.0001 0.0001 0.0001 0.0001 0.0001 0.0001 0.0001 0.0001 0.0001 0.0001 0.0001 0.0001 0.0001 0.0001 0.0001 0.0001 0.0001 0.0001 0.0001333333 0.0002 0.00015 0.0001 0.0001 0.0001 0.0001 0.0001 0.0001 0.0001 0.0001 0.0001 0.0001 0.0001 0.0001 0.0001 0.0001 0.0001 0.0001 0.0001 0.0001 0.0001 0.0001000002 0.0001000009 0.000100004 0.000100016 0.0001000551 0.000100167 0.0001004519 0.000101104 0.0001024553 0.0001050071 0.0001094187 0.0001164279 0.0001116478 0.0001000065 0.0001000047 0.0001000031 0.0001000031 0.0001 0.0001 0.0001 0.0001 0.0001 0.0001 0.0001 0.0001 0.0001 0.0001 0.0001 0.0001 0.0001000152 0.0001000152 0.0001 0.0001 0.0001 0.0002444183 0.0004190329 0.0003725309 0.0003259259 0.0002833333 0.0002333333 0.0002 0.0002 0.0002 0.0003 0.0004 0.0005333333 0.0006 0.001 0.0018 0.0031 0.0046 0.0058 0.0063 0.006283334 0.0059 0.005 0.0042 0.0039 0.0041 0.0054 0.0093 0.008466667 0.0069 0.0092 0.0054 0.0027 0.0001 0.0001666667 0.0002 0.000237037 0.0002728395 0.0003106996 0.0003504801 0.0002041992 0.0001 0.0001186127 0.0001263374 0.0001160494 0.0001074074 0.0001 0.0001 0.00025 0.0003 0.0003 0.0002666667 0.0002 0.0002 0.0002 0.0002 0.0002 0.0003 0.0005 0.0004833333 0.0003 0.0002 0.0001 0.0001 0.0001 0.0001015625 0.0001 0.0001 0.0001 0.0001 0.0001 0.0001 0.0001 0.0001 0.0001 0.000103125 0.0001016357 0.0001 0.0001007813 0.0001008117 0.000100616 0.0001 0.0001 0.0001 0.0001 0.0001 0.0001 0.0001 0.0001 0.0001 0.0001 0.0001 0.0001 0.0001 0.0001 0.0001 0.0001 0.0001 0.0001 0.0001 0.0001 0.0001 0.0001 0.0001 0.0001 0.0001 0.0001 0.0001 0.0001 0.0001 0.0001 0.0001 0.0001 0.0001 
0.0001 0.0001 0.0001 0.0001 0.0001 0.0001 0.0001 0.0001 0.0001 0.0001 0.0001 0.0001 0.0001 0.0001 0.0001 0.0001 0.0001 0.0001 0.0001 0.0001 0.0001 0.0001333333 0.0002 0.00015 0.0001 0.0001 0.0001 0.0001 0.0001 0.0001 0.0001 0.0001 0.0001 0.0001 0.0001 0.0001 0.0001 0.0001 0.0001 0.0001 0.0001 0.0001 0.0001 0.0001000001 0.0001000003 0.0001000017 0.000100007 0.0001000251 0.0001000794 0.0001002247 0.0001005743 0.0001013371 0.0001028555 0.000105627 0.0001102846 0.0001074997 0.0001000032 0.0001000023 0.0001000015 0.0001000015 0.0001 0.0001 0.0001 0.0001 0.0001 0.0001 0.0001 0.0001 0.0001 0.0001 0.0001 0.0001 0.0001000051 0.0001000051 0.0001 0.0001 0.0001 0.0001783778 0.0002733711 0.0002436728 0.0002148148 0.0001898148 0.0001611111 0.00015 0.0001 0.0001 0.0001 0.0001 0.0002 0.0003166667 0.0004 0.0007 0.0012 0.0021 0.0032 0.0041 0.0044 0.00445 0.0042 0.0036 0.003 0.0028 0.0031 0.0041 0.005166667 0.0057 0.0051 0.007 0.0038 0.0016 0.0001 0.0001 0.0001222222 0.0001407407 0.0001617284 0.0001835391 0.0002069959 0.0001990741 0.0001080139 0.0001111111 0.0001061728 0.0001024691 0.0001 0.0001 0.0001541667 0.0001666667 0.0001 0.0001 0.00015 0.0001 0.0001 0.0001 0.0001 0.0001 0.0002 0.00025 0.0003 0.0002 0.0001 0.000125 0.0001 0.0001 0.0001 0.0001003906 0.0001 0.0001 0.0001 0.0001 0.0001 0.0001 0.0001 0.0001 0.0001 0.0001015625 0.0001007996 0.0001 0.0001003906 0.0001004008 0.000100303 0.0001 0.0001 0.0001 0.0001 0.0001 0.0001 0.0001 0.0001 0.0001 0.0001 0.0001 0.0001 0.0001 0.0001 0.0001 0.0001 0.0001 0.0001 0.0001 0.0001 0.0001 0.0001 0.0001 0.0001 0.0001 0.0001 0.0001 0.0001 0.0001 0.0001 0.0001 0.0001 
0.0001 0.0001 0.0001 0.0001 0.0001 0.0001 0.0001 0.0001 0.0001 0.0001 0.0001 0.0001 0.0001 0.0001 0.0001 0.0001 0.0001 0.0001 0.0001 0.0001 0.0001333333 0.0002 0.00015 0.0001 0.0001 0.0001 0.0001 0.0001 0.0001 0.0001 0.0001 0.0001 0.0001 0.0001 0.0001 0.0001 0.0001 0.0001 0.0001 0.0001 0.0001 0.0001 0.0001 0.0001000001 0.0001000007 0.000100003 0.0001000112 0.0001000372 0.0001001097 0.0001002928 0.000100712 0.000101589 0.0001032732 0.0001062557 0.0001046827 0.0001000016 0.0001000012 0.0001000008 0.0001000008 0.0001 0.0001 0.0001 0.0001 0.0001 0.0001 0.0001 0.0001 0.0001 0.0001 0.0001 0.0001 0.0001000017 0.0001000017 0.0001 0.0001 0.0001 0.0001415932 0.0001919667 0.0001740998 0.0001574074 0.0001436728 0.0001287037 0.000125 0.0001 0.0001 0.0001 0.0001 0.0001 0.00012 0.0001 0.0002 0.0004 0.0008 0.0014 0.0021 0.0027 0.003 0.003 0.0029 0.0025 0.0021 0.002 0.0023 0.003 0.003383333 0.0035 0.0037 0.00435 0.0026 0.0009 0.000775 0.0001 0.0001 0.0001074074 0.0001160494 0.000126749 0.0001388203 0.0001523548 0.0001045725 0.000102332 0.000100823 0.0001 0.0001 0.0001190972 0.0001222222 0.0001 0.0001 0.0001 0.0001 0.0001 0.0001 0.0001 0.0001 0.0001 0.0001 0.00016 0.0001 0.0001 0.0001 0.0001 0.00010625 0.0001 0.0001 0.0001 0.0001000977 0.0001 0.0001 0.0001 0.0001 0.0001 0.0001 0.0001 0.0001 0.0001 0.0001007813 0.0001003952 0.0001 0.0001001953 0.0001001987 0.0001001498 0.0001 0.0001 0.0001 0.0001 0.0001 0.0001 0.0001 0.0001 0.0001 0.0001 0.0001 0.0001 0.0001 0.0001 0.0001 0.0001 0.0001 0.0001 0.0001 0.0001 0.0001 0.0001 0.0001 0.0001 0.0001 0.0001 0.0001 0.0001 0.0001 0.0001 0.0001 
0.0001 0.0001 0.0001 0.0001 0.0001 0.0001 0.0001 0.0001 0.0001 0.0001 0.0001 0.0001 0.0001 0.0001 0.0001 0.0001 0.0001 0.0001 0.0001 0.0001333333 0.0002 0.00015 0.0001 0.0001 0.0001 0.0001 0.0001 0.0001 0.0001 0.0001 0.0001 0.0001 0.0001 0.0001 0.0001 0.0001 0.0001 0.0001 0.0001 0.0001 0.0001 0.0001 0.0001000001 0.0001000003 0.0001000013 0.000100005 0.0001000171 0.0001000527 0.0001001466 0.0001003715 0.0001008646 0.0001018581 0.0001037059 0.0001028425 0.0001000008 0.0001000006 0.0001000004 0.0001000004 0.0001 0.0001 0.0001 0.0001 0.0001 0.0001 0.0001 0.0001 0.0001 0.0001 0.0001 0.0001 0.0001000006 0.0001000006 0.0001 0.0001 0.0001 0.0001216707 0.0001478657 0.0001376214 0.0001284294 0.0001212191 0.0001137346 0.0001125 0.0001 0.0001 0.0001 0.0001 0.0001 0.0001 0.0001 0.0001 0.0001 0.0002 0.0005 0.0009 0.0014 0.0018 0.001983333 0.002 0.0019 0.0017 0.0015 0.0014 0.0016 0.002 0.002166667 0.002 0.0026 0.0025 0.0017 0.0005 0.0005666667 0.0004354167 0.0001 0.0001 0.0001024691 0.0001061728 0.0001112483 0.0001174669 0.0001008688 0.0001002744 0.0001 0.0001 0.0001066262 0.0001074074 0.0001 0.0001 0.0001 0.0001 0.0001 0.0001 0.0001 0.0001 0.0001 0.0001 0.0001 0.0001 0.0001 0.0001 0.0001 0.0001 0.0001 0.0001015625 0.0001 0.0001 0.0001 0.0001000244 0.0001 0.0001 0.0001 0.0001 0.0001 0.0001 0.0001 0.0001 0.0001 0.0001003906 0.0001001965 0.0001 0.0001000977 0.0001000988 0.0001000744 0.0001 0.0001 0.0001 0.0001 0.0001 0.0001 0.0001 0.0001 0.0001 0.0001 0.0001 0.0001 0.0001 0.0001 0.0001 0.0001 0.0001 0.0001 0.0001 0.0001 0.0001 0.0001 0.0001 0.0001 0.0001 0.0001 0.0001 0.0001 0.0001 0.0001 
0.0001 0.0001 0.0001 0.0001 0.0001 0.0001 0.0001 0.0001 0.0001 0.0001 0.0001 0.0001 0.0001 0.0001 0.0001 0.0001 0.0001 0.0001 0.0001333333 0.0002 0.00015 0.0001 0.0001 0.0001 0.0001 0.0001 0.0001 0.0001 0.0001 0.0001 0.0001 0.0001 0.0001 0.0001 0.0001 0.0001 0.0001 0.0001 0.0001 0.0001 0.0001 0.0001 0.0001000001 0.0001000005 0.0001000022 0.0001000078 0.0001000249 0.0001000721 0.0001001903 0.0001004609 0.0001010314 0.0001021429 0.0001016814 0.0001000004 0.0001000003 0.0001000002 0.0001000002 0.0001 0.0001 0.0001 0.0001 0.0001 0.0001 0.0001 0.0001 0.0001 0.0001 0.0001 0.0001 0.0001000002 0.0001000002 0.0001 0.0001 0.0001 0.0001111285 0.0001245501 0.0001188946 0.0001140089 0.0001103352 0.0001066615 0.00010625 0.0001 0.0001 0.0001 0.0001 0.0001 0.0001 0.0001 0.0001 0.0001 0.0001 0.0001 0.0003 0.0005 0.0009 0.0011 0.001283333 0.0013 0.0013 0.0011 0.001 0.0009 0.0011 0.0011 0.001333333 0.0014 0.0018 0.0016 0.001 0.0003 0.0003 0.0003444444 0.0002671875 0.0001 0.0001 0.000100823 0.000102332 0.0001046182 0.0001000914 0.0001 0.0001 0.0001022738 0.0001024691 0.0001 0.0001 0.0001 0.0001 0.0001 0.0001 0.0001 0.0001 0.0001 0.0001 0.0001 0.0001 0.0001 0.0001 0.0001 0.0001 0.0001 0.0001 0.0001 0.0001003906 0.0001 0.0001 0.0001 0.0001000061 0.0001 0.0001 0.0001 0.0001 0.0001 0.0001 0.0001 0.0001 0.0001 0.0001001953 0.0001000979 0.0001 0.0001000488 0.0001000492 0.000100037 0.0001 0.0001 0.0001 0.0001 0.0001 0.0001 0.0001 0.0001 0.0001 0.0001 0.0001 0.0001 0.0001 0.0001 0.0001 0.0001 0.0001 0.0001 0.0001 0.0001 0.0001 0.0001 0.0001 0.0001 0.0001 0.0001 0.0001 0.0001 0.0001 
0.0001 0.0001 0.0001 0.0001 0.0001 0.0001 0.0001 0.0001 0.0001 0.0001 0.0001 0.0001 0.0001 0.0001 0.0001 0.0001 0.0001 0.0001333333 0.0002 0.00015 0.0001 0.0001 0.0001 0.0001 0.0001 0.0001 0.0001 0.0001 0.0001 0.0001 0.0001 0.0001 0.0001 0.0001 0.0001 0.0001 0.0001 0.0001 0.0001 0.0001 0.0001 0.0001 0.0001000002 0.0001000009 0.0001000035 0.0001000116 0.000100035 0.0001000958 0.0001002411 0.0001005609 0.0001012117 0.0001009712 0.0001000002 0.0001000001 0.0001000001 0.0001000001 0.0001 0.0001 0.0001 0.0001 0.0001 0.0001 0.0001 0.0001 0.0001 0.0001 0.0001 0.0001 0.0001000001 0.0001000001 0.0001 0.0001 0.0001 0.000105652 0.0001124537 0.0001094219 0.0001068901 0.0001050533 0.0001032622 0.000103125 0.0001 0.0001 0.0001 0.0001 0.0001 0.0001 0.0001 0.0001 0.0001 0.0001 0.0001 0.0001 0.0002 0.0003 0.0005 0.00065 0.0007 0.0008 0.0008 0.0008 0.0013 0.0006 0.0007 0.0007166667 0.0006 0.0009 0.0012 0.0011 0.0006 0.0001 0.0001666667 0.0001888889 0.0002185185 0.0001806858 0.0001 0.0001 0.0001002744 0.0001008688 0.0001 0.0001 0.0001007742 0.000100823 0.0001 0.0001 0.0001 0.0001 0.0001 0.0001 0.0001 0.0001 0.0001 0.0001 0.0001 0.0001 0.0001 0.0001 0.0001 0.0001 0.0001 0.0001 0.0001 0.0001 0.0001 0.0001000977 0.0001 0.0001 0.0001 0.0001000015 0.0001 0.0001 0.0001 0.0001 0.0001 0.0001 0.0001 0.0001 0.0001 0.0001000977 0.0001000489 0.0001 0.0001000244 0.0001000245 0.0001000184 0.0001 0.0001 0.0001 0.0001 0.0001 0.0001 0.0001 0.0001 0.0001 0.0001 0.0001 0.0001 0.0001 0.0001 0.0001 0.0001 0.0001 0.0001 0.0001 0.0001 0.0001 0.0001 0.0001 0.0001 0.0001 0.0001 0.0001 0.0001 
0.0001 0.0001 0.0001 0.0001 0.0001 0.0001 0.0001 0.0001 0.0001 0.0001 0.0001 0.0001 0.0001 0.0001 0.0001 0.0001 0.0001333333 0.0002 0.00015 0.0001 0.0001 0.0001 0.0001 0.0001 0.0001 0.0001 0.0001 0.0001 0.0001 0.0001 0.0001 0.0001 0.0001 0.0001 0.0001 0.0001 0.0001 0.0001 0.0001 0.0001 0.0001 0.0001000001 0.0001000004 0.0001000016 0.0001000054 0.0001000167 0.0001000475 0.000100124 0.0001002993 0.0001006712 0.0001005488 0.0001000001 0.0001000001 0.0001 0.0001 0.0001 0.0001 0.0001 0.0001 0.0001 0.0001 0.0001 0.0001 0.0001 0.0001 0.0001 0.0001 0.0001 0.0001 0.0001 0.0001 0.0001 0.0001028472 0.0001062669 0.0001046779 0.0001033892 0.0001024809 0.0001016082 0.0001015625 0.0001 0.0001 0.0001 0.0001 0.0001 0.0001 0.0001 0.0001 0.0001 0.0001 0.0001 0.0001 0.000125 0.0001 0.0002 0.0003 0.0003833333 0.0004 0.0005 0.0005 0.0004 0.0001 0.0004 0.0004 0.0004166667 0.0004 0.0006 0.0008 0.0007 0.0004 0.0001 0.0001 0.0001222222 0.000137037 0.000154321 0.0001374554 0.0001 0.0001 0.0001000914 0.0001 0.0001002621 0.0001002744 0.0001 0.0001 0.0001 0.0001 0.0001 0.0001 0.0001 0.0001 0.0001 0.0001 0.0001 0.0001 0.0001 0.0001 0.0001 0.0001 0.0001 0.0001 0.0001 0.0001 0.0001 0.0001 0.0001 0.0001000244 0.0001 0.0001 0.0001 0.0001000004 0.0001 0.0001 0.0001 0.0001 0.0001 0.0001 0.0001 0.0001 0.0001 0.0001000488 0.0001000244 0.0001 0.0001000122 0.0001000123 0.0001000092 0.0001 0.0001 0.0001 0.0001 0.0001 0.0001 0.0001 0.0001 0.0001 0.0001 0.0001 0.0001 0.0001 0.0001 0.0001 0.0001 0.0001 0.0001 0.0001 0.0001 0.0001 0.0001 0.0001 0.0001 0.0001 0.0001 0.0001 
0.0001 0.0001 0.0001 0.0001 0.0001 0.0001 0.0001 0.0001 0.0001 0.0001 0.0001 0.0001 0.0001 0.0001 0.0001 0.0001333333 0.0002 0.00015 0.0001 0.0001 0.0001 0.0001 0.0001 0.0001 0.0001 0.0001 0.0001 0.0001 0.0001 0.0001 0.0001 0.0001 0.0001 0.0001 0.0001 0.0001 0.0001 0.0001 0.0001 0.0001 0.0001 0.0001000002 0.0001000007 0.0001000024 0.0001000079 0.0001000232 0.0001000627 0.0001001569 0.0001003648 0.0001003039 0.0001 0.0001 0.0001 0.0001 0.0001 0.0001 0.0001 0.0001 0.0001 0.0001 0.0001 0.0001 0.0001 0.0001 0.0001 0.0001 0.0001 0.0001 0.0001 0.0001 0.0001 0.000101426 0.0001031359 0.0001023172 0.0001016692 0.0001012227 0.0001007965 0.0001007813 0.0001 0.0001 0.0001 0.0001 0.0001 0.0001 0.0001 0.0001 0.0001 0.0001 0.0001 0.0001 0.00010625 0.0001 0.0001 0.0001 0.0002 0.0002166667 0.0002 0.0003 0.0003 0.0002 0.0001 0.0002 0.0002 0.0002333333 0.0002 0.0003 0.0005 0.0004 0.0002 0.0002 0.0001 0.0001 0.0001074074 0.0001148148 0.0001238683 0.0001167713 0.0001 0.0001 0.0001000636 0.0001000914 0.0001 0.0001 0.0001 0.0001 0.0001 0.0001 0.0001 0.0001 0.0001 0.0001 0.0001 0.0001 0.0001 0.0001 0.0001 0.0001 0.0001 0.0001 0.0001 0.0001 0.0001 0.0001 0.0001 0.0001 0.0001 0.0001000061 0.0001 0.0001 0.0001 0.0001000001 0.0001 0.0001 0.0001 0.0001 0.0001 0.0001 0.0001 0.0001 0.0001 0.0001000244 0.0001000122 0.0001 0.0001000061 0.0001000061 0.0001000046 0.0001 0.0001 0.0001 0.0001 0.0001 0.0001 0.0001 0.0001 0.0001 0.0001 0.0001 0.0001 0.0001 0.0001 0.0001 0.0001 0.0001 0.0001 0.0001 0.0001 0.0001 0.0001 0.0001 0.0001 0.0001 0.0001 
0.0001 0.0001 0.0001 0.0001 0.0001 0.0001 0.0001 0.0001 0.0001 0.0001 0.0001 0.0001 0.0001 0.0001 0.0001333333 0.0002 0.00015 0.0001 0.0001 0.0001 0.0001 0.0001 0.0001 0.0001 0.0001 0.0001 0.0001 0.0001 0.0001 0.0001 0.0001 0.0001 0.0001 0.0001 0.0001 0.0001 0.0001 0.0001 0.0001 0.0001 0.0001000001 0.0001000003 0.0001000011 0.0001000037 0.0001000112 0.0001000313 0.0001000809 0.0001001948 0.0001001651 0.0001 0.0001 0.0001 0.0001 0.0001 0.0001 0.0001 0.0001 0.0001 0.0001 0.0001 0.0001 0.0001 0.0001 0.0001 0.0001 0.0001 0.0001 0.0001 0.0001 0.0001 0.0001007185 0.0001015688 0.0001011468 0.0001008236 0.0001006046 0.0001003957 0.0001003906 0.0001 0.0001 0.0001 0.0001 0.0001 0.0001 0.0001 0.0001 0.0001 0.0001 0.0001 0.0001 0.0001015625 0.0001 0.0001 0.0001 0.0001 0.0001 0.0001333333 0.0001 0.0002 0.0002 0.0001 0.0001285714 0.0001 0.0001333333 0.0001 0.0001 0.0002 0.0003 0.0002 0.0001 0.0001333333 0.0001333333 0.0001 0.0001 0.0001024691 0.0001057613 0.0001101509 0.0001072792 0.0001 0.0001000183 0.0001 0.0001 0.0001 0.0001 0.0001 0.0001 0.0001 0.0001 0.0001 0.0001 0.0001 0.0001 0.0001 0.0001 0.0001 0.0001 0.0001 0.0001 0.0001 0.0001 0.0001 0.0001 0.0001 0.0001 0.0001 0.0001 0.0001 0.0001000015 0.0001 0.0001 0.0001 0.0001 0.0001 0.0001 0.0001 0.0001 0.0001 0.0001 0.0001 0.0001 0.0001 0.0001000122 0.0001000061 0.0001 0.0001000031 0.0001000031 0.0001000023 0.0001 0.0001 0.0001 0.0001 0.0001 0.0001 0.0001 0.0001 0.0001 0.0001 0.0001 0.0001 0.0001 0.0001 0.0001 0.0001 0.0001 0.0001 0.0001 0.0001 0.0001 0.0001 0.0001 0.0001 0.0001 
0.0001 0.0001 0.0001 0.0001 0.0001 0.0001 0.0001 0.0001 0.0001 0.0001 0.0001 0.0001 0.0001 0.0001333333 0.0002 0.00015 0.0001 0.0001 0.0001 0.0001 0.0001 0.0001 0.0001 0.0001 0.0001 0.0001 0.0001 0.0001 0.0001 0.0001 0.0001 0.0001 0.0001 0.0001 0.0001 0.0001 0.0001 0.0001 0.0001 0.0001 0.0001000001 0.0001000005 0.0001000017 0.0001000053 0.0001000154 0.0001000411 0.0001001023 0.0001000882 0.0001 0.0001 0.0001 0.0001 0.0001 0.0001 0.0001 0.0001 0.0001 0.0001 0.0001 0.0001 0.0001 0.0001 0.0001 0.0001 0.0001 0.0001 0.0001 0.0001 0.0001 0.0001004019 0.0001008301 0.000100598 0.0001004236 0.0001002997 0.000100197 0.0001001953 0.0001 0.0001 0.0001 0.0001 0.0001 0.0001 0.0001 0.0001 0.0001 0.0001 0.0001 0.0001 0.0001003906 0.0001 0.0001 0.0001 0.0001 0.0001 0.0001 0.0001 0.0001 0.0001 0.0001 0.0001 0.0001 0.0001 0.0001 0.0001 0.0001 0.0001 0.0002 0.0001 0.0001 0.0001 0.0001111111 0.0001111111 0.0001 0.0001 0.000100823 0.0001021948 0.0001042524 0.0001032087 0.0001 0.0001 0.0001 0.0001 0.0001 0.0001 0.0001 0.0001 0.0001 0.0001 0.0001 0.0001 0.0001 0.0001 0.0001 0.0001 0.0001 0.0001 0.0001 0.0001 0.0001 0.0001 0.0001 0.0001 0.0001 0.0001 0.0001 0.0001 0.0001 0.0001000004 0.0001 0.0001 0.0001 0.0001 0.0001 0.0001 0.0001 0.0001 0.0001 0.0001 0.0001 0.0001 0.0001 0.0001000061 0.0001000031 0.0001 0.0001000015 0.0001000015 0.0001000011 0.0001 0.0001 0.0001 0.0001 0.0001 0.0001 0.0001 0.0001 0.0001 0.0001 0.0001 0.0001 0.0001 0.0001 0.0001 0.0001 0.0001 0.0001 0.0001 0.0001 0.0001 0.0001 0.0001 0.0001 
0.0001 0.0001 0.0001 0.0001 0.0001 0.0001 0.0001 0.0001 0.0001 0.0001 0.0001 0.0001 0.0001333333 0.0002 0.00015 0.0001 0.0001 0.0001 0.0001 0.0001 0.0001 0.0001 0.0001 0.0001 0.0001 0.0001 0.0001 0.0001 0.0001 0.0001 0.0001 0.0001 0.0001 0.0001 0.0001 0.0001 0.0001 0.0001 0.0001 0.0001000001 0.0001000002 0.0001000008 0.0001000025 0.0001000075 0.0001000206 0.0001000529 0.0001000579 0.0001 0.0001 0.0001 0.0001 0.0001 0.0001 0.0001 0.0001 0.0001 0.0001 0.0001 0.0001 0.0001 0.0001 0.0001 0.0001 0.0001 0.0001 0.0001 0.0001 0.0001 0.0001002618 0.0001006454 0.0001004608 0.0001003235 0.0001002235 0.0001001473 0.0001000977 0.0001 0.0001 0.0001 0.0001 0.0001 0.0001 0.0001 0.0001 0.0001 0.0001 0.0001 0.0001 0.0001001302 0.0001 0.0001 0.0001 0.0001 0.0001 0.0001 0.0001 0.0001 0.0001 0.0001 0.0001 0.0001 0.0001 0.0001 0.0001 0.0001 0.0001 0.0001 0.0001 0.0001 0.0001 0.0001 0.0001 0.0001055556 0.0001055556 0.0001 0.0001 0.0001004115 0.0001013032 0.0001027778 0.0001 0.0001 0.0001 0.0001 0.0001 0.0001 0.0001 0.0001 0.0001 0.0001 0.0001 0.0001 0.0001 0.0001 0.0001 0.0001 0.0001 0.0001 0.0001 0.0001 0.0001 0.0001 0.0001 0.0001 0.0001 0.0001 0.0001 0.0001 0.0001 0.0001 0.0001000001 0.0001 0.0001 0.0001 0.0001 0.0001 0.0001 0.0001 0.0001 0.0001 0.0001 0.0001 0.0001 0.0001 0.0001000031 0.000100002 0.0001 0.0001000008 0.0001000011 0.0001000008 0.0001 0.0001 0.0001 0.0001 0.0001 0.0001 0.0001 0.0001 0.0001 0.0001 0.0001 0.0001 0.0001 0.0001 0.0001 0.0001 0.0001 0.0001 0.0001 0.0001 0.0001 0.0001 0.0001 
