ncols         188
nrows         111
xllcorner     94.921425828646
yllcorner     29.769664007558
cellsize      0.00033292244669842
NODATA_value  -9999
0.0001 0.000125 0.0001944444 0.0005166667 0.0017 0.003616667 0.0001 0.00015 0.00015 0.0006 0.00235 0.005933333 0.015225 0.0001 0.0004 0.002 0.009 0.0306 0.3423 1.2155 2.4862 3.6303 4.3911 3.2229 3.4174 3.0714 9.9296 1.9594 0.5464 7.98045 6.6964 3.906333 2.8189 2.4565 5.044546 4.035583 2.259233 1.3054 0.6142 3.726558 3.182709 1.459569 0.5167389 0.1035056 0.0174 0.0174 0.1088632 0.0751591 0.04964375 0.044 0.01495964 0.0002 0.0002 0.0002 0.0002 0.006203257 0.004176436 0.00186878 0.001432813 0.0011 0.003003368 0.001179081 0.0003157064 0.0003 0.0003 0.0008016812 0.0005466017 0.0003485319 0.0003214844 0.0003 0.005120107 0.004774923 0.002669933 0.001547569 0.0009881217 0.0007377737 0.0006405731 0.0006092923 0.0006014784 0.0006001219 0.0006 0.0006 0.0005996094 0.0005994166 0.06681223 0.09997155 0.09418285 0.09142776 0.09020658 0.08971803 0.08950816 0.0894544 0.0894 0.13515 0.1809 0.1173347 0.08411267 0.08303989 0.08251014 0.08226821 0.08216578 0.08212463 0.08210932 0.08210311 0.08210155 0.0821 0.08210166 0.03085255 0.0001012109 0.0001001716 0.0001000279 0.0001000107 0.0001 0.0001 0.0001 0.0001041186 0.0001019013 0.0001002243 0.0001000263 0.0001000061 0.0001000023 0.0001000008 0.0001000004 0.0001 0.0001000206 0.0001000151 0.0001000057 0.0001000019 0.000100001 0.0001 3.004643 4.506907 4.506903 4.5069 1.703906 0.3024041 0.3024015 0.3024005 0.3024003 0.3024 0.1009369 0.0002024405 0.0002007977 0.0002002682 0.0002000931 0.0002000332 0.0002000119 0.0002000044 0.0002000015 0.0002000007 0.0002 0.0003709908 0.0004302459 0.0004125863 0.0004050291 0.0004019471 0.0004007372 0.0004002752 0.0004001018 0.0004000376 0.0004000137 0.0004000051 0.0004000017 0.0004000009 0.0004 0.0005337237 0.0006002784 0.0006000978 0.0006000347 0.0006000125 0.0006000045 0.0006000017 0.0006000006 0.0006000003 0.0006 0.05190924 0.05987336 0.04201777 0.02826037 0.01819904 0.01121521 0.006615063 0.003740678 0.002038046 0.001083777 0.0005816224 0.0003428194 0.0002627557 
0.0001 0.0001 0.00015 0.0003333333 0.001066667 0.0037 0.0096 0.0001 0.0002 0.092075 0.001 0.0037 0.0131 0.044 0.1381 0.4002 0.9238 5.612185 9.1247 12.0902 13.7967 14.6818 15.1181 17.5541 18.0356 14.87447 17.9169 16.7707 14.4675 10.8267 6.0812 3.1813 2.4565 7.611533 5.94325 4.1669 1.9966 0.6142 6.001004 5.445139 2.845889 1.2571 0.2757167 0.0174 0.0174 0.2365757 0.1261898 0.0552875 0.044 0.01543854 0.0002 0.0002 0.0002 0.0002 0.01384934 0.008022968 0.002740715 0.001765625 0.0011 0.007676228 0.002890124 0.0003471193 0.0003 0.0003 0.001609888 0.0008942094 0.000402627 0.0003429688 0.0003 0.008228212 0.007689453 0.004262765 0.00237255 0.001374486 0.0008956714 0.0006942082 0.0006234415 0.0006040695 0.0006003658 0.0006 0.0006 0.0005992188 0.0005992238 0.06001412 0.1083405 0.09829487 0.09327925 0.09097443 0.09002961 0.0896157 0.08950879 0.0894 0.1351501 0.1809 0.1189754 0.08564427 0.08381896 0.08287479 0.08242592 0.08222969 0.08214902 0.08211863 0.08210623 0.08210311 0.0821 0.08210332 0.04110497 0.0001031393 0.0001004311 0.0001000623 0.0001000214 0.0001 0.0001 0.0001 0.0001108326 0.0001050432 0.0001005986 0.000100062 0.0001000123 0.0001000046 0.0001000015 0.0001000008 0.0001 0.0001000409 0.0001000301 0.0001000114 0.0001000038 0.0001000019 0.0001 3.004652 4.506913 4.506907 4.5069 1.703911 0.3024082 0.3024031 0.302401 0.3024005 0.3024 0.1009409 0.000205117 0.0002016549 0.0002005494 0.0002001886 0.0002000667 0.0002000239 0.0002000089 0.000200003 0.0002000015 0.0002 0.0004030191 0.0004568117 0.0004241324 0.0004097937 0.0004038327 0.0004014609 0.0004005476 0.0004002031 0.000400075 0.0004000274 0.0004000103 0.0004000034 0.0004000017 0.0004 0.0005341294 0.0006005669 0.0006001983 0.00060007 0.0006000251 0.000600009 0.0006000033 0.0006000011 0.0006000006 0.0006 0.0680273 0.08057124 0.05843841 0.04061041 0.02700448 0.01716621 0.01042644 0.006052995 0.003365754 0.001803286 0.0009450983 0.000502947 0.0002968218 0.0002286896 
0.0001 0.0001 0.0001 0.0002 0.0007 0.0023 0.0081 0.0279 0.0928 0.1882167 0.2743 0.5561 0.8379 1.9345 3.9518 4.9252 10.7651 12.8048 18.0898 18.9991 20.0735 21.4825 22.3377 23.0502 23.262 21.49273 23.5435 24.2834 24.7149 25.1515 22.2685 18.1452 11.8706 14.09386 8.5075 3.379 0.6142 10.01595 8.5901 4.783767 2.96155 0.79235 0.0174 0.0174 0.5943334 0.2679944 0.066575 0.044 0.01735417 0.0002 0.0002 0.0002 0.0002 0.03355972 0.01694676 0.004690895 0.00243125 0.0011 0.02123454 0.007929012 0.000441358 0.0003 0.0003 0.003842862 0.001774747 0.0005219436 0.0003859375 0.0003 0.01335208 0.01237462 0.006886146 0.00380759 0.002094559 0.001215501 0.0008133973 0.0006581161 0.0006111111 0.0006010974 0.0006 0.0006 0.0005984375 0.0005984528 0.07059418 0.122589 0.1056886 0.09674398 0.09245203 0.09064175 0.0898295 0.08961758 0.0894 0.1351503 0.1809 0.1216129 0.08820184 0.085187 0.08354399 0.08272591 0.08235446 0.08219739 0.08213722 0.08211245 0.08210623 0.0821 0.08210664 0.04111226 0.0001081673 0.0001011064 0.0001001441 0.0001000427 0.0001 0.0001 0.0001 0.0001283527 0.0001133584 0.0001016191 0.0001001521 0.0001000246 0.0001000092 0.0001000031 0.0001000015 0.0001 0.0001000811 0.0001000598 0.0001000228 0.0001000076 0.0001000038 0.0001 3.004671 4.506925 4.506913 4.5069 1.703923 0.3024164 0.3024062 0.302402 0.302401 0.3024 0.1009492 0.0002107695 0.0002034511 0.0002011304 0.0002003833 0.0002001345 0.0002000479 0.0002000178 0.0002000059 0.000200003 0.0002 0.0004606125 0.0005055578 0.0004459059 0.0004189712 0.00040752 0.0004028899 0.0004010883 0.0004004047 0.0004001498 0.0004000547 0.0004000206 0.0004000069 0.0004000034 0.0004 0.0005349588 0.0006011561 0.000600403 0.0006001415 0.0006000504 0.0006000181 0.0006000067 0.0006000022 0.0006000011 0.0006 0.08674125 0.1055588 0.07920916 0.05694579 0.03916029 0.02572517 0.01612799 0.009645466 0.005505868 0.00300765 0.001583744 0.0008184651 0.0004330861 0.0002572898 0.0002000894 
0.0001 0.0001 0.00024 0.0002 0.001 0.0051 0.0229 0.0888 0.276 0.7147167 0.485 1.363 4.0159 6.2539 6.8746 11.4792 18.3384 17.98993 19.587 20.4146 21.0335 21.7725 23.4419 23.0713 22.8818 22.90452 23.3166 23.6595 23.6793 23.5349 23.7599 23.9117 24.2514 16.55442 23.3833 21.7816 18.0351 12.9863 8.4282 4.3558 1.5673 3.17435 0.0174 1.59995 0.6708333 0.08915 0.044 0.02501667 0.0002 0.0002 0.0002 0.0002 0.08696111 0.03786759 0.009210185 0.0037625 0.0011 0.06035113 0.02276296 0.0007240741 0.0003 0.0003 0.01021908 0.00405841 0.0007939558 0.000471875 0.0003 0.02219267 0.01984362 0.01107202 0.00620823 0.003378189 0.001836351 0.001069136 0.0007410151 0.0006300412 0.0006032922 0.0006 0.0006 0.000596875 0.0005969207 0.08713539 0.1459672 0.1186706 0.1031292 0.09526598 0.09183677 0.09025333 0.08983516 0.0894 0.135151 0.1809 0.1256934 0.09233313 0.08752516 0.08474722 0.08328862 0.08259612 0.08229298 0.08217429 0.0821249 0.08211245 0.0821 0.08211328 0.04113052 0.0001212683 0.0001028867 0.0001003469 0.0001000854 0.0001 0.0001 0.0001 0.0001737242 0.0001352674 0.0001044194 0.0001003885 0.0001000494 0.0001000184 0.0001000061 0.0001000031 0.0001 0.0001001601 0.0001001186 0.0001000454 0.0001000152 0.0001000076 0.0001 3.004709 4.50695 4.506925 4.5069 1.703945 0.3024327 0.3024123 0.3024041 0.302402 0.3024 0.1009669 0.0002227374 0.0002072337 0.0002023375 0.000200782 0.0002002718 0.0002000962 0.0002000356 0.0002000118 0.0002000059 0.0002 0.0005622907 0.0005936519 0.0004865075 0.000436514 0.0004146961 0.0004057036 0.0004021603 0.0004008058 0.0004002988 0.0004001094 0.0004000411 0.0004000137 0.0004000069 0.0004 0.0005366534 0.0006023608 0.0006008208 0.0006002866 0.0006001016 0.0006000362 0.0006000135 0.0006000045 0.0006000022 0.0006 0.1074683 0.1344405 0.1044562 0.07777963 0.05539168 0.03766606 0.02442312 0.01508632 0.008874532 0.004975545 0.002667527 0.00137988 0.0007038247 0.0003716907 0.0002237427 0.000176436 
0.0001 0.0001 0.0001 0.0006 0.0031 0.0156 0.0669 0.247 0.49475 0.7907 2.3695 5.4688 12.81 11.1138 15.5116 16.8011 18.53048 19.9494 21.2099 22.2582 22.6931 22.387 22.0301 22.4771 24.33333 22.6535 21.7697 20.9632 20.5225 19.6137 18.3955 17.2264 16.0245 19.5951 15.2892 14.374 13.0508 11.3792 9.456 8.1671 6.6988 5.1598 4.4139 1.8342 0.1343 0.044 0.03085 0.9079914 0.0002 0.0002 0.0002 0.2404667 0.08707222 0.02010556 0.006425 0.0011 0.1723156 0.06641667 0.001572222 0.0003 0.0003 0.02904485 0.01009336 0.001438117 0.00064375 0.0003 0.03902419 0.03187325 0.01757325 0.01008436 0.005558436 0.002981893 0.001594239 0.0009329218 0.0006802469 0.0006098765 0.0006 0.0006 0.00059375 0.0005938872 0.1112593 0.1824478 0.1407745 0.1146794 0.1005579 0.09415029 0.09108969 0.09027031 0.0894 0.1351529 0.1809 0.1317309 0.09874959 0.09139307 0.08685672 0.08432568 0.08305925 0.08248095 0.08224818 0.0821498 0.0821249 0.0821 0.08212657 0.04117638 0.0001553156 0.0001076194 0.0001008698 0.0001001709 0.0001 0.0001 0.0001 0.0002901243 0.0001926429 0.0001121294 0.0001010297 0.000100099 0.0001000369 0.0001000122 0.0001000061 0.0001 0.0001003151 0.0001002349 0.0001000906 0.0001000305 0.0001000153 0.0001 3.004784 4.507 4.50695 4.5069 1.70399 0.3024654 0.3024246 0.3024082 0.3024041 0.3024 0.1010044 0.0002481133 0.0002152389 0.0002048601 0.0002016019 0.0002005505 0.0002001935 0.0002000714 0.0002000237 0.0002000118 0.0002 0.0007379425 0.0007500138 0.0005612065 0.0004697353 0.0004285808 0.0004112259 0.0004042816 0.0004016032 0.0004005959 0.0004002184 0.0004000822 0.0004000275 0.0004000137 0.0004 0.0005401131 0.0006048251 0.0006016755 0.0006005819 0.000600205 0.0006000728 0.000600027 0.000600009 0.0006000045 0.0006 0.1292418 0.1662292 0.133802 0.1032904 0.07627622 0.0537723 0.03612651 0.02309935 0.01404348 0.008116128 0.004463985 0.002346521 0.001192076 0.0006010425 0.0003183562 0.0001956734 0.0001571987 
0.003354167 0.0001 0.0002666667 0.00094 0.005142857 0.008 0.0446 0.2488 0.8484667 1.3172 5.0589 15.1263 13.9602 19.9388 20.6895 21.5089 22.36572 23.1059 24.3545 25.8642 27.6986 28.0253 27.9207 27.9438 25.9222 26.9725 25.2678 23.652 22.4627 22.2094 22.1843 21.5227 21.75822 20.1388 18.4834 17.5535 17.2767 16.5736 15.149 13.0672 11.00697 10.2939 7.9675 5.3308 2.8315 0.0177 1.81019 1.924225 1.638483 0.0002 0.7122 0.202 0.04746667 0.01175 0.0011 0.4892125 0.1948333 0.004116667 0.0003 0.0003 0.0865868 0.02626574 0.003026852 0.0009875 0.0003 0.07636835 0.05198766 0.02744074 0.01619136 0.009087655 0.004974074 0.00261358 0.001358025 0.0008111111 0.0006296296 0.0006 0.0006 0.0005875 0.0005879115 0.1428551 0.2353835 0.1768672 0.1350927 0.1103636 0.09858181 0.09272844 0.09114063 0.0894 0.1351587 0.1809 0.1402159 0.108264 0.09754353 0.09044126 0.08619441 0.08393451 0.08284812 0.08239511 0.08219961 0.0821498 0.0821 0.08215313 0.04129167 0.0002434302 0.0001202489 0.0001022676 0.0001003418 0.0001 0.0001 0.0001 0.000585385 0.0003417392 0.000133373 0.0001028166 0.0001001986 0.0001000739 0.0001000245 0.0001000122 0.0001 0.0001006168 0.0001004633 0.0001001804 0.0001000609 0.0001000305 0.0001 3.004935 4.507101 4.507 4.5069 1.704079 0.3025306 0.3024491 0.3024164 0.3024082 0.3024 0.1010834 0.0003019205 0.0002322548 0.0002101645 0.0002032974 0.0002011186 0.0002003899 0.0002001432 0.0002000474 0.0002000237 0.0002 0.001033663 0.001021673 0.0006964338 0.0005319348 0.0004552509 0.0004220203 0.0004084712 0.0004031864 0.0004011873 0.0004004359 0.0004001644 0.0004000549 0.0004000275 0.0004 0.0005471619 0.0006098634 0.0006034271 0.0006011849 0.0006004146 0.0006001463 0.0006000541 0.000600018 0.000600009 0.0006 0.1508057 0.1993342 0.1662275 0.133126 0.1020524 0.07469265 0.05208363 0.03454062 0.02175529 0.01300215 0.007373003 0.003973228 0.002045722 0.001020613 0.0005098915 0.0002726227 0.0001725544 0.0001418431 
0.00575 0.007466667 0.009275 0.0001 0.0008 0.0078 0.0595 0.3763 0.9351 2.1108 7.892 10.216 17.5551 19.8952 22.4684 27.0282 26.03277 25.8008 24.7744 26.135 30.3551 28.8264 28.7555 27.9459 27.51022 27.5404 28.0427 28.3185 28.6304 28.7936 28.7223 27.9972 25.6505 27.6397 26.5954 24.6705 21.9235 19.2872 16.9205 14.7533 14.5921 13.0615 11.3744 9.6328 7.5782 5.1408 1.1982 2.65025 12.30185 2.265 0.4647 0.1189 0.0224 0.0011 1.37155 0.57245 0.01175 0.0003 0.0003 0.268925 0.07001667 0.007105555 0.001675 0.0003 0.1749771 0.08822222 0.04197408 0.02576667 0.01458148 0.008225926 0.004455556 0.002240741 0.001144444 0.0006888889 0.0006 0.0006 0.000575 0.0005762345 0.1770349 0.3037754 0.2322835 0.1700915 0.1282265 0.1069601 0.09590407 0.09288125 0.0894 0.1351761 0.1809 0.1514711 0.1216275 0.1068652 0.09629919 0.0894662 0.08555838 0.08355863 0.0826865 0.08229923 0.08219961 0.0821 0.08220625 0.04158103 0.0004702272 0.0001539441 0.0001061192 0.0001006836 0.0001 0.0001 0.0001 0.001324226 0.0007254969 0.0001918175 0.0001079031 0.0001003984 0.0001001484 0.000100049 0.0001000244 0.0001 0.000101199 0.0001009096 0.0001003586 0.0001001216 0.000100061 0.0001 3.005235 4.507302 4.507101 4.5069 1.704259 0.3026609 0.3024981 0.3024328 0.3024164 0.3024 0.101249 0.0004158212 0.0002685519 0.0002213885 0.000206824 0.0002022809 0.0002007873 0.0002002874 0.0002000948 0.0002000473 0.0002 0.001516411 0.001481735 0.0009365079 0.000646776 0.0005060175 0.0004430111 0.0004167241 0.0004063256 0.0004023639 0.0004008696 0.0004003284 0.0004001098 0.0004000549 0.0004 0.0005614769 0.0006201497 0.0006070212 0.0006024193 0.0006008406 0.0006002947 0.0006001084 0.0006000359 0.000600018 0.0006 0.1708631 0.2317206 0.200039 0.1662428 0.1324007 0.1007346 0.07302187 0.05032145 0.03290758 0.02039282 0.01196547 0.006648169 0.003505372 0.001766142 0.0008656523 0.0004300453 0.0002339769 0.0001538458 0.0001298404 
0.0047 0.0068 0.0109 0.0193 0.0331 0.0585 0.1193 0.3262 0.74715 1.2313 4.1365 10.7473 15.3558 20.2186 24.2828 27.51676 30.8905 27.8623 25.3346 23.9396 23.4493 24.5044 25.9191 26.932 26.74365 27.7267 28.2753 28.6327 28.456 28.0027 27.7065 28.4373 28.13478 28.1673 27.2395 25.9824 24.6133 22.8812 21.0224 19.1111 18.63738 17.2656 15.6303 14.1615 12.3813 10.4416 8.5016 30.0795 16.07761 26.5143 21.5369 15.4533 8.8346 4.3402 1.1217 0.0232 2.341775 0.0003 0.8684 0.1890333 0.01796667 0.00305 0.0003 0.4760083 0.1617 0.0619 0.04106667 0.02295556 0.01327778 0.007511111 0.003888889 0.001966667 0.0008666667 0.0006 0.0006 0.00055 0.0005537037 0.2002289 0.3746372 0.3091444 0.2275444 0.1601617 0.1225682 0.1019497 0.0963625 0.0894 0.1352283 0.1809 0.1655163 0.1392722 0.1201958 0.1054146 0.09498524 0.08849774 0.08491562 0.0832618 0.08249848 0.08229922 0.0821 0.0823125 0.04230523 0.001050217 0.0002434747 0.0001169903 0.0001013672 0.0001 0.0001 0.0001 0.003143024 0.001701837 0.0003520414 0.0001226122 0.000100799 0.000100298 0.0001000982 0.0001000488 0.0001 0.0001023099 0.000101775 0.0001007111 0.0001002427 0.0001001221 0.0001 3.005837 4.507703 4.507302 4.5069 1.704618 0.3029211 0.3025959 0.3024656 0.3024329 0.3024 0.1015939 0.0006560148 0.0003461607 0.000245288 0.0002142069 0.0002046707 0.0002015943 0.0002005778 0.0002001899 0.0002000946 0.0002 0.002275645 0.00223724 0.001352759 0.0008552046 0.0006015603 0.000483563 0.0004329293 0.0004125409 0.0004047022 0.0004017336 0.0004006558 0.0004002195 0.0004001099 0.0004 0.0005904122 0.0006410952 0.0006144001 0.0006049537 0.0006017096 0.0006005947 0.0006002175 0.0006000719 0.0006000359 0.0006 0.1885453 0.261299 0.2330082 0.2008547 0.1662542 0.1316196 0.09932823 0.07125606 0.04848133 0.03122696 0.01901444 0.01093707 0.0059449 0.00306254 0.001508678 0.0007272086 0.0003610707 0.0002018565 0.0001390035 0.0001206773 
0.00575 0.007466667 0.01233333 0.0127 0.0001 0.001 0.0085 0.09021667 0.062 0.3763 2.4671 6.5074 12.0876 19.8509 29.15725 28.55823 31.2734 30.4651 26.387 24.4418 21.9129 22.1361 23.1331 23.90315 24.4538 25.8631 26.6328 27.2054 27.6412 27.8211 28.112 28.21432 28.1975 28.3697 28.4163 28.4321 28.3283 27.5033 26.3724 24.89483 24.7901 22.8427 20.8377 21.353 24.7636 29.1878 31.3338 19.52801 17.7977 17.1589 16.7122 15.9866 15.7515 13.6042 10.564 7.96105 6.4316 2.912 0.5135 0.0478 0.0058 0.0003 1.485233 0.3348 0.0837 0.0666 0.0354 0.0212 0.01226667 0.006366667 0.0039 0.0014 0.0006 0.0006 0.0005 0.0005111111 0.1913763 0.4125839 0.3960555 0.3152722 0.2161056 0.1512556 0.1131241 0.103325 0.0894 0.1353848 0.1809 0.1820968 0.1610817 0.1379869 0.118748 0.1038524 0.09364339 0.08745991 0.08438994 0.08289701 0.08249844 0.0821 0.082525 0.04411124 0.002522961 0.000479453 0.0001482366 0.0001027344 0.0001 0.0001 0.0001 0.007532221 0.004150988 0.0007888869 0.0001656366 0.0001016006 0.0001005995 0.000100197 0.0001000977 0.0001 0.0001043985 0.0001034359 0.0001014051 0.000100484 0.0001002441 0.0001 3.007039 4.508505 4.507704 4.5069 1.70534 0.3034417 0.3027907 0.3025311 0.3024658 0.3024 0.1023042 0.001159335 0.0005122275 0.0002964823 0.0002297722 0.0002096096 0.0002032388 0.0002011637 0.0002003804 0.0002001892 0.0002 0.003416409 0.00343226 0.002053909 0.001225551 0.0007788167 0.0005612458 0.0004646184 0.000424825 0.0004093446 0.000403453 0.0004013091 0.0004004387 0.0004002197 0.0004 0.0006485324 0.0006835741 0.0006295425 0.0006101689 0.0006034888 0.0006012032 0.0006004369 0.0006001439 0.0006000717 0.0006 0.2042609 0.2865992 0.2627209 0.2345768 0.2017269 0.1662604 0.1307752 0.09782302 0.06938644 0.04655872 0.02949884 0.01762333 0.009921148 0.005266719 0.002646831 0.00127407 0.0006051316 0.0003024244 0.0001756561 0.000127489 0.0001138655 
0.006608333 0.008516666 0.00654 0.0001 0.0001 0.0004 0.0033 0.01968 0.022 0.1552 0.8503 3.8579 10.4643 20.7114 27.6713 25.64179 28.0741 27.309 25.7003 24.318 24.3684 21.5138 21.0814 22.47422 21.8995 22.8194 24.2462 25.7017 26.9365 28.1386 28.2488 28.62627 28.5838 29.4747 30.4851 30.5779 30.0268 29.9577 29.5354 28.41885 28.5376 27.0641 29.6915 29.5794 27.1421 22.6545 16.68915 18.70041 12.7663 12.5525 12.8065 13.3131 13.7299 14.201 14.6019 10.9027 15.0239 14.6518 12.7746 9.5176 6.5966 3.8993 0.5561 4.207475 0.1135 0.0539 0.0324 0.0199 0.0113 0.0056 0.0022 0.0534 0.0006 0.0004 0.0004333333 0.1482906 0.3613852 0.4461444 0.4302222 0.3118 0.2037944 0.1327222 0.11725 0.0894 0.1358543 0.1809 0.2010356 0.1864901 0.1599613 0.1367935 0.1172059 0.1022446 0.09210679 0.08657878 0.08369416 0.08289687 0.0821 0.08295 0.04860155 0.006235991 0.001093649 0.0002392411 0.0001054688 0.0001 0.0001 0.0001 0.01786843 0.0101895 0.001970958 0.0002925037 0.0001031987 0.0001012074 0.0001003957 0.0001001953 0.0001 0.0001082503 0.0001065805 0.0001027633 0.0001009639 0.0001004883 0.0001 3.009438 4.510108 4.508507 4.5069 1.706795 0.3044846 0.3031788 0.3026617 0.3025316 0.3024 0.1037454 0.00220416 0.0008671109 0.0004067338 0.0002628378 0.0002198751 0.0002066037 0.00020235 0.0002007628 0.0002003784 0.0002 0.005035313 0.00523682 0.003193505 0.001866456 0.001101765 0.0007084337 0.0005262511 0.0004490524 0.0004185515 0.000406871 0.0004026113 0.0004008767 0.0004004395 0.0004 0.0007643265 0.0007692395 0.0006605634 0.0006209195 0.0006071448 0.0006024424 0.0006008792 0.0006002882 0.0006001435 0.0006 0.2214557 0.307893 0.287095 0.2648095 0.2362583 0.2026626 0.1662599 0.1298588 0.09620707 0.06740322 0.04454903 0.02772392 0.01622356 0.00892252 0.004617369 0.002260268 0.001062858 0.0004990843 0.0002534528 0.0001547361 0.0001187793 0.0001089516 
0.0075625 0.004373 0.0001 0.0001 0.00025 0.001266667 0.00185 0.007225 0.0026 0.0279 0.2455 1.7385 9.4216 22.2241 16.4556 19.5847 21.2191 24.1312 26.4195 26.5347 25.9422 24.4214 22.1998 22.50693 22.0777 23.1263 23.9895 24.6438 25.4633 26.6523 28.7686 27.77373 29.8469 29.7705 29.6432 29.9727 30.488 30.5777 30.3917 32.60988 30.8859 33.9139 34.8498 26.5329 20.6653 16.8066 18.577 18.32681 15.0385 12.3417 10.4395 9.0489 8.8875 9.176 9.5019 10.07998 9.2929 8.7754 9.1583 9.3395 8.9972 8.5497 9.1011 4.329433 7.0592 4.9122 2.998 1.3628 0.6099 0.4461 0.2106 0.1379833 0.0002 0.0003 0.1752973 0.2148389 0.3503833 0.5189334 0.4691167 0.3026167 0.1636667 0.1451 0.0894 0.137263 0.1809 0.222813 0.2152241 0.1852055 0.1590407 0.1356377 0.1157022 0.1002778 0.09075386 0.08528873 0.08369375 0.0821 0.0838 0.05975653 0.01553796 0.002663224 0.0005067858 0.0001109375 0.0001 0.0001 0.0001 0.04147391 0.02476199 0.005137799 0.0006687117 0.0001063643 0.0001024352 0.0001007965 0.0001003906 0.0001 0.000115175 0.0001124281 0.0001053983 0.000101915 0.0001009766 0.0001 3.014227 4.513311 4.510115 4.5069 1.709747 0.3065808 0.3039513 0.3029218 0.3026632 0.3024 0.1066143 0.004344796 0.001622477 0.0006452059 0.0003336496 0.000241346 0.0002135179 0.0002047615 0.0002015316 0.0002007568 0.0002 0.007170116 0.007806648 0.004964488 0.002939325 0.001676701 0.0009833402 0.0006452542 0.0004967068 0.0004367925 0.0004136581 0.0004052039 0.0004017511 0.0004008789 0.0004 0.0009926847 0.0009407133 0.0007239082 0.000643097 0.0006146848 0.0006049765 0.0006017732 0.0006005776 0.0006002869 0.0006 0.2508672 0.3294315 0.304924 0.2893236 0.2670375 0.2380673 0.2036699 0.1662506 0.1288593 0.09446644 0.06529548 0.04244774 0.02590386 0.01482017 0.007946634 0.004000756 0.001904717 0.0008753292 0.0004085273 0.0002133964 0.0001384346 0.0001123774 0.0001055259 
0.003033875 0.0001 0.0001 0.000175 0.0005388889 0.001122222 0.067225 0.1308333 0.001 0.0123 0.134 2.0719 5.9789 8.34985 10.58671 9.5622 14.5259 18.8427 22.5261 26.8632 27.8335 26.6466 24.09642 24.5864 23.1968 22.4988 22.5489 23.2865 24.3116 25.0542 25.2342 25.78778 25.9601 27.2379 28.5954 29.5463 31.6491 31.5262 34.5568 35.90387 41.7519 37.3303 32.6655 28.6946 25.4791 25.65585 24.76571 25.7422 21.1477 15.7764 10.7238 7.9024 6.5725 6.7302 6.3321 7.280717 5.7272 5.1918 4.9747 4.9137 5.1778 4.9557 4.7043 5.862933 4.4424 4.1655 3.8844 3.5959 2.704 1.4936 0.6142 0.9064333 0.0001 0.58152 0.2936667 0.0006 0.35025 0.7003 0.50625 0.2008 0.2008 0.0894 0.1414889 0.1809 0.2487483 0.2483574 0.2132463 0.1840685 0.1583018 0.1347519 0.1138593 0.09849537 0.08847871 0.0852875 0.0821 0.0855 0.08756725 0.03874609 0.006569316 0.001298483 0.000121875 0.0001 0.0001 0.0001 0.09329832 0.05898515 0.01351218 0.00178865 0.0001125686 0.0001049161 0.0001016082 0.0001007813 0.0001 0.0001272076 0.0001230424 0.0001104499 0.0001037919 0.0001019531 0.0001 3.023772 4.519706 4.513329 4.5069 1.715786 0.3108149 0.3054884 0.3034391 0.3029264 0.3024 0.1121853 0.008653557 0.003218379 0.001162452 0.0004866009 0.0002865652 0.0002277827 0.00020969 0.000203081 0.0002015137 0.0002 0.009721153 0.01119666 0.007562645 0.004660635 0.002670184 0.001487156 0.0008727628 0.0005901014 0.0004728983 0.0004271205 0.0004103586 0.0004034953 0.0004017578 0.0004 0.001437422 0.0012807 0.0008526173 0.0006888231 0.0006302841 0.0006101837 0.0006035866 0.0006011591 0.0006005737 0.0006 0.3214542 0.365192 0.3162228 0.3068798 0.2916693 0.2694218 0.2400216 0.2047586 0.1662295 0.1277635 0.09258472 0.06305107 0.04025066 0.02404148 0.01341944 0.006999591 0.003420871 0.001581806 0.0007114731 0.0003327081 0.0001814008 0.0001260803 0.0001078227 0.0001032291 
0.0001 0.0001 0.0001375 0.0002712963 0.000612037 0.1198078 0.2382278 0.19495 0.3889 0.1366 0.2282 0.5834 2.4371 2.314 4.247292 4.6145 7.807 11.5941 15.8161 20.4185 23.2725 23.8102 21.56777 22.9141 21.4666 19.7577 19.7858 19.5262 19.5571 20.1908 20.8498 21.7352 23.1817 24.241 27.0521 32.8718 32.2271 37.0844 35.30458 40.5751 37.2618 34.8071 33.1919 32.4413 31.3852 31.658 30.79888 30.1546 28.2347 25.3462 21.4425 16.5935 11.8028 8.1062 11.8921 6.6717 6.1585 4.8007 4.2791 4.8942 5.351 5.2135 5.050066 5.0286 4.842 4.6092 4.31 3.9483 3.5476 3.0867 2.6199 2.587 2.0265 0.8798 0.001 0.0002 0.78638 0.7003 0.582725 0.3122 0.0894 0.1541667 0.1809 0.2808875 0.2881333 0.2450722 0.2118667 0.1828 0.1575389 0.1345667 0.11215 0.09486111 0.088475 0.0821 0.0889 0.1576497 0.09667408 0.0159125 0.003651697 0.00014375 0.0001 0.0001 0.0001 0.2012693 0.1365434 0.0352805 0.005131507 0.0001245199 0.0001099237 0.0001032622 0.0001015625 0.0001 0.0001471729 0.0001416838 0.0001199739 0.0001074696 0.0001039062 0.0001 3.042771 4.53246 4.519758 4.5069 1.728265 0.3194321 0.3085481 0.3044644 0.3034527 0.3024 0.1226654 0.01712547 0.006550344 0.002284858 0.0008199342 0.000382563 0.0002573056 0.0002198271 0.0002062156 0.0002030273 0.0002 0.01236776 0.01522334 0.01109352 0.007273138 0.004321282 0.002387485 0.001301785 0.0007721993 0.0005443037 0.0004538012 0.0004205899 0.0004069703 0.0004035156 0.0004 0.00229049 0.001946878 0.001112322 0.0007828994 0.000662631 0.0006209389 0.0006072824 0.0006023299 0.0006011475 0.0006 0.5072545 0.4557926 0.3221698 0.3176135 0.308885 0.294141 0.2719819 0.2421424 0.2059404 0.166193 0.1265552 0.09054241 0.06065653 0.03795426 0.02214121 0.01202899 0.006088125 0.002881662 0.001292826 0.0005709315 0.0002706615 0.0001565311 0.0001170099 0.0001047 0.0001017582 
0.0001 0.00011875 0.0001695988 0.0003402778 0.1312901 0.3063509 0.291925 0.3889 0.26275 0.25315 0.42092 0.7150643 0.46335 0.2382 1.326633 0.405 1.0778 3.3698 6.9437 9.8992 12.9975 15.1882 16.89733 16.2611 16.434 16.248 15.2398 14.7982 15.1917 15.6479 18.90425 17.2365 20.1608 25.5644 29.1576 25.5547 35.3412 34.3407 31.53395 33.7443 32.4778 33.3017 33.7936 33.5798 32.723 35.161 32.56655 36.4216 37.2805 37.6937 37.3068 35.2093 31.2818 25.0365 20.86698 18.4759 12.3061 9.8767 7.8752 5.7301 5.0196 5.2669 4.957667 5.1314 5.1277 5.117 5.0209 4.7566 4.452 4.1575 3.76575 3.7804 3.3779 2.9432 2.4595 1.342 1.0507 0.8387 0.8381333 0.4797 0.1922 0.1809 0.32755 0.3389333 0.2761667 0.2493 0.20975 0.17655 0.1621 0.1339667 0.1076333 0.09485 0.0821 0.0957 0.3378938 0.2424722 0.03688241 0.01066759 0.0001875 0.0001 0.0001 0.0001 0.4104747 0.3039357 0.09056698 0.01512762 0.0001469136 0.0001199846 0.0001066615 0.000103125 0.0001 0.0001782364 0.0001729424 0.0001375129 0.0001145962 0.0001078125 0.0001 3.080503 4.557864 4.532616 4.5069 1.75435 0.3371574 0.3146511 0.3064877 0.3045055 0.3024 0.1415985 0.03327832 0.01338482 0.004713261 0.001552948 0.0005883643 0.0003184901 0.0002408345 0.000212592 0.0002060547 0.0002 0.01455202 0.0193154 0.01540362 0.01095099 0.006925938 0.003942485 0.002095423 0.001124546 0.0006853873 0.000506665 0.0004408589 0.0004138796 0.0004070312 0.0004 0.003896989 0.00323344 0.00163153 0.0009756627 0.0007297713 0.0006432642 0.0006148576 0.0006046948 0.0006022949 0.0006 0.9839738 0.719842 0.3246022 0.3229336 0.3189734 0.3109335 0.2967482 0.2747414 0.244456 0.2072296 0.1661356 0.1252138 0.0883163 0.05809715 0.03555615 0.02020948 0.010658 0.005219483 0.002386895 0.001038607 0.000452975 0.0002212122 0.0001377974 0.0001105836 0.0001026486 0.0001008678 
0.000109375 0.0001294496 0.0002095422 0.09580672 0.223442 0.2294083 0.3889 0.2754375 0.1754 0.2722 0.2589 0.8975 0.137 0.2072083 0.1648 0.2233 0.3743 0.8503 2.3108 4.5907 6.9786 10.3315 11.54433 12.8789 13.8942 14.1395 14.1556 13.4555 13.7377 17.7004 17.86258 20.9147 22.7792 21.7766 18.2288 23.3785 21.9364 21.4919 24.21078 21.9673 24.5997 27.1344 29.7408 31.7051 30.34345 29.7314 29.0452 32.2727 34.6268 36.9785 39.1818 39.4509 38.1601 35.5656 30.38897 31.346 27.0355 22.0981 17.3378 13.2427 6.641 4.8047 6.782434 4.3009 4.4107 4.8135 5.4459 5.2087 4.8372 4.6929 4.793483 4.29 3.8805 3.4341 2.9697 2.497 1.4856 1.5979 4.06595 1.1 0.7684 0.3836 0.4158 0.3299 0.2711 0.2275 2.2817 0.192 0.1611 0.1332 0.1076 0.0821 0.1093 0.81588 0.6170444 0.07874444 0.03162778 0.000275 0.0001 0.0001 0.0001 0.7750475 0.6402932 0.226458 0.04505586 0.000187037 0.0001399691 0.0001137346 0.00010625 0.0001 0.0002222819 0.0002219136 0.00016875 0.0001281636 0.000115625 0.0001 3.155219 4.60836 4.558331 4.5069 1.80948 0.3741297 0.3268903 0.3104522 0.3066109 0.3024 0.1740852 0.06285898 0.02704998 0.009926013 0.003178479 0.001035289 0.000445076 0.0002847276 0.0002256667 0.0002121094 0.0002 0.01566114 0.02248411 0.01986282 0.01559927 0.01074877 0.006504928 0.003524114 0.001798413 0.0009637431 0.0006114807 0.000480938 0.0004275763 0.0004140625 0.0004 0.0068558 0.005674743 0.002657413 0.001368163 0.000869016 0.0006898095 0.0006304883 0.0006094947 0.0006045898 0.0006 2.100666 1.509339 0.3252906 0.3248963 0.3236198 0.3202848 0.3130156 0.2995001 0.2777289 0.2469953 0.2086439 0.1660497 0.1237132 0.08587845 0.05535723 0.03305576 0.01825545 0.009317225 0.004401319 0.001939905 0.0008194624 0.0003564548 0.0001830079 0.000124174 0.0001062104 0.0001013664 0.0001003692 
0.0001194123 0.0001494556 0.05776268 0.1323408 0.1237917 0.1345667 0.0074 0.1492875 0.2747 0.1754 0.3823 0.1207 0.1153 0.09081667 0.1246 0.1408 0.1787 0.2872 0.5921 1.3621 3.6438 4.9105 6.0957 8.5106 10.5029 10.7102 11.5338 15.1293 19.9888 15.29797 19.2001 16.4759 14.1243 12.2178 15.5301 14.848 15.5614 15.79903 16.6675 17.053 18.7151 20.2782 22.1108 24.579 17.014 19.74528 19.1663 21.5182 23.9839 26.571 28.8524 31.3488 33.5992 32.08517 35.3966 36.5132 35.5886 31.9894 27.2518 21.5519 17.5226 12.0371 12.2855 9.1536 7.7497 7.4277 6.0795 6.5643 6.6479 6.1129 6.462934 5.7272 5.2864 4.7471 4.0342 3.1513 5.92525 6.841108 9.7001 10.6793 11.5247 9.2947 7.4437 5.2834 4.8385 4.5228 3.643233 4.1845 3.1539 2.3442 1.122 0.1365 2.1312 1.61535 0.14145 0.09433334 0.00045 0.0001 0.0001 0.0001 1.313946 1.241759 0.5443852 0.1347352 0.0002537037 0.0001787037 0.0001287037 0.0001125 0.0001 0.0002766276 0.0002907407 0.0002217593 0.0001532407 0.00013125 0.0001 3.302597 4.708417 4.609763 4.5069 1.926764 0.4525401 0.3517142 0.3181347 0.3108219 0.3024 0.2263116 0.1142338 0.05339531 0.02094787 0.006806753 0.002023421 0.000705264 0.0003771826 0.0002527813 0.0002242187 0.0002 0.01554057 0.02365948 0.0232445 0.02054835 0.01579563 0.01045383 0.005996856 0.003064095 0.001511391 0.0008197531 0.0005600852 0.0004546039 0.000428125 0.0004 0.01215939 0.01020891 0.004654894 0.00216042 0.001156924 0.0007871432 0.0006629809 0.0006193044 0.0006091797 0.0006 4.199399 3.877267 0.3253961 0.3253546 0.3251209 0.3242133 0.3215252 0.3151159 0.3024056 0.2809788 0.2498023 0.210205 0.1659245 0.1220195 0.08319563 0.05242019 0.03045586 0.01629125 0.008019238 0.00364119 0.00154353 0.0006349946 0.0002798625 0.0001545073 0.0001146539 0.0001033608 0.0001006164 0.0001001219 
0.0001200333 0.02097124 0.07139911 0.06032685 0.04978889 0.0074 0.0074 0.0074 0.13965 0.374 0.0978 0.05445 0.0017 0.060775 0.0015 0.0016 0.0037 0.0111 0.0394 0.1476 0.5419 3.038225 1.8715 4.5496 8.4325 13.7343 16.4384 15.0752 11.7433 12.58367 9.4175 9.3919 8.7451 9.511 8.7758 9.3624 9.5598 10.91873 9.5772 11.1968 11.4609 12.1853 13.3882 15.0821 10.5171 12.35725 11.6994 13.0899 14.7139 16.5951 18.696 21.0113 23.5326 24.93622 26.2569 29.0605 31.3891 32.4625 31.8663 30.6332 28.7612 22.86785 24.6739 18.7428 13.447 7.7419 7.5051 7.6708 8.4744 7.692067 8.9454 9.0092 9.0441 9.2405 9.2563 9.2549 11.1846 9.063091 11.1532 10.7397 9.9815 10.8542 10.2972 9.6711 8.2974 6.920967 6.9109 5.8217 6.0436 5.9618 6.7705 5.3576 2.9486 3.825225 0.2821 0.0008 0.0001 0.0001 0.0001 1.93401 2.092472 1.2292 0.4036056 0.00035 0.00025 0.0001611111 0.000125 0.0001 0.0003315104 0.0003694444 0.0003055556 0.0001972222 0.0001625 0.0001 3.591936 4.905728 4.712625 4.5069 2.175296 0.6217216 0.4031384 0.3327603 0.3192438 0.3024 0.303801 0.1974386 0.1016067 0.04365602 0.0149232 0.004264378 0.001232682 0.0005732039 0.0003099066 0.0002484375 0.0002 0.01527553 0.02264488 0.02404186 0.0242917 0.02139993 0.01595341 0.01003354 0.005374554 0.002582476 0.001235254 0.0007164438 0.0005075617 0.00045625 0.0004 0.02135234 0.01841096 0.008474268 0.003741519 0.001748896 0.0009908464 0.0007310296 0.0006395537 0.0006183594 0.0006 5.490598 10.981 0.3254 0.3254 0.3253883 0.3252757 0.3246989 0.3226655 0.3172112 0.3054711 0.2845346 0.2529306 0.2119416 0.1657428 0.1200891 0.08022662 0.04927115 0.02776279 0.01433364 0.006777303 0.002946771 0.001199497 0.0004843215 0.0002211655 0.0001341005 0.0001082559 0.0001016054 0.000100221 0.0001000229 
0.0001027263 0.0001085391 0.01715675 0.02152963 0.0074 0.0074 0.0074 0.0074 0.0074 0.0018 0.0018 0.0389375 0.028075 0.0016 0.00155 0.002266667 0.005466667 0.01806667 0.06603333 0.2429667 0.34475 1.2067 1.7362 0.125 6.4605 8.4326 8.3038 6.2243 6.4584 8.1326 8.6939 8.5678 10.4383 10.5562 10.0934 8.6931 7.2358 7.351883 6.9107 6.8986 7.3975 7.9853 8.6845 8.32235 7.5966 8.488334 8.1501 8.8053 9.5857 10.5191 11.627 12.9379 14.49 16.84908 16.342 18.5293 20.9716 23.4629 25.678 27.282 27.6346 25.99908 26.5777 25.2825 21.1165 18.6602 13.4113 9.3202 7.8175 8.64085 8.1543 8.4804 8.4744 9.2262 10.0953 10.8414 8.2872 8.11025 8.1282 7.8949 7.5241 7.4384 8.0372 8.9085 8.7006 7.51565 8.2556 7.4055 5.8371 5.6432 5.7912 6.0108 6.0999 5.116433 5.9703 3.2436 0.0001 0.0001 2.668525 2.590267 2.47715 1.21 0.00045 0.0003666667 0.0002333333 0.00015 0.0001 0.000384375 0.0004166667 0.000425 0.0002666667 0.000225 0.0001 4.15736 5.291934 4.91835 4.5069 2.688913 0.991837 0.5135342 0.3597935 0.3360875 0.3024 0.408962 0.3204619 0.18338 0.08847377 0.03296636 0.009527932 0.002275309 0.0009898919 0.0004328447 0.000296875 0.0002 0.01768868 0.02155151 0.02166193 0.02472119 0.02574246 0.02241145 0.01604589 0.00940288 0.004651852 0.00206893 0.001026646 0.0006101852 0.0005125 0.0004 0.03662878 0.03276616 0.01561442 0.006852295 0.002956091 0.001416169 0.0008744277 0.0006819423 0.0006367188 0.0006 5.490193 10.981 5.382401 1.738387 0.3254 0.3254 0.3253648 0.3250622 0.3236696 0.3192646 0.3086994 0.2884492 0.2564553 0.2138872 0.1654822 0.1178591 0.07692612 0.04589464 0.02499268 0.01240106 0.005607171 0.002323678 0.000909465 0.0003653483 0.0001781512 0.0001199969 0.0001041533 0.0001006173 0.0001000457 0.0001 
0.0001009259 0.0001045267 0.0001201646 0.00370258 0.0074 0.0074 0.0074 0.0074 0.0046 0.003666667 0.0018 0.0018 0.01760313 0.01040833 0.001805556 0.003094445 0.0086 0.02985555 0.1090222 0.5203375 1.063547 1.9449 0.701225 0.3987 2.6225 1.7236 2.5294 4.7397 6.8562 6.475433 5.6263 8.2095 8.9042 9.0109 7.4583 5.4193 5.3529 5.760684 5.4749 5.7408 6.0359 6.358 6.7168 6.0451 6.551308 6.3298 6.637 6.9739 7.3513 7.7846 8.2972 8.9248 9.7193 11.0524 10.7537 12.1245 13.9457 16.3202 19.2589 22.4782 25.0475 23.74608 23.2996 24.7909 26.2607 24.8676 22.0074 17.6214 11.7281 10.63635 6.7254 6.8615 7.5078 7.4593 7.9016 6.5204 4.6526 5.397067 5.2557 5.1827 4.6191 4.9293 5.2915 5.7117 6.1911 6.13085 6.7383 7.3673 8.0645 7.6055 6.1797 6.806 7.4383 6.647316 7.9594 8.3499 8.7234 5.3227 2.8165 2.5348 2.4195 3.454375 0.0005 0.0004 0.0002 0.0001 0.0005375 0.000325 0.000575 0.00035 0.00035 0.0001 5.260437 6.0391 5.3298 4.5069 3.680447 1.804683 0.7636222 0.4072056 0.369775 0.3024 0.5428342 0.4834321 0.3071815 0.1707722 0.07218642 0.02246265 0.00425 0.001871142 0.0007047839 0.00039375 0.0002 0.02651729 0.0255642 0.01847325 0.02061708 0.02589547 0.02765103 0.02368086 0.01590247 0.008554321 0.003751852 0.001649383 0.0008055556 0.000625 0.0004 0.0606827 0.05684739 0.02858503 0.01286607 0.005392155 0.002298662 0.001177456 0.0007723894 0.0006734375 0.0006 5.488978 10.981 5.526503 2.614039 2.408061 1.606047 0.3254 0.3254 0.3252944 0.3244923 0.321222 0.3120794 0.2927969 0.2604713 0.2160978 0.1650926 0.1152561 0.07322855 0.04229369 0.02216168 0.01052268 0.004518816 0.001780018 0.0006721994 0.0002761774 0.000147668 0.0001106081 0.0001017147 0.0001001372 0.0001 0.0001 
0.0001 0.0001018519 0.0001117284 0.0001469136 0.003454259 0.0074 0.0074 0.006 0.005222222 0.003355555 0.002422222 0.0018 0.0018 0.01191354 0.01478935 0.1132323 0.5278 0.43405 0.4028 0.6732084 1.4276 1.214367 1.9449 0.3363 0.3931 0.4119 1.1529 2.5069 3.486033 3.8471 7.3707 8.5747 8.5484 7.6324 6.6893 5.4383 5.23655 4.7681 4.8217 5.031 5.2725 5.5208 5.777 5.3828 5.532267 5.6312 5.8833 6.1384 6.3947 6.6494 6.8979 7.1389 7.751917 7.3772 7.6322 7.9529 8.4481 9.3421 11.0769 13.9843 20.29125 24.7679 15.1492 16.2044 17.0641 17.5117 17.3268 16.5095 16.36063 14.6711 14.7217 12.5783 10.0775 6.9927 5.2257 4.8835 5.327384 3.1493 2.9094 2.68 2.754 2.8543 2.9782 3.1481 3.873983 3.3432 3.5563 3.7869 4.0294 4.1047 4.3062 4.8449 5.8736 5.941767 6.5424 7.4176 8.5269 9.9939 10.4591 8.429 5.9025 4.743283 5.495 2.9397 1.0065 0.0014 0.0001 0.00055 9.034412 0.0006 0.0001 7.43125 7.4577 6.1527 4.5069 5.282906 3.560333 1.37165 0.4820667 0.43715 0.3024 0.7221219 0.6816222 0.4651926 0.3034815 0.1528704 0.05596482 0.007724074 0.003699074 0.001326852 0.0005875 0.0002 0.04383397 0.0409821 0.02105309 0.01465741 0.01970926 0.02748457 0.03049259 0.02497593 0.01557407 0.007157407 0.002931481 0.001166667 0.00085 0.0004 0.09602556 0.09503786 0.05126739 0.02423693 0.01025077 0.004110494 0.001815201 0.0009702932 0.000746875 0.0006 5.485334 10.981 5.686608 2.831976 2.606429 2.403713 2.214042 1.481033 0.3254 0.3254 0.3250831 0.3229938 0.315589 0.2976553 0.2651464 0.2186122 0.1645347 0.1121309 0.06910267 0.03845206 0.01932634 0.008706653 0.003535048 0.001314746 0.0004902607 0.0002115912 0.0001266804 0.0001047325 0.0001004115 0.0001 0.0001 0.0001 
0.0001 0.0001 0.0001055556 0.0001296296 0.0002055556 0.002136111 0.003237037 0.0033 0.0039 0.0041 0.0055 0.007983333 0.01158333 0.01667222 0.02352222 0.03323333 0.1945708 0.5278 0.3403 0.3403 0.5846334 1.4276 0.2706 0.2863 0.3138 0.5209 0.5254 0.745 1.781667 2.2213 4.0816 5.4878 6.1187 6.5185 6.659 5.8835 5.244683 4.5572 4.2613 4.4183 4.6529 4.8948 4.82885 4.774 4.883966 5.0307 5.2909 5.5551 5.8224 6.0906 6.3487 6.5823 6.753 6.769 6.8741 6.843 6.5905 5.9859 4.8245 24.2705 15.29392 11.1991 12.169 13.3172 14.6075 15.9797 16.8034 17.9294 15.33572 19.7043 18.1619 15.3828 13.2342 11.5003 8.3677 7.2595 5.7418 5.499 2.7765 2.1297 2.2112 2.2636 2.2611 2.3563 2.507233 2.4935 2.6426 2.8034 2.9797 3.1818 3.4345 3.9284 3.816317 3.7021 4.1348 4.5118 4.8992 5.2994 5.7395 6.257 6.349983 6.9076 7.7346 8.1807 7.9271 6.5119 3.5427 22.8402 7.551508 13.2963 11.8587 10.0677 7.7985 4.5069 6.515625 7.13795 2.97115 0.5719 0.5719 0.3024 1.006104 0.9473222 0.6326611 0.4648833 0.2980333 0.1475278 0.01305 0.007316667 0.002805555 0.000975 0.0002 0.06756181 0.07036111 0.03721296 0.01537222 0.01057407 0.01802593 0.03052778 0.0339 0.02705 0.01397778 0.005694444 0.0018 0.0013 0.0004 0.1436819 0.1511494 0.08887099 0.04509321 0.01983796 0.007779629 0.003134722 0.00141713 0.00089375 0.0006 5.474403 10.981 5.868096 3.075689 2.821645 2.598595 2.399046 2.213498 2.029583 1.355651 0.3254 0.3254 0.3244494 0.3191321 0.3031856 0.2706482 0.2216053 0.1635831 0.1084156 0.06439403 0.03449835 0.01646379 0.007016873 0.0026393 0.0009489712 0.0003559671 0.0001658436 0.000112963 0.0001012346 0.0001 0.0001 0.0001 0.0001 
0.0001 0.0001 0.0001 0.0001166667 0.0001722222 0.0003277778 0.0006444444 0.00175 0.0033 0.0045 0.0045 0.0075 0.01195 0.0153 0.02276667 0.0325 0.04443333 0.17355 0.5278 0.1528 0.3789 0.1735 0.193 0.212 0.232 0.2592 0.3918 0.6224 0.7888167 0.7473 1.0399 1.7421 3.2684 4.9169 5.907 5.8335 5.172233 4.9875 3.773 3.7872 4.0143 4.2664 3.839 4.1077 4.213733 4.3774 4.6501 4.9276 5.2122 5.5136 5.8286 6.1561 6.198283 6.4945 6.8428 7.1992 7.5572 7.9089 8.2023 8.5704 11.46135 8.9713 9.4331 10.0024 10.6936 12.8849 12.4661 11.3982 13.48517 11.8018 11.7292 10.6388 9.3821 8.5142 8.0143 7.283 7.13825 6.3765 5.3223 2.8266 1.7772 2.0703 1.8182 1.7917 1.841083 1.9106 2.0421 2.1769 2.3057 2.4112 2.5403 2.0326 2.671267 2.5163 3.1778 3.576 3.9938 4.3705 4.7362 5.1057 5.252934 5.4981 5.9235 6.4152 7.0671 8.0275 9.1297 4.4006 8.906533 4.7708 5.1869 5.6825 6.2025 7.2797 9.175 5.1009 5.571925 0.8414 0.3024 1.39955 1.409233 0.9132333 0.5195 0.46525 0.4099 0.01895 0.01373333 0.006466667 0.00175 0.0002 0.09029166 0.1097222 0.07003333 0.03132778 0.01027778 0.004511111 0.01693333 0.03263333 0.04201667 0.02705 0.01208333 0.0028 0.0022 0.0004 0.2023979 0.2254741 0.1464556 0.08151852 0.03863889 0.01512222 0.005752778 0.002463889 0.0011875 0.0006 5.441608 10.981 6.075874 3.352373 3.063139 2.811556 2.590242 2.393987 2.21291 2.033596 1.842244 1.221363 0.3254 0.3254 0.3225482 0.3094482 0.2775605 0.2249358 0.1623197 0.1034938 0.05943333 0.03025494 0.01380679 0.005329629 0.001914198 0.0006740741 0.000258642 0.0001351852 0.0001037037 0.0001 0.0001 0.0001 0.0001 0.0001 
0.0001 0.0001 0.0001 0.0001 0.00015 0.0002666667 0.0005666667 0.0011 0.002033333 0.0033 0.0057 0.0075 0.0093 0.0146 0.022 0.0317 0.0438 0.0578 0.0648 0.15045 0.0649 0.0757 0.0856 0.0941 0.1004 0.0856 0.1302 0.2506167 0.1686 0.2283 0.3541 0.6748 1.54 2.9582 4.4324 4.585533 5.0976 4.6741 3.5862 3.1289 3.3056 3.5698 3.063 3.16455 3.3524 3.6402 3.9283 4.2137 4.4968 4.7931 5.1035 5.252067 5.4276 5.7602 6.0994 6.4497 6.8049 7.1401 7.4551 7.7464 8.010616 8.0104 8.2426 8.4451 8.6388 10.633 14.2721 10.041 10.52992 10.0363 9.9324 9.7033 9.3323 8.8053 9.2373 8.728066 8.602 7.8095 7.1111 6.3955 4.7346 2.4683 1.6914 1.197 1.74415 1.2974 1.4437 1.6244 1.8546 1.7997 1.682 1.955 2.00145 1.8932 1.8113 2.2248 2.794 3.0957 3.4362 3.7293 3.994067 4.0199 4.2846 4.465 4.4797 5.2463 13.08045 3.8518 4.018883 4.2795 4.7415 5.2155 5.8059 6.8443 9.2819 9.4591 6.647433 6.8863 1.6961 1.6207 1.979 0.628 0.1327 0.7978 0.7136 0.022 0.0159 0.0033 0.0002 0.09675 0.1364667 0.12775 0.06495 0.0174 0.01163333 0.0018 0.0001 0.0489 0.0489 0.02825 0.004 0.004 0.0004 0.271875 0.3126222 0.2246944 0.1391056 0.07556666 0.02988333 0.01046667 0.005016667 0.001775 0.0006 5.343226 10.981 6.317488 3.669133 3.335875 3.05211 2.801431 2.581125 2.388169 2.212666 2.037895 1.850227 1.638609 1.071217 0.3254 0.3254 0.3168444 0.2861 0.229737 0.1589704 0.09825185 0.05325926 0.02678889 0.01071667 0.003914815 0.001357407 0.0004703704 0.0001944444 0.0001111111 0.0001 0.0001 0.0001 0.0001 0.0001 0.0001 
0.0001 0.0001 0.0001 0.0001 0.0001 0.0002 0.0005 0.001 0.0018 0.0036 0.0045 0.0075 0.0109 0.01316667 0.018 0.0103 0.0145 0.02 0.0347 0.04653334 0.0577 0.0695 0.0683 0.0612 0.0516 0.0749 0.0774 0.09921667 0.1133 0.1481 0.2044 0.3134 0.562 1.2566 2.5082 3.155 3.7345 4.1556 3.5978 2.5071 2.5063 2.31505 2.1548 2.257433 2.4704 2.7869 3.0869 3.4368 3.7243 4.0197 4.3296 4.451766 4.667 5.0183 5.3647 5.7358 6.1102 6.5014 6.8732 7.00135 7.2215 7.5437 7.821 8.0196 8.0877 7.8733 14.4047 11.20022 9.872 10.0302 10.1061 10.0818 9.9414 9.6675 9.8567 9.674733 9.3751 8.4864 7.6855 6.7446 5.7112 4.6464 3.4386 3.102217 2.3448 1.9234 1.9159 1.9128 1.9061 2.0302 2.1587 1.797883 1.8404 1.7712 1.6989 1.6245 1.5161 1.8584 2.3375 2.6369 2.75335 2.9745 3.3833 3.8172 24.9838 5.3538 2.8481 4.575475 3.2217 3.5889 3.9027 4.2639 4.7125 5.3432 6.671 7.736917 8.3764 9.2205 9.7044 5.9512 0.6323 0.3131 0.556 1.0342 1.118467 1.0004 0.9718 2.0668 0.076 0.1539 0.1569 0.0986 0.2642 0.0313 0.0035 0.0001 0.19135 0.2509 0.0489 0.2829 0.0076 0.0004 0.3568 0.4123333 0.3179667 0.2075667 0.14855 0.0612 0.01695 0.0115 0.00295 0.0006 5.048078 10.981 6.60285 4.042304 3.6438 3.321296 3.04253 2.792504 2.569261 2.381611 2.213635 2.042752 1.857298 1.65063 1.4079 0.9009375 0.3254 0.3254 0.2997333 0.2331667 0.1563111 0.08743333 0.05101111 0.02133333 0.008022223 0.002794444 0.0009277778 0.00035 0.0001333333 0.0001 0.0001 0.0001 0.0001 0.0001 0.0001 0.0001 
0.0001 0.0001 0.0001 0.0001 0.00015 0.0002666667 0.0005666667 0.0011 0.0014 0.0018 0.0004 0.0004 0.002575 0.0088 0.0063 0.0095 0.0133 0.0193 0.0266 0.02991667 0.0305 0.0309 0.0362 0.0357 0.0517 0.053 0.0529 0.08025 0.0529 0.0765 0.1161 0.1899 0.2894 0.4929 0.9953 1.861183 2.162 3.2569 3.2522 2.0571 1.6315 0.8472 1.093 1.63435 1.411 1.8066 1.9668 2.5458 2.856 3.1562 3.4248 3.53045 3.7581 4.1635 4.47 4.8166 5.2371 5.7001 6.1458 6.266483 6.5661 6.995 7.4415 7.9011 8.37 8.7674 9.1359 10.02432 9.4756 9.7648 9.9869 10.1215 10.1516 10.2026 10.2918 10.26358 10.6855 9.7633 9.2117 8.4632 7.5422 6.5101 5.4638 4.7863 4.4777 2.7844 1.7402 1.6244 1.2088 1.3136 1.4742 1.597333 1.677 1.6038 1.5293 1.4539 1.3791 1.3093 1.2093 1.289717 1.4523 1.7072 2.1608 8.5528 2.0761 2.4299 2.0669 2.138817 2.3839 2.7669 3.014 3.3299 3.7381 4.3602 5.5525 5.941933 7.0806 7.7136 10.393 11.6371 0.6159 0.3283 1.2492 1.401917 1.8089 2.0475 2.091 4.8451 0.1553 0.3629 0.4587 0.4345333 0.4737 0.4532 0.4175 0.3574 0.2627 0.1452 0.5468 1.7014 0.5283 0.5154 0.4864 0.425 0.3256 0.2033 0.0938 0.944225 0.0286 0.0053 0.0006 4.162633 10.981 6.9185 4.496167 4.015733 3.615011 3.300656 3.048222 2.778711 2.550578 2.378495 2.215761 2.04665 1.865844 1.6594 1.426644 1.137655 0.71405 0.3254 0.3254 0.2484 0.1257 0.09483334 0.04176667 0.01643333 0.0058 0.001833333 0.00075 0.0002 0.0001 0.0001 0.0001 0.0001 0.0001 0.0001 0.0001 0.0001 
0.0001 0.0001 0.0001 0.0001166667 0.0001722222 0.0003277778 0.0006444444 0.001022222 0.001433333 0.00088 0.0004 0.0004 0.0004 0.0007 0.0014 0.0028 0.0054 0.0078 0.016175 0.011 0.019 0.0316 0.0507 0.0778 0.086 0.0908 0.06913333 0.0925 0.0925 0.0937 0.102 0.1309 0.2635 0.4114 0.5552 1.013667 1.2119 2.1952 2.4604 1.815 1.08385 1.4663 2.1984 1.3801 1.2968 1.2349 1.5286 1.4583 1.8454 2.3235 2.4397 3.094617 2.5635 3.3261 3.5264 3.7462 4.0832 4.6359 5.1843 5.36295 5.608 6.0227 6.4672 6.9359 7.4209 7.9118 8.3965 8.52675 8.8612 9.2873 9.6715 9.9918 10.2255 10.3897 10.6694 10.6148 10.703 10.6737 10.4401 9.9635 9.2175 8.2144 7.0562 6.88675 5.9367 4.7442 3.4136 2.0391 1.44 1.37 1.279 1.819517 1.1547 0.9852 0.8006 0.6053 0.4105 0.2345 0.096 1.201867 0.0063 6.4465 1.2143 1.0246 1.2116 1.3739 1.0265 1.7323 1.2858 1.9244 2.1118 2.3888 2.7535 3.3155 3.7931 4.376083 4.178 4.6799 5.4348 3.9761 1.3 0.3911 1.1068 1.8166 2.6564 3.6993 4.1685 5.6866 14.6021 0.3257 0.6416 1.509467 0.7777 0.815 0.7995 0.7474 0.67 0.5936 5.0472 3.43535 4.0296 3.4106 2.9659 2.6228 2.3432 2.1072 1.9088 2.7306 1.7457 1.6133 1.5063 10.981 7.176 4.9636 4.5534 3.9715 3.5223 3.351233 3.028433 2.765 2.5427 2.344033 2.24875 2.0545 1.8367 1.706333 1.435167 1.138433 0.8393667 0.553 0.3254 0.315375 0.1714 0.08 0.0331 0.0122 0.004 0.0012 0.0003 0.000225 0.0001 0.0001 0.0001 0.0001 0.0001 0.0001 0.0001 0.0001 
0.0001 0.0001 0.0001055556 0.0001296296 0.0002055556 0.0003814815 0.0006648148 0.001033333 0.0008271111 0.0004 0.0004 0.0004 0.0005 0.0008333334 0.001633333 0.0032 0.005333333 0.0066 0.0094 0.015 0.02053333 0.0831 0.1134667 0.208 0.0572 0.0613 0.08988333 0.0643 0.0687 0.08 0.1112 0.1916 0.3754 0.855 2.262017 0.3684 0.7892 1.5205 1.9095 1.793 5.4856 4.3045 3.1694 4.0993 3.8805 3.0086 2.882 2.7635 2.6509 2.5642 2.7224 2.9793 3.4023 2.6736 2.891 2.7993 2.4998 3.1371 4.139467 4.1094 4.5641 4.9291 5.3389 5.7932 6.2886 6.817 6.983917 7.3673 7.924 8.4732 9.006 9.5123 9.5748 9.8141 9.802466 10.4246 10.9145 11.3457 11.6329 11.706 11.4757 10.8161 10.43782 9.6683 8.7178 7.198 5.1547 3.5674 3.0111 2.9163 2.8567 3.45325 2.4755 1.9937 1.6315 1.6675 1.7476 1.8847 2.0976 1.47305 2.3497 2.7971 1.3516 1.3094 1.2851 1.6072 1.291633 1.648 1.9827 1.2233 1.4257 1.7491 2.0478 2.6052 2.8858 3.031383 2.7665 2.1654 10.227 5.2703 6.9283 2.9571 1.0319 1.758617 3.0464 4.9973 6.5608 8.6227 21.0106 0.4988 2.5268 1.717517 4.1783 5.2386 5.9974 6.5731 6.6899 4.98915 5.5989 4.144433 4.8613 6.5667 7.128 7.2053 6.8375 6.4192 6.2737 5.624233 6.333 6.0478 6.1022 7.0555 5.784 4.8835 4.2233 4.9303 3.7197 3.3249 3.0091 2.7513 2.5346 2.3422 2.1553 2.863225 1.9537 1.7197 1.4456 1.1402 0.8295 0.5484 0.5087 0.31045 0.256 0.1147 0.0458 0.0164 0.0053 0.0015 0.0004 0.00022 0.0001 0.0001 0.0001 0.0001 0.0001 0.0001 0.0001 0.0001 
0.0001 0.0001018519 0.0001117284 0.0001469136 0.0002388889 0.0004172839 0.0006932099 0.0006650519 0.0004 0.0004 0.0004 0.0004333333 0.0005777778 0.0009888889 0.002166667 0.002719444 0.0011 0.0011 0.0011 0.03094687 0.1438 0.1498667 0.2311 0.0816 0.0949 0.1075 0.1117333 0.1229 0.1531 0.2326 0.452 0.9975 2.1234 3.9357 3.331767 7.4464 9.4927 9.8887 8.9129 7.4381 6.1642 4.1927 4.418667 3.5735 3.3905 3.8857 3.6622 3.4573 3.271 3.1024 2.956317 2.9253 2.2046 2.7086 3.1013 3.8801 4.8246 4.2868 3.316817 3.4833 3.5121 3.7776 4.0931 4.4674 4.9093 5.4192 5.586717 5.9917 6.6009 7.2321 7.8706 8.5127 7.5407 8.3391 8.331483 9.1779 10.0502 10.9565 11.8744 12.7454 13.5247 13.9813 12.67842 12.8906 13.0335 14.0466 10.0652 9.0198 7.8126 7.0974 5.987283 6.7279 6.2257 5.1076 4.0841 3.1984 2.1284 2.1563 2.41145 2.1668 2.1219 1.9896 1.6349 1.6189 1.6091 1.1829 1.231817 0.9113 0.4314 0.5032 0.6787 1.1408 1.2515 1.9822 2.085183 2.3269 2.238 2.8349 1.6256 1.7292 2.8966 2.6631 1.47425 1.0926 1.6176 2.5588 3.4445 4.8593 10.727 23.9375 0.749 1.604433 1.4317 2.1085 2.5278 2.6006 2.7957 1.4099 2.513375 1.4865 3.8431 3.6894 4.3052 5.1982 6.4225 7.6293 5.1908 8.4574 9.0268 8.06 6.8616 7.1021 6.891 6.5102 6.0915 5.572467 5.6867 5.3152 4.9818 4.683 4.4078 4.1375 3.8451 3.418067 3.4988 3.0725 2.5598 1.9866 1.4102 0.8988 0.4089 0.2908667 0.1923 0.0808 0.0304 0.0102 0.0031 0.0009 0.0002 0.0002 0.0001 0.0001 0.0001 0.0001 0.0001 0.0001 0.0001 0.0001 
0.0001009259 0.0001045267 0.0001201646 0.0001658436 0.0002676955 0.0004497942 0.0005151092 0.0004 0.0004 0.0004 0.0004111111 0.0004703704 0.0006666667 0.001946667 0.003 0.003 0.00205 0.0011 0.0038 0.007666667 0.046275 0.1438 0.0747 0.0985 0.1231 0.1464 0.1304833 0.168 0.191 0.2284 0.3183 0.5629 1.1802 2.5271 3.983183 4.858 7.4653 9.1148 9.1633 8.5694 7.7031 5.9909 5.103734 4.3511 4.0914 3.9419 3.788 3.6267 3.4639 3.2948 2.675217 2.8719 3.3492 3.1868 3.0092 2.5433 2.4084 2.3962 2.759833 2.4881 2.5938 2.7186 2.8711 3.0647 3.3271 3.6994 3.86645 4.2257 4.8274 5.4773 6.1338 6.7992 5.0366 5.73 5.992283 6.5032 7.3828 8.458 9.8042 11.2988 13.0468 16.2382 14.9228 12.476 20.2727 12.199 11.8794 12.1599 11.5476 9.374 7.8777 6.9514 5.1442 4.1438 3.2982 4.1385 18.0137 4.1954 3.959417 1.9679 1.8565 1.7158 1.558 1.4671 1.2751 1.0849 1.3571 0.9566 0.8481 0.8517 0.8134 0.6041 1.0221 1.0212 1.68955 1.6898 2.2879 1.0087 0.5406 0.2263 0.5969 0.509 1.125983 0.5918 1.6154 2.1407 2.4477 2.8928 6.1349 19.4231 11.80947 0.151 0.5898 0.9919 1.2007 1.279 1.3254 0.7305 0.9820167 0.8653 0.9605 1.0339 1.0925 1.1413 1.1846 1.2303 3.32575 1.1349 1.1179 2.7554 4.7472 6.7378 7.749 7.455 5.957767 7.0473 6.6663 6.34 6.0486 5.775 5.4972 5.1835 4.712317 4.789 4.2665 3.6027 2.8324 2.0393 1.3274 0.6566 0.44355 0.2637 0.1156 0.0453 0.0159 0.005 0.0014 0.0004 0.00034 0.0001 0.0001 0.0001 0.0001 0.0001 0.0001 0.0001 0.0001 0.0001 
0.0001027263 0.0001085391 0.0001301783 0.0001845679 0.0002944444 0.0004065198 0.0004 0.0004 0.0004 0.0004037037 0.0004271605 0.0005160494 0.001816741 0.003 0.003 0.003 0.003 0.0021 0.0032 0.0071 0.0127 0.0215 0.0345 0.0525 0.0763 0.0846 0.1057 0.1324 0.1585 0.2086 0.2942 0.4447 0.8622 1.191417 1.7141 3.4178 5.8431 8.1998 9.4753 8.4132 8.3796 6.991783 7.0746 5.4396 2.964 2.7258 2.5418 2.3723 2.2024 2.6525 1.8488 2.0081 1.866 1.7351 1.6252 1.8129 1.7014 1.929 1.99575 1.9756 2.0134 2.0346 2.0265 1.9723 1.8756 1.7498 2.757683 2.1129 2.6206 3.2924 3.925 3.3389 2.5512 3.093067 2.8983 3.3052 3.9901 5.2736 6.8112 7.6105 7.3128 21.888 13.84377 12.0627 12.1594 11.1487 10.2467 9.4616 9.0153 8.7219 8.50255 8.3936 8.096 7.6432 38.4584 10.5696 7.9284 6.7369 5.445066 6.5332 5.4807 3.9501 1.4436 1.3263 1.5596 1.7463 1.93075 2.2606 1.1717 1.2097 1.2802 1.4423 1.8139 2.039 1.4427 1.0782 0.7082 0.7617 0.1728 0.0877 0.2058 0.7493 0.9489833 1.1501 1.8552 2.4469 2.8606 3.2257 5.0039 11.084 12.01552 15.5122 0.2187 0.5368 0.5814 0.5016 0.68625 0.732 0.8131833 0.6679 0.6237 0.588 0.5585 0.5345 0.5162 0.5388 0.91945 0.9638 1.3441 1.3032 1.2536 1.0228 1.4428 3.3518 3.987783 5.2908 7.037 8.5146 8.4659 7.342 6.3885 5.5568 4.5667 4.762 3.9591 3.1357 2.3214 1.5782 0.9713 0.2973 0.2576667 0.136 0.0555 0.0202 0.0066 0.002 0.0005 0.0001 0.0002 0.0001 0.0001 0.0001 0.0001 0.0001 0.0001 0.0001 0.0001 0.0001001302 
0.0001056327 0.0001138146 0.0001410951 0.0002030636 0.0003371064 0.0004 0.0004 0.0004 0.0004012346 0.0004102881 0.0004489712 0.00175199 0.003 0.003 0.003 0.003 0.003 0.00185 0.0011 0.0013 0.0026 0.005 0.0088 0.0148 0.0229 0.04248333 0.0332 0.0537 0.0825 0.1006 0.1301 0.1933 0.2696 0.6591333 0.5953 1.2712 2.6205 4.6828 6.9214 5.8246 6.5546 6.94195 6.2479 5.0769 4.4435 3.1641 2.9784 2.8367 2.4996 2.552783 2.6055 2.5041 2.3988 2.2782 1.9079 1.7924 1.6684 1.973767 1.5441 1.6415 1.7637 1.9184 2.1095 2.1414 2.1485 1.897917 2.4742 2.2841 2.0675 1.8795 1.9916 0.9284 1.08 2.750467 1.2623 1.7428 2.6381 4.489 7.3664 8.7765 9.1491 10.89947 9.7527 10.645 11.6239 11.0853 10.507 9.8169 9.1516 8.7939 9.0321 8.5423 8.2656 38.3155 9.145 5.7725 5.9256 6.3197 5.822667 6.9173 6.0917 5.5993 6.2888 4.6597 6.6168 3.782933 4.552 0.9841 1.4375 1.5479 1.7552 2.1022 2.5177 1.8829 1.4209 1.4071 0.9863 0.8513 0.313 0.3972 0.6394 1.0997 1.34995 1.594 2.2008 2.7547 3.1226 3.3468 4.3488 7.21 11.55895 18.7128 0.0818 0.219 0.5493 0.8008 0.9064 0.9398 0.8407167 0.9436 0.9304 0.91 0.89 0.8771 0.8784 0.8776 0.8095167 0.7713 0.7041 0.6503 0.7951 0.8001 0.6826 0.4932 1.665567 0.2886 0.1312 0.0442 1.2231 3.2183 3.9497 3.7548 3.504483 3.3541 2.811 2.1857 1.5561 1.0019 0.5781 0.1355 0.11305 0.0569 0.0214 0.0073 0.0022 0.0006 0.0002 0.0002666667 0.0001 0.000125 0.0001 0.0001 0.0001 0.0001 0.0001 0.0001 0.0001005208 0.0001 
0.0001097237 0.0001201808 0.0001526578 0.000296253 0.0004 0.0004 0.0004 0.0004004115 0.0004038409 0.0004201646 0.00172225 0.003 0.003 0.003 0.003 0.003 0.00171 0.0006 0.0001 0.0001 0.0003 0.0007 0.0015 0.0029 0.0058 0.01236667 0.011 0.0199 0.0344 0.057 0.0797 0.1269 0.2049 0.2534167 0.3087 0.5447 1.1063 2.2575 2.97525 3.8246 6.066 7.196183 7.329 7.56 6.7979 5.13 3.6443 3.0851 3.148 3.250467 3.0124 2.8748 2.7461 2.6337 2.7703 2.6654 2.5569 2.48945 2.4428 2.3214 2.1856 2.0351 1.8774 1.9143 1.6642 2.368617 1.4752 1.2798 1.0953 0.9316 0.7967 3.6679 4.0372 6.06825 4.6738 5.8803 8.0389 8.4977 8.1149 8.0643 8.5567 8.5255 8.7375 9.0917 9.4572 10.1551 10.0768 9.5379 8.2031 8.758083 8.6394 7.4035 32.999 6.8192 5.2528 4.7619 4.3028 4.8075 4.1972 4.2317 4.2842 4.3875 4.7099 3.6841 3.8259 4.396917 4.397 6.0588 4.6173 3.2115 2.1453 2.6085 1.6677 1.957917 1.8382 1.6078 1.0469 0.3215 0.3238 0.6726 1.0309 1.242317 1.4958 2.0108 2.5553 3.0147 3.2483 3.3661 4.0349 5.028666 5.8316 11.0031 9.7993 0.1983 0.4864 0.7415 0.7377 0.79145 0.8477 0.9133 0.9506 0.9719 0.9868 2.7573 0.5446 0.7896667 0.7845 0.9211 0.9995 1.0212 0.8037 0.6248 0.4546 0.4993167 0.3548 0.2142 0.102 0.0378 0.0107 0.0022 0.6828 1.5901 2.677025 2.0091 1.9695 1.6183 0.9865 0.5593 0.1831 0.1589 0.0371 0.0155 0.0057 0.0019 0.0005 0.0001 0.0003 0.0002 0.0001888889 0.0001 0.00010625 0.0001 0.0001 0.0001 0.0001020312 0.0001020833 0.0001 0.0001004115 
0.0001149522 0.0001275207 0.0002738183 0.0004 0.0004 0.0004 0.0004001372 0.0004014175 0.002331104 0.003138178 0.003 0.003 0.003 0.003 0.003 0.001632 0.00035 0.0001 0.0001 0.0001666667 0.0003666667 0.00065 0.0001 0.0002 0.002325 0.0004 0.0009 0.002 0.0041 0.0081 0.0151 0.0274 0.0496 0.1220333 0.0924 0.1831 0.3875 0.8488 2.0052 4.1269 5.168983 6.9895 9.9901 9.5898 8.7747 6.9624 4.4569 4.3968 4.2093 4.326917 4.028 3.8515 3.6257 3.4505 3.5803 3.744 3.4229 3.62575 3.3016 3.1864 3.0957 2.9772 2.8664 2.8434 3.1977 3.3539 3.2519 3.3462 3.4603 3.5698 5.06655 8.2027 10.6997 8.342916 14.6565 13.01 13.1498 10.1821 5.9108 6.6819 7.343 7.33565 7.614 7.7955 8.2765 9.3934 10.054 10.2551 7.6418 13.66675 9.8805 33.7943 5.2622 5.2439 5.227 4.9878 4.3845 4.24295 3.7152 3.6169 3.6308 3.6493 3.6342 3.5438 3.5138 3.79445 3.476 3.6242 4.5512 4.339 3.5545 1.7596 2.1405 2.282233 2.1625 1.8277 1.2545 0.6732 0.3337 0.8542 1.3374 1.5632 1.8507 2.3699 2.8447 3.17 3.2505 3.3153 3.7627 4.3998 4.984 7.695 14.163 0.1292 0.3368 0.4771 0.5825 0.6717666 0.7346 0.85 0.9352 0.9988 4.0005 0.8871 0.7869 0.8633834 0.866 0.9873 1.0892 1.1373 1.0527 0.88 0.6514 0.4852833 0.3593 0.1728 0.0679 0.0209 0.0053 0.0011 0.0001 0.568275 1.7996 1.9893 1.865633 1.183 0.1577 0.1295 0.0129 0.0402 0.0067 0.0029 0.0011 0.0003 0.0001 0.0002333333 0.0001 0.00016 0.00015 0.0001782407 0.0001430556 0.000125 0.0001 0.0001059375 0.00010625 0.0001 0.0001012346 0.0001 
0.0001212365 0.0002632583 0.0004 0.0004 0.0004 0.0004000457 0.0004005182 0.003928416 0.00820625 0.0081 0.005182812 0.003 0.003 0.00205 0.0011 0.00065 0.0001 0.0001 0.0001222222 0.0002111111 0.0003208333 0.0001 0.00015 0.00015 0.0002333333 0.00034 0.0001 0.0003 0.0009 0.002 0.0043 0.0099 0.02588333 0.0228 0.0538 0.1326 0.3366 0.8484 1.9022 3.766 5.166717 6.2409 8.5033 11.4946 11.2807 8.3703 6.7661 6.2143 5.511817 5.9501 5.6137 5.4546 5.6442 4.6894 4.8263 4.8304 5.153283 5.0604 4.9699 4.9577 4.9475 4.9326 4.9434 5.0257 4.540534 5.1743 5.3601 5.1089 5.2971 5.5975 6.6894 7.6064 8.842533 8.3588 7.6315 9.3106 6.1418 6.5674 8.1316 6.7487 5.6979 5.8534 5.9093 6.3336 7.0667 8.5798 9.8137 10.9734 5.1722 17.6356 42.4635 6.5165 4.3577 4.4691 4.7226 4.9259 4.731 4.272817 4.127 3.6391 3.622 3.6337 3.68805 3.8183 3.816633 3.8389 3.7151 3.2308 3.2589 3.7791 4.2377 3.4044 2.9556 3.160183 2.9289 2.9651 3.0825 0.8816 0.3349 0.9667 1.5509 1.798 2.1135 2.6202 3.0033 3.1707 3.1675 3.1833 3.4678 3.91165 4.3178 6.2701 16.4111 0.069 0.2111 0.2889 0.4768 1.019933 0.6513 0.7978 0.9157 3.2378 1.59 1.2781 1.1153 1.107483 1.083 1.1255 1.1826 1.1974 1.1139 0.9313 0.6803 0.5378 0.4113 0.2034 0.0795 0.0238 0.0049 0.0007 0.0001 0.0058 0.00965 0.008533333 0.006333333 0.042625 0.051825 0.00825 0.0006 0.0051 0.0008 0.0004 0.0002 0.0001 0.00025 0.00015 0.0001 0.0001 0.0002583333 0.0002222222 0.00015 0.0001 0.0001171875 0.0001125 0.0001 0.0001037037 0.0001 0.0001028646 
0.0002961237 0.0004 0.0004 0.0004 0.0004000152 0.000400188 0.004368865 0.008384548 0.008303172 0.0083125 0.0081 0.00663125 0.004710509 0.0011 0.0011 0.0011 0.00105 0.0011 0.001311111 0.001966667 0.002441667 0.002856667 0.003602778 0.004030952 0.0001 0.0001 0.0002 0.0005 0.0012 0.003 0.007 0.0147 0.01693333 0.0309 0.0671 0.1532 0.3593 0.79015 1.7358 3.5829 4.9962 6.2941 9.3755 11.8085 10.8439 10.2029 7.9383 6.387 6.64575 5.9134 5.6794 5.5163 5.4467 6.6582 6.8507 6.915 6.32225 6.947 7.0907 7.2373 7.3988 7.4712 7.3644 5.4447 5.585917 5.5574 5.665 5.6903 5.8646 6.1057 8.742 9.4402 6.643116 8.7474 5.1868 3.8158 3.3739 2.788 2.9622 3.4773 4.136983 4.0831 4.6453 5.1796 6.0639 7.5645 9.6146 46.9163 18.23777 30.2724 10.3832 2.7088 2.7258 2.9717 3.3813 3.9251 3.878267 4.3712 4.308 3.9819 3.9152 3.9477 3.8607 3.9782 3.718417 4.2068 4.4098 3.6605 3.3709 5.1303 5.0544 5.5326 4.582 5.1316 3.642 2.3556 0.6606 0.9965 0.3313 1.0297 1.33935 1.6763 2.2592 2.7219 2.9891 3.0233 3.0099 2.9647 3.1428 3.48905 3.7948 5.371 10.9642 11.0496 0.1205 3.4215 2.1096 2.1395 1.5349 1.285 3.3334 1.4371 1.6295 1.5431 1.53565 1.4309 1.3628 1.3404 1.3308 1.2863 1.1625 0.9526 0.6904 0.5839167 0.4341 0.2383 0.1191 0.059 0.0318 0.0191 0.0123 0.02548 0.0107 0.0086 0.0063 0.0041 0.0024 0.009 0.0059 0.01113333 0.0037 0.0022 0.0012 0.0006 0.0003 0.0001 0.0001 0.0003666667 0.0003666667 0.0002 0.0001 0.00014375 0.000125 0.0001 0.0001111111 0.0001 0.000105816 0.0001027778 
0.0004 0.0004 0.0004 0.0004000051 0.0004000677 0.004709712 0.008840187 0.008730795 0.008644221 0.008497017 0.008525 0.0081 0.00879375 0.0052193 0.0011 0.0011 0.0011 0.001 0.0012 0.001733333 0.002966667 0.004966666 0.0061 0.01015 0.01133333 0.0139 0.01661429 0.0001 0.0004 0.0011 0.0027 0.0067 0.1560167 0.0166 0.0424 0.1119 0.2945 1.4214 2.2064 3.7486 4.815 6.3447 8.6946 10.4867 12.157 11.4721 9.4985 7.8816 8.518733 7.5281 7.6244 8.042 8.0252 8.1717 7.9333 7.4218 7.670417 6.7589 6.0217 5.2713 4.6015 4.133 4.1029 6.1378 5.548934 6.1756 6.2388 6.3844 6.8807 6.2952 4.3671 3.3548 4.633817 2.3511 3.0277 2.8506 2.9089 2.69 1.3243 1.876 2.907917 2.7834 3.5362 4.1339 5.0288 6.3624 42.2322 14.1057 15.76432 1.9866 1.3089 1.2583 1.3068 1.4576 1.7676 2.3009 2.656367 3.0155 3.6241 3.7405 3.7291 3.8368 2.6719 2.9005 2.852233 3.5678 4.1929 3.6905 3.7238 3.4984 4.8599 5.5161 4.14525 4.9517 3.7379 4.0155 1.172 1.0347 0.37 1.0806 1.415533 1.7319 2.2853 2.6675 2.8147 2.8136 2.7845 2.6901 2.76645 2.8239 3.3872 4.7183 9.2128 44.3638 5.22165 3.5143 3.42815 2.8166 2.2735 1.9124 2.6956 2.3029 2.1583 2.0019 1.916567 1.8446 1.7163 1.62 1.5328 1.4186 1.2473 1.0178 0.9230667 0.7618 0.5256 0.3434 0.2221 0.1485 0.1049 0.0779 0.08843333 0.0598 0.0445 0.0334 0.025 0.0183 0.013 0.0457 0.05185 0.0331 0.0227 0.0148 0.0091 0.0052 0.0028 0.0014 0.00175 0.0007 0.0003 0.0001 0.000225 0.00015 0.0001 0.0001333333 0.0001 0.0001177083 0.0001055556 0.0001 
0.0004 0.0004 0.0004000017 0.0004000243 0.005189775 0.009671283 0.009539306 0.009405218 0.009244993 0.009123148 0.008866049 0.00895 0.0081 0.0094875 0.006309 0.0011 0.0011 0.0011 0.0009 0.0016 0.0027 0.0046 0.0076 0.018625 0.0127 0.0212 0.0353 0.0589 0.0971 0.1564 0.2432 0.4321333 0.3607 0.5065 0.6726 0.8534 1.06 2.3921 2.7203 4.502433 3.5864 5.3333 7.8216 11.2637 13.2154 13.2786 12.1224 12.34043 11.2953 12.107 14.776 18.8321 18.4464 16.49 12.5748 9.6774 15.19262 8.3024 7.406 6.7934 6.1998 5.7246 5.4367 5.1079 4.916683 4.8702 4.7535 4.7775 4.8843 2.6653 2.4413 2.455083 2.1214 1.788 1.3329 1.7802 2.2832 3.0065 3.8713 2.8414 1.96905 2.3863 2.2047 2.7096 3.6171 36.4303 3.9533 0.6758 3.046983 0.6291 0.5985 0.5874 0.5985 0.6485 0.759 0.9637 1.4315 1.3618 1.9356 2.2899 2.3491 1.6927 0.9759 1.0067 1.626833 1.4534 2.4226 4.6244 1.5824 1.6287 1.7097 1.8026 2.732417 1.9369 2.2517 0.7769 1.2988 0.8016 0.7051 1.2102 1.499283 1.7645 2.2279 2.5069 2.5768 2.5863 2.5302 2.4222 2.512083 2.555 3.0645 4.2037 27.4561 3.5339 6.0663 4.7889 4.0272 3.8881 3.2061 2.7485 2.8536 2.7245 2.585 2.4251 2.3317 2.2538 2.0903 1.9408 1.7932 1.6252 1.4202 1.1816 1.085433 0.9342 0.7093 0.5283 0.3955 0.3035 0.2408 0.197 0.1736833 0.1645 0.1381 0.1155 0.0954 0.0771 0.1062 0.1228 0.1245667 0.0946 0.069 0.0475 0.0307 0.0186 0.0105 0.0055 0.00595 0.0027 0.0012 0.0005 0.0002 0.0001 0.0002 0.0001 0.0001541667 0.0001166667 0.0001 0.0001 
0.0004 0.0004000006 0.0004000087 0.005831589 0.01088618 0.01076781 0.01063436 0.0104819 0.01032644 0.01011482 0.009978395 0.009548148 0.0098 0.0081 0.010875 0.01037 0.0011 0.001 0.01116 0.0074 0.0058 0.0104 0.0189 0.1923833 0.0353 0.0674 0.1291 0.2411 0.4257 0.6868 0.8598 2.224417 1.1197 1.3772 1.6543 1.9421 4.59945 6.9186 7.109 6.653133 7.6439 6.4526 9.214 11.9475 14.3726 15.8336 16.4729 17.65485 16.7719 17.7053 19.9063 22.0019 27.4931 30.8037 32.2709 25.00492 30.8397 28.1555 25.3253 20.9019 16.6122 12.273 4.5876 8.084467 3.8171 3.3915 3.1443 2.9725 2.8196 1.4068 1.2865 2.010817 1.1594 0.353 0.4408 0.3388 0.4481 0.6027 0.8154 1.630233 1.0834 0.8438 0.9466 1.1019 30.9405 1.0812 0.4633 1.078217 0.4481 0.4366 0.4313 0.4311 0.4348 0.4466 0.4646 0.4642 0.6477333 0.4829 0.6312 0.7803 0.8384 0.3723 0.3661 0.5276667 0.3644 0.4682 1.9875 0.7015 0.9626 1.027 1.0755 1.173167 1.1267 1.0605 1.983 1.1665 0.9998 0.853 1.0469 1.3984 1.6016 1.8101 2.1487 2.3251 2.373 2.3719 2.2965 2.2215 2.31075 2.3598 2.7967 11.4938 51.971 8.0215 5.3439 4.8407 4.505667 4.3146 3.8816 3.4238 3.2692 3.1273 2.9815 2.8203 2.719917 2.6445 2.4639 2.2838 2.099 1.8979 1.6732 1.4302 1.325983 1.187 0.9647 0.7778 1.3811 0.2581 0.277 0.2765 0.3308167 0.2664 0.2504 0.2303 0.2068 0.1804 0.2968 0.2498 0.2448 0.2014 0.1545 0.1121 0.0766 0.0492 0.0296 0.0166 0.01666667 0.0088 0.0043 0.002 0.0009 0.0004 0.0001 0.0002666667 0.00015 0.0001 0.0001 0.0001222222 
0.0004000003 0.0004000031 0.006532844 0.01232115 0.01228197 0.01221944 0.01212976 0.01201595 0.01187428 0.01174136 0.0115 0.01143704 0.01074444 0.0115 0.0081 0.01365 0.0279 0.074 0.11696 0.0448 0.0753 0.1795 0.3819 0.71935 0.6979 1.0379 1.3364 1.8268 2.5506 3.5904 4.8898 5.423483 5.8733 6.4678 6.8921 7.0628 10.8092 10.829 10.7139 10.99767 8.1453 10.7828 12.6867 15.3462 19.196 22.9201 24.2779 21.95653 24.9887 26.2712 27.6485 24.9827 27.6152 30.5247 32.419 27.12785 32.2477 30.0252 27.1036 25.0578 21.9727 17.4477 17.4862 10.81538 12.0713 8.3875 6.1052 4.5604 4.67255 5.3498 3.2432 2.27205 1.8131 2.459 2.2397 1.8761 1.434 1.012 0.687 0.7123333 0.4829 0.3807 0.5652 0.822 0.5028 0.4889 0.4724 0.4784167 0.4564 0.4459 0.4435 0.4447 0.4415 0.4342 0.4258 0.4328833 0.3694 0.2444 0.2311 0.2751 0.3221 0.3686 0.2066 0.3085 0.2463 0.4039 0.6787 0.3176 0.3402 0.3891 0.5074 0.98175 0.8171 1.5732 1.8194 1.1799 0.6233 1.0049 1.2769 1.391367 1.5658 1.8606 2.0836 2.1805 2.2191 2.1905 2.1091 2.113433 2.0811 2.2249 5.6443 34.4465 6.1716 5.8751 4.948 4.8331 4.6858 4.5159 4.1823 3.8401 3.6332 3.4757 3.3289 3.22655 3.1733 3.0025 2.8195 2.6276 2.4255 2.2088 1.9756 1.860617 1.7319 1.491 1.2681 1.0742 1.1626 0.8546 0.6786 0.5739 0.5553833 0.5066 0.4584 0.4184 0.3804 0.3404 0.5016 0.4843333 0.4355 0.3647 0.2927 0.2234 0.1614 0.1099 0.0705 0.0424 0.03966667 0.024 0.0127 0.0063 0.003 0.0013 0.0005 0.0002 0.000325 0.0001 0.0001666667 0.0001 
0.0004000017 0.007102732 0.0136138 0.01371147 0.0137953 0.01385865 0.0138942 0.01389143 0.01384712 0.01376667 0.01374568 0.01351481 0.01376667 0.01263333 0.0149 0.0081 0.0192 0.0564 0.1464 0.3298 0.6301 0.9992 1.139233 1.3502 1.8319 2.5697 3.6068 4.8921 6.3385 7.8463 9.2537 10.77285 10.5446 11.2128 11.478 14.81355 18.8213 18.4144 17.39948 15.05 17.3239 18.755 20.3809 22.4602 24.0462 24.1428 24.4699 23.2568 24.7579 23.0154 19.6517 21.0015 20.679 19.517 17.9963 17.86095 16.9935 15.267 13.5647 12.3127 11.9622 13.1494 13.6114 10.24167 13.3187 11.9082 9.8769 7.8172 3.5729 3.8023 3.0241 2.56395 3.106 2.5577 1.9657 1.4053 0.9652 0.7103 0.6124 0.6812 0.5929 0.5941 0.5906 0.5762 0.5619 0.5453 0.526 0.5150667 0.5043 0.4852 0.4755 0.4727 0.4629 0.438 0.4299 0.4444833 0.4434 0.3469 0.4061 0.4548 0.9016 0.86 0.3782 0.3569167 0.2894 0.4376 0.5266 0.8114 0.8989 0.9534 1.0423 1.027967 1.3215 1.6906 1.669 1.1083 0.4585 1.0253 1.3904 1.530733 1.6698 1.8915 2.0305 2.0892 2.1012 2.0442 1.9822 2.000933 1.9902 2.1281 8.2486 5.4666 5.7125 5.0796 4.5849 4.5797 4.5953 4.4495 4.2638 4.043 3.8681 3.7268 3.5963 3.498967 3.459 3.3056 3.1347 2.9478 2.7457 2.528 2.2962 2.174767 2.0566 1.8197 1.5972 1.3982 1.314 1.1633 1.0189 0.9503167 0.9007 0.8082 0.7351 0.6741 0.6183 0.69335 0.7518 0.8552333 0.6705 0.5817 0.4854 0.3873 0.294 0.2113 0.1433 0.1162333 0.0914 0.0548 0.0308 0.0163 0.0081 0.0037 0.0016 0.0012 0.0007 0.0003 0.0001 0.0001333333 
0.009082778 0.01433434 0.01456702 0.01480877 0.01505715 0.01530781 0.01555199 0.01577524 0.01595288 0.01603333 0.01605432 0.01628518 0.01603333 0.01716667 0.0149 0.0217 0.0479 0.1287 0.2993 0.5971 1.0305 1.6001 1.920817 2.3245 3.4656 5.1501 7.4632 10.3962 13.0657 13.3506 14.4835 15.9921 18.0836 18.6942 18.3916 22.9627 23.7176 22.7 21.59417 26.6896 26.7957 25.9996 24.8955 23.5283 21.46 20.2197 20.58503 20.2076 20.8388 20.5477 18.8887 16.8329 12.9899 8.291 9.464617 4.6417 2.8675 2.6149 2.4573 2.3679 2.3361 2.3536 5.712083 2.4166 2.5458 2.7494 3.0078 2.601 2.1769 5.13 2.708667 2.0671 2.1302 1.3938 1.1404 0.9635 0.8771 0.8555 0.7120333 0.8583 0.8537 11.9071 0.8863 0.6135 0.5969 0.5822 0.5719 0.5677 0.5594 0.5386 0.5224 0.5206 0.524 0.4953 0.4003 0.7348 0.5981 1.0208 1.6207 1.5611 0.4081 0.3787 0.5581167 0.4673 0.5537 0.7196 1.4886 0.9769 1.2629 1.3333 1.2903 1.3013 1.1892 0.8877 1.5051 1.9058 1.0548 1.2648 1.5301 1.644433 1.7514 1.9076 1.9877 2.0332 2.0069 1.9302 1.8959 2.05515 1.9471 2.2326 21.785 3.2707 4.8149 4.6929 4.3617 4.291567 4.3025 4.2722 4.204 4.0902 3.9762 3.8726 3.7724 3.691017 3.6639 3.5382 3.3915 3.2237 3.0358 2.8297 2.6088 2.486 2.3795 2.1507 1.932 1.7316 1.5856 1.4488 1.3213 1.2621 1.2085 1.1121 1.0302 0.9586 0.892 1.1044 2.2227 1.20815 0.5493 0.5795 0.5484 0.4785 0.389 0.2956 0.2101 0.1870833 0.1397 0.0869 0.0505 0.0274 0.0139 0.0066 0.003 0.002316667 0.0012 0.0005 0.0002 0.0001 
0.01419279 0.01449404 0.0148222 0.01518081 0.01557385 0.01600499 0.01647724 0.0169893 0.01752572 0.01805864 0.0183 0.01836296 0.01905555 0.0183 0.0217 0.0348 0.2276 0.277 0.3766 0.7162 1.2854 2.058 3.3032 3.1929 5.0861 7.4741 9.783 11.6908 13.8069 18.7586 18.92928 21.6997 22.7518 22.3185 22.2493 22.3779 20.6065 23.0199 23.46958 23.6911 23.7832 23.4374 23.3492 23.2644 22.247 19.2126 20.16277 15.2576 13.8235 13.7939 11.7421 10.4276 6.4217 3.881 3.494533 2.4607 1.6226 1.502 1.4063 1.3424 1.324 1.3545 1.5031 1.387 1.4221 1.5096 1.6642 0.2987 5.3647 1.1345 1.913633 1.094 1.0745 1.0808 0.7979 0.5812 0.592 0.6083 3.017917 0.6274 1.1467 0.7416 0.5936 0.6273 0.6105 0.5942 0.5879667 0.6023 0.6423 0.6547 0.6464 0.6441 0.676 0.9781 0.9941834 1.296 1.2411 0.9682 0.6563 0.56485 0.5936 0.6197 0.65725 0.6448 0.697 0.8431 2.3353 1.1816 1.5394 1.6428 1.592167 1.5589 1.4056 1.1381 0.8631 1.7153 1.5307 1.5586 1.441117 1.6951 1.8298 1.9189 1.9767 1.9941 1.9278 1.8584 1.9786 2.8759 2.5369 13.3849 4.986 4.1907 12.4341 3.3719 4.679584 3.8855 4.0195 4.0652 4.0716 4.0384 3.9863 3.928 3.877317 3.8645 3.79 3.6974 3.5822 3.4428 3.2797 3.0953 2.8937 2.775017 2.6812 2.4658 2.2558 2.0588 1.8915 1.7461 1.6178 1.560217 1.5054 1.4078 1.323 1.2475 1.1765 1.387 1.6998 1.385483 1.3548 1.1164 0.9287 0.7595 0.5995 0.4514 0.3218 0.2791833 0.2162 0.1365 0.0809 0.0449 0.0234 0.0114 0.0052 0.004133333 0.0022 0.0009 0.0003 0.0001 
0.01344122 0.01375 0.01409292 0.01447701 0.01491143 0.01540874 0.01598576 0.01666717 0.0174893 0.01848518 0.0198216 0.02025185 0.02 0.0217 0.0955625 0.035 0.864225 0.6627 0.7473 1.5646 2.7772 4.2619 6.0822 6.3818 8.8511 10.7434 13.1731 16.0051 18.6068 21.1532 21.83232 22.6215 23.1677 22.9909 22.58665 21.1775 22.7249 22.6709 24.96282 22.046 22.8291 24.584 26.8559 29.968 30.5115 26.4661 25.80643 19.613 11.9529 7.9507 8.4579 5.6146 2.6979 0.8026 1.953633 0.8902 0.9946 0.9365 0.8474 0.732 0.6042 0.6961 0.9121667 0.8108 0.7739 0.6973 0.5492 1.1427 1.1345 1.0681 1.115567 0.9881 0.8973 0.7884 0.6645 0.5217 0.2142 14.8374 2.987933 0.3206 0.3332 0.3489 0.4922 0.6643 0.673 0.6259 0.8418167 0.5513 0.7313 0.9377 1.1578 1.3764 1.5029 1.4451 1.2486 1.3503 1.1876 0.9376 0.7171 0.8375 0.8864 0.9253 0.7778834 0.9077 0.9897 1.1772 1.6164 1.4061 1.734 1.8606 1.722583 1.8671 1.8111 1.7174 1.6748 1.7867 1.2699 1.0182 1.206333 1.5799 1.898 2.1088 2.2297 2.2209 2.2058 2.4333 2.638733 2.9262 5.9707 3.2382 6.6287 6.8575 4.7531 5.445 5.072667 6.3205 5.98 5.2346 4.3492 4.0828 3.9827 3.9323 3.987517 3.8941 3.8503 3.7906 3.7089 3.6022 3.47 3.3141 3.2102 3.1384 2.9485 2.7518 2.5557 2.3672 2.1963 2.0449 1.974967 1.912 1.7963 1.6962 1.6092 1.5319 1.0028 0.8854 1.299283 1.2017 1.2846 1.2449 1.1364 0.9856 0.8116 0.6327 0.5384167 0.4653 0.322 0.2093 0.1276 0.0729 0.039 0.0195 0.01471667 0.0092 0.004 0.0017 0.0006 0.0003 
0.01344122 0.01375 0.01409292 0.01447701 0.01491143 0.01540874 0.01598576 0.01666717 0.0174893 0.01848518 0.0198216 0.02025185 0.02 0.0217 0.0955625 0.035 0.864225 0.6627 0.7473 1.5646 2.7772 4.2619 6.0822 6.3818 8.8511 10.7434 13.1731 16.0051 18.6068 21.1532 21.83232 22.6215 23.1677 22.9909 22.58665 21.1775 22.7249 22.6709 24.96282 22.046 22.8291 24.584 26.8559 29.968 30.5115 26.4661 25.80643 19.613 11.9529 7.9507 8.4579 5.6146 2.6979 0.8026 1.953633 0.8902 0.9946 0.9365 0.8474 0.732 0.6042 0.6961 0.9121667 0.8108 0.7739 0.6973 0.5492 1.1427 1.1345 1.0681 1.115567 0.9881 0.8973 0.7884 0.6645 0.5217 0.2142 14.8374 2.987933 0.3206 0.3332 0.3489 0.4922 0.6643 0.673 0.6259 0.8418167 0.5513 0.7313 0.9377 1.1578 1.3764 1.5029 1.4451 1.2486 1.3503 1.1876 0.9376 0.7171 0.8375 0.8864 0.9253 0.7778834 0.9077 0.9897 1.1772 1.6164 1.4061 1.734 1.8606 1.722583 1.8671 1.8111 1.7174 1.6748 1.7867 1.2699 1.0182 1.206333 1.5799 1.898 2.1088 2.2297 2.2209 2.2058 2.4333 2.638733 2.9262 5.9707 3.2382 6.6287 6.8575 4.7531 5.445 5.072667 6.3205 5.98 5.2346 4.3492 4.0828 3.9827 3.9323 3.987517 3.8941 3.8503 3.7906 3.7089 3.6022 3.47 3.3141 3.2102 3.1384 2.9485 2.7518 2.5557 2.3672 2.1963 2.0449 1.974967 1.912 1.7963 1.6962 1.6092 1.5319 1.0028 0.8854 1.299283 1.2017 1.2846 1.2449 1.1364 0.9856 0.8116 0.6327 0.5384167 0.4653 0.322 0.2093 0.1276 0.0729 0.039 0.0195 0.01471667 0.0092 0.004 0.0017 0.0006 0.0003 
0.0118495 0.01207961 0.01233487 0.01262093 0.01294577 0.01332056 0.01376321 0.0143008 0.01498649 0.01592407 0.01733395 0.02085 0.0217 0.2188101 0.2830167 0.29075 0.035 2.4822 2.7489 4.6732 6.8007 6.552467 9.1579 11.4407 13.4878 15.8508 17.952 20.1149 21.2609 21.17645 23.2149 23.546 22.7323 22.5511 24.8041 27.1241 28.4505 28.28757 29.2932 29.0558 32.0206 35.6686 38.2864 38.3578 38.2565 34.56543 38.4085 35.8808 30.3262 22.9014 17.6456 12.6729 7.4113 2.94 6.432783 0.7473 0.5462 0.6102 0.6724 0.7363 0.8031 0.658 0.9813667 0.5666 0.6995 0.8796 0.9446 0.9946 1.1937 1.122767 1.2179 1.1908 1.1675 1.1415 1.103 1.0335 23.5808 0.9547 3.275133 0.5792 0.6019 0.6278 0.659 0.7044 0.949 1.217 1.03135 1.4602 1.3662 1.2798 1.2289 1.2114 1.2725 1.2354 1.128783 1.1867 1.1046 0.9528 0.8327 1.3617 0.7288 0.683 0.8268167 0.8868 0.8101 0.8673 0.8438 3.8845 1.9318 1.7606 1.751433 1.6455 1.2453 3.5306 2.0453 1.7882 1.1263 0.5707 0.76 0.8155 1.0021 1.4905 1.9163 2.4282 2.9748 3.2998 4.442584 3.3361 11.6327 1.1358 4.0024 9.80085 3.874 4.8608 5.27555 6.5523 7.8826 8.2619 7.5647 6.4305 5.1377 4.2797 5.205167 4.0265 3.9143 3.8475 3.7853 3.7078 3.6073 3.4829 3.396067 3.3368 3.1739 3.0003 2.8227 2.6477 2.4826 2.3318 2.258117 2.1972 2.079 1.9764 1.8874 5.4226 1.5495 1.324 1.3692 1.2978 1.3084 1.2916 1.2258 1.1091 0.9516 0.7711 0.6685666 0.5882 0.4212 0.2825 0.1772 0.1039 0.0569 0.0291 0.02115 0.0139 0.0062 0.0026 0.001 0.0006 
0.009630171 0.009718898 0.009811041 0.009906656 0.01000561 0.010108 0.01021272 0.01032167 0.01042661 0.01055021 0.01061667 0.0109 0.1975095 0.427037 0.4749611 0.5233 0.5465 2.4193 3.2221 5.2859 7.2789 7.394367 9.0382 10.3466 12.0315 13.9865 15.7655 17.3725 20.7864 21.18735 22.0365 22.4899 23.0483 24.1986 27.3436 30.5816 32.5503 31.5689 34.0356 39.3361 42.0598 42.0558 39.1233 36.8448 36.6223 36.08918 37.1277 36.422 36.2723 34.8274 30.6695 26.6479 23.5834 18.89497 19.8862 13.3304 7.8765 5.7296 4.2067 3.0959 2.2996 1.641883 1.755 1.4017 1.1924 1.0639 0.9758 0.9415 0.9599 1.205 1.1625 1.1158 1.1251 1.1745 1.33 22.0417 1.2638 4.921683 1.3243 1.6346 1.6022 1.3829 1.3879 1.3753 1.3388 1.050983 1.2473 1.0864 0.9258 0.8258 0.805 0.8222 0.8408 0.823 0.8387 0.7322 0.5144 6.4754 1.2782 2.6304 6.2179 3.253883 0.8299 0.7282 0.4388 0.2806 0.6642 5.9329 2.0891 1.9105 1.6417 1.7331 1.927 2.5621 1.8797 2.2494 0.9154 0.2399 0.4401167 0.3358 0.481 0.7057 0.9655 1.3405 1.8913 2.6385 5.614117 12.0216 2.995 2.2027 13.3669 2.6012 2.8064 3.5138 4.19255 4.9609 6.7065 8.2285 9.3384 9.7473 9.3259 8.2018 7.5173 6.8966 5.5678 4.4094 4.0235 3.8481 3.7259 3.6129 3.61605 3.4913 3.3556 3.2076 3.052 2.8945 2.7413 2.5972 2.523033 2.4656 2.348 2.2449 6.0958 2.2088 2.0968 1.8415 1.753367 1.6648 1.5484 1.455 1.3529 1.2228 1.0609 0.8739 0.7782834 0.6802 0.4973 0.3404 0.2175 0.1296 0.0719 0.0372 0.02711667 0.018 0.0081 0.0034 0.0014 0.0008 
0.007154721 0.007092005 0.007010783 0.006905533 0.006768597 0.006588259 0.006348057 0.006015684 0.00555192 0.004805556 0.0037 0.0001 0.0001 0.3199002 0.5231333 0.6108333 0.9884 1.0213 2.2394 3.9735 5.5388 5.742183 6.5517 8.2403 10.2468 12.4354 14.9208 16.6222 19.054 19.04235 20.7714 21.886 22.9704 22.8048 24.6679 27.6261 31.5013 26.6062 33.5825 33.0383 31.1429 29.1729 29.1782 30.9516 32.7397 30.59108 33.3804 34.8008 36.7887 38.1874 37.2394 34.8932 31.8776 25.65157 27.6713 22.2499 15.2431 9.4535 6.5387 3.3476 2.4475 2.493183 1.8881 1.5317 1.2929 0.7893 1.8212 1.7084 1.5776 1.342417 1.1184 0.8765 0.8264 0.5672 30.1998 1.0578 1.1435 0.98455 1.263 1.1553 1.0458 1.131 0.9668 0.8737 0.8087 0.6985833 0.7451 0.6649 0.5917 0.5412 0.5155 0.5048 0.5017 0.4537667 0.5106 0.5443 0.6276 0.7732 2.7933 3.5833 10.3426 5.56565 0.7211 0.677 0.5451 0.7647 4.8537 4.5381 2.2791 2.0729 1.7607 1.5317 1.3852 1.4451 1.7407 3.4574 1.7148 1.450333 0.5145 0.1643 0.2633 0.3665 0.5008 0.655 0.9585 5.336367 9.6835 2.7052 2.628 12.489 2.5033 1.9382 1.9352 2.137667 2.2079 3.0596 4.4931 6.2303 7.9593 9.3544 10.289 9.557867 10.8496 10.8496 10.2087 9.0332 7.6134 6.3045 4.9895 5.794667 4.0412 3.7312 3.5448 3.3904 3.2469 3.1063 2.9681 2.8353 2.76515 2.7111 2.5981 6.6817 2.4101 2.6479 2.4978 2.389217 2.2974 2.0947 1.9107 1.7427 1.5767 1.3982 1.2044 0.9872 0.9496667 0.7691 0.5652 0.3894 0.2505 0.1501 0.0837 0.0435 0.03216667 0.021 0.0095 0.004 0.0023 0.0002 
0.00482386 0.00465326 0.004454191 0.00422016 0.003942395 0.003609536 0.003204001 0.002706813 0.002068518 0.0013 0.0001 0.0001 0.0001 0.0001 0.2814063 0.4352667 0.2976 0.389 0.7791 1.5385 2.404983 2.4125 3.633 5.2709 7.0061 9.0004 10.895 13.4851 14.936 14.93932 16.6698 17.5587 18.646 12.2417 12.5677 12.7393 14.77902 13.1882 14.7793 15.737 16.59 17.8543 19.2167 20.3865 21.191 22.53107 22.4854 24.5921 26.7513 28.4821 29.4356 29.3325 27.2614 23.60722 23.6295 19.545 15.5743 10.4375 5.5927 5.13 3.7458 2.525667 2.8231 2.2402 1.7068 1.6859 1.4176 1.4371 1.4721 1.61455 1.764 1.7103 1.3634 29.7034 1.5976 0.6127 0.4995 0.7575 0.4132 0.3568 0.2923 0.2161 0.131 0.0772 0.0376 0.2753333 0.014 0.0035 0.0004 4.3276 0.0583 0.0371 0.0254 0.1846667 0.0211 0.0207 0.0177 1.101 3.5344 4.1547 14.4623 5.98605 0.8201 0.8567 1.0935 1.7962 3.7773 4.2858 2.5554 2.3493 2.1114 1.6636 1.5166 1.0163 1.5854 2.4842 4.7253 2.554117 0.5921 0.0226 0.0592 0.1115 0.1845 0.2891 0.5238 6.164817 16.3226 0.4084 5.8316 2.1567 1.5602 1.1248 1.133 1.468183 1.2297 1.5549 2.2732 3.5525 5.262 7.0469 8.6767 8.962967 10.0042 10.9233 11.4264 11.6759 11.5802 10.9899 9.9148 8.556817 8.4837 6.973 5.6044 4.2867 3.5854 3.3425 3.1813 3.343267 3.0493 2.9324 6.9967 2.7438 2.7163 3.0058 2.8824 2.771317 2.7194 2.5276 2.3219 2.1093 1.8885 1.6581 2.0091 1.769467 1.6117 0.7759 0.539 0.3895 0.2634 0.1638 0.0936 0.0706 0.0493 0.024 0.0109 0.0046 0.0028 0.00215 
0.002934482 0.002726314 0.002494807 0.00223688 0.001949487 0.001629388 0.001276551 0.0008895062 0.0005 0.0001 0.0001 0.0001 0.0001 0.0001 0.0001 0.079425 0.0198 0.0428 0.1233 0.3131 0.832 0.6535 1.2204 2.1865 3.6389 5.0162 6.4309 7.7964 7.950817 8.7917 9.413 10.6249 11.6057 2.0392 1.593 1.6282 5.048867 1.991 3.3946 5.0568 6.7212 8.1911 9.4712 10.7066 12.5613 12.0092 13.3807 14.7432 15.9681 16.8649 17.2958 17.1415 17.80275 16.3263 14.8772 12.9758 10.9194 8.9873 7.2279 4.3256 3.4589 2.443 1.8065 1.2759 1.4389 1.7168 1.7991 1.8933 1.47405 1.9706 1.7846 1.8585 24.8609 1.8469 1.1385 0.9449 1.0858 0.7492 0.4766 0.4025 0.3322 0.2597 0.169 0.0888 0.0363 0.0482 0.0103 0.0015 4.4438 13.08 0.1435 0.0821 0.0379 0.2374333 0.0113 0.0007 0.0002 2.0635 2.7617 12.4235 8.19825 8.0938 1.4764 1.5648 1.7437 2.0453 4.1564 3.411 2.7993 2.6196 2.5899 2.0328 1.4821 0.9672 1.234 1.9414 5.9933 3.667 1.7847 0.459 0.0048 0.0151 0.0369 0.0823 5.4014 6.644767 4.0991 14.1148 0.8563 1.0101 1.3974 1.2624 1.1618 1.147583 1.1415 1.2496 1.5588 2.1486 3.0986 4.4894 6.165 7.028517 7.7933 9.1909 10.3554 11.2724 11.8703 12.1123 12.0629 11.11512 11.8488 11.3364 10.3662 8.9387 7.2504 5.6662 4.3824 6.19605 3.6432 6.4549 3.4983 3.2608 3.221 3.2348 3.1683 3.1259 3.0626 2.9114 2.7212 2.4991 2.25 2.0693 2.6853 2.409167 2.1191 0.8831 0.524 0.3728 0.2606 0.1684 0.0996 0.07588334 0.0539 0.0269 0.0124 0.0053 0.0033 0.003333333 
0.001607838 0.001423871 0.001229945 0.001027382 0.000818759 0.0006095361 0.0004076132 0.0002333333 0.0001 0.0001 0.0001 0.0001 0.0001 0.0001 0.0001 0.0001 0.0002 0.001 0.0043 0.0172 0.174 0.0572 0.1533 0.34 0.6262 0.9503 1.2542 1.3538 3.240617 1.3419 1.4181 1.8665 2.19425 0.0242 0.0787 0.2212 0.7627833 0.5253 1.0452 1.757 2.5802 3.4334 4.2726 5.1106 6.279167 5.9639 6.8142 7.6069 8.253 8.6831 8.8242 8.6349 9.3064 8.1199 7.3311 6.3721 5.3802 4.4597 3.6364 2.885 2.598633 2.224 1.5676 1.7044 1.6706 1.0358 1.0215 1.0177 1.02475 1.0535 1.3364 31.6481 1.4708 1.4328 1.6016 1.7804 2.835417 1.9281 0.6455 0.5384 0.4296 0.3544 0.3404 0.2448 0.15565 0.1372 0.0538 0.011 10.2701 17.7508 4.7466 0.6937 1.136233 0.6882 0.6407 4.3828 2.0068 4.6284 5.3206 6.3299 6.219533 3.7253 1.5168 1.4099 1.1576 3.3453 5.525 2.6706 2.80385 2.7658 2.8958 2.2346 1.5339 1.1981 1.3912 1.7554 3.58445 4.9705 3.9361 0.496 0.4347 0.5214 0.545 5.1129 4.9276 5.869967 8.5941 3.1471 2.1974 1.61715 1.4093 1.2739 1.152167 1.1404 1.0791 1.1047 1.2562 1.5852 2.1416 2.962 4.0681 5.008433 5.4638 6.9468 8.3254 9.5398 10.5664 11.3817 11.9915 11.74558 12.389 12.534 12.4194 12.0926 11.5103 10.4534 9.0421 10.6605 13.878 5.2895 4.5476 3.83 5.3808 4.3418 3.5833 3.995533 3.3394 3.221 3.0679 2.8653 2.6166 3.0709 3.5797 2.910433 2.4501 0.9462 0.5003 0.3445 0.2456 0.1648 0.1016 0.07901666 0.0573 0.0296 0.014 0.0061 0.0039 0.002975 
0.0008018714 0.0006733284 0.000546862 0.000425572 0.0003139012 0.0002173525 0.0001444444 0.0001 0.0001 0.0001 0.0001 0.0001 0.0001 0.0001 0.0001 0.00015 0.0004333333 0.0014 0.0001 0.0006 0.01935 0.0024 0.0079 0.0204 0.0397 0.0539 0.0411 0.0981 0.57114 0.0618 0.0011 0.0055 0.0028 0.0088 0.0247 0.0641 0.1798333 0.1469 0.2938 0.4886 0.7447 1.0635 1.4136 1.7692 2.622683 2.1155 2.4364 2.7025 2.8775 2.9646 2.9617 2.8772 3.978 2.7386 2.582 2.444 2.3579 2.3376 2.3512 2.3369 2.56445 1.3773 1.4091 1.2071 0.78575 0.31 0.167 0.0884 0.4413833 0.125 0.169 0.2159 0.2103 0.1804 0.1277 0.0616 2.656767 11.5483 1.6495 1.5174 1.2555 0.9034 0.5767 0.3018 0.1357667 0.125 0.0304 3.0585 13.4973 26.3002 5.1752 2.5528 2.583883 2.7627 3.1599 6.6964 4.2047 4.8151 4.6521 4.1358 4.036684 2.6089 1.5769 1.4288 1.3048 6.9283 3.6561 2.388 2.6576 2.7884 3.1888 2.7607 2.0051 1.8048 1.9153 2.3751 3.5315 4.471 4.0662 1.7485 0.1743 0.2062 0.2001 5.3294 7.35405 10.3999 1.7977 1.9592 1.7923 1.1644 1.1255 1.0662 1.080017 1.0083 0.9891 0.9876 1.0414 1.2178 1.5535 2.0797 2.611783 2.8129 3.7475 4.8709 6.1868 7.5092 8.7007 9.7641 10.12462 10.6967 11.4846 12.1099 12.557 12.7858 12.8091 12.5607 14.89345 21.5753 11.442 9.465 7.8237 6.5541 8.9975 7.6489 7.032617 6.0961 4.7235 3.7601 3.3956 3.1914 2.9589 3.7376 3.797433 3.9639 2.6645 1.0461 0.4995 0.3225 0.2298 0.1589 0.1019 0.08073334 0.0598 0.0321 0.0157 0.0071 0.0032 0.0015 
0.000381067 0.0003084145 0.0002431784 0.0001876317 0.0001440558 0.0001148148 0.0001 0.0001 0.0001 0.0001 0.0001 0.0001 0.0001 0.0001 0.000125 0.0002277778 0.0005208334 0.0001 0.00035 0.00035 0.0015 0.00515 0.01023333 0.017025 0.0001 0.0004 0.0013 0.03515 0.03204 0.0001 0.0002 0.0007 0.0018 0.0067 0.0198 0.04453333 0.0437 0.0778 0.1221 0.1465 0.1327 0.1937 0.2667 0.8144667 0.347 0.4299 0.513 0.5946 0.629 0.6607 0.6942 0.7305 1.337717 0.7669 0.8194 0.8946 1.0046 1.1733 1.3375 5.5704 2.240067 0.9931 0.8383 0.6636 1.1581 0.8904 0.5422 1.019683 0.1769 0.1868 0.1939 0.1997 0.2515 0.2973 0.326 0.3276 2.775317 0.2946 0.1234 0.096 0.0648 0.0365 0.0161 0.005 1.932717 0.0008 31.5092 15.4985 28.2696 35.2486 5.5971 4.5133 2.409367 4.2926 4.3559 5.3403 6.2043 6.3467 5.4017 4.0638 2.931267 3.3564 3.2017 3.3191 3.7766 6.0596 4.5269 2.4612 2.730017 2.8716 3.2471 3.2423 2.8402 2.6025 2.6787 3.1575 3.538283 4.4595 4.1484 1.1435 0.6576 0.5947 0.6068 9.3899 8.154933 8.9646 0.8325 0.9951 1.1621 1.0039 1.0052 0.9964 0.9975833 0.9949 0.995 0.9955 0.9987 1.0541 1.2487 1.6107 2.0494 2.1373 2.8022 3.6206 4.5864 5.6872 6.8596 7.9521 8.54575 8.9616 9.8886 10.7128 11.4286 12.0234 12.5188 22.2018 15.8514 13.5274 13.2886 12.3747 11.1862 11.1914 11.5789 10.798 9.852583 9.7276 8.0205 6.1387 4.6124 3.6678 3.2986 4.0885 4.478433 4.344 2.9655 1.2018 0.5166 0.3122 0.2191 0.1543 0.1292 0.102 0.0618 0.0342 0.0172 0.0079 0.0034 0.002 
0.0001945957 0.000161458 0.0001352031 0.0001163314 0.0001049383 0.0001 0.0001 0.0001 0.0001 0.0001 0.0001 0.0001 0.0001 0.0001125 0.0001509259 0.0002434028 0.0001 0.000225 0.0002666667 0.0007333333 0.002333333 0.005627778 0.008127083 0.0001 0.00025 0.0006 0.00085 0.0005 0.0001 0.0001 0.0002 0.00135 0.0066 0.0166 0.0374 0.05906667 0.0775 0.1488 0.2627 0.4213 0.6174 0.6762 0.6277 0.61395 0.4626 0.2246 0.2014 0.1794 0.2172 0.2691 0.3419 0.4792333 0.4379 0.4752 0.4955 0.4809 0.4069 0.2436 6.4933 3.058917 1.5799 1.5828 1.5159 1.88645 2.484 2.5454 2.5835 2.065917 2.5601 1.9871 2.0206 2.0631 2.1079 2.1509 2.1804 2.029933 2.1983 2.2215 2.1573 2.3007 2.5009 2.7202 3.0108 2.576967 3.4398 7.7239 15.1853 15.695 15.9474 2.3061 0.1161 0.1418 3.272033 0.193 30.2117 8.0495 2.6059 1.7423 1.8736 3.323133 2.0442 1.3785 16.2245 4.5608 3.762 3.3646 2.0794 2.82085 2.6267 3.2442 3.5207 3.577 3.4072 3.0948 2.9459 3.1433 3.418 3.6233 3.6658 0.9797 0.9647 0.9206 4.3551 7.0312 7.286533 7.8146 0.9643 0.9466 1.24765 1.3225 1.1278 1.0104 1.057667 0.9093 0.83 0.8034 0.8493 0.9861 1.2502 1.6087 1.965967 2.0471 2.5592 3.1625 3.855 4.6422 5.5263 6.484 7.1418 7.416 8.3167 9.1779 9.9702 10.7274 20.1942 12.2857 14.04245 12.9575 13.368 13.3524 12.9458 13.3412 13.0898 12.7093 12.1626 12.1356 11.2281 9.6839 7.6485 5.9176 5.231 5.4349 5.59755 5.3017 3.4616 1.406 0.5616 0.321 0.2199 0.1547 0.1307167 0.1034 0.0636 0.0357 0.0183 0.0085 0.0037 0.0022 
0.000125851 0.0001139147 0.0001059925 0.0001016461 0.0001 0.0001 0.0001 0.0001 0.0001 0.0001 0.0001 0.0001 0.00010625 0.000121142 0.0001517072 0.0001 0.0001625 0.0001972222 0.0004083333 0.001111111 0.002898148 0.004047049 0.0001 0.000175 0.0003166667 0.00045 0.0003875 0.0001 0.0001 0.0002 0.0006 0.0043 0.011 0.0263 0.0581 0.0904 0.1179 0.2167 0.3208 0.4914 0.6802 0.8471 0.9658 1.0253 1.0139 0.9701 0.6308 0.5749 0.5235 0.481 0.3269 0.4772167 0.344 0.4654 0.631 0.8529 1.1348 1.3413 1.5676 2.299017 1.8048 2.0421 2.2487 2.4995 2.6722 2.8195 2.9773 2.97145 3.5555 4.0949 3.7827 3.6815 3.5871 3.5352 3.5424 3.067367 3.6049 3.7258 3.7595 3.8631 4.0108 4.1688 4.3775 4.97315 4.6126 11.007 19.4513 15.6192 7.4999 4.2605 4.2325 3.60585 4.6761 5.8154 10.273 2.7848 2.8255 2.5366 2.9605 3.199867 3.595 4.6384 8.0934 3.5326 3.2808 2.7128 2.2331 2.787717 2.9978 3.9087 4.1995 4.1572 4.176 3.8708 3.4405 3.294883 3.228 2.8964 3.1815 1.1606 4.6268 0.1802 1.6692 3.4938 4.4441 6.0748 2.1649 1.743 1.9589 1.7366 1.5021 1.308633 1.2917 1.1433 1.0785 1.0976 1.2202 1.4498 1.726 1.86995 2.0319 2.3601 2.7202 3.1509 3.6504 4.2288 4.8891 5.43655 5.6245 6.4126 7.203 7.987 8.7444 16.8379 10.4856 11.2594 11.70213 12.0229 12.7036 13.1823 13.388 13.6276 13.8127 13.59867 13.8591 13.746 13.4187 12.8223 11.7864 10.2548 8.9402 7.8978 7.2182 6.5184 3.9936 1.6291 0.6411 0.3576 0.238 0.163 0.1363667 0.1069 0.0651 0.0363 0.0185 0.0086 0.0054 0.0006 
0.000105426 0.0001021804 0.0001005487 0.0001 0.0001 0.0001 0.0001 0.0001 0.0001 0.0001 0.0001 0.000103125 0.0001091307 0.0001197748 0.0001 0.00013125 0.0001532407 0.0002560185 0.0005722222 0.001472531 0.001651262 0.0001 0.00011875 0.0001 0.0001 0.0001083333 0.0001 0.000175 0.0001 0.0005 0.00235 0.0083 0.0203 0.0456 0.06665 0.0937 0.1578 0.2414 0.3795 0.6319 0.9689 1.232 1.4573 1.41195 1.6245 1.7133 1.7024 1.3233 0.9375 0.5999 0.7147 1.113833 0.6979 0.7011 0.7221 0.7466 0.6055 0.7974 1.0335 1.629367 1.315 1.6505 2.052 2.2908 2.7079 3.1192 3.0746 3.4718 3.0777 3.0945 3.297 3.2568 3.2442 3.2725 3.3577 3.320567 3.5205 3.806 4.5644 4.946 5.387 5.9335 6.7107 6.120383 7.6875 13.954 14.6299 8.414 5.3079 4.1513 3.7852 6.7516 8.6834 10.1846 6.8273 3.5642 3.5815 3.7147 4.1338 3.974933 4.5921 5.0571 5.5108 3.0843 2.9683 2.7086 2.7668 3.385783 4.0225 4.9188 5.1632 5.0893 4.9152 4.4333 3.7804 3.5097 3.2312 2.4954 2.5938 4.7103 2.0125 0.9034 1.1547 2.098033 2.3085 3.3443 2.6645 2.4417 1.8406 1.5426 1.4874 1.3685 1.4324 1.4108 1.4529 1.5525 1.7158 1.9317 2.1746 2.24205 2.4283 2.6751 2.9686 3.3232 3.7387 4.2185 4.7567 5.14345 5.3387 5.9591 6.6011 7.2603 10.287 9.0987 9.7669 10.01797 10.4703 11.217 11.973 12.6715 12.86555 13.1952 13.7962 13.9273 14.3249 14.7718 15.1605 15.5221 15.7121 15.3204 13.624 11.77422 10.6843 7.4721 4.4372 1.9667 0.7968 0.4325 0.2752 0.2315 0.1787 0.1115 0.0652 0.0354 0.0177 0.012 0.0015 0.0001 
0.0001007878 0.0001001829 0.0001 0.0001 0.0001 0.0001 0.0001 0.0001 0.0001 0.0001 0.0001015625 0.0001040852 0.0001080076 0.0001 0.000115625 0.0001281636 0.0001801698 0.0003271605 0.0007669239 0.0007792029 0.0001 0.0001 0.0001 0.0001 0.0001 0.0001 0.0001333333 0.0001 0.0004 0.0011 0.0055 0.0136 0.0308 0.0637 0.08631667 0.1125 0.1972 0.3201 0.5343 0.7457 0.9756 1.3231 1.35935 1.5882 1.822 1.9995 2.0981 2.1114 2.2128 2.4288 2.119833 2.3379 2.2616 2.1941 1.8765 1.5918 1.8492 1.9185 2.3036 1.9906 2.0647 2.137 3.18575 4.1022 4.0033 3.912 3.835483 4.1929 3.9528 3.7237 3.5004 3.2791 3.0963 2.9666 3.09415 2.9205 2.9774 3.1555 3.3263 8.703 5.2685 5.0044 5.4724 7.46695 7.8616 16.2169 7.2139 5.2181 4.884 4.5754 8.6318 8.03265 10.5006 8.5661 5.575 3.9782 3.9522 4.0515 3.9863 4.2143 4.3539 4.3816 4.1282 2.8527 2.8196 2.8676 3.4192 4.0598 4.8753 5.625 5.7778 5.7145 5.367 4.6966 3.8999 3.793817 3.4782 2.8632 5.5887 2.4567 2.1676 1.3752 1.3058 1.763967 1.7059 2.1687 2.1746 3.30025 0.9875 1.1541 1.2172 1.250017 1.2802 1.3711 1.5139 1.6956 1.9168 2.1631 2.4206 2.502633 2.6709 2.9229 3.2385 3.6029 4.0063 4.4421 4.896 5.109383 5.3557 5.8329 6.3438 7.1243 7.5253 8.1015 8.7259 9.1106 9.3997 10.1315 10.9147 11.7202 11.5795 12.4662 13.3915 14.25825 14.3794 15.463 16.6817 17.9996 19.0328 18.9079 16.7257 14.17713 12.7733 8.4979 5.0413 2.5146 1.0766 0.5572 0.3331 0.2662333 0.201 0.1164 0.0637 0.0328 0.0235 0.0025 0.0015 0.000875 
0.000100061 0.0001 0.0001 0.0001 0.0001 0.0001 0.0001 0.0001 0.0001 0.0001007813 0.0001018826 0.0001034138 0.0001 0.0001078125 0.0001145962 0.0001413194 0.0002118313 0.0004247514 0.0004146575 0.0001 0.0001 0.0001 0.0001 0.0001 0.0001 0.0001 0.00016 0.0002 0.0007 0.0021 0.0066 0.0155 0.0335 0.0674 0.1351 0.135 0.2515 0.4328 0.6261 0.7307 0.9158 1.1156 1.835333 1.4399 1.8042 2.1997 2.6144 3.0274 3.2604 3.3026 3.781767 3.3351 3.3466 2.9617 3.3442 3.7717 3.8827 3.9932 3.969667 4.0884 4.1552 4.1828 5.2861 5.0193 4.753 4.4998 5.120983 4.2144 3.9367 3.7028 3.505 3.3247 3.1675 3.0487 3.464533 2.9989 3.0367 3.2151 4.0445 8.8913 6.3505 6.2056 6.769166 7.8256 9.2439 16.1373 6.993 6.6034 6.7352 7.0983 7.350383 9.0883 7.5066 5.7621 4.56505 4.1857 4.0317 3.9462 3.949867 3.8573 3.7734 3.619 3.322 2.7457 2.7979 3.0435 3.432783 3.9841 5.2909 5.8874 6.0616 5.9775 5.5208 4.7586 4.895583 4.2007 4.1725 5.7127 4.7572 1.9515 2.5142 1.8868 1.5883 2.262633 2.5206 2.7402 2.7299 3.7758 0.4351 0.7847 0.84505 0.9976 1.0853 1.2278 1.437 1.6865 1.9649 2.2527 2.5392 2.661833 2.7822 3.076 3.4258 3.8105 4.2039 4.594 4.9706 5.156283 5.3386 5.7208 6.2681 6.4569 6.8629 7.3269 7.8526 8.331433 8.4482 9.1211 9.874 10.7003 11.3046 12.4814 13.9552 15.25013 15.7023 17.6736 19.7252 21.5073 22.3251 21.287 18.0081 15.18657 13.2474 8.5966 5.1648 2.873 1.3519 0.6778 0.39 0.2919833 0.2194 0.1166 0.0588 0.0423 0.0049 0.003 0.0004 0.0006666667 
0.0001 0.0001 0.0001 0.0001 0.0001 0.0001 0.0001 0.0001 0.0001003906 0.0001008879 0.0001015194 0.0001 0.0001039062 0.0001074696 0.0001212427 0.0001559156 0.0002593007 0.000250248 0.0001 0.0001 0.0001 0.0001 0.0001 0.0001 0.0001 0.0001 0.0003 0.0003 0.001 0.0044 0.0154 0.0356 0.0765 0.1521 0.1923333 0.2799 0.476 0.7471 1.0866 1.5816 2.0436 2.529 2.436767 3.0162 3.4954 3.9592 4.407 4.8317 5.2069 5.5284 5.35895 5.7578 5.3377 5.9559 6.0919 5.8904 5.9471 5.9473 6.23595 5.88 5.7409 5.5362 8.6883 8.566 8.3392 7.2138 5.6276 6.693 5.7434 4.891 4.4757 4.4331 4.4029 4.4005 3.98895 4.452 4.6466 4.9646 5.4031 5.9383 5.8634 6.3121 8.203433 9.7949 12.5692 9.6894 7.6923 7.7567 7.6662 7.4933 7.552967 7.2152 6.0607 5.1447 4.8158 4.453 4.1754 3.9439 3.919683 3.686 3.4809 3.27 3.0427 2.7996 2.8813 3.1625 3.587933 4.1198 5.0295 5.7512 5.8685 5.8359 5.9565 5.7042 6.53485 6.1135 6.8587 4.449 6.2865 2.7845 3.0463 2.4269 2.500967 2.5574 3.8978 4.3549 3.9876 4.6398 1.0448 0.3014 0.63115 0.6153 0.8873 1.1428 1.4453 1.7545 2.0656 2.3701 2.579583 2.6592 2.8989 3.2047 3.5611 3.9466 4.3281 4.6903 4.943267 5.0269 5.3499 5.7525 5.9864 6.2637 6.6171 7.0294 7.406833 7.5064 8.0558 8.6894 9.4254 10.6803 12.2767 13.8973 15.81617 15.8875 18.1849 20.5853 22.7342 24.0897 23.9931 21.8792 19.7381 17.7617 12.6032 7.9889 4.8053 2.8155 1.5048 0.7504 0.4015 0.2971667 0.2069 0.1527 0.0117 0.0126 0.0052 0.003 0.0001 0.00025 
0.0001 0.0001 0.0001 0.0001 0.0001 0.0001 0.0001 0.0001001953 0.0001004262 0.0001006995 0.0001 0.0001019531 0.0001037919 0.0001108728 0.0001282093 0.0001788197 0.0001730929 0.0001 0.0001 0.0001 0.0001 0.0001 0.0001 0.0001 0.0001 0.00018 0.0003 0.0008 0.0023 0.0071 0.0178 0.0416 0.0903 0.09536666 0.1816 0.338 0.5793 0.9066 1.2862 1.7342 2.2739 2.136217 2.9081 3.6118 4.1883 4.8947 5.5828 6.2177 6.7675 7.1877 6.30775 7.0421 7.8819 8.0542 8.1809 8.5736 8.6586 8.7289 7.007433 8.7779 8.7923 7.2973 5.5904 5.3474 5.1656 5.707033 5.7735 5.3711 5.1975 5.0208 4.6796 4.6082 4.5959 4.5447 4.52065 4.4889 4.5282 4.613 4.6997 4.8313 5.0514 5.333 6.9648 13.7494 7.6499 16.2389 8.6264 8.4912 8.1097 7.5695 7.449367 6.8532 6.0068 5.3225 5.4391 5.0035 4.6176 4.2241 4.118683 3.8606 3.5714 3.3284 3.1372 3.0103 3.0611 3.2851 3.63865 3.9326 4.6691 5.3661 5.5967 6.0494 7.0671 8.0041 8.066883 10.428 4.6042 5.3824 5.2063 4.2601 3.7993 3.2109 3.2736 3.3355 5.4871 6.2954 6.2673 8.5011 1.0276 0.4414 0.7982333 0.6465 0.9611 1.3725 1.7597 2.0928 2.3944 2.6947 2.9448 2.9616 3.1744 3.4846 3.865 4.2795 4.6779 5.034 5.238083 5.3438 5.6762 5.9409 6.1456 6.401 6.7235 7.1205 7.544433 7.6052 8.1984 8.9438 9.9028 13.1085 15.2756 17.8442 18.59922 20.8314 23.9676 26.7452 28.4884 28.5438 26.4766 22.395 20.28447 17.0976 11.689 7.2885 4.3127 2.5377 1.4062 0.6917 0.5004333 0.3346 0.2306 0.0253 0.0114 0.0062 0.003 0.002 0.0014 0.0001 
0.0001 0.0001 0.0001 0.0001 0.0001 0.0001 0.0001000977 0.0001002072 0.0001003302 0.0001 0.0001009766 0.000101915 0.0001055393 0.0001142914 0.0001393006 0.0001360244 0.0001 0.0001 0.0001 0.0001 0.0001 0.0001 0.0001 0.0001 0.0001 0.0002 0.0003 0.0009 0.0026 0.001 0.003 0.0084 0.0214 0.06016667 0.0503 0.1084 0.2127 0.3857 0.6402 0.9642 1.3219 1.698167 1.7408 2.2422 2.9661 3.6085 4.2676 4.9062 5.4682 5.44415 5.7604 6.5701 6.812 6.8732 6.8504 6.7578 6.6078 6.42505 6.4454 6.2651 6.0591 3.8455 3.8261 3.8225 3.8615 4.369566 3.8886 4.122 4.4968 4.4709 4.6134 4.6042 4.581 4.627217 4.6015 4.6363 4.6116 4.4977 4.257 3.9695 3.7494 3.723583 3.4599 3.1395 24.2418 22.8254 9.8124 9.3801 8.8602 8.1738 7.89585 7.3912 6.6235 6.41195 6.297 5.8205 5.3142 5.056533 4.7273 4.2702 3.9066 3.6217 3.4154 3.2884 3.2754 3.397633 3.4847 3.8472 4.5318 5.217 5.797 6.8979 9.0685 12.2164 8.37435 5.9351 5.4915 6.1191 5.2986 4.9529 4.2953 4.0939 3.9723 4.017 6.2587 7.4763 7.2536 10.3825 2.1263 1.3133 1.784667 1.4715 1.8291 2.2589 2.6244 2.9031 3.1443 3.4076 3.6083 3.5756 3.7391 4.0219 4.4053 4.8203 5.1938 5.5033 6.002316 5.8302 6.0862 6.2589 6.4437 6.7347 7.1349 7.665 7.960516 8.3401 9.1865 10.2281 12.02 13.6006 16.2582 19.6531 20.33277 23.4818 27.3624 30.6437 32.5911 32.4831 29.6007 24.4432 19.70142 18.1301 12.0937 7.2838 4.0747 2.2242 1.1409 0.5115 0.3780333 0.3129 0.0312 0.0156 0.0073 0.0035 0.0023 0.0005 0.0008666667 0.0006666667 
0.0001 0.0001 0.0001 0.0001 0.0001 0.0001000488 0.0001001016 0.0001001588 0.0001 0.0001004883 0.0001009639 0.0001028103 0.0001072486 0.0001197104 0.0001179233 0.0001 0.0001 0.0001 0.0001 0.0001 0.0001 0.0001 0.0001 0.0001 0.0001 0.0002 0.0004333333 0.0001 0.0003 0.0002 0.0005 0.0016 0.0047 0.01726667 0.0127 0.0322 0.0763 0.1608 0.3076 0.5289 0.8158 1.07495 1.1285 1.4582 1.8206 2.2138 2.6373 3.072 3.4569 3.993467 4.0242 4.362 4.5601 4.6333 4.2722 4.1894 4.0957 4.69465 4.0139 3.9427 3.8834 3.7164 3.8342 3.9531 3.6868 4.2528 3.8414 3.968 4.083 4.5315 4.7014 4.6321 4.6685 5.166683 4.7717 4.8568 5.7698 4.5705 3.9703 3.1276 3.4346 6.223417 1.3132 19.9699 35.7305 20.6257 11.0408 10.3841 9.8178 9.47695 9.0861 8.3013 7.5327 7.7312 7.1476 6.671 6.1195 5.71765 5.3365 4.8065 4.3776 4.0451 3.7872 3.6205 3.5892 3.644567 3.6903 3.818 4.5269 5.47 6.8081 8.9375 12.9599 9.4225 7.075 6.5875 6.5101 6.4317 5.9045 5.354 4.7684 4.690084 4.5133 4.6632 6.6267 7.6992 7.5472 10.5143 4.387 4.050667 3.5596 3.2757 3.5566 3.819 4.0404 4.1983 4.3301 4.446883 4.4891 4.5212 4.6199 4.8734 5.236 5.5997 5.8868 7.52855 8.0128 6.2898 6.4638 6.6241 6.862 7.2002 7.6341 8.1764 8.327683 8.8559 9.7142 10.9352 11.2604 13.791 15.9269 16.86138 18.5526 21.6335 24.8198 27.5201 28.9287 28.2865 25.4313 20.8532 17.81348 15.2894 10.0042 5.8783 3.1434 1.5683 0.6961 0.3836 0.2400667 0.0339 0.0167 0.0082 0.004 0.0019 0.0014 0.0001 0.0003 0.0003416667 
0.0001 0.0001 0.0001 0.0001 0.0001000244 0.0001000501 0.0001000773 0.0001 0.0001002441 0.000100484 0.0001014208 0.0001036742 0.0001099231 0.0001089764 0.0001 0.0001 0.0001 0.0001 0.0001 0.0001 0.0001 0.0001 0.0001 0.0001 0.0001333333 0.0002083333 0.0001 0.00015 0.0001 0.0002 0.0005 0.0015 0.002866667 0.0041 0.0104 0.0246 0.0544 0.112 0.2134 0.3728 0.5921 0.7632333 0.8506 1.104 1.3394 1.592 1.8699 2.1672 2.4948 2.923917 2.7563 2.9454 3.0533 3.1102 3.4681 3.4814 3.4897 3.776667 3.5154 3.5581 3.82525 4.1277 4.2267 4.3805 4.9975 5.1647 5.241 5.4764 5.6699 5.7832 5.7828 5.7929 5.9895 6.365983 6.3879 6.9451 8.3543 8.8686 7.9342 7.9756 8.6469 12.23988 16.7365 27.2684 30.8908 14.4234 12.0577 11.446 10.8148 10.46195 10.109 9.3021 8.4631 8.5841 7.9725 7.4951 6.8139 6.371316 5.9945 5.4186 4.9346 4.5545 4.2515 4.0885 3.9681 3.865567 3.8597 3.729 4.9175 6.4609 8.8641 12.6947 7.7238 8.4985 7.4914 7.2191 7.0808 7.272 6.766 5.9314 5.4813 5.392267 4.9883 5.1037 7.2258 7.92615 9.5586 8.5511 6.7894 6.174067 6.1284 5.5864 5.6023 5.6296 5.661 5.6706 5.6427 5.6532 5.6675 5.6011 5.7358 6.0263 6.3775 6.6385 14.2532 8.04915 6.3214 6.5438 6.7416 6.9283 7.1775 7.4615 7.7934 8.160784 8.2047 8.724 9.3965 10.1831 11.1081 12.4082 14.2533 15.2819 16.5242 19.0186 21.3549 23.0882 23.7314 22.8511 20.439 17.93237 16.2444 11.9206 7.8423 4.5859 2.3658 1.0697 0.4144 0.3436167 0.1531 0.0454 0.0142 0.0054 0.0023 0.0011 0.0008 0.00054 0.0001 0.0001 
0.0001 0.0001 0.0001 0.0001000122 0.0001000249 0.000100038 0.0001 0.0001001221 0.0001002427 0.0001007163 0.0001018597 0.000105006 0.0001045148 0.0001 0.0001 0.0001 0.0001 0.0001 0.0001 0.0001 0.0001 0.0001 0.0001 0.0001111111 0.0001354167 0.0001 0.0001125 0.0001 0.0001 0.0002 0.0005 0.0015 0.002916667 0.0038 0.0093 0.0214 0.0459 0.0922 0.1728 0.3013 0.4157167 0.4832 0.7092 0.9491 1.1637 1.3786 1.632 1.9256 2.184767 2.2485 2.5628 2.8443 3.0869 3.3057 3.4842 3.609 3.8615 3.7183 3.827 3.9279 5.4953 5.7629 6.0019 6.0699 6.285217 6.4277 6.7938 7.1807 7.5323 7.7787 7.889 7.8354 8.34915 7.9643 8.414 9.0538 9.8396 10.2411 10.8416 10.695 16.7816 19.67563 26.5265 29.6452 21.4468 14.3054 13.101 12.4695 11.8291 11.42792 11.1149 10.2397 9.71135 9.2955 8.676 8.2323 7.359 6.954983 6.6045 6.0127 5.4947 5.109 4.8469 4.6161 4.2892 4.107517 3.7969 4.239 5.7767 8.2033 12.3139 7.4939 7.7355 7.818867 8.0054 7.7856 7.8389 8.1827 7.8593 7.0612 6.531 6.377767 6.0713 6.161 7.5457 8.8553 10.0722 9.1428 8.3029 8.08425 7.8771 7.6121 7.4181 7.2724 7.1673 7.0813 6.9928 6.815383 6.797 6.7474 6.9725 7.3187 7.5773 20.1926 6.8504 8.333134 6.9703 7.1056 7.2739 7.4788 7.7656 8.0844 8.4125 8.622717 8.7436 9.1381 9.6307 10.47555 11.1051 11.7275 12.6037 13.75868 13.8307 15.208 16.3939 16.9776 16.6898 15.4975 13.5117 13.06475 11.1146 8.1214 5.4037 3.223 1.6972 0.7757 0.3069 0.2331833 0.1076 0.0336 0.0101 0.0034 0.0014 0.0006 0.0003 0.00028 0.0001 0.0001 
0.0001 0.0001 0.0001000061 0.0001000124 0.0001000188 0.0001 0.000100061 0.0001001216 0.0001003604 0.0001009396 0.0001025274 0.0001022761 0.0001 0.0001 0.0001 0.0001 0.0001 0.0001 0.0001 0.0001 0.0001 0.0001 0.0001037037 0.0001116319 0.0001 0.000103125 0.0001 0.0001 0.0001 0.0003 0.0007 0.0019 0.002816667 0.0047 0.011 0.0242 0.0498 0.0961 0.1731 0.2906 0.36765 0.4543 0.6597 0.8887 1.1222 1.366 1.6428 1.9622 2.14595 2.3103 2.6679 3.0191 3.3541 3.6812 3.9941 4.2896 4.529817 4.581 4.8772 5.1788 6.9484 7.5717 8.197 7.862 8.042033 7.9737 8.3034 8.9201 9.5609 10.1286 10.3725 12.1229 11.06737 10.3899 10.6267 11.0837 11.7464 12.2953 13.0481 15.4438 17.15582 19.2095 30.1528 31.2065 18.3346 15.2705 14.0434 13.4216 13.05577 12.731 11.9687 11.0338 10.6655 9.8065 9.2867 8.675 8.217816 7.8152 7.1428 6.5877 6.1077 5.7836 5.4699 5.0768 4.919717 4.6927 4.0385 5.224 7.3973 11.0442 7.2782 7.1407 7.414633 7.7678 8.1893 8.2516 9.0612 9.2081 9.0403 8.4041 7.801 7.560833 7.3937 7.2096 8.4368 9.4482 9.7814 10.0753 9.842183 9.861 9.5467 9.2452 8.954 8.7032 8.4965 9.5434 8.0107 8.054533 7.7816 7.8762 8.2561 8.4802 23.8151 7.7767 7.785 7.91715 7.8185 7.9271 8.0408 8.2348 8.4944 8.7974 9.123 9.299666 9.4591 9.8015 10.2028 11.0549 11.5309 11.9369 12.4274 13.06627 12.9128 13.3452 13.569 13.3852 12.5976 11.2147 9.4411 9.74185 7.6377 5.7468 3.9691 2.4857 1.3802 0.6729 0.298 0.2395667 0.1191 0.0423 0.0132 0.0037 0.001 0.0004 0.0001 0.00014 0.0001 0.0001 
0.0001 0.0001000031 0.0001000062 0.0001000093 0.0001 0.0001000305 0.0001000609 0.000100181 0.0001004739 0.0001012758 0.0001011486 0.0001 0.0001 0.0001 0.0001 0.0001 0.0001 0.0001 0.0001 0.0001 0.0001 0.0001012346 0.0001038339 0.0001 0.0001007813 0.0001 0.0001 0.0001 0.0001 0.0002 0.0005 0.0014 0.002616667 0.0036 0.0087 0.0196 0.0416 0.0822 0.1515 0.2601 0.3407833 0.4164 0.609 0.8446 1.1022 1.376 1.6817 2.0238 2.132167 2.4053 2.8195 3.2546 3.7007 4.1709 4.6725 5.2074 5.010283 5.7736 6.2827 6.62945 7.2717 7.716 8.1606 9.6804 9.49795 10.2385 10.6402 11.3332 12.3061 13.2721 13.8735 14.3765 13.69673 13.7152 13.0408 13.3528 13.9543 14.8139 15.1248 18.0915 18.68757 22.7135 27.5315 26.7639 22.7221 16.3208 15.1254 14.3608 13.92315 13.5226 12.6912 11.6729 11.2138 10.3352 9.8935 8.9841 8.636017 8.2413 7.6945 7.2661 6.8698 6.4558 5.9828 5.5511 5.372066 5.2924 4.6791 6.6164 9.7368 6.6966 6.6756 6.8796 7.138134 7.4703 8.3033 8.9709 10.2918 10.4787 10.2163 9.7946 9.469334 9.2632 8.3048 8.3116 8.7988 9.7275 10.2989 10.8144 10.68548 10.8567 10.6868 10.4627 10.1513 9.8523 9.6292 9.7216 9.60625 9.5177 9.2274 9.413 9.6672 26.0666 9.1678 9.1067 9.091866 9.0381 9.0406 9.076 9.102 9.2149 9.3845 9.6105 9.7471 9.8799 10.1799 10.4766 10.7564 11.8181 12.2414 12.6917 12.79608 13.1271 13.4959 13.719 13.6658 13.2134 12.2942 10.933 10.09947 9.2696 7.4764 5.707 4.0897 2.7142 1.6358 0.8679 0.4201 0.3122 0.1857 0.0744 0.0266 0.0083 0.0022 0.0005 0.0001 0.00016 0.0002 0.0001 
0.0001000015 0.0001000031 0.0001000046 0.0001 0.0001000153 0.0001000305 0.0001000908 0.0001002386 0.0001006435 0.0001005797 0.0001 0.0001 0.0001 0.0001 0.0001 0.0001 0.0001 0.0001 0.0001 0.0001 0.0001004115 0.0001012671 0.0001 0.0001001953 0.0001 0.0001 0.0001 0.0001 0.000125 0.0001 0.0004 0.0007833333 0.0011 0.003 0.0074 0.017 0.0366 0.0734 0.1371 0.1931833 0.2383 0.385 0.5868 0.8194 1.0688 1.3222 1.5924 1.786083 1.8841 2.2073 2.5683 2.9687 3.4164 3.8649 4.3447 4.8469 5.348033 5.3632 5.9572 7.4445 8.5088 9.5076 9.2161 9.728867 10.0795 11.1536 12.3018 13.2951 14.2864 15.2657 16.0543 16.1037 15.9503 15.4722 15.5808 15.8596 16.1514 16.1216 16.8713 17.847 18.47242 18.8201 22.1264 23.6424 33.3743 16.6598 16.2383 15.2006 14.7253 14.3023 13.3393 12.50915 11.664 10.7544 10.5011 9.354 9.1172 8.7465 8.4217 8.0929 7.5816 7.0096 6.5133 6.2109 5.906466 5.4085 6.1514 8.5404 6.2548 5.8661 5.9885 6.4208 6.7858 7.1496 8.3557 9.5187 11.2752 11.4426 11.7583 11.2914 10.6234 10.2617 8.9791 8.8303 8.924 9.8251 10.3707 11.1307 11.09415 11.3748 11.3681 11.2201 10.9567 10.6854 10.4899 10.4292 10.3755 10.4149 10.1926 26.8638 6.3376 11.1024 10.7375 10.4968 10.13753 10.3479 10.2614 10.1934 10.1402 10.1905 10.2875 10.4365 10.42122 10.6353 10.8804 11.1583 11.6288 12.1668 12.595 13.0724 12.96698 13.521 13.8469 13.9447 13.7196 13.1013 12.0761 10.6922 9.687966 9.0462 7.3298 5.6787 4.1806 2.8956 1.8616 1.082 0.82145 0.5722 0.2781 0.1233 0.0498 0.0181 0.0059 0.0017 0.0014 0.0004 0.0001 0.0002 
0.0001000023 0.0001000023 0.0001 0.0001000076 0.0001000152 0.0001000455 0.0001001199 0.0001003243 0.0001002924 0.0001 0.0001 0.0001 0.0001 0.0001 0.0001 0.0001 0.0001 0.0001 0.0001 0.0001001372 0.0001004197 0.0001 0.0001000488 0.0001 0.0001 0.0001 0.0001 0.00010625 0.0001 0.0001 0.0003 0.0006 0.001 0.0026 0.0067 0.0158 0.0349 0.0712 0.135 0.1805333 0.2371 0.3854 0.5826 0.8193 1.0765 1.3447 1.6223 1.771217 1.9122 2.2258 2.5747 2.9715 3.4143 3.929 4.4893 4.699083 5.1098 5.7873 6.37415 6.8641 7.5028 8.1795 10.1173 10.4667 11.1193 12.161 13.2242 14.3123 15.5726 16.9503 18.1224 17.9031 18.2371 17.7971 17.6393 17.1803 16.8298 17.1592 17.3142 17.70007 17.3692 15.9932 20.8445 42.8004 29.8093 16.5934 16.8839 15.8888 15.47092 15.0767 13.9678 13.2194 11.9441 11.3963 10.9403 10.44755 9.884 9.4933 9.3231 8.814 8.17 7.4665 7.1522 6.944233 7.1035 5.8724 7.7109 5.8319 5.4324 5.4609 5.3225 5.6732 6.67475 7.1213 9.1728 8.6789 10.6868 12.997 14.5392 12.5243 11.12032 10.6052 9.1974 8.28685 8.5858 9.3454 10.2253 10.9975 10.9868 11.3908 11.5614 11.5794 11.3932 11.187 11.0819 11.154 13.30117 11.0156 25.5837 11.1604 9.8812 10.4305 10.7294 10.8995 10.8861 10.9362 10.9208 10.8017 10.7415 10.7504 10.8061 10.9083 10.78847 11.0568 11.2477 11.4846 11.4381 11.7545 12.122 12.5168 12.26223 12.8729 13.103 13.1122 12.8156 12.1613 11.1466 9.8398 8.6232 8.347 6.8261 5.3772 4.0725 2.9362 1.9967 1.2601 0.8848833 0.7264 0.387 0.1891 0.0845 0.0346 0.0129 0.0044 0.002516667 0.0013 0.0004 0.0001 
0.0001000015 0.0001 0.0001000038 0.0001000076 0.0001000228 0.0001000602 0.0001001633 0.0001001473 0.0001 0.0001 0.0001 0.0001 0.0001 0.0001 0.0001 0.0001 0.0001 0.0001 0.0001000457 0.0001001392 0.0001 0.0001000122 0.0001 0.0001 0.0001 0.0001 0.0001015625 0.0001 0.0001 0.0001 0.0002 0.00046 0.0006 0.0017 0.0046 0.0116 0.0271 0.0587 0.1178 0.1493167 0.2179 0.3657 0.5713 0.8216 1.0947 1.3755 1.6619 1.771933 1.9544 2.262 2.5965 2.9805 3.3996 3.8757 4.4146 4.768466 4.9892 5.5886 6.589 7.4144 8.3279 9.3951 10.5749 11.00867 11.6931 12.8082 13.9182 15.0801 16.2807 17.4959 18.5588 19.02072 20.3423 17.8589 17.3812 17.6169 17.932 18.1139 18.2277 18.71847 18.571 18.0838 26.6163 46.5495 30.0173 16.3304 17.1449 16.87012 16.5029 15.8542 14.6004 13.7077 12.3821 12.2226 11.4257 11.07422 10.5802 10.4634 9.9989 9.3442 8.7533 7.9568 8.003 7.4126 6.6825 7.7205 5.4749 4.9217 5.1186 5.5093 4.357 5.2928 5.552 8.1316 12.9722 5.2841 9.0113 17.2327 20.195 16.27545 13.5778 8.4615 7.6744 6.7599 7.5535 8.2879 9.2722 9.35485 10.1963 10.8307 11.2179 11.4565 11.4738 11.4242 11.524 13.60005 11.4335 25.3598 11.1139 11.1082 10.8934 11.0155 11.1867 11.3226 11.2003 11.3136 11.2189 11.0214 10.89 10.8085 10.7812 10.8089 10.66687 10.885 11.0036 11.1767 10.2853 10.4309 10.588 10.36335 10.74 10.8503 10.8569 10.6876 10.28 9.6017 8.6671 7.5199 6.852967 6.2941 5.0952 4.0058 3.0438 2.232 1.5654 1.0342 0.8124167 0.6344 0.3585 0.1858 0.0882 0.0383 0.0152 0.0055 0.003 0.0018 0.0006 0.0002 
0.0001 0.0001000019 0.0001000038 0.0001000114 0.0001000302 0.0001000821 0.0001000742 0.0001 0.0001 0.0001 0.0001 0.0001 0.0001 0.0001 0.0001 0.0001 0.0001 0.0001000152 0.0001000462 0.0001 0.0001000031 0.0001 0.0001 0.0001 0.0001 0.0001003906 0.0001 0.0001 0.0001 0.00015 0.00015 0.0003333333 0.0002 0.0005 0.0015 0.0042 0.011 0.027 0.061 0.1056167 0.1271 0.249 0.4357 0.6914 0.9909 1.2879 1.5826 1.67655 1.8982 2.2525 2.6481 2.9009 3.3607 3.8848 4.4779 4.788517 5.13 5.8304 7.2941 8.598 10.0244 9.6298 10.7252 11.03438 11.8222 12.8903 13.9182 14.9809 16.1843 17.5529 19.0788 20.3049 19.7849 18.7048 18.7449 19.071 19.4332 19.598 19.9673 20.50012 20.8614 23.0648 28.5859 45.103 33.6805 17.2703 17.4079 17.51652 17.3923 16.7475 15.4722 14.4043 12.9415 13.1497 12.0964 11.86137 11.5187 11.167 10.5005 9.672 9.1164 8.462 8.6419 7.861467 6.8925 5.5216 3.9792 3.8722 4.5331 5.0471 4.5889 5.432667 6.2632 9.2917 13.8274 4.5801 8.7851 23.2021 24.6429 17.6738 12.1735 6.7245 5.6754 4.5634 5.5209 6.2746 7.1947 7.560583 8.2431 9.2708 10.1162 10.7405 11.1164 11.3855 11.5471 15.29087 24.8598 11.3199 11.0308 11.0418 11.1805 11.309 11.409 11.32653 11.4329 11.297 11.0789 10.8011 10.6031 10.4302 10.294 10.05612 10.199 10.1432 10.1223 9.2891 8.309 8.2174 8.1445 8.10205 8.0688 7.9669 7.7996 7.5216 7.0979 6.5157 5.7938 5.5951 4.9723 4.1447 3.3738 2.6709 2.0629 1.5504 1.1197 0.94885 0.754 0.4654 0.2622 0.1346 0.063 0.0269 0.0105 0.0038 0.0024 0.0012 0.0004 0.0001 
0.000100001 0.0001000019 0.0001000057 0.0001000151 0.0001000412 0.0001000373 0.0001 0.0001 0.0001 0.0001 0.0001 0.0001 0.0001 0.0001 0.0001 0.0001 0.0001000051 0.0001000154 0.0001 0.0001000008 0.0001 0.0001 0.0001 0.0001 0.0001000977 0.0001 0.0001 0.0001 0.000125 0.0001333333 0.0002083333 0.0002 0.0003 0.0002 0.0005 0.0017 0.005 0.0135 0.02361667 0.0337 0.0762 0.1593 0.3031 0.5218 0.8048 1.0995 1.077217 1.3523 1.6099 1.9105 2.2942 2.9514 3.5557 4.0615 3.904517 4.4996 5.2198 5.6366 6.0928 6.8573 6.5889 9.0023 9.306033 10.1352 11.2557 12.3309 13.3306 14.2802 15.2978 16.3081 16.99558 17.276 26.7886 21.488 19.1678 19.3839 19.9514 20.6233 21.833 22.12832 23.5403 25.7353 31.1962 43.6073 37.591 19.2673 17.9326 18.21837 18.7185 17.869 16.0944 14.5697 13.9008 13.9212 13.033 12.826 12.5142 11.9235 11.0371 10.1958 9.9196 9.5909 11.8304 6.965117 5.1185 4.3486 2.985 3.22 3.7926 4.3225 4.3976 5.291017 7.4373 10.7746 8.6138 6.1988 9.5516 27.6243 24.0938 17.38307 11.3598 7.5253 3.4198 4.0431 2.6618 3.8397 4.7388 5.374417 5.7184 6.8298 8.0376 9.1002 9.9728 10.4623 20.3607 14.49438 12.0201 11.5146 11.2147 11.2105 11.3441 11.4109 11.3749 11.07312 11.2331 10.9141 10.5051 10.1411 9.829 9.5329 9.2542 8.953967 8.9994 8.7709 8.5697 6.2986 6.0274 5.8087 5.6221 5.710283 5.4489 5.2693 5.0576 4.789 4.4487 4.0345 3.5626 3.561717 3.0549 2.5823 2.1313 1.726 1.3703 1.0505 0.7428 0.61945 0.477 0.2783 0.1477 0.0715 0.0316 0.0128 0.0048 0.003783333 0.0016 0.0005 0.0001 0.0002 
0.0001000014 0.0001000029 0.0001000076 0.0001000207 0.0001000187 0.0001 0.0001 0.0001 0.0001 0.0001 0.0001 0.0001 0.0001 0.0001 0.0001 0.0001000017 0.0001000051 0.0001 0.0001000002 0.0001 0.0001 0.0001 0.0001 0.0001000244 0.0001 0.0001 0.0001 0.0001125 0.0001194444 0.0001666667 0.0002 0.0002333333 0.0002 0.0002666667 0.0001 0.0002 0.0006 0.0017 0.009083333 0.0048 0.0132 0.0315 0.0697 0.1425 0.2679 0.4558 0.64585 0.6852 0.928 1.1701 1.4537 1.8154 2.2721 2.8643 3.2333 3.639 4.2046 3.8271 4.1764 4.5945 6.2812 7.5989 8.152133 8.7448 9.9043 11.0468 12.1296 13.162 14.2209 15.3261 16.52348 16.4316 31.4102 24.1187 20.0182 20.221 20.7297 21.5557 21.74278 22.5653 24.0026 26.2739 31.3996 43.3724 38.0895 21.5443 19.66102 18.6521 19.2068 24.04795 17.3511 15.0052 15.2164 14.7727 14.40492 14.1905 13.6032 12.9433 11.8068 10.7987 10.3353 9.6283 7.952384 5.3607 3.9467 3.3017 2.6502 2.8372 3.2478 3.6271 3.626083 3.6293 5.4298 7.8623 7.6778 6.4456 12.8425 26.575 22.0093 15.91987 10.0191 7.7628 2.6876 3.7891 1.2575 2.1046 2.664883 2.7874 3.5641 5.2615 5.352 6.6984 7.6942 19.0522 8.7007 10.72307 9.4779 9.9084 10.1789 10.4245 10.6597 10.7378 10.6236 10.13015 10.3652 9.9298 9.4374 8.9743 8.5338 8.1027 7.6848 7.391883 7.2924 6.9311 5.60795 4.2851 3.9917 3.7641 3.5734 3.717183 3.404 3.2418 3.0702 2.8758 2.6531 2.4037 2.125 2.179867 1.8617 1.6 1.3524 1.1179 0.8668 0.6111 0.3928 0.34545 0.2304 0.1234 0.0604 0.0271 0.0112 0.0042 0.0015 0.001466667 0.0005 0.0001 0.0002333333 0.0001 
0.0001000021 0.000100004 0.0001000104 0.0001000094 0.0001 0.0001 0.0001 0.0001 0.0001 0.0001 0.0001 0.0001 0.0001 0.0001 0.0001000006 0.0001000017 0.0001 0.0001 0.0001 0.0001 0.0001 0.0001 0.0001000061 0.0001 0.0001 0.0001 0.00010625 0.0001106482 0.0001496528 0.0002 0.0002111111 0.0002 0.0001888889 0.0001 0.00015 0.00025 0.0001 0.0002 0.00148 0.0006 0.0018 0.0046 0.0112 0.0254 0.0531 0.102 0.24435 0.1803 0.2983 0.4712 0.6767 0.9772 1.3233 1.8318 2.104467 2.5036 3.3501 2.137 3.0018 4.1493 5.0069 6.1332 6.7043 7.2984 8.5365 9.8237 11.1476 12.4969 14.0148 15.6889 16.52798 18.1102 28.3341 19.9479 19.4727 19.8755 20.3718 21.4069 21.54707 22.4725 23.4331 26.1903 28.8271 40.3682 36.6372 22.1024 20.77687 18.4674 19.0415 26.575 18.1368 15.2118 16.2122 15.507 15.17212 15.0051 14.4351 13.517 11.8518 10.4489 10.2436 7.6268 5.72685 3.6772 2.8255 2.6042 2.4063 2.5847 2.8421 2.9718 2.9443 2.8082 3.7197 5.2706 5.5551 5.1702 12.7101 21.5298 20.38515 19.4474 8.5898 7.6868 2.0926 2.9912 0.9494 0.9982 1.43795 1.5206 2.0838 5.335 2.8151 6.3548 13.93 6.4357 8.33475 6.61 7.169 7.7421 8.2046 8.7343 9.1254 8.7748 8.525117 8.7102 8.4739 8.0475 7.6019 7.1335 6.6679 6.2085 5.9831 5.7661 5.3544 4.976 2.9967 2.7148 2.4916 2.3198 2.456133 2.1842 2.0705 1.9661 1.8571 1.7355 1.603 1.4625 1.4711 1.3153 1.1597 0.9845 0.7841 0.5864 0.4045 0.2566 0.1496 0.1523833 0.0801 0.0394 0.0178 0.0074 0.0029 0.001 0.0003 0.0005 0.0001 0.0002333333 0.0001 0.0001444444 
0.0001000031 0.0001000055 0.0001000047 0.0001 0.0001 0.0001 0.0001 0.0001 0.0001 0.0001 0.0001 0.0001 0.0001 0.0001000002 0.0001000006 0.0001 0.0001 0.0001 0.0001 0.0001 0.0001 0.0001000015 0.0001 0.0001 0.0001 0.000103125 0.0001056327 0.0001416377 0.0002 0.0002037037 0.0002 0.000162963 0.0001 0.000125 0.00015 0.0001 0.00015 0.00015 0.0003 0.0001 0.0002 0.0005 0.0013 0.0032 0.0072 0.03546 0.0148 0.028 0.0489 0.0823 0.1715 0.2653 0.3971 0.7002 1.131417 1.0879 1.13945 1.145 1.523 2.3935 3.743 4.183784 4.6944 5.7561 6.9352 8.1993 9.5793 11.183 13.0166 15.5453 15.77655 18.0658 20.0259 17.3448 17.8156 18.6661 19.1867 20.1713 20.71367 21.1107 21.4316 23.5989 25.3062 37.4209 36.5496 24.3081 23.58805 19.5869 20.9975 24.7656 17.2685 16.46 16.7787 16.0807 15.64617 15.4767 14.8662 13.1771 11.2843 9.597 8.2263 5.7273 4.12415 2.3408 2.0206 2.0805 2.0743 2.2951 2.455 2.4154 2.36295 2.214 2.6099 3.4373 3.5641 3.644 9.8741 16.8831 16.1699 15.8663 7.767 4.48005 1.566 2.1567 0.4472 0.3896 0.7037666 0.8273 1.2226 2.8876 2.7666 7.9857 6.1719 4.4452 4.407767 4.7647 5.2232 5.6855 6.4491 7.5212 7.3644 6.3478 6.20565 5.9565 5.9001 5.6411 5.3286 4.9679 4.6018 4.2408 4.186517 3.8957 3.5765 3.2823 1.8793 1.7116 1.5861 1.4877 1.58795 1.4076 1.3341 1.2565 1.1669 1.0657 0.9489 0.8246 0.8129 0.6955 0.5637 0.4318 0.3123 0.2115 0.1327 0.0769 0.0916 0.0411 0.0203 0.0092 0.0039 0.0015 0.0005 0.0002 0.0004 0.0001 0.0001 0.0001 0.0001444444 0.0001 
0.0001000043 0.0001000027 0.0001 0.0001 0.0001 0.0001 0.0001 0.0001 0.0001 0.0001 0.0001 0.0001 0.0001000001 0.0001000002 0.0001 0.0001 0.0001 0.0001 0.0001 0.0001 0.0001000004 0.0001 0.0001 0.0001 0.0001015625 0.0001029192 0.0001375989 0.0002 0.0002012346 0.0002 0.000154321 0.0001 0.0001125 0.00011875 0.0001 0.000125 0.0001333333 0.000175 0.0001 0.00015 0.0002666667 0.0006666667 0.001275 0.0001 0.0035 0.0074 0.0002 0.0007 0.0025 0.0077 0.021 0.0511 0.1111 0.2784167 0.2304 0.4346 0.5521 0.8559 1.358 1.8215 2.4394 2.865183 3.0858 3.8381 4.7053 5.6857 6.8611 8.3387 10.2777 11.15687 12.6011 14.648 15.5247 14.8853 15.8015 17.2283 17.98 17.71895 18.9921 20.1285 20.8274 21.0782 22.524 35.0255 38.2117 32.6338 28.07423 24.4297 26.8667 23.7042 17.6091 17.0525 16.9436 16.38962 16.3095 15.498 14.6448 12.3009 9.9933 8.2336 6.0561 5.018434 3.5529 1.8199 1.539 1.6223 1.7304 1.9551 2.072 1.9794 1.91345 1.7889 1.9226 2.2815 2.2713 2.9711 5.8826 10.2926 11.92553 13.0002 6.3246 1.924 1.197 1.557 0.1134 0.1552 0.31395 0.3317 0.6173 1.437 2.8626 6.0196 4.7184 1.6289 2.557133 2.5621 3.2038 3.6721 5.1113 6.7058 6.5986 4.5445 4.1326 2.9001 2.8397 3.0177 3.0309 2.9326 2.7795 2.5975 2.688733 2.4105 2.2318 1.68635 1.2314 1.1635 1.0985 1.0176 0.9698167 1.1108 0.9253 0.7617 0.6252 0.5085 0.4103 0.3268 0.38225 0.2527 0.1875 0.1322 0.088 0.0548 0.0317 0.017 0.0246 0.0084 0.0039 0.0016 0.0007 0.0002 0.0001 0.0002666667 0.00015 0.0001 0.0001 0.0001 0.0001 0.0001148148 
0.0001000017 0.0001 0.0001 0.0001 0.0001 0.0001 0.0001 0.0001 0.0001 0.0001 0.0001 0.0001 0.0001000001 0.0001 0.0001 0.0001 0.0001 0.0001 0.0001 0.0001000001 0.0001 0.0001 0.0001 0.0001007813 0.0001014939 0.0001355202 0.0002 0.0002004115 0.0002 0.0001514403 0.0001 0.00010625 0.0001078125 0.0001 0.0001125 0.0001194444 0.0001333333 0.0001 0.000125 0.0001722222 0.0003611111 0.0005770833 0.0001 0.0001 0.0001 0.0002 0.0003666667 0.0002 0.0008 0.003 0.0096 0.0279 0.0721 0.10905 0.1596 0.3152 0.2549 0.4584 0.7427 1.1079 1.433 1.73035 1.7955 2.2329 2.7633 3.4183 4.2522 5.3929 6.8474 8.090983 8.6531 10.3367 11.2979 11.6243 12.7143 14.1092 14.7916 14.57615 15.192 15.1137 13.9766 17.1521 28.3179 35.2721 38.9913 37.12117 37.0165 30.4704 30.0219 25.3095 18.8864 16.9423 16.4873 15.80822 15.7379 14.5923 13.1192 11.6278 8.5855 6.3405 4.3731 3.462817 2.1749 1.3774 1.1757 1.281 1.4155 1.5925 1.6765 1.666933 1.6052 1.4778 1.5075 1.6317 1.8985 1.9183 3.1169 4.9429 5.488 10.023 2.62665 1.22 0.7705 1.1839 0.0307 0.0706 0.0692 0.1107 0.2149 1.021 1.7601 4.1827 3.2992 2.154083 0.6648 1.2771 1.7774 2.1451 2.8131 5.0615 4.0187 2.8777 2.681867 2.169 1.7992 1.6933 1.664 1.6385 1.5937 1.5286 1.659667 1.4593 1.391 0.8749 0.8092 0.7242 0.6248 0.6179833 0.5246 0.2706 0.2734 0.2481 0.2072 0.1882 0.1378 0.1107 0.1321167 0.0832 0.0582 0.0381 0.0232 0.0121 0.0061 0.0029 0.005033333 0.0013 0.0006 0.0002 0.0001 0.000275 0.00015 0.0001 0.0001541667 0.0001166667 0.0001 0.0001 0.0001 0.0001 
0.0001 0.0001 0.0001 0.0001 0.0001 0.0001 0.0001 0.0001 0.0001 0.0001 0.0001 0.0001 0.0001 0.0001 0.0001 0.0001 0.0001 0.0001 0.0001 0.0001 0.0001 0.0001 0.0001003906 0.0001007584 0.0001344488 0.0002 0.0002001372 0.0002 0.0001504801 0.0001 0.000103125 0.0001035156 0.0001 0.00010625 0.0001106482 0.0001163194 0.0001 0.0001125 0.0001324074 0.0002194444 0.0003026042 0.0001 0.0001 0.0001 0.0001333333 0.0002166667 0.0002 0.0003666667 0.0001 0.0006 0.0022 0.0076 0.0235 0.05525 0.0576 0.08065 0.0757 0.1532 0.2803 0.4636 0.6856 0.89805 0.9428 1.22 1.5505 1.9863 2.6143 3.5629 4.9774 4.941767 5.1892 6.4085 7.3044 7.9562 8.948 9.9287 10.3327 10.3356 10.1685 9.089 6.2147 14.8223 33.3362 40.1649 40.5682 37.32787 35.3055 29.3737 24.1078 23.0269 17.976 16.4538 15.3641 14.32513 14.0069 12.434 10.7914 9.1812 6.6404 4.6138 3.0757 2.458267 1.5442 1.03 1.0129 1.0626 1.1654 1.2825 1.3449 1.374283 1.3236 1.2793 1.2876 1.2947 1.6663 1.1589 1.5862 2.7339 3.2911 6.0036 0.9519 0.6128 0.2624 0.7193 0.0234 0.03465 0.0317 0.0422 0.0892 0.3063 0.9053 3.2461 2.1742 1.3745 0.439 0.9535 0.7033 1.1274 1.5006 2.4782 2.5026 2.381233 2.0358 1.5641 2.038 0.7163 0.8737 0.9653 0.9997 1.019283 0.9943 0.9678 0.9275 0.3653 0.3459 0.3007 0.2467 0.2894833 0.1957 0.1265 0.0879 0.0685 0.0554 0.0232 0.0285 0.0491 0.0141 0.0052 0.0015 0.0004 0.0001 0.001 0.0008 0.001733333 0.0004 0.0002 0.0001 0.00025 0.00015 0.0001 0.00015625 0.000125 0.0001 0.0001177083 0.0001055556 0.0001 0.0001 0.0001 
0.0001 0.0001 0.0001 0.0001 0.0001 0.0001 0.0001 0.0001 0.0001 0.0001 0.0001 0.0001 0.0001 0.0001 0.0001 0.0001 0.0001 0.0001 0.0001 0.0001 0.0001 0.0001001953 0.000100383 0.0001338995 0.0002 0.0002000457 0.0002 0.00015016 0.0001 0.0001015625 0.0001016602 0.0001 0.000103125 0.0001056327 0.0001083044 0.0001 0.00010625 0.0001149691 0.0001547839 0.000188614 0.0001 0.0001 0.0001 0.0001111111 0.0001625 0.0002 0.0002222222 0.0001 0.0002666667 0.0001 0.0003 0.0014 0.006416667 0.005 0.0137 0.0066 0.0158 0.0357 0.0679 0.1241 0.2580333 0.2075 0.3239 0.4779 0.6595 0.8648 1.0861 1.2555 2.0745 1.2728 2.7107 3.438 4.0589 4.6329 5.3665 5.9764 6.073 6.176067 5.4558 3.6425 4.2212 9.4971 21.6582 38.1649 39.5668 34.96085 32.5189 22.7397 17.1032 16.4418 14.638 14.1818 13.0922 11.84397 11.2624 9.7135 7.8957 6.1414 4.9582 3.8674 2.349 1.846033 1.2327 1.0434 0.9252 1.004 1.0408 1.0949 1.1381 1.1485 1.1574 1.1595 1.1547 1.0661 1.1178 0.7022 1.0676 1.552033 1.8536 3.3335 0.3415 0.1867 0.065 0.2507 0.0242 0.02768333 0.0287 0.0255 0.0359 0.0826 0.3857 2.2371 1.4521 0.9805334 0.2177 0.5024 0.3251 0.4908 0.79 1.2556 1.4643 1.537733 1.3883 1.2236 1.349 0.8313 0.9948 0.5026 0.5077 0.561 0.4917 0.2401 0.20555 0.1054 0.1123 0.1003 0.0816 0.10745 0.0635 0.0442 0.0421 0.011 0.0138 0.0091 0.0028 0.008083333 0.0007 0.0001 0.00125 0.000525 0.0004 0.0001 0.0001 0.00035 0.0001 0.0002 0.00015 0.0001 0.00015 0.000125 0.0001 0.0001203125 0.0001125 0.0001 0.000105816 0.0001018519 0.0001 0.0001 
0.0001 0.0001 0.0001 0.0001 0.0001 0.0001 0.0001 0.0001 0.0001 0.0001 0.0001 0.0001 0.0001 0.0001 0.0001 0.0001 0.0001 0.0001 0.0001 0.0001 0.0001000977 0.0001001928 0.0001336194 0.0002 0.0002000152 0.0002 0.0001500533 0.0001 0.0001007813 0.0001008057 0.0001 0.0001015625 0.0001029192 0.0001042655 0.0001 0.000103125 0.000107073 0.0001253344 0.0001395918 0.0001 0.0001 0.0001 0.0001037037 0.0001434028 0.0002 0.0001740741 0.0001 0.0001555556 0.0001 0.0002 0.0005 0.0002 0.0015 0.0008 0.0024 0.0004 0.0016 0.0034 0.0116 0.0235 0.06818333 0.0439 0.0767 0.1261 0.1943 0.2824 0.4058 0.6058 0.7199667 0.7726 1.2298 1.5601 1.8775 2.2029 2.539 2.6243 3.053117 2.0298 2.9966 2.0799 2.1474 4.5838 10.1007 27.2036 28.92218 33.7381 28.0676 9.6676 10.2524 10.0437 8.7092 9.188 9.294766 9.031 8.3072 7.0575 5.4731 3.8732 3.303 2.6289 2.279317 1.8237 1.0509 0.6291 0.5725 0.7993 0.9005 0.9425 0.854 0.9725 0.9545 0.9437 0.8797 0.5683 0.5447 0.2704 0.4996 0.8591833 1.0141 1.56925 0.0965 0.0525 0.0289 0.0692 0.07285 0.0275 0.0306 0.0246 0.0269 0.0373 0.1469 0.9736 1.5144 0.72815 0.0858 0.2012 0.1764 0.1354 0.306 0.6202 0.8677 0.93205 0.9677 0.9288 0.8959 0.5843 0.6176 0.1924 0.1921 0.2509 0.1805 0.0939 0.0156 0.0317 0.0383 0.0367 0.0315 0.03955 0.0257 0.028 0.0105 0.0064 0.0056 0.004 0.0018 0.001266667 0.0006 0.0002 0.0001 0.0001 0.0001 0.0001 0.0001 0.0001 0.0001 0.0001 0.0001375 0.000125 0.0001 0.00011875 0.0001125 0.0001 0.0001082031 0.00010625 0.0001 0.000101917 0.0001006173 0.0001 
0.0001 0.0001 0.0001 0.0001 0.0001 0.0001 0.0001 0.0001 0.0001 0.0001 0.0001 0.0001 0.0001 0.0001 0.0001 0.0001 0.0001 0.0001 0.0001 0.0001000488 0.0001000968 0.0001334775 0.0002 0.0002000051 0.0002 0.0001500178 0.0001 0.0001003906 0.0001003967 0.0001 0.0001007813 0.0001014939 0.0001021868 0.0001 0.0001015625 0.0001033993 0.0001118441 0.0001179998 0.0001 0.0001 0.0001 0.0001012346 0.0001367766 0.0002 0.0001580247 0.0001 0.0001185185 0.0001 0.00015 0.00025 0.0002 0.0002 0.0003666667 0.0001 0.0002 0.0001 0.0002 0.0005 0.0015 0.0033 0.0131 0.0068 0.013 0.0233 0.0385 0.0584 0.0813 0.1091 0.30785 0.304 0.5449 0.7295 0.9007 1.0093 0.897 0.7146 1.136767 0.9006 1.3372 0.951 0.9603 1.9285 3.9938 14.1313 18.87073 20.7284 16.5396 4.416 5.1573 5.3941 4.341 4.9262 5.614217 5.3494 5.0961 4.4514 3.5249 2.4845 2.0759 1.6648 1.597417 1.3421 0.6333 0.1956 0.1907 0.3432 0.4366 0.4748 0.5418333 0.5012 0.4649 0.4543 0.3794 0.1818 0.213 0.1257 0.20765 0.1685 0.5517 0.4925 0.0381 0.0285 0.0271 0.0335 0.03866667 0.032 0.0342 0.026 0.0298 0.0284 0.0663 0.3893 0.6722834 0.7311 0.3678 0.0791 0.0784 0.0572 0.0845 0.2344 0.3936 0.4023 0.502 0.4755 0.4018 0.249 0.2525 0.0693 0.069 0.09546667 0.0644 0.0358 0.0103 0.0147 0.0183 0.0189 0.02361667 0.026 0.009 0.0129 0.0077 0.0046 0.0033 0.0023 0.001916667 0.0012 0.0005 0.0002 0.0001 0.0001 0.0001 0.0001 0.0001 0.0001 0.0001 0.0001 0.0001 0.000115625 0.0001125 0.0001 0.0001078125 0.00010625 0.0001 0.0001036133 0.000103125 0.0001 0.0001006336 0.0001003086 
0.0001 0.0001 0.0001 0.0001 0.0001 0.0001 0.0001 0.0001 0.0001 0.0001 0.0001 0.0001 0.0001 0.0001 0.0001 0.0001 0.0001 0.0001 0.0001000244 0.0001000485 0.0001334058 0.0002 0.0002000017 0.0002 0.0001500059 0.0001 0.0001001953 0.0001001968 0.0001 0.0001003906 0.0001007584 0.0001011155 0.0001 0.0001007813 0.0001016539 0.000105602 0.0001083108 0.0001 0.0001 0.0001 0.0001004115 0.0001345028 0.0002 0.0001526749 0.0001 0.0001061728 0.0001 0.000125 0.000175 0.0002 0.0002 0.0002166667 0.0001 0.00015 0.0001333333 0.0001666667 0.000225 0.0001 0.0001 0.0013 0.0003 0.0008 0.0016 0.0032 0.0056 0.0093 0.0123 0.0136 0.117175 0.042 0.4051 0.7250333 0.8798333 0.6299 0.2774 0.2432 0.38525 0.3081 0.4661 0.3301 0.3142 0.7267 1.4647 7.8676 9.97825 9.5554 4.8508 2.0252 2.5619 2.5343 2.046 2.4178 3.010617 2.7729 2.8568 2.6265 2.156 1.5883 1.3747 1.1171 1.052117 1.0079 0.3054 0.0499 0.0422 0.1182 0.1475 0.171 0.253 0.189 0.1639 0.1712 0.1403 0.0644 0.1358 0.1054 0.106 0.0763 0.1978 0.1686 0.0283 0.0256 0.0279 0.0327 0.03558333 0.0371 0.0376 0.0278 0.033 0.0275 0.0435 0.1521 0.2871 0.2732 0.1681 0.0857 0.0415 0.0293 0.0459 0.0751 0.1645167 0.1619 0.2068 0.1824 0.1352 0.0814 0.1106 0.0343 0.04251667 0.0344 0.0324 0.01015 0.0047 0.0084 0.011 0.0177 0.01478333 0.0109 0.0073 0.0075 0.0053 0.0033 0.0022 0.0014 0.001183333 0.0008 0.0004 0.0002 0.0001 0.0001 0.0001 0.0001 0.0001 0.0001 0.0001 0.0001 0.0001 0.0001 0.0001070313 0.00010625 0.0001 0.0001035156 0.000103125 0.0001 0.0001016846 0.0001015625 0.0001 0.0001003141 
0.0001 0.0001 0.0001 0.0001 0.0001 0.0001 0.0001 0.0001 0.0001 0.0001 0.0001 0.0001 0.0001 0.0001 0.0001 0.0001 0.0001 0.0001000122 0.0001000243 0.0001333697 0.0002 0.0002000006 0.0002 0.000150002 0.0001 0.0001000977 0.000100098 0.0001 0.0001001953 0.000100383 0.0001005661 0.0001 0.0001003906 0.0001008117 0.0001026791 0.0001038917 0.0001 0.0001 0.0001 0.0001001372 0.0001337286 0.0002 0.0001508916 0.0001 0.0001020576 0.0001 0.0001125 0.00015 0.0002 0.0002 0.0001791667 0.0001 0.000125 0.0001277778 0.00015 0.00015625 0.0001 0.0001 0.0001 0.0002 0.0004 0.0001 0.0002 0.0003 0.0004 0.0069 0.01173333 0.01295 0.0278 0.042 0.042 0.5129917 0.4759333 0.1183 0.0651 0.1124 0.0631 0.0819 0.1232 0.0897 0.0776 0.1908 0.4664 3.7379 4.570233 3.8489 1.1777 0.9112 0.9989 1.1447 0.9487 1.221883 1.178 1.4194 1.5461 1.5197 1.2598 1.1356 0.9282 0.79895 0.7064 0.4744 0.08 0.0126 0.013 0.069 0.0657 0.0842 0.11815 0.0978 0.0765 0.0923 0.0834 0.0426 0.1205 0.0988 0.08163334 0.0613 0.0623 0.0823 0.0237 0.0235 0.028 0.0362 0.039 0.042 0.0409 0.0296 0.036 0.0323 0.0339 0.0743 0.1189333 0.1026 0.0747 0.0763 0.0336 0.0222 0.0224 0.0405 0.07038333 0.0729 0.085 0.0709 0.0517 0.0356 0.0805 0.0242 0.0256 0.0239 0.0222 0.0042 0.0038 0.0054 0.0103 0.0079 0.0089 0.0073 0.0053 0.0046 0.0034 0.0022 0.0014 0.0009 0.0007333333 0.0005 0.0002 0.0001 0.000125 0.0001 0.0001 0.0001 0.0001 0.0001 0.0001 0.0001 0.0001 0.0001 0.0001 0.0001033203 0.000103125 0.0001 0.0001016602 0.0001015625 0.0001 0.0001008118 0.0001007813 0.0001 
0.0001 0.0001 0.0001 0.0001 0.0001 0.0001 0.0001 0.0001 0.0001 0.0001 0.0001 0.0001 0.0001 0.0001 0.0001 0.0001 0.0001000061 0.0001000122 0.0001333516 0.0002 0.0002000002 0.0002 0.0001500007 0.0001 0.0001000488 0.0001000489 0.0001 0.0001000977 0.0001001928 0.0001002861 0.0001 0.0001001953 0.0001004008 0.0001012938 0.0001018456 0.0001 0.0001 0.0001 0.0001000457 0.0001334664 0.0002 0.0001502972 0.0001 0.0001006859 0.0001 0.00010625 0.000140625 0.0002 0.0002 0.0001697917 0.0001 0.0001125 0.0001175926 0.0001342593 0.0001335069 0.0001 0.0001 0.0001 0.0001333333 0.0002 0.0001 0.00015 0.0002 0.0003 0.00035 0.0004 0.007995834 0.01749444 0.02758333 0.03726667 0.042 0.042 0.05 0.0266 0.0124 0.02645 0.0132 0.0178 0.0267 0.0201 0.0152 0.038 0.3633 1.088067 1.3706 1.041 0.4398 0.3173 0.3263 0.402 0.3069 0.5138167 0.4339 0.628 0.7698 0.8177 0.6701 0.592 0.3954 0.4164167 0.2719 0.1402 0.0171 0.0076 0.0114 0.0696 0.0553 0.07011667 0.0768 0.0901 0.0604 0.0816 0.0492 0.0333 0.1073 0.09851667 0.0911 0.0569 0.0416 0.0556 0.0189 0.0207 0.0272 0.03316667 0.0397 0.0463 0.0437 0.0311 0.0386 0.0303 0.0348 0.04566666 0.0508 0.0606 0.0544 0.0658 0.0541 0.0217 0.0149 0.0283 0.0401 0.0436 0.0486 0.0428 0.0344 0.027 0.0734 0.0188 0.0187 0.018 0.0137 0.0031 0.0019 0.0047 0.0047 0.005583333 0.005 0.0046 0.0036 0.0029 0.0021 0.0014 0.0009 0.0005 0.00045 0.0003 0.0001 0.0001 0.0001 0.00010625 0.0001 0.0001 0.0001 0.0001 0.0001 0.0001 0.0001 0.0001 0.0001 0.0001 0.0001016113 0.0001015625 0.0001 0.0001008057 0.0001007813 0.0001 0.0001003983 0.0001003906 
0.0001 0.0001 0.0001 0.0001 0.0001 0.0001 0.0001 0.0001 0.0001 0.0001 0.0001 0.0001 0.0001 0.0001 0.0001 0.0001000031 0.0001000061 0.0001333425 0.0002 0.0002000001 0.0002 0.0001500002 0.0001 0.0001000244 0.0001000244 0.0001 0.0001000488 0.0001000968 0.0001001441 0.0001 0.0001000977 0.0001001987 0.00010063 0.0001008851 0.0001 0.0001 0.0001 0.0001000152 0.000133378 0.0002 0.0001500991 0.0001 0.0001002286 0.0001 0.000103125 0.0001367188 0.0002 0.0002 0.0001674479 0.0001 0.00010625 0.0001100309 0.0001214506 0.0001213397 0.0001 0.0001 0.0001 0.0001111111 0.0001333333 0.0001 0.000125 0.00015 0.0002166667 0.0002833333 0.00035 0.000375 0.0004 0.0133684 0.02744815 0.03561667 0.04042222 0.02948667 0.01105 0.0051 0.0023 0.0053 0.0026 0.0036 0.0055 0.0043 0.0025 0.0079 0.079 0.4209167 0.5112 0.2144 0.2443 0.5457 0.1129 0.1254 0.0914 0.17675 0.124 0.1904 0.2542 0.2854 0.2238 0.2199 0.1174 0.1554333 0.0792 0.0347 0.0076 0.0048 0.0132 0.0765 0.0559 0.06963333 0.0828 0.0943 0.0518 0.0649 0.0292 0.0252 0.0917 0.08751667 0.0817 0.0578 0.0342 0.0413 0.0143 0.0175 0.0254 0.03356666 0.0425 0.0496 0.0428 0.0353 0.0404 0.0276 0.035 0.04041667 0.0452 0.0534 0.052 0.0612 0.072 0.0217 0.0108 0.01703333 0.0222 0.0331 0.0377 0.0354 0.0299 0.0337 0.057 0.03596667 0.0142 0.0131 0.0075 0.0021 0.0013 0.0021 0.0027 0.003083333 0.0029 0.0028 0.0022 0.0017 0.0012 0.0008 0.0005 0.00045 0.0003 0.0002 0.0001 0.0001 0.0001 0.0001 0.0001015625 0.0001 0.0001 0.0001 0.0001 0.0001 0.0001 0.0001 0.0001 0.0001 0.0001 0.0001007935 0.0001007813 0.0001 0.0001003967 0.0001003906 0.0001 0.000100263 
0.0001 0.0001 0.0001 0.0001 0.0001 0.0001 0.0001 0.0001 0.0001 0.0001 0.0001 0.0001 0.0001 0.0001 0.0001000015 0.000100003 0.0001333379 0.0002 0.0002 0.0002 0.0001500001 0.0001 0.0001000122 0.0001000122 0.0001 0.0001000244 0.0001000485 0.0001000724 0.0001 0.0001000488 0.0001000988 0.0001003088 0.0001004284 0.0001 0.0001 0.0001 0.0001000051 0.0001333483 0.0002 0.000150033 0.0001 0.0001000762 0.0001 0.0001015625 0.0001349609 0.0002 0.0002 0.000166862 0.0001 0.000103125 0.000105427 0.0001125772 0.0001132053 0.0001 0.0001 0.0001 0.0001037037 0.0001111111 0.0001 0.0001125 0.000125 0.0001638889 0.0002166667 0.0002833333 0.0003361111 0.000375 0.0003875 0.0004 0.0192083 0.03449568 0.02233622 0.004819444 0.002383333 0.00145 0.0006 0.001133333 0.0007 0.001 0.0016 0.0013 0.0003 0.0032 0.0227 0.1544583 0.1787 0.1328 0.1575 0.0168 0.0756 0.0672 0.0502 0.06875 0.0541 0.0664 0.0784 0.0836 0.0749 0.0905 0.0404 0.0523 0.0283 0.0149 0.0061 0.0032 0.0156 0.0839 0.0576 0.0735 0.0894 0.097 0.0417 0.0425 0.0201 0.0181 0.0748 0.07576667 0.0785 0.0411 0.0268 0.0301 0.0103 0.0141 0.0227 0.03291667 0.0439 0.0515 0.0415 0.0383 0.0413 0.0245 0.0338 0.0382 0.0429 0.0507 0.0508 0.0571 0.0856 0.0211 0.0108 0.01326667 0.0152 0.026 0.0312 0.0304 0.0262 0.0366 0.0423 0.02673333 0.0101 0.009 0.0048 0.0013 0.0006 0.0011 0.0015 0.0017 0.0017 0.0016 0.0013 0.001 0.0007 0.0005 0.0003 0.0002666667 0.0002 0.0001 0.0001333333 0.0001 0.0001 0.0001 0.0001 0.0001003906 0.0001 0.0001 0.0001 0.0001 0.0001 0.0001 0.0001 0.0001 0.0001 0.0001 0.0001003937 0.0001003906 0.0001 0.0001001968 0.0001001953 0.0001 
0.0001 0.0001 0.0001 0.0001 0.0001 0.0001 0.0001 0.0001 0.0001 0.0001 0.0001 0.0001 0.0001 0.0001000008 0.0001000015 0.0001333356 0.0002 0.0002 0.0002 0.00015 0.0001 0.0001000061 0.0001000061 0.0001 0.0001000122 0.0001000243 0.0001000363 0.0001 0.0001000244 0.0001000492 0.0001001521 0.000100209 0.0001 0.0001 0.0001 0.0001000017 0.0001333384 0.0002 0.000150011 0.0001 0.0001000254 0.0001 0.0001007813 0.0001341309 0.0002 0.0002 0.0001667155 0.0001 0.0001015625 0.0001028507 0.000107043 0.0001078024 0.0001 0.0001 0.0001 0.0001012346 0.0001037037 0.0001 0.00010625 0.0001125 0.0001337963 0.0001685185 0.0002212963 0.0002787037 0.0003314815 0.0003662037 0.0003875 0.00039375 0.0004 0.01327985 0.002322685 0.001336111 0.001025 0.0006 0.0003333333 0.0003 0.0003 0.0005 0.0008 0.0007 0.001428571 0.0023 0.009 0.0135 0.12165 0.1175 0.1275 0.0301 0.0749 0.0601 0.0547 0.0466 0.0462 0.0474 0.0462 0.0443 0.0489 0.0634 0.05096667 0.0285 0.02 0.0122 0.0068 0.0067 0.0114 0.0913 0.07551666 0.0598 0.0955 0.0966 0.0315 0.026 0.0127 0.0123 0.0579 0.1008667 0.07 0.0844 0.0558 0.0212 0.007 0.0108 0.01513333 0.0195 0.0435 0.0519 0.0418 0.0377 0.0362 0.0255 0.0321 0.0359 0.0402 0.0474 0.0485 0.0527 0.0939 0.0197 0.0103 0.01045 0.0103 0.0198 0.025 0.0253 0.0222 0.0357 0.0299 0.0203 0.0069 0.0048 0.0028 0.0008 0.0003 0.0008 0.0006 0.0009 0.0008 0.0008 0.0007 0.0005 0.0004 0.0003 0.0002 0.00018 0.0001 0.0001333333 0.0001 0.0001111111 0.0001 0.0001 0.0001 0.0001 0.0001000977 0.0001 0.0001 0.0001 0.0001 0.0001 0.0001 0.0001 0.0001 0.0001 0.0001 0.0001001961 0.0001001953 0.0001 0.000100098 0.0001000977 
0.0001 0.0001 0.0001 0.0001 0.0001 0.0001 0.0001 0.0001 0.0001 0.0001 0.0001 0.0001 0.0001000004 0.0001000008 0.0001333345 0.0002 0.0002 0.0002 0.00015 0.0001 0.0001000031 0.0001000031 0.0001 0.0001000061 0.0001000122 0.0001000182 0.0001 0.0001000122 0.0001000245 0.0001000753 0.0001001026 0.0001 0.0001 0.0001 0.0001000006 0.000133335 0.0002 0.0001500037 0.0001 0.0001000085 0.0001 0.0001003906 0.000133728 0.0002 0.0002 0.0001666789 0.0001 0.0001007813 0.0001014711 0.0001038187 0.000104424 0.0001 0.0001 0.0001 0.0001004115 0.0001012346 0.0001 0.000103125 0.00010625 0.0001175154 0.0001382716 0.000174537 0.0002228395 0.0002771605 0.000325463 0.0003617284 0.0003824846 0.00039375 0.000396875 0.001086285 0.0009162037 0.0008125 0.0006 0.0003 0.0001666667 0.0001 0.0002 0.0003 0.0005 0.0004 0.00115 0.0018 0.006283334 0.0105 0.1232 0.1077 0.1076 0.0393 0.0751 0.058 0.05168333 0.0461 0.0463 0.0472 0.0455 0.0445 0.0502 0.0556 0.04211667 0.0274 0.0189 0.012 0.0081 0.0083 0.0085 0.0985 0.08013333 0.062 0.1004 0.093 0.0222 0.0147 0.0075 0.018 0.05135 0.1172 0.2068 0.05985714 0.0009 0.0144 0.0045 0.0078 0.01196667 0.0159 0.0411 0.0508 0.0406 0.0364 0.0309 0.025 0.02711667 0.0297 0.0367 0.0432 0.045 0.0476 0.0967 0.0177 0.01336667 0.0093 0.0068 0.0145 0.0193 0.0201 0.018 0.024 0.0282 0.01506667 0.0044 0.0022 0.0012 0.0009 0.0001 0.0004 0.0004166667 0.0004 0.0004 0.0004 0.0004 0.0003 0.0002 0.0001 0.00016 0.0001 0.0001 0.0001 0.0001111111 0.0001 0.0001037037 0.0001 0.0001 0.0001 0.0001 0.0001000244 0.0001 0.0001 0.0001 0.0001 0.0001 0.0001 0.0001 0.0001 0.0001 0.0001 0.0001000978 0.0001000977 0.0001 0.0001000652 
0.0001 0.0001 0.0001 0.0001 0.0001 0.0001 0.0001 0.0001 0.0001 0.0001 0.0001 0.0001000002 0.0001000004 0.0001333339 0.0002 0.0002 0.0002 0.00015 0.0001 0.0001000015 0.0001000015 0.0001 0.0001000031 0.0001000061 0.0001000091 0.0001 0.0001000061 0.0001000123 0.0001000373 0.0001000506 0.0001 0.0001 0.0001 0.0001000002 0.0001333339 0.0002 0.0001500012 0.0001 0.0001000028 0.0001 0.0001001953 0.0001335297 0.0002 0.0002 0.0001666697 0.0001 0.0001003906 0.0001007508 0.0001020237 0.0001024285 0.0001 0.0001 0.0001 0.0001001372 0.0001004115 0.0001 0.0001015625 0.000103125 0.0001089635 0.000120679 0.0001434414 0.0001785494 0.0002248457 0.0002751543 0.0003214506 0.0003565587 0.000379321 0.0003910365 0.0006541705 0.0007408179 0.00070625 0.0006 0.0002805555 0.0001222222 0.0001 0.0001 0.0001 0.0002 0.0003 0.0003 0.00085 0.0014 0.007133333 0.0082 0.0998 0.0953 0.091 0.0441 0.0721 0.0547 0.04923333 0.0446 0.0461 0.0481 0.0479 0.0487 0.0528 0.0507 0.03908333 0.0271 0.0187 0.0124 0.0093 0.0088 0.0066 0.105 0.07895 0.0642 0.1038 0.0863 0.0147 0.0077 0.0081 0.0112 0.0676 0.162 0.1080333 0.0001 0.001 0.0094 0.0028 0.0054 0.00905 0.0124 0.0369 0.0482 0.0381 0.0311 0.0283 0.0236 0.025 0.0268 0.0326 0.0383 0.0403 0.0525 0.0837 0.0152 0.01155 0.008 0.0044 0.0101 0.0142 0.0153 0.0139 0.0214 0.02016667 0.0183 0.0027 0.0012 0.0005 0.0006 0.0001 0.0001 0.0002166667 0.0002 0.0002 0.0003 0.0001 0.0001 0.0001 0.0001 0.0001 0.0001 0.0001 0.0001 0.0001 0.0001037037 0.0001 0.0001012346 0.0001 0.0001 0.0001 0.0001 0.0001000061 0.0001 0.0001 0.0001 0.0001 0.0001 0.0001 0.0001 0.0001 0.0001 0.0001 0.0001000489 0.0001000488 0.0001 
0.0001 0.0001 0.0001 0.0001 0.0001 0.0001 0.0001 0.0001 0.0001 0.0001 0.0001000001 0.0001000002 0.0001333336 0.0002 0.0002 0.0002 0.00015 0.0001 0.0001000008 0.0001000008 0.0001 0.0001000015 0.000100003 0.0001000046 0.0001 0.0001000031 0.0001000061 0.0001000186 0.000100025 0.0001 0.0001 0.0001 0.0001000001 0.0001333335 0.0002 0.0001500004 0.0001 0.0001000009 0.0001 0.0001000977 0.0001334312 0.0002 0.0002 0.0001666674 0.0001 0.0001001953 0.0001003805 0.000101055 0.0001013007 0.0001 0.0001 0.0001 0.0001000457 0.0001001372 0.0001 0.0001007813 0.0001015625 0.0001045503 0.0001109225 0.0001243613 0.0001475566 0.0001822788 0.0002261831 0.0002738169 0.0003177212 0.0003524434 0.0003756387 0.0005431476 0.0006646476 0.000653125 0.0006 0.0002719907 0.0001074074 0.0001 0.0001 0.0001 0.0001 0.0001 0.0002 0.0002 0.0006 0.001 0.0075 0.0199 0.0936 0.0813 0.0761 0.0447 0.066 0.05746667 0.05 0.042 0.0449 0.0482 0.0498 0.0516 0.0535 0.05001667 0.0469 0.0268 0.0187 0.0133 0.0118 0.0153 0.0287 0.0782 0.07708333 0.0658 0.1052 0.0771 0.0091 0.0067 0.0075 0.0081 0.062225 0.08443333 0.0001 0.000625 0.0009 0.0058 0.0016 0.0036 0.006566667 0.0092 0.0316 0.0442 0.0346 0.0282 0.0229 0.0213 0.0223 0.0236 0.0282 0.0329 0.035 0.0535 0.0698 0.0125 0.009566667 0.0066 0.0027 0.0068 0.01 0.0112 0.0104 0.0177 0.01486667 0.0114 0.00125 0.0007 0.0002 0.0004 0.00025 0.0001 0.000125 0.0001 0.0001 0.0001 0.0001 0.0001 0.0001 0.0001 0.0001 0.0001 0.0001 0.0001 0.0001 0.0001 0.0001012346 0.0001 0.0001004115 0.0001 0.0001 0.0001 0.0001 0.0001000015 0.0001 0.0001 0.0001 0.0001 0.0001 0.0001 0.0001 0.0001 0.0001 0.0001 0.0001000244 0.0001000244 
0.0001 0.0001 0.0001 0.0001 0.0001 0.0001 0.0001 0.0001 0.0001 0.0001 0.0001000001 0.0001333335 0.0002 0.0002 0.0002 0.00015 0.0001 0.0001000004 0.0001000004 0.0001 0.0001000008 0.0001000015 0.0001000023 0.0001 0.0001000015 0.0001000031 0.0001000092 0.0001000124 0.0001 0.0001 0.0001 0.0001 0.0001333334 0.0002 0.0001500001 0.0001 0.0001000003 0.0001 0.0001000488 0.0001333822 0.0002 0.0002 0.0001666669 0.0001 0.0001000977 0.0001001919 0.0001005436 0.0001006841 0.0001 0.0001 0.0001 0.0001000152 0.0001000457 0.0001 0.0001003906 0.0001007813 0.000102298 0.0001056784 0.000113278 0.0001276135 0.0001513989 0.0001853395 0.0002274263 0.0002725737 0.0003146605 0.0003486011 0.0005029829 0.0006304034 0.0006265625 0.0006 0.000268615 0.0001024691 0.0001 0.0001 0.0001 0.0001 0.0001 0.0001 0.0001 0.0001 0.00036 0.001725 0.0035 0.011 0.0829 0.0669 0.0622 0.042 0.0578 0.05071667 0.0442 0.0386 0.0428 0.0475 0.0505 0.0527 0.0526 0.04793333 0.0436 0.0264 0.0188 0.0144 0.0142 0.0179 0.0216 0.05221667 0.0826 0.0667 0.1041 0.0662 0.0053 0.006 0.0067 0.007433333 0.0081 0.0001 0.00038125 0.0005333333 0.0005 0.0036 0.0008 0.001683333 0.0024 0.0064 0.0257 0.0391 0.0304 0.0247 0.018 0.01825 0.0184 0.0201 0.0236 0.0275 0.0294 0.0511 0.056 0.0099 0.00745 0.0052 0.0017 0.0044 0.0068 0.0078 0.0074 0.0136 0.01053333 0.0068 0.0005 0.0003 0.0001 0.0002 0.0002 0.0001 0.0001 0.0001 0.0001 0.0001 0.0001 0.0001 0.0001 0.0001 0.0001 0.0001 0.0001 0.0001 0.0001 0.0001 0.0001 0.0001004115 0.0001 0.0001001372 0.0001 0.0001 0.0001 0.0001 0.0001000004 0.0001 0.0001 0.0001 0.0001 0.0001 0.0001 0.0001 0.0001 0.0001 0.0001 0.0001000163 
0.0001 0.0001 0.0001 0.0001 0.0001 0.0001 0.0001 0.0001 0.0001 0.0001 0.0001333334 0.0002 0.0002 0.0002 0.00015 0.0001 0.0001000002 0.0001000002 0.0001 0.0001000004 0.0001000008 0.0001000011 0.0001 0.0001000008 0.0001000015 0.0001000046 0.0001000062 0.0001 0.0001 0.0001 0.0001 0.0001333333 0.0002 0.0001500001 0.0001 0.0001000001 0.0001 0.0001000244 0.0001333578 0.0002 0.0002 0.0001666667 0.0001 0.0001000488 0.0001000965 0.0001002777 0.0001003549 0.0001 0.0001 0.0001 0.0001000051 0.0001000152 0.0001 0.0001001953 0.0001003906 0.0001011566 0.0001029192 0.0001070848 0.0001155233 0.0001307635 0.0001547839 0.0001880549 0.0002284465 0.0002715535 0.0003119451 0.0004774893 0.0006145615 0.0006132813 0.0006 0.0002673595 0.000100823 0.0001 0.0001 0.0001 0.0001 0.0001 0.0001 0.0001 0.0001 0.0001 0.0004 0.00143 0.002 0.017 0.0603 0.053 0.0494 0.0369 0.0485 0.0431 0.0378 0.0345 0.0399 0.0457 0.0499 0.0522 0.0505 0.04535 0.0405 0.0258 0.019 0.0155 0.0159 0.0182 0.0164 0.05103333 0.0858 0.0664 0.1006 0.0545 0.0029 0.003233333 0.004408333 0.0067 0.005583333 0.001811806 0.0003111111 0.0002666667 0.0002 0.0021 0.0004 0.0009666667 0.0013 0.0043 0.0198 0.0334 0.0257 0.0208 0.0137 0.01458333 0.0152 0.0165 0.0192 0.0222 0.0239 0.0461 0.0433 0.0257 0.0075 0.003 0.0017 0.0029 0.0045 0.0052 0.005 0.007466667 0.0099 0.0038 0.0002 0.0002 0.0001666667 0.0001 0.00015 0.00013 0.0001 0.0001 0.0001 0.0001 0.0001 0.0001 0.0001 0.0001 0.0001 0.0001 0.0001 0.0001 0.0001 0.0001 0.0001 0.0001 0.0001001372 0.0001 0.0001000457 0.0001 0.0001 0.0001 0.0001 0.0001000001 0.0001 0.0001 0.0001 0.0001 0.0001 0.0001 0.0001 0.0001 0.0001 0.0001 
0.0001 0.0001 0.0001 0.0001 0.0001 0.0001 0.0001 0.0001 0.0001 0.0001333334 0.0002 0.0002 0.0002 0.00015 0.0001 0.0001000001 0.0001000001 0.0001 0.0001000002 0.0001000004 0.0001000006 0.0001 0.0001000004 0.0001000008 0.0001000023 0.0001000031 0.0001 0.0001 0.0001 0.0001 0.0001333333 0.0002 0.00015 0.0001 0.0001 0.0001 0.0001000122 0.0001333455 0.0002 0.0002 0.0001666667 0.0001 0.0001000244 0.0001000485 0.000100141 0.0001001823 0.0001 0.0001 0.0001 0.0001000017 0.0001000051 0.0001 0.0001000977 0.0001001953 0.0001005809 0.0001014888 0.0001037202 0.0001085091 0.0001177905 0.0001336902 0.0001578674 0.0001904284 0.0002293516 0.0002706484 0.0004542751 0.0006070674 0.0006066406 0.0006 0.0002669085 0.0001002744 0.0001 0.0001 0.0001 0.0001 0.0001 0.0001 0.0001 0.0001 0.0001 0.0001 0.0002 0.0007083333 0.00105 0.0178 0.0429 0.0403 0.0378 0.0305 0.039 0.0353 0.0313 0.03 0.0362 0.043 0.048 0.0502 0.0475 0.04228333 0.0374 0.0249 0.0188 0.0161 0.0166 0.0173 0.0126 0.04971667 0.0872 0.0648 0.0946 0.0431 0.0015 0.0017 0.001922222 0.003499306 0.0067 0.0001962963 0.0001666667 0.0001333333 0.0001 0.0011 0.0002 0.0005 0.0007 0.0027 0.0144 0.0267 0.0217 0.017 0.0101 0.01145 0.0121 0.0132 0.0151 0.0174 0.0187 0.0394 0.0321 0.01916667 0.0054 0.0017 0.0013 0.0019 0.0029 0.0034 0.0042 0.004833333 0.0047 0.00255 0.0001 0.0001 0.0001333333 0.0001 0.0001 0.000125 0.0001091667 0.0001 0.0001 0.0001 0.0001 0.0001 0.0001 0.0001 0.0001 0.0001 0.0001 0.0001 0.0001 0.0001 0.0001 0.0001 0.0001 0.0001000457 0.0001 0.0001000152 0.0001 0.0001 0.0001 0.0001 0.0001 0.0001 0.0001 0.0001 0.0001 0.0001 0.0001 0.0001 0.0001 0.0001 
0.0001 0.0001 0.0001 0.0001 0.0001 0.0001 0.0001 0.0001 0.0001333333 0.0002 0.0002 0.0002 0.00015 0.0001 0.0001 0.0001 0.0001 0.0001000001 0.0001000002 0.0001000003 0.0001 0.0001000002 0.0001000004 0.0001000011 0.0001000015 0.0001 0.0001 0.0001 0.0001 0.0001333333 0.0002 0.00015 0.0001 0.0001 0.0001 0.0001000061 0.0001333394 0.0002 0.0002 0.0001666667 0.0001 0.0001000122 0.0001000243 0.0001000713 0.0001000929 0.0001 0.0001 0.0001 0.0001000006 0.0001000017 0.0001 0.0001000488 0.0001000977 0.0001002913 0.000100755 0.00010193 0.0001045727 0.0001100066 0.0001199966 0.0001364494 0.000160662 0.0001925492 0.0002301428 0.0004318796 0.0006034626 0.0006033203 0.0006 0.00026675 0.0001000914 0.0001 0.0001 0.0001 0.0001 0.0001 0.0001 0.0001 0.0001 0.0001 0.0001 0.00015 0.000125 0.0001 0.0005 0.0158 0.0298 0.0295 0.0279 0.0239 0.02726667 0.0301 0.0251 0.0255 0.0321 0.0393 0.0448 0.0469 0.045 0.0436 0.0342 0.0236 0.0184 0.0162 0.0164 0.0157 0.01583333 0.0097 0.0866 0.0617 0.0863 0.0326 0.0007 0.0008333334 0.0009666667 0.001114815 0.001754927 0.0001259259 0.0001111111 0.0001 0.0001 0.0006 0.00046 0.0001 0.0003 0.0015 0.0098 0.021 0.0175 0.0123 0.0082 0.008866667 0.0094 0.0101 0.0115 0.0132 0.0168 0.0294 0.0229 0.01375 0.0038 0.0009 0.0009 0.0013 0.0018 0.0027 0.002 0.0029 0.0032 0.0009 0.0001 0.0001 0.0001 0.0001083333 0.0001 0.0001 0.0001083333 0.0001 0.0001 0.0001 0.0001 0.0001 0.0001 0.0001 0.0001 0.0001 0.0001 0.0001 0.0001 0.0001 0.0001 0.0001 0.0001 0.0001 0.0001000152 0.0001 0.0001000051 0.0001 0.0001 0.0001 0.0001 0.0001 0.0001 0.0001 0.0001 0.0001 0.0001 0.0001 0.0001 0.0001 
0.0001 0.0001 0.0001 0.0001 0.0001 0.0001 0.0001 0.0001333333 0.0002 0.0002 0.0002 0.00015 0.0001 0.0001 0.0001 0.0001 0.0001 0.0001000001 0.0001000001 0.0001 0.0001000001 0.0001000002 0.0001000006 0.0001000008 0.0001 0.0001 0.0001 0.0001 0.0001333333 0.0002 0.00015 0.0001 0.0001 0.0001 0.0001000031 0.0001333364 0.0002 0.0002 0.0001666667 0.0001 0.0001000061 0.0001000122 0.0001000359 0.0001000471 0.0001 0.0001 0.0001 0.0001000002 0.0001000006 0.0001 0.0001000244 0.0001000488 0.0001001459 0.0001003813 0.0001009921 0.0001024192 0.0001055031 0.0001115253 0.0001221509 0.000139036 0.0001632202 0.0001944513 0.0004114218 0.0006017076 0.0006016602 0.0006 0.0002666951 0.0001000305 0.0001 0.0001 0.0001 0.0001 0.0001 0.0001 0.0001 0.0001 0.0001 0.0001 0.000125 0.000115 0.0001 0.0001 0.0003 0.0127 0.02 0.0207 0.0197 0.0178 0.02045 0.0223 0.0196 0.0211 0.0277 0.035 0.0406 0.0426 0.0407 0.0392 0.0307 0.0219 0.0175 0.0158 0.0162 0.0171 0.01635 0.0226 0.0646 0.0574 0.0765 0.0236 0.0003 0.0003666667 0.0004555556 0.0005444444 0.0003753086 0.0001037037 0.0001 0.0001 0.000275 0.0003 0.000275 0.000175 0.0002 0.0008 0.0064 0.016 0.0125 0.0093 0.007966666 0.0064 0.007 0.0075 0.0085 0.0112 0.0125 0.0211 0.01903333 0.0158 0.0025 0.0005 0.0006 0.0008 0.0014 0.0013 0.0012 0.001716667 0.0021 0.0005 0.000425 0.0001 0.0001 0.0001 0.0001020833 0.0001 0.0001 0.0001020833 0.0001 0.0001 0.0001 0.0001 0.0001 0.0001 0.0001 0.0001 0.0001 0.0001 0.0001 0.0001 0.0001 0.0001 0.0001 0.0001 0.0001 0.0001000051 0.0001 0.0001000017 0.0001 0.0001 0.0001 0.0001 0.0001 0.0001 0.0001 0.0001 0.0001 0.0001 0.0001 0.0001 
0.0001 0.0001 0.0001 0.0001 0.0001 0.0001 0.0001333333 0.0002 0.0002 0.0002 0.00015 0.0001 0.0001 0.0001 0.0001 0.0001 0.0001 0.0001000001 0.0001 0.0001 0.0001000001 0.0001000003 0.0001000004 0.0001 0.0001 0.0001 0.0001 0.0001333333 0.0002 0.00015 0.0001 0.0001 0.0001 0.0001000015 0.0001333349 0.0002 0.0002 0.0001666667 0.0001 0.0001000031 0.0001000061 0.0001000181 0.0001000238 0.0001 0.0001 0.0001 0.0001000001 0.0001000002 0.0001 0.0001000122 0.0001000244 0.0001000731 0.000100192 0.0001005064 0.0001012642 0.0001029715 0.0001064826 0.0001130598 0.0001242374 0.000141469 0.0001655692 0.0003940709 0.0006008459 0.0006008301 0.0006 0.0002666763 0.0001000102 0.0001 0.0001 0.0001 0.0001 0.0001 0.0001 0.0001 0.0001 0.0001 0.0001 0.0001125 0.000108 0.0001 0.0001 0.000175 0.0002 0.0094 0.0131 0.0139 0.0134 0.0126 0.01471667 0.016 0.0148 0.017 0.0233 0.0302 0.0357 0.0375 0.0359 0.0344 0.0271 0.0199 0.0162 0.015 0.0155 0.0164 0.01881667 0.0166 0.0617 0.0518 0.0656 0.0164 0.0001 0.0001666667 0.0002111111 0.000262963 0.0002092593 0.0001 0.0001 0.0001604167 0.0001666667 0.0001 0.0001666667 0.00015 0.0001 0.0004 0.004 0.0114 0.0089 0.0068 0.0059 0.0048 0.005 0.0054 0.006 0.009 0.009 0.0146 0.01303333 0.0104 0.0016 0.0003 0.0004 0.0006 0.0007 0.0008 0.00085 0.0009 0.0009 0.0002 0.0002666667 0.0002354167 0.0001 0.0001 0.0001 0.0001005208 0.0001 0.0001 0.0001005208 0.0001 0.0001 0.0001 0.0001 0.0001 0.0001 0.0001 0.0001 0.0001 0.0001 0.0001 0.0001 0.0001 0.0001 0.0001 0.0001 0.0001 0.0001000017 0.0001 0.0001000006 0.0001 0.0001 0.0001 0.0001 0.0001 0.0001 0.0001 0.0001 0.0001 0.0001 0.0001 
0.0001 0.0001 0.0001 0.0001 0.0001 0.0001333333 0.0002 0.0002 0.0002 0.00015 0.0001 0.0001 0.0001 0.0001 0.0001 0.0001 0.0001 0.0001 0.0001 0.0001 0.0001000001 0.0001000002 0.0001 0.0001 0.0001 0.0001 0.0001333333 0.0002 0.00015 0.0001 0.0001 0.0001 0.0001000008 0.0001333341 0.0002 0.0002 0.0001666667 0.0001 0.0001000015 0.000100003 0.0001000091 0.000100012 0.0001 0.0001 0.0001 0.0001 0.0001000001 0.0001 0.0001000061 0.0001000122 0.0001000366 0.0001000965 0.0001002572 0.0001006542 0.0001015807 0.0001035727 0.0001075046 0.0001145933 0.0001262554 0.0001437585 0.0003803474 0.0006004203 0.000600415 0.0006 0.0002666699 0.0001000034 0.0001 0.0001 0.0001 0.0001 0.0001 0.0001 0.0001 0.0001 0.0001 0.0001 0.00010625 0.0001041 0.0001 0.0001 0.00013125 0.00015 0.0001 0.0065 0.0082 0.009 0.0087 0.009066666 0.0086 0.011 0.0109 0.0133 0.019 0.0254 0.0304 0.0313 0.0322 0.0295 0.0234 0.0176 0.0146 0.0138 0.0147 0.0168 0.01925 0.0234 0.0537 0.0439 0.0455 0.0108 0.0001 0.0001 0.0001222222 0.0001444444 0.000142963 0.0001 0.0001206597 0.0001222222 0.0001 0.0001 0.0001 0.0001 0.0002 0.0002 0.0024 0.0077 0.0061 0.0047 0.004216667 0.0034 0.0035 0.0037 0.0041 0.0059 0.0071 0.0097 0.0086 0.0066 0.001 0.0002 0.0002 0.0003 0.0004 0.0004 0.0005 0.0005 0.0004 0.0001 0.00015 0.0001722222 0.0001581597 0.0001 0.0001 0.0001 0.0001001302 0.0001 0.0001 0.0001001302 0.0001 0.0001 0.0001 0.0001 0.0001 0.0001 0.0001 0.0001 0.0001 0.0001 0.0001 0.0001 0.0001 0.0001 0.0001 0.0001 0.0001 0.0001000006 0.0001 0.0001000002 0.0001 0.0001 0.0001 0.0001 0.0001 0.0001 0.0001 0.0001 0.0001 0.0001 
0.0001 0.0001 0.0001 0.0001 0.0001333333 0.0002 0.0002 0.0002 0.00015 0.0001 0.0001 0.0001 0.0001 0.0001 0.0001 0.0001 0.0001 0.0001 0.0001 0.0001000001 0.0001000001 0.0001 0.0001 0.0001 0.0001 0.0001333333 0.0002 0.00015 0.0001 0.0001 0.0001 0.0001000004 0.0001333337 0.0002 0.0002 0.0001666667 0.0001 0.0001000008 0.0001000015 0.0001000045 0.000100006 0.0001 0.0001 0.0001 0.0001 0.0001 0.0001 0.0001000031 0.0001000061 0.0001000183 0.0001000484 0.0001001301 0.000100336 0.0001008307 0.0001019359 0.0001042194 0.0001085569 0.0001161178 0.0001282024 0.0003701349 0.0006002093 0.0006002075 0.0006 0.0002666678 0.0001000011 0.0001 0.0001 0.0001 0.0001 0.0001 0.0001 0.0001 0.0001 0.0001 0.0001 0.000103125 0.00010207 0.0001 0.0001 0.0001140625 0.000125 0.0001 0.0034 0.0043 0.005 0.0056 0.0055 0.005866667 0.0056 0.0074 0.0078 0.0102 0.0151 0.0207 0.0252 0.02606667 0.0268 0.0246 0.0197 0.0151 0.0128 0.0124 0.0137 0.01515 0.0169 0.0254 0.0441 0.0303 0.0369 0.0069 0.0055 0.0001 0.0001 0.0001074074 0.000112963 0.0001070168 0.0001074074 0.0001 0.0001 0.0001 0.0001 0.000125 0.00015 0.0001 0.0013 0.005 0.004 0.003783333 0.0032 0.0024 0.0024 0.0025 0.0027 0.0038 0.0052 0.0062 0.005466667 0.0041 0.0006 0.0001 0.0001 0.0002 0.0002 0.0002 0.00025 0.0002 0.0002 0.0002 0.0001 0.000125 0.0001324074 0.0001257668 0.0001 0.0001 0.0001 0.0001000326 0.0001 0.0001 0.0001000326 0.0001 0.0001 0.0001 0.0001 0.0001 0.0001 0.0001 0.0001 0.0001 0.0001 0.0001 0.0001 0.0001 0.0001 0.0001 0.0001 0.0001 0.0001000002 0.0001 0.0001000001 0.0001 0.0001 0.0001 0.0001 0.0001 0.0001 0.0001 0.0001 0.0001 
0.0001 0.0001 0.0001 0.0001333333 0.0002 0.0002 0.0002 0.00015 0.0001 0.0001 0.0001 0.0001 0.0001 0.0001 0.0001 0.0001 0.0001 0.0001 0.0001 0.0001 0.0001 0.0001 0.0001 0.0001 0.0001333333 0.0002 0.00015 0.0001 0.0001 0.0001 0.0001000002 0.0001333335 0.0002 0.0002 0.0001666667 0.0001 0.0001000004 0.0001000008 0.0001000023 0.000100003 0.0001 0.0001 0.0001 0.0001 0.0001 0.0001 0.0001000015 0.0001000031 0.0001000092 0.0001000243 0.0001000656 0.0001001715 0.0001004322 0.0001010342 0.0001023286 0.000104904 0.0001096313 0.0001176257 0.0003629223 0.0006001043 0.0006001038 0.0006 0.000266667 0.0001000004 0.0001 0.0001 0.0001 0.0001 0.0001 0.0001 0.0001 0.0001 0.0001 0.0001 0.0001015625 0.000101039 0.0001 0.0001 0.0001066406 0.0001125 0.0001 0.002025 0.002866667 0.0027 0.0029 0.0033 0.0033 0.00365 0.0035 0.0048 0.0054 0.0076 0.0117 0.0164 0.0202 0.02108333 0.0216 0.02 0.0162 0.0126 0.0109 0.0109 0.0125 0.01431667 0.0163 0.0243 0.0346 0.0206 0.0288 0.0042 0.0045 0.003191667 0.0001 0.0001 0.0001024691 0.0001024691 0.0001 0.0001 0.0001 0.0001 0.0001 0.0001166667 0.0001 0.000625 0.0007 0.0031 0.0026 0.002466667 0.0021 0.0016 0.0015 0.0016 0.0018 0.0024 0.0036 0.003916667 0.0038 0.0024 0.0003 0.0001 0.0001 0.0001 0.0001 0.0001333333 0.0001 0.0001 0.0001 0.00015 0.0001375 0.0001 0.0001125 0.0001149691 0.0001117465 0.0001 0.0001 0.0001 0.0001000081 0.0001 0.0001 0.0001000081 0.0001 0.0001 0.0001 0.0001 0.0001 0.0001 0.0001 0.0001 0.0001 0.0001 0.0001 0.0001 0.0001 0.0001 0.0001 0.0001 0.0001 0.0001000001 0.0001 0.0001 0.0001 0.0001 0.0001 0.0001 0.0001 0.0001 0.0001 0.0001 
0.0001 0.0001 0.0001333333 0.0002 0.0002 0.0002 0.00015 0.0001 0.0001 0.0001 0.0001 0.0001 0.0001 0.0001 0.0001 0.0001 0.0001 0.0001 0.0001 0.0001 0.0001 0.0001 0.0001 0.0001333333 0.0002 0.00015 0.0001 0.0001 0.0001 0.0001000001 0.0001333334 0.0002 0.0002 0.0001666667 0.0001 0.0001000002 0.0001000004 0.0001000011 0.0001000015 0.0001 0.0001 0.0001 0.0001 0.0001 0.0001 0.0001000008 0.0001000015 0.0001000046 0.0001000122 0.000100033 0.0001000871 0.0001002231 0.000100546 0.000101265 0.0001027556 0.0001056213 0.0001107203 0.0003580514 0.0006000521 0.0006000519 0.0006 0.0002666668 0.0001000001 0.0001 0.0001 0.0001 0.0001 0.0001 0.0001 0.0001 0.0001 0.0001 0.0001 0.0001007813 0.0001005203 0.0001 0.0001 0.0001032227 0.00010625 0.0001 0.001261806 0.001855556 0.001733333 0.0016 0.0017 0.0019 0.0019 0.002183333 0.0021 0.003 0.0037 0.0055 0.0087 0.0125 0.0157 0.01655 0.017 0.0158 0.0129 0.0103 0.009 0.0088 0.0084 0.01305 0.0181 0.0212 0.0261 0.0138 0.0217 0.0024 0.002666667 0.002888889 0.001961806 0.0001 0.0001 0.0001 0.0001 0.0001 0.0001 0.0001 0.0001041667 0.0001 0.0003479167 0.0004333333 0.0004 0.0019 0.0016 0.00155 0.0013 0.001 0.001 0.001 0.0011 0.0014 0.0024 0.002483333 0.0023 0.0014 0.0002 0.00016 0.0001 0.0001 0.0001 0.0001 0.0001 0.0001 0.0001 0.0001 0.000125 0.000115625 0.0001 0.00010625 0.000107073 0.0001054861 0.0001 0.0001 0.0001 0.000100002 0.0001 0.0001 0.000100002 0.0001 0.0001 0.0001 0.0001 0.0001 0.0001 0.0001 0.0001 0.0001 0.0001 0.0001 0.0001 0.0001 0.0001 0.0001 0.0001 0.0001 0.0001 0.0001 0.0001 0.0001 0.0001 0.0001 0.0001 0.0001 0.0001 0.0001 
0.0001 0.0001333333 0.0002 0.0002 0.0002 0.00015 0.0001 0.0001 0.0001 0.0001 0.0001 0.0001 0.0001 0.0001 0.0001 0.0001 0.0001 0.0001 0.0001 0.0001 0.0001 0.0001 0.0001333333 0.0002 0.00015 0.0001 0.0001 0.0001 0.0001 0.0001333334 0.0002 0.0002 0.0001666667 0.0001 0.0001000001 0.0001000002 0.0001000006 0.0001000008 0.0001 0.0001 0.0001 0.0001 0.0001 0.0001 0.0001000004 0.0001000008 0.0001000023 0.0001000061 0.0001000166 0.0001000441 0.0001001144 0.0001002854 0.000100678 0.0001015222 0.000103214 0.0001063658 0.0003548864 0.000600026 0.0006000259 0.0006 0.0002666667 0.0001 0.0001 0.0001 0.0001 0.0001 0.0001 0.0001 0.0001 0.0001 0.0001 0.0001 0.0001003906 0.0001002603 0.0001 0.0001 0.0001015869 0.000103125 0.0001 0.0007918403 0.001162963 0.001066667 0.0009666667 0.0009 0.0009 0.001 0.001183333 0.0011 0.0012 0.0018 0.0025 0.0039 0.0064 0.0093 0.0108 0.0119 0.0129 0.0121 0.01 0.0081 0.0071 0.0071 0.00715 0.0081 0.0149 0.0175 0.0191 0.0091 0.0158 0.0014 0.0015 0.001666667 0.001825926 0.0009519907 0.0001 0.0001 0.0001 0.0001 0.0001 0.0001010417 0.0001 0.0002203125 0.0002722222 0.0002333333 0.0002 0.0011 0.0009 0.0009333334 0.0008 0.0006 0.0006 0.0006 0.0007 0.0008 0.0015 0.001516667 0.0013 0.0008 0.0001 0.00015 0.0001183333 0.0001 0.0001 0.0001 0.0001 0.0001 0.0001 0.0001 0.0001 0.0001125 0.0001070313 0.0001 0.000103125 0.0001033993 0.000102612 0.0001 0.0001 0.0001 0.0001000005 0.0001 0.0001 0.0001000005 0.0001 0.0001 0.0001 0.0001 0.0001 0.0001 0.0001 0.0001 0.0001 0.0001 0.0001 0.0001 0.0001 0.0001 0.0001 0.0001 0.0001 0.0001 0.0001 0.0001 0.0001 0.0001 0.0001 0.0001 0.0001 0.0001 
0.0001444444 0.0002 0.0002 0.0002 0.00015 0.0001 0.0001 0.0001 0.0001 0.0001 0.0001 0.0001 0.0001 0.0001 0.0001 0.0001 0.0001 0.0001 0.0001 0.0001 0.0001 0.0001333333 0.0002 0.00015 0.0001 0.0001 0.0001 0.0001 0.0001333334 0.0002 0.0002 0.0001666667 0.0001 0.0001 0.0001000001 0.0001000003 0.0001000004 0.0001 0.0001 0.0001 0.0001 0.0001 0.0001 0.0001000002 0.0001000004 0.0001000011 0.000100003 0.0001000083 0.0001000223 0.0001000584 0.000100148 0.0001003593 0.0001008285 0.0001018047 0.0001037007 0.0003528971 0.000600013 0.000600013 0.0006 0.0002666667 0.0001 0.0001 0.0001 0.0001 0.0001 0.0001 0.0001 0.0001 0.0001 0.0001 0.0001 0.0001001953 0.0001001302 0.0001 0.0001 0.0001007874 0.0001015625 0.0001 0.0004998891 0.0007154321 0.0006425926 0.0005666667 0.0005 0.0004 0.0005 0.0006 0.00065 0.0006 0.0007 0.0011 0.0016 0.0027 0.0045 0.0067 0.0079 0.0087 0.0096 0.009 0.0076 0.0062 0.0055 0.0054 0.005766666 0.0051 0.0141 0.0135 0.0126 0.0085 0.0097 0.0007 0.0008333334 0.0009222222 0.0007722222 0.0001 0.0001 0.0001 0.0001 0.0001 0.0001002604 0.0001 0.0001587818 0.0001861111 0.0001611111 0.00015 0.0001 0.0006 0.0006166667 0.0005 0.0005 0.0004 0.0003 0.0004 0.0004 0.0005 0.00075 0.0009 0.0007 0.0004 0.000375 0.0001 0.0001166667 0.0001 0.0001 0.0001 0.0001 0.0001 0.0001 0.0001 0.0001 0.0001 0.00010625 0.0001033203 0.0001 0.0001015625 0.0001016539 0.0001012618 0.0001 0.0001 0.0001 0.0001000001 0.0001 0.0001 0.0001000001 0.0001 0.0001 0.0001 0.0001 0.0001 0.0001 0.0001 0.0001 0.0001 0.0001 0.0001 0.0001 0.0001 0.0001 0.0001 0.0001 0.0001 0.0001 0.0001 0.0001 0.0001 0.0001 0.0001 0.0001 0.0001 
0.0002 0.0002 0.0002 0.00015 0.0001 0.0001 0.0001 0.0001 0.0001 0.0001 0.0001 0.0001 0.0001 0.0001 0.0001 0.0001 0.0001 0.0001 0.0001 0.0001 0.0001333333 0.0002 0.00015 0.0001 0.0001 0.0001 0.0001 0.0001333333 0.0002 0.0002 0.0001666667 0.0001 0.0001 0.0001 0.0001000001 0.0001000002 0.0001 0.0001 0.0001 0.0001 0.0001 0.0001 0.0001000001 0.0001000002 0.0001000006 0.0001000015 0.0001000042 0.0001000112 0.0001000296 0.0001000762 0.0001001885 0.0001004453 0.0001009975 0.0001021113 0.0003516825 0.0006000065 0.0006000065 0.0006 0.0002666667 0.0001 0.0001 0.0001 0.0001 0.0001 0.0001 0.0001 0.0001 0.0001 0.0001 0.0001 0.0001000977 0.0001000651 0.0001 0.0001 0.0001003921 0.0001007813 0.0001 0.0003238792 0.0004429012 0.000392284 0.0003407407 0.0002944444 0.0002333333 0.0002 0.0003 0.0003 0.00035 0.0003 0.0004 0.0006 0.001 0.0018 0.0031 0.0047 0.0056 0.0061 0.0068 0.0065 0.0055 0.0046 0.0041 0.0041 0.004416666 0.0048 0.0101 0.0086 0.0097 0.007 0.0058 0.0004 0.0004333333 0.0004 0.0001 0.0001 0.0001 0.0001 0.0001 0.0001000651 0.0001 0.0001287387 0.0001424383 0.0001287037 0.000125 0.0001 0.0003 0.0003 0.00035 0.0003 0.0003 0.0002 0.0002 0.0002 0.0002 0.0003 0.00045 0.0005 0.0004 0.0002 0.0002333333 0.0002145833 0.0001 0.0001041667 0.0001 0.0001 0.0001 0.0001 0.0001 0.0001 0.0001 0.0001 0.0001 0.000103125 0.0001016113 0.0001 0.0001007813 0.0001008117 0.000100616 0.0001 0.0001 0.0001 0.0001 0.0001 0.0001 0.0001 0.0001 0.0001 0.0001 0.0001 0.0001 0.0001 0.0001 0.0001 0.0001 0.0001 0.0001 0.0001 0.0001 0.0001 0.0001 0.0001 0.0001 0.0001 0.0001 0.0001 0.0001 0.0001 0.0001 0.0001 
0.0002 0.0002 0.00015 0.0001 0.0001 0.0001 0.0001 0.0001 0.0001 0.0001 0.0001 0.0001 0.0001 0.0001 0.0001 0.0001 0.0001 0.0001 0.0001 0.0001333333 0.0002 0.00015 0.0001 0.0001 0.0001 0.0001 0.0001333333 0.0002 0.0002 0.0001666667 0.0001 0.0001 0.0001 0.0001000001 0.0001000001 0.0001 0.0001 0.0001 0.0001 0.0001 0.0001 0.0001 0.0001000001 0.0001000003 0.0001000008 0.0001000021 0.0001000056 0.000100015 0.000100039 0.0001000981 0.0001002367 0.0001005438 0.0001011847 0.0003509592 0.0006000032 0.0006000032 0.0006 0.0002666667 0.0001 0.0001 0.0001 0.0001 0.0001 0.0001 0.0001 0.0001 0.0001 0.0001 0.0001 0.0001000488 0.0001000326 0.0001 0.0001 0.0001001957 0.0001003906 0.0001 0.0002217813 0.000285168 0.0002527263 0.0002209877 0.0001935185 0.0001611111 0.00015 0.0001 0.0001 0.0001666667 0.0001 0.0002 0.0002 0.0004 0.0006 0.0012 0.0021 0.00275 0.0032 0.0042 0.0048 0.0046 0.0039 0.0033 0.003 0.0031 0.00355 0.004 0.007 0.0054 0.0073 0.0054 0.0033 0.0002 0.0002333333 0.0001 0.0001 0.0001 0.0001 0.0001 0.0001 0.0001 0.000114052 0.0001208076 0.0001137346 0.0001125 0.0001 0.0002125 0.00025 0.0002 0.0002 0.0002 0.0001 0.0001 0.0001 0.0001 0.0001 0.0002 0.00025 0.0003 0.0002 0.0001 0.00015 0.0001611111 0.0001501736 0.0001 0.0001010417 0.0001 0.0001 0.0001 0.0001 0.0001 0.0001 0.0001 0.0001 0.0001 0.0001015625 0.0001007935 0.0001 0.0001003906 0.0001004008 0.000100303 0.0001 0.0001 0.0001 0.0001 0.0001 0.0001 0.0001 0.0001 0.0001 0.0001 0.0001 0.0001 0.0001 0.0001 0.0001 0.0001 0.0001 0.0001 0.0001 0.0001 0.0001 0.0001 0.0001 0.0001 0.0001 0.0001 0.0001 0.0001 0.0001 0.0001 
0.0002 0.00015 0.0001 0.0001 0.0001 0.0001 0.0001 0.0001 0.0001 0.0001 0.0001 0.0001 0.0001 0.0001 0.0001 0.0001 0.0001 0.0001 0.0001333333 0.0002 0.00015 0.0001 0.0001 0.0001 0.0001 0.0001333333 0.0002 0.0002 0.0001666667 0.0001 0.0001 0.0001 0.0001 0.0001 0.0001 0.0001 0.0001 0.0001 0.0001 0.0001 0.0001 0.0001 0.0001000001 0.0001000004 0.000100001 0.0001000028 0.0001000076 0.0001000199 0.0001000507 0.0001001246 0.0001002929 0.0001006551 0.000350538 0.0006000016 0.0006000016 0.0006 0.0002666667 0.0001 0.0001 0.0001 0.0001 0.0001 0.0001 0.0001 0.0001 0.0001 0.0001 0.0001 0.0001000244 0.0001000163 0.0001 0.0001 0.0001000977 0.0001001953 0.0001 0.0001646599 0.0001975452 0.0001780778 0.0001598765 0.0001449074 0.0001287037 0.000125 0.0001 0.0001 0.0001 0.0001 0.0001 0.0001 0.0001 0.0002 0.0004 0.0007 0.0013 0.0018 0.0021 0.0028 0.0032 0.0031 0.0027 0.0023 0.0021 0.00225 0.0023 0.003 0.0042 0.0039 0.0053 0.0038 0.0019 0.0013 0.0001 0.0001 0.0001 0.0001 0.0001 0.0001 0.0001 0.0001039303 0.000110198 0.0001066615 0.00010625 0.0001 0.000184375 0.000225 0.0002 0.00015 0.0001 0.0001 0.0001 0.0001 0.0001 0.0001 0.0001 0.0001 0.00016 0.0001 0.0001 0.0001333333 0.0001 0.000125 0.0001287037 0.0001228443 0.0001 0.0001002604 0.0001 0.0001 0.0001 0.0001 0.0001 0.0001 0.0001 0.0001 0.0001 0.0001007813 0.0001003937 0.0001 0.0001001953 0.0001001987 0.0001001498 0.0001 0.0001 0.0001 0.0001 0.0001 0.0001 0.0001 0.0001 0.0001 0.0001 0.0001 0.0001 0.0001 0.0001 0.0001 0.0001 0.0001 0.0001 0.0001 0.0001 0.0001 0.0001 0.0001 0.0001 0.0001 0.0001 0.0001 0.0001 0.0001 
0.00015 0.0001 0.0001 0.0001 0.0001 0.0001 0.0001 0.0001 0.0001 0.0001 0.0001 0.0001 0.0001 0.0001 0.0001 0.0001 0.0001 0.0001333333 0.0002 0.00015 0.0001 0.0001 0.0001 0.0001 0.0001333333 0.0002 0.0002 0.0001666667 0.0001 0.0001 0.0001 0.0001 0.0001 0.0001 0.0001 0.0001 0.0001 0.0001 0.0001 0.0001 0.0001 0.0001000001 0.0001000002 0.0001000005 0.0001000014 0.0001000038 0.0001000101 0.0001000261 0.0001000651 0.0001001561 0.0001003575 0.0003502974 0.0006000008 0.0006000008 0.0006 0.0002666667 0.0001 0.0001 0.0001 0.0001 0.0001 0.0001 0.0001 0.0001 0.0001 0.0001 0.0001 0.0001000122 0.0001000081 0.0001 0.0001 0.0001000489 0.0001000977 0.0001 0.0001336667 0.000150411 0.0001393133 0.0001293896 0.0001216307 0.0001137346 0.0001125 0.0001 0.0001 0.0001 0.0001 0.0001 0.0001 0.0001 0.0001 0.0001 0.0002 0.0005 0.0008 0.001133333 0.0013 0.0018 0.0021 0.0021 0.0018 0.0015 0.0014 0.001566667 0.0016 0.0021 0.0024 0.0027 0.0037 0.0026 0.001 0.0009 0.0001 0.0001 0.0001 0.0001 0.0001 0.0001 0.0001 0.0001025038 0.0001032622 0.000103125 0.0001 0.0001742187 0.0002125 0.0002 0.00015 0.0001 0.0001 0.0001 0.0001 0.0001 0.0001 0.0001 0.0001 0.0001 0.0001 0.0001 0.0001 0.0001 0.0001111111 0.0001 0.0001125 0.0001137346 0.0001107072 0.0001 0.0001000651 0.0001 0.0001 0.0001 0.0001 0.0001 0.0001 0.0001 0.0001 0.0001 0.0001003906 0.0001001961 0.0001 0.0001000977 0.0001000988 0.0001000744 0.0001 0.0001 0.0001 0.0001 0.0001 0.0001 0.0001 0.0001 0.0001 0.0001 0.0001 0.0001 0.0001 0.0001 0.0001 0.0001 0.0001 0.0001 0.0001 0.0001 0.0001 0.0001 0.0001 0.0001 0.0001 0.0001 0.0001 0.0001 
0.0001 0.0001 0.0001 0.0001 0.0001 0.0001 0.0001 0.0001 0.0001 0.0001 0.0001 0.0001 0.0001 0.0001 0.0001 0.0001 0.0001333333 0.0002 0.00015 0.0001 0.0001 0.0001 0.0001 0.0001333333 0.0002 0.0002 0.0001666667 0.0001 0.0001 0.0001 0.0001 0.0001 0.0001 0.0001 0.0001 0.0001 0.0001 0.0001 0.0001 0.0001 0.0001 0.0001000001 0.0001000003 0.0001000007 0.0001000019 0.0001000051 0.0001000133 0.0001000337 0.0001000824 0.0001001929 0.0003501623 0.0006000004 0.0006000004 0.0006 0.0002666667 0.0001 0.0001 0.0001 0.0001 0.0001 0.0001 0.0001 0.0001 0.0001 0.0001 0.0001 0.0001000061 0.0001000041 0.0001 0.0001 0.0001000244 0.0001000488 0.0001 0.0001172628 0.000125678 0.0001195957 0.0001143747 0.0001104724 0.0001066615 0.00010625 0.0001 0.0001 0.0001 0.0001 0.0001 0.0001 0.0001 0.0001 0.0001 0.0001 0.0001 0.0003 0.0005 0.0007 0.0008 0.0011 0.0013 0.0013 0.0012 0.001 0.0009 0.00105 0.0011 0.0013 0.0014 0.0018 0.0025 0.0017 0.0006 0.000525 0.0002 0.0001375 0.0001 0.0001 0.0001 0.0001 0.0001 0.0001008041 0.0001015625 0.0001 0.0001701172 0.00020625 0.0002 0.00015 0.0001 0.0001 0.0001 0.0001 0.0001 0.0001 0.0001 0.0001 0.0001 0.0001 0.0001 0.0001 0.0001 0.0001 0.0001 0.0001037037 0.0001 0.00010625 0.0001066615 0.0001051234 0.0001 0.0001000163 0.0001 0.0001 0.0001 0.0001 0.0001 0.0001 0.0001 0.0001 0.0001 0.0001001953 0.0001000978 0.0001 0.0001000488 0.0001000492 0.000100037 0.0001 0.0001 0.0001 0.0001 0.0001 0.0001 0.0001 0.0001 0.0001 0.0001 0.0001 0.0001 0.0001 0.0001 0.0001 0.0001 0.0001 0.0001 0.0001 0.0001 0.0001 0.0001 0.0001 0.0001 0.0001 0.0001 0.0001 
0.0001 0.0001 0.0001 0.0001 0.0001 0.0001 0.0001 0.0001 0.0001 0.0001 0.0001 0.0001 0.0001 0.0001 0.0001 0.0001333333 0.0002 0.00015 0.0001 0.0001 0.0001 0.0001 0.0001333333 0.0002 0.0002 0.0001666667 0.0001 0.0001 0.0001 0.0001 0.0001 0.0001 0.0001 0.0001 0.0001 0.0001 0.0001 0.0001 0.0001 0.0001 0.0001 0.0001000001 0.0001000004 0.000100001 0.0001000026 0.0001000068 0.0001000174 0.0001000432 0.000100103 0.0003500876 0.0006000002 0.0006000002 0.0006 0.0002666667 0.0001 0.0001 0.0001 0.0001 0.0001 0.0001 0.0001 0.0001 0.0001 0.0001 0.0001 0.0001000031 0.000100002 0.0001 0.0001 0.0001000122 0.0001000244 0.0001 0.0001087489 0.0001129415 0.0001097064 0.0001070273 0.000105099 0.0001032622 0.000103125 0.0001 0.0001 0.0001 0.0001 0.0001 0.0001 0.0001 0.0001 0.0001 0.0001 0.0001 0.0001 0.0002 0.0002666667 0.0003 0.0005 0.0007 0.0008 0.0008 0.0007 0.0006 0.0007166667 0.0006 0.0007 0.0007 0.0009 0.0012 0.0017 0.0011 0.0003 0.0002 0.00015 0.0001666667 0.000134375 0.0001 0.0001 0.0001 0.0001 0.0001003125 0.0001 0.0001683106 0.000203125 0.0002 0.00015 0.0001 0.0001 0.0001 0.0001 0.0001 0.0001 0.0001 0.0001 0.0001 0.0001 0.0001 0.0001 0.0001 0.0001 0.0001 0.0001 0.0001 0.0001012346 0.0001 0.000103125 0.0001032622 0.000102487 0.0001 0.0001000041 0.0001 0.0001 0.0001 0.0001 0.0001 0.0001 0.0001 0.0001 0.0001 0.0001000977 0.0001000489 0.0001 0.0001000244 0.0001000245 0.0001000184 0.0001 0.0001 0.0001 0.0001 0.0001 0.0001 0.0001 0.0001 0.0001 0.0001 0.0001 0.0001 0.0001 0.0001 0.0001 0.0001 0.0001 0.0001 0.0001 0.0001 0.0001 0.0001 0.0001 0.0001 0.0001 0.0001 
0.0001 0.0001 0.0001 0.0001 0.0001 0.0001 0.0001 0.0001 0.0001 0.0001 0.0001 0.0001 0.0001 0.0001 0.0001333333 0.0002 0.00015 0.0001 0.0001 0.0001 0.0001 0.0001333333 0.0002 0.0002 0.0001666667 0.0001 0.0001 0.0001 0.0001 0.0001 0.0001 0.0001 0.0001 0.0001 0.0001 0.0001 0.0001 0.0001 0.0001 0.0001 0.0001000001 0.0001000002 0.0001000005 0.0001000013 0.0001000034 0.0001000089 0.0001000224 0.0001000545 0.0003500468 0.0006000001 0.0006000001 0.0006 0.0002666667 0.0001 0.0001 0.0001 0.0001 0.0001 0.0001 0.0001 0.0001 0.0001 0.0001 0.0001 0.0001000015 0.000100001 0.0001 0.0001 0.0001000061 0.0001000122 0.0001 0.0001043961 0.0001064736 0.0001047914 0.00010344 0.0001024962 0.0001016082 0.0001015625 0.0001 0.0001 0.0001 0.0001 0.0001 0.0001 0.0001 0.0001 0.0001 0.0001 0.0001 0.0001 0.0001333333 0.0001 0.00018 0.0002 0.0003 0.0004 0.0005 0.0005 0.0005 0.0008 0.00052 0.0004 0.0004 0.0004 0.0006 0.0007 0.0011 0.0006 0.00045 0.0001 0.00015 0.0001333333 0.0001416667 0.0001238715 0.0001 0.0001 0.0001 0.0001 0.0001674683 0.0002015625 0.0002 0.00015 0.0001 0.0001 0.0001 0.0001 0.0001 0.0001 0.0001 0.0001 0.0001 0.0001 0.0001 0.0001 0.0001 0.0001 0.0001 0.0001 0.0001 0.0001 0.0001 0.0001004115 0.0001 0.0001015625 0.0001016082 0.0001012191 0.0001 0.000100001 0.0001 0.0001 0.0001 0.0001 0.0001 0.0001 0.0001 0.0001 0.0001 0.0001000488 0.0001000244 0.0001 0.0001000122 0.0001000123 0.0001000092 0.0001 0.0001 0.0001 0.0001 0.0001 0.0001 0.0001 0.0001 0.0001 0.0001 0.0001 0.0001 0.0001 0.0001 0.0001 0.0001 0.0001 0.0001 0.0001 0.0001 0.0001 0.0001 0.0001 0.0001 0.0001 
0.0001 0.0001 0.0001 0.0001 0.0001 0.0001 0.0001 0.0001 0.0001 0.0001 0.0001 0.0001 0.0001 0.0001333333 0.0002 0.00015 0.0001 0.0001 0.0001 0.0001 0.0001333333 0.0002 0.0002 0.0001666667 0.0001 0.0001 0.0001 0.0001 0.0001 0.0001 0.0001 0.0001 0.0001 0.0001 0.0001 0.0001 0.0001 0.0001 0.0001 0.0001 0.0001000001 0.0001000002 0.0001000007 0.0001000017 0.0001000046 0.0001000116 0.0001000286 0.0003500248 0.0006 0.0006 0.0006 0.0002666667 0.0001 0.0001 0.0001 0.0001 0.0001 0.0001 0.0001 0.0001 0.0001 0.0001 0.0001 0.0001000008 0.0001000005 0.0001 0.0001 0.0001000031 0.0001000061 0.0001 0.0001021955 0.0001032219 0.0001023618 0.0001016878 0.0001012278 0.0001007965 0.0001007813 0.0001 0.0001 0.0001 0.0001 0.0001 0.0001 0.0001 0.0001 0.0001 0.0001 0.0001 0.0001 0.0001111111 0.0001 0.0001 0.000125 0.0001 0.0002 0.0002 0.0003 0.0003 0.0003 0.000425 0.000375 0.0002 0.0002 0.0002 0.0003 0.0005 0.0006 0.0004 0.00028 0.0001 0.0001 0.000125 0.0001194444 0.000124537 0.0001147642 0.0001 0.0001 0.0001 0.0002007812 0.0002 0.00015 0.0001 0.0001 0.0001 0.0001 0.0001 0.0001 0.0001 0.0001 0.0001 0.0001 0.0001 0.0001 0.0001 0.0001 0.0001 0.0001 0.0001 0.0001 0.0001 0.0001 0.0001 0.0001001372 0.0001 0.0001007813 0.0001007965 0.0001006016 0.0001 0.0001000003 0.0001 0.0001 0.0001 0.0001 0.0001 0.0001 0.0001 0.0001 0.0001 0.0001000244 0.0001000122 0.0001 0.0001000061 0.0001000061 0.0001000046 0.0001 0.0001 0.0001 0.0001 0.0001 0.0001 0.0001 0.0001 0.0001 0.0001 0.0001 0.0001 0.0001 0.0001 0.0001 0.0001 0.0001 0.0001 0.0001 0.0001 0.0001 0.0001 0.0001 0.0001 
0.0001 0.0001 0.0001 0.0001 0.0001 0.0001 0.0001 0.0001 0.0001 0.0001 0.0001 0.0001 0.0001333333 0.0002 0.00015 0.0001 0.0001 0.0001 0.0001 0.0001333333 0.0002 0.0002 0.0001666667 0.0001 0.0001 0.0001 0.0001 0.0001 0.0001 0.0001 0.0001 0.0001 0.0001 0.0001 0.0001 0.0001 0.0001 0.0001 0.0001 0.0001 0.0001000001 0.0001000003 0.0001000009 0.0001000023 0.000100006 0.0001000149 0.000350013 0.0006 0.0006 0.0006 0.0002666667 0.0001 0.0001 0.0001 0.0001 0.0001 0.0001 0.0001 0.0001 0.0001 0.0001 0.0001 0.0001000004 0.0001000003 0.0001 0.0001 0.0001000015 0.0001000031 0.0001 0.0001011011 0.000101604 0.0001011642 0.0001008304 0.0001006063 0.0001003957 0.0001003906 0.0001 0.0001 0.0001 0.0001 0.0001 0.0001 0.0001 0.0001 0.0001 0.0001 0.0001 0.0001 0.0001037037 0.0001 0.0001 0.000105 0.0001 0.0001 0.0001 0.0001 0.0002 0.0002 0.0001 0.0001666667 0.0001333333 0.0001 0.0001 0.0001 0.0002 0.0003 0.0004 0.0002 0.0001 0.0001 0.0001 0.0001 0.0001125 0.0001106482 0.0001138117 0.0001085522 0.0001 0.0001 0.0002 0.00015 0.0001 0.0001 0.0001 0.0001 0.0001 0.0001 0.0001 0.0001 0.0001 0.0001 0.0001 0.0001 0.0001 0.0001 0.0001 0.0001 0.0001 0.0001 0.0001 0.0001 0.0001 0.0001 0.0001 0.0001000457 0.0001 0.0001003906 0.0001003957 0.0001002981 0.0001 0.0001000001 0.0001 0.0001 0.0001 0.0001 0.0001 0.0001 0.0001 0.0001 0.0001 0.0001000122 0.0001000061 0.0001 0.0001000031 0.0001000031 0.0001000023 0.0001 0.0001 0.0001 0.0001 0.0001 0.0001 0.0001 0.0001 0.0001 0.0001 0.0001 0.0001 0.0001 0.0001 0.0001 0.0001 0.0001 0.0001 0.0001 0.0001 0.0001 0.0001 0.0001 
0.0001 0.0001 0.0001 0.0001 0.0001 0.0001 0.0001 0.0001 0.0001 0.0001 0.0001 0.0001333333 0.0002 0.00015 0.0001 0.0001 0.0001 0.0001 0.0001333333 0.0002 0.0002 0.0001666667 0.0001 0.0001 0.0001 0.0001 0.0001 0.0001 0.0001 0.0001 0.0001 0.0001 0.0001 0.0001 0.0001 0.0001 0.0001 0.0001 0.0001 0.0001000001 0.0001000002 0.0001000004 0.0001000012 0.0001000031 0.0001000077 0.0003500068 0.0006 0.0006 0.0006 0.0002666667 0.0001 0.0001 0.0001 0.0001 0.0001 0.0001 0.0001 0.0001 0.0001 0.0001 0.0001 0.0001000002 0.0001000001 0.0001 0.0001 0.0001000008 0.0001000015 0.0001 0.0001006026 0.0001008445 0.0001006047 0.000100426 0.0001003003 0.000100197 0.0001001953 0.0001 0.0001 0.0001 0.0001 0.0001 0.0001 0.0001 0.0001 0.0001 0.0001 0.0001 0.0001 0.0001012346 0.0001 0.0001 0.000101 0.0001 0.0001 0.0001 0.0001 0.0001 0.0001 0.0001 0.0001 0.0001 0.0001 0.0001 0.0001 0.0001 0.0001 0.0002 0.0002 0.0001833333 0.0001 0.0001 0.0001 0.0001 0.0001 0.00010625 0.0001056327 0.0001075231 0.0001051135 0.0001 0.00013 0.0001 0.0001 0.0001 0.0001 0.0001 0.0001 0.0001 0.0001 0.0001 0.0001 0.0001 0.0001 0.0001 0.0001 0.0001 0.0001 0.0001 0.0001 0.0001 0.0001 0.0001 0.0001 0.0001 0.0001 0.0001 0.0001000152 0.0001 0.0001001953 0.000100197 0.0001001482 0.0001 0.0001 0.0001 0.0001 0.0001 0.0001 0.0001 0.0001 0.0001 0.0001 0.0001 0.0001000061 0.0001000031 0.0001 0.0001000015 0.0001000015 0.0001000011 0.0001 0.0001 0.0001 0.0001 0.0001 0.0001 0.0001 0.0001 0.0001 0.0001 0.0001 0.0001 0.0001 0.0001 0.0001 0.0001 0.0001 0.0001 0.0001 0.0001 0.0001 0.0001 
0.0001 0.0001 0.0001 0.0001 0.0001 0.0001 0.0001 0.0001 0.0001 0.0001 0.0001333333 0.0002 0.00015 0.0001 0.0001 0.0001 0.0001 0.0001333333 0.0002 0.0002 0.0001666667 0.0001 0.0001 0.0001 0.0001 0.0001 0.0001 0.0001 0.0001 0.0001 0.0001 0.0001 0.0001 0.0001 0.0001 0.0001 0.0001 0.0001 0.0001 0.0001000001 0.0001000002 0.0001000006 0.0001000016 0.000100004 0.0002875044 0.0006 0.0006 0.0006 0.0003222222 0.0001 0.0001 0.0001 0.0001 0.0001 0.0001 0.0001 0.0001 0.0001 0.0001 0.0001 0.0001000001 0.0001000001 0.0001 0.0001 0.0001000005 0.0001000008 0.0001 0.0001004191 0.0001006547 0.0001004648 0.0001003249 0.0001002238 0.0001001473 0.0001000977 0.0001 0.0001 0.0001 0.0001 0.0001 0.0001 0.0001 0.0001 0.0001 0.0001 0.0001 0.0001 0.0001004115 0.0001 0.0001 0.00010025 0.0001 0.0001 0.0001 0.0001 0.0001 0.0001 0.0001 0.0001 0.0001 0.0001 0.0001 0.0001 0.0001 0.0001 0.0001 0.0001 0.0001 0.0001333333 0.0001 0.0001 0.0001 0.0001 0.0001 0.0001 0.000103125 0.0001043789 0.000105951 0.0001036882 0.0001 0.0001 0.0001 0.0001 0.0001 0.0001 0.0001 0.0001 0.0001 0.0001 0.0001 0.0001 0.0001 0.0001 0.0001 0.0001 0.0001 0.0001 0.0001 0.0001 0.0001 0.0001 0.0001 0.0001 0.0001 0.0001 0.0001 0.0001000051 0.0001 0.0001000977 0.0001001473 0.0001000985 0.0001 0.0001 0.0001 0.0001 0.0001 0.0001 0.0001 0.0001 0.0001 0.0001 0.0001 0.0001000031 0.000100002 0.0001 0.0001000008 0.0001000011 0.0001000008 0.0001 0.0001 0.0001 0.0001 0.0001 0.0001 0.0001 0.0001 0.0001 0.0001 0.0001 0.0001 0.0001 0.0001 0.0001 0.0001 0.0001 0.0001 0.0001 0.0001 0.0001 
