ncols         91
nrows         51
xllcorner     94.941748290404
yllcorner     29.784875899686
cellsize      0.00030731058519915
NODATA_value  -9999
0.0003 0.00025 0.0002 0.0002 0.0001666667 0.0001 0.0001500002 0.0002 0.0001500012 0.0001 0.0001000979 0.0001001465 0.0001 0.0001000085 0.0001 0.00015 0.0002 0.0002 0.0005000092 0.0011 0.001115625 0.0007822388 0.0001 0.0001 0.0001 0.0001 0.0001001953 0.0001 0.0001016461 0.0001 0.0001567901 0.0002 0.0002229167 0.000175 0.0001 0.0001 0.0002666667 0.0001 0.0004 0.0006 0.0055 0.0434 0.67125 0.2637 3.4596 7.6052 10.3834 16.31377 10.4529 8.6891 2.1612 10.67347 7.47395 4.8942 4.8942 33.22245 38.75259 35.6207 31.4352 33.04005 28.02737 22.35472 17.89219 16.40714 14.8231 17.75717 14.98887 10.50348 6.793061 3.892105 1.86407 0.6493889 0.1472207 0.002136111 0.0010625 0.0005 0.1480366 0.0795393 0.02864486 0.008181482 0.002093827 0.0006469136 0.0003351852 0.000275 0.0002 0.0003870361 0.0004484375 0.0004 0.0003108913 0.0002298783 0.000215625 
0.00035 0.0003 0.0002500001 0.0002 0.0002 0.0001666667 0.0001 0.0001500007 0.0002 0.0001500035 0.0001 0.0001001472 0.000100293 0.0001 0.0001000254 0.0001 0.00015 0.0002 0.0002 0.0005000366 0.0011 0.00113125 0.0007977051 0.0001 0.0001 0.0001 0.0001 0.0001007813 0.0001 0.0001049383 0.0001 0.0001703704 0.0002 0.00029375 0.00025 0.0001 0.00088 0.0006 0.0052 0.0353 0.1754 0.56035 0.652 1.7259 4.2436 10.47658 15.48205 18.5206 28.105 29.4418 19.8055 10.0537 37.67435 4.8942 43.17302 45.01637 39.8062 31.4352 37.50523 35.00912 28.21067 20.8623 17.99117 14.8231 21.44997 19.97603 14.77958 10.211 6.519857 3.648328 1.50813 0.4357537 0.004283333 0.001625 0.0005 0.371747 0.1573741 0.06252531 0.01871852 0.004690741 0.001135185 0.0004555556 0.00035 0.0002 0.0004512695 0.000496875 0.0004 0.0003539304 0.0002583848 0.00023125 0.0002 
0.0004 0.0003500001 0.0003 0.0002500004 0.0002 0.0002 0.0001666667 0.0001 0.000150002 0.0002 0.0001500104 0.0001 0.0001002959 0.0001005859 0.0001 0.0001000762 0.0001 0.00015 0.0002 0.0002 0.0005001465 0.0011 0.0011625 0.0008283203 0.0001 0.0001 0.0001 0.0001 0.000103125 0.0001 0.0001148148 0.0001 0.0002111111 0.0002 0.000625 0.0004 0.0032 0.0032 0.0221 0.1239 0.5536 1.391533 1.9322 5.2654 11.3522 18.7985 26.3188 25.1411 35.69803 42.53445 81.4074 48.17054 71.5655 64.184 55.4367 48.1772 31.4352 40.1629 41.5546 36.8682 26.60457 21.15925 14.8231 25.34199 25.49886 20.13593 14.2933 9.9095 6.430194 3.219878 1.294911 0.0096 0.00275 0.0005 1.057116 0.295713 0.1336593 0.04275 0.01116667 0.002238889 0.0006666667 0.0005 0.0002 0.0006113281 0.00059375 0.0004 0.0004405671 0.0003126543 0.0002625 0.0002 0.0001563151 
0.0006000003 0.0004 0.0003500003 0.0003 0.0002500012 0.0002 0.0002 0.0001666667 0.0001 0.0001500059 0.0002 0.0001500313 0.0001 0.0001005978 0.0001011719 0.0001 0.0001002286 0.0001 0.00015 0.0002 0.0002 0.0005005859 0.0011 0.001225 0.0008882813 0.0001 0.0001 0.0001 0.0001 0.0001125 0.0001 0.0001444444 0.0001 0.0003333333 0.0002 0.0018 0.01081667 0.0131 0.0769 0.3559 1.3012 2.768767 3.7348 8.6652 16.7353 26.2823 28.1572 35.0533 42.4045 54.0425 69.30212 67.875 58.0206 54.6733 48.3225 46.3185 43.4395 43.57296 45.614 37.4952 27.4954 14.8231 28.97957 30.38315 27.18213 18.9313 14.29435 9.65425 5.7799 3.856433 0.0233 0.005 0.0005 3.436575 0.5137445 0.2776445 0.09575 0.02758333 0.004916667 0.001 0.0008 0.0002 0.001057812 0.0007875 0.0004 0.0006243056 0.000412963 0.000325 0.0002 0.0001533203 0.000115625 
0.0008 0.0006000007 0.0004 0.0003500009 0.0003 0.0002500037 0.0002 0.0002 0.0001666667 0.0001 0.0001500178 0.0002 0.000150094 0.0001 0.0001012192 0.0001023438 0.0001 0.0001006859 0.0001 0.00015 0.0002 0.0002 0.0005023438 0.0011 0.00135 0.001003125 0.0001 0.0001 0.0001 0.0001 0.00015 0.0001 0.0002333333 0.0001 0.0007 0.0058 0.03635 0.0406 0.2287 0.8816 2.7108 4.721433 6.38 11.9445 19.4539 27.4262 36.1894 36.2418 46.1261 81.2521 60.5065 53.7047 49.92475 48.89883 45.3715 47.3827 46.40174 48.3194 49.0567 46.8004 44.0394 39.5545 39.33564 32.5611 28.2052 20.7801 7.8086 18.95075 11.4999 0.0599 0.0095 0.0005 12.41047 0.7777 0.5576333 0.2059 0.0694 0.01195 0.0014 0.0014 0.0002 0.00245625 0.001175 0.0004 0.001058333 0.0005888889 0.00045 0.0002 0.0001820312 0.00013125 0.0001 
0.00045 0.0008 0.0006000022 0.0004 0.0003500027 0.0003 0.000250011 0.0002 0.0002 0.0001666668 0.0001 0.0001500533 0.0002 0.000150282 0.0001 0.000102533 0.0001046875 0.0001 0.0001020576 0.0001 0.00015 0.0002 0.0002 0.000509375 0.0011 0.0016 0.0012125 0.0001 0.0001 0.0001 0.001065278 0.00025 0.0001 0.0005 0.0037 0.02678333 0.0247 0.1321 0.5495 1.8728 5.0705 6.479967 9.1313 13.164 19.55 25.2183 38.55368 66.9145 54.7245 46.8017 48.5171 48.9006 47.7746 39.2305 43.9422 45.73687 47.03445 46.5486 46.8643 47.7532 50.5258 49.80325 56.206 53.5335 26.4148 21.4226 27.4931 24.7459 29.0014 27.271 28.923 36.1544 19.60374 1.0765 0.4789 0.1175 0.0213 0.1767 0.0026 0.0002 0.007275 0.00195 0.0004 0.002266667 0.0008666667 0.0007 0.0002 0.000265625 0.0001625 0.0001 0.0001027778 
0.0001 0.00045 0.0008 0.0006000068 0.0004 0.0003500082 0.0003 0.000250033 0.0002 0.0002 0.0001666672 0.0001 0.00015016 0.0002 0.0001508459 0.0001 0.0001054443 0.000109375 0.0001 0.0001061728 0.0001 0.00015 0.0002 0.0002 0.0005375 0.0011 0.0021 0.00155 0.0001 0.0007666667 0.0012 0.003975 0.0004 0.0031 0.0203 0.2300333 0.1055 0.428 1.3327 3.1999 5.455783 5.9438 9.6434 10.1259 17.1388 41.1372 35.99218 34.3841 31.361 35.9585 43.3635 42.82298 44.3413 41.4752 44.3062 45.8871 44.63695 45.37463 45.1467 47.3279 50.0503 51.98373 58.4435 60.8232 27.2601 26.5123 28.67323 34.4387 38.2337 39.8574 43.2492 52.0731 34.78127 8.7142 3.7963 1.626 0.5472 0.9498166 0.1357 0.025 0.0035 0.0004 0.006266667 0.0012 0.0012 0.0002 0.0005375 0.000225 0.0001 0.0001083333 0.0001 
0.0001 0.0001 0.00045 0.0008 0.0006000203 0.0004 0.0003500246 0.0003 0.0002500991 0.0002 0.0002 0.0001666687 0.0001 0.0001504801 0.0002 0.0001525377 0.0001 0.0001124023 0.00011875 0.0001 0.0001185185 0.0001 0.00015 0.0002 0.0002 0.00065 0.0011 0.0031 0.0019 0.0003 0.3528 0.0021 0.0133 0.0941 0.4934 5.722833 0.7326 1.8172 3.8009 6.6503 10.56315 9.9974 13.8782 30.8911 26.44 25.2527 28.46187 23.0463 24.3386 31.1388 36.6983 37.92353 36.2431 41.001 42.3471 43.1732 41.30832 42.9389 42.81655 45.34369 45.8074 51.29265 50.8694 49.6494 38.8031 29.4412 32.50917 32.7315 38.4731 42.4133 46.5603 52.4082 48.00618 58.2612 16.3155 7.6578 3.589 4.005434 1.4031 0.4214 0.095 0.0162 0.05188 0.0022 0.0002 0.0015 0.00035 0.0001 0.0001333333 0.0001 0.0001 
0.0001 0.0001 0.0001 0.00045 0.0008 0.000600061 0.0004 0.0003500737 0.0003 0.0002502972 0.0002 0.0002 0.0001666748 0.0001 0.0001514403 0.0002 0.0001576132 0.0001 0.0001308594 0.0001375 0.0001 0.0001555556 0.0001 0.00015 0.0002 0.00345 0.01026 0.0346 0.0284 0.2111 2.249 1.1977 5.362 11.1751 15.6204 17.6459 17.3648 18.8906 18.5776 18.4154 22.66848 19.1721 24.3065 27.5954 25.366 27.47828 24.3175 22.6334 22.3648 25.8672 32.4634 33.6928 34.4316 36.5189 36.4897 36.7864 37.18553 37.756 40.785 42.9448 40.2177 46.57385 50.53593 48.6401 48.6927 38.9694 33.73715 32.9619 36.903 41.8012 46.5052 46.81533 53.0485 63.5319 20.168 17.9329 11.7677 7.56965 6.5899 2.7916 0.8718 0.2039 0.1436833 0.0367 0.0051 0.0006 0.0001 0.0002333333 0.0001 0.0001 0.0001 
0.0001 0.0001 0.0001000002 0.0001 0.00045 0.0008 0.0006001829 0.0004 0.000350221 0.0003 0.0002508916 0.0002 0.0002 0.0001666992 0.0001 0.000154321 0.0002 0.0001728395 0.0001 0.0001859375 0.000175 0.0001 0.0002666667 0.0001 0.00178 0.0014 0.0111 0.2209167 0.2864 0.964025 2.7915 9.2913 17.9302 26.4016 33.5647 34.71197 38.0995 39.3895 37.0836 43.4661 42.32997 38.3096 34.5261 33.334 31.8466 32.84223 31.6469 30.6065 29.6351 28.6737 27.88588 34.8882 27.4322 30.2308 29.9338 30.0096 32.45378 32.4491 34.5117 35.4848 36.6338 39.87672 52.9848 42.53043 40.84653 37.621 33.17914 30.6979 32.2534 36.0225 39.238 41.83207 43.1318 46.673 65.8185 24.6392 16.75142 13.884 8.1842 4.0316 1.5819 0.486 0.20335 0.1171 0.0226 0.0035 0.0005 0.0002 0.0001 0.0001 0.0001 
0.0001000023 0.0001 0.0001 0.0001000008 0.0001 0.00045 0.0008 0.0006005487 0.0004 0.000350663 0.0003 0.0002526749 0.0002 0.0002 0.0001667969 0.0001 0.000162963 0.0002 0.0002185185 0.0001 0.00036875 0.00025 0.0001 0.0006 0.01553333 0.0066 0.0935 0.3328 0.8251 5.55135 11.4382 15.30233 28.131 37.0827 43.25366 48.1637 55.4587 62.3014 92.342 69.3548 65.97885 65.2618 57.9028 50.6752 44.1329 46.8888 39.7435 36.0866 32.2215 27.5435 28.04873 17.8793 22.7566 24.846 25.4779 27.41542 27.6311 30.0905 30.8185 31.323 36.1793 33.60982 33.709 32.7306 38.4254 32.2484 30.22352 25.6455 28.6372 31.7336 33.7911 36.30393 35.2778 35.9363 59.142 19.9727 24.74455 12.312 6.9053 3.2577 1.1693 0.9343333 0.3133 0.0631 0.0098 0.0012 0.0001 0.000275 0.0001 0.0001 0.0001 
0.0001 0.0001000068 0.0001 0.0001 0.0001000031 0.0001 0.00045 0.0008 0.0006016461 0.0004 0.000351989 0.0003 0.0002580247 0.0002 0.0002 0.0001671875 0.0001 0.0001888889 0.0002 0.0003555556 0.0001 0.001025 0.0004 0.0024 0.06266667 0.0821 0.4221 1.7732 5.7383 9.02398 12.8505 20.8195 34.3228 39.38643 52.2518 71.0556 125.7929 104.9553 89.9961 88.3858 86.2447 91.095 86.811 81.0155 72.3863 67.29552 61.5766 49.9762 41.0707 34.7154 32.9229 24.5923 26.0702 24.2744 23.5859 27.3518 27.8542 29.505 30.2991 30.3507 25.7633 24.20767 16.3887 20.3985 26.0175 26.9297 25.96148 28.0054 29.41835 32.7549 33.518 33.68356 32.8669 40.4605 49.5245 60.3047 30.3304 17.3547 8.3374 3.9347 1.5605 0.81095 0.495 0.121 0.0223 0.0032 0.0004 0.0002 0.0001 0.0001266667 0.0001 
0.0001 0.0001000068 0.0001 0.0001 0.0001000031 0.0001 0.00045 0.0008 0.0006016461 0.0004 0.000351989 0.0003 0.0002580247 0.0002 0.0002 0.0001671875 0.0001 0.0001888889 0.0002 0.0003555556 0.0001 0.001025 0.0004 0.0024 0.06266667 0.0821 0.4221 1.7732 5.7383 9.02398 12.8505 20.8195 34.3228 39.38643 52.2518 71.0556 125.7929 104.9553 89.9961 88.3858 86.2447 91.095 86.811 81.0155 72.3863 67.29552 61.5766 49.9762 41.0707 34.7154 32.9229 24.5923 26.0702 24.2744 23.5859 27.3518 27.8542 29.505 30.2991 30.3507 25.7633 24.20767 16.3887 20.3985 26.0175 26.9297 25.96148 28.0054 29.41835 32.7549 33.518 33.68356 32.8669 40.4605 49.5245 60.3047 30.3304 17.3547 8.3374 3.9347 1.5605 0.81095 0.495 0.121 0.0223 0.0032 0.0004 0.0002 0.0001 0.0001266667 0.0001 
0.0002000271 0.0001 0.0001000203 0.0001 0.0001 0.0001000122 0.0001 0.00045 0.0008 0.0006049383 0.0004 0.0003559671 0.0003 0.0002740741 0.0002 0.0002 0.00016875 0.0001 0.0002666667 0.0002 0.0007666667 0.0001 0.0035 0.0306 0.2082333 0.2537 1.1286 3.6977 8.8979 13.83128 16.8081 27.5716 39.6268 52.7052 75.8777 102.0465 95.6196 81.6801 79.2854 86.26994 99.2518 104.119 98.3232 94.776 95.1553 86.72185 90.7785 78.0655 65.8472 58.3021 42.31253 34.5048 32.4281 30.0172 29.2843 30.12617 30.2774 30.8413 28.8958 26.0375 25.18183 21.3526 11.8531 16.331 21.4669 24.0102 27.14712 27.2605 30.4784 33.52387 34.159 33.58918 32.964 38.5116 44.6489 57.9193 39.62522 14.119 6.2292 2.8328 1.0475 0.9929833 0.2801 0.0531 0.0077 0.0009 0.0016 0.0001 0.0002333333 0.0001 0.00015 
0.0003 0.0002000813 0.0001 0.000100061 0.0001 0.0001 0.0001000488 0.0001 0.00045 0.0008 0.0006148148 0.0004 0.0003679012 0.0003 0.0003222222 0.0002 0.0002 0.000175 0.0001 0.0005 0.0002 0.002 0.0143 0.0587 0.5982 0.8219 2.7144 7.3188 14.8059 19.75242 23.887 36.2895 49.4584 64.0319 81.24798 115.7181 82.27762 76.12502 73.4585 84.80943 87.242 92.9079 91.1414 92.65 92.38315 98.8596 101.5748 96.0773 77.1749 51.1433 54.87015 50.6173 42.7677 38.2512 35.8821 33.65717 33.8731 29.2056 28.9083 25.5279 22.95612 22.059 14.9077 19.3811 23.9009 25.47828 26.7542 30.781 34.0288 35.3553 35.0078 33.79825 34.83296 35.468 38.9411 43.5621 42.98357 44.4915 9.8538 4.6337 1.9357 1.470617 0.6391 0.1602 0.0304 0.0045 0.0043 0.0005 0.0001 0.0002 0.0002444444 
0.0001907349 0.0003 0.0002002439 0.0001 0.0001001829 0.0001 0.0001 0.0001001953 0.0001 0.00045 0.0008 0.0006444444 0.0004 0.0004037037 0.0003 0.0004666667 0.0002 0.0002 0.0002 0.0001 0.0012 0.0133 0.1023 0.44075 0.4959 1.9284 5.5808 12.4186 22.1068 27.62995 32.0088 46.512 58.3441 99.8433 78.11391 73.9414 64.8649 61.8416 58.97018 69.58087 79.65267 74.3311 79.9058 84.247 83.64415 88.611 91.3495 87.2982 78.2767 69.479 69.0384 65.615 55.6367 46.0862 40.4699 36.50312 32.1562 32.1042 30.508 25.6736 22.95913 17.0861 18.9287 22.5756 26.9214 27.98505 29.8161 33.467 36.3132 37.0755 35.76633 35.6785 31.5427 36.34365 39.80058 43.9142 46.46577 53.8953 15.3905 7.4211 3.5416 2.529567 1.3797 0.4158 0.0962 0.0173 0.01198333 0.0025 0.0003 0.0004333333 0.0004111111 
0.0001027344 0.0001694702 0.0003 0.0002007316 0.0001 0.0001005487 0.0001 0.0001 0.0001007813 0.0001 0.00045 0.0008 0.0007333333 0.0004 0.0005111111 0.0003 0.0009 0.0002 0.0044 0.0003 0.0044 0.0497 0.432 1.345133 1.5413 4.5231 10.0958 18.6717 25.72667 31.3571 41.6141 56.7656 97.458 63.6507 63.90303 51.4981 48.1315 47.0873 53.4933 55.52082 64.1297 66.98672 63.7018 66.2919 72.6724 71.2054 73.9538 69.9506 67.5041 70.12327 73.7366 70.5676 60.3206 51.1994 40.3686 39.53458 36.2688 34.2489 31.9488 27.8439 23.72692 19.5643 21.3603 24.4145 28.8328 30.0016 31.6849 34.7294 37.0249 37.1266 35.68308 34.3543 35.192 36.9992 39.9189 44.71135 52.67392 40.586 20.758 10.4252 5.3774 5.122217 2.3039 0.7768 0.2017 0.0406 0.05966667 0.0065 0.0009 0.0006 0.0005111111 
0.0001 0.0001054688 0.0001724121 0.0003 0.0002021948 0.0001 0.0001016461 0.0001 0.0001 0.000103125 0.0001 0.00045 0.0008 0.001 0.0004 0.0008333334 0.0003 0.0022 0.01618333 0.0192 0.1125 0.4897 1.474 3.309983 4.0253 9.5334 17.838 28.8271 42.55735 40.9787 48.4096 102.8073 71.9571 48.9878 48.62023 45.4969 42.7981 42.1866 47.9242 52.88743 56.5361 63.3158 56.35717 56.02345 59.6461 53.0067 57.2842 58.7903 62.9941 64.33421 69.1897 69.8123 61.6739 54.2226 49.66108 47.4222 40.5218 35.1654 32.255 30.5702 23.97265 21.6234 22.7754 25.6883 29.9393 31.4321 32.8151 35.4133 37.0842 36.6327 35.29795 33.2309 35.4952 39.7302 44.7794 47.043 50.2329 62.6533 39.79588 24.69476 12.53835 11.9392 6.1915 2.6934 0.9169 0.2364 0.1549333 0.0547 0.01264 0.0005 0.00074375 
0.0001000543 0.0001 0.0001109375 0.0001787109 0.0003 0.0002065844 0.0001 0.0001049383 0.0001 0.0001 0.0001125 0.0001 0.00045 0.0008 0.0018 0.0004 0.0018 0.0076 0.05146667 0.0676 0.3642 1.4329 3.8837 6.814333 8.5036 17.9186 28.2815 40.5013 62.14055 95.0082 88.5835 77.0768 53.8259 49.57547 42.3215 39.7664 37.9859 39.0509 44.4355 46.69858 50.8058 50.7334 46.0197 48.0804 44.9435 48.84965 50.33852 47.8422 52.9974 58.0925 59.5834 64.0364 64.3677 55.3711 51.7084 49.3826 41.2511 33.7145 29.6161 27.33375 20.3058 23.9283 24.3171 27.2621 31.182 32.54752 34.1385 36.5471 37.838 37.1576 35.83843 33.2856 35.9721 41.2773 47.8391 48.65967 52.4447 58.0256 64.5016 22.4116 21.09237 11.09285 9.2361 4.3088 1.6123 0.7508333 0.5904 0.001 0.0001 0.001525 0.00035 
0.0001 0.0001001628 0.0001 0.000121875 0.0001929688 0.0003 0.0002197531 0.0001 0.0001148148 0.0001 0.0001 0.00015 0.0001 0.00045 0.0008 0.0042 0.0173 0.1359333 0.0523 0.1599 0.8939 3.596 8.0831 11.65407 14.9163 26.111 37.158 91.6794 71.84679 75.8486 69.779 59.058 42.9638 41.465 37.3967 34.9713 33.5856 35.6488 37.03182 38.941 41.5489 38.7853 36.4001 37.9704 37.8271 40.7165 44.3912 44.50555 47.8777 54.0928 55.9127 63.6798 58.2903 54.7293 48.00983 49.1226 39.7965 32.0051 30.5904 24.03365 20.665 24.645 25.0962 28.219 30.11518 32.1475 35.0627 37.3818 38.5388 37.1503 37.13327 37.5735 39.0905 42.0066 46.0671 47.77815 50.5948 62.892 87.5121 33.0141 22.42958 17.0046 9.2181 4.414467 0.9259 0.837925 0.2231 0.0385 0.0053 0.0006 0.0001 
0.0001 0.0001 0.000100651 0.0001 0.00014375 0.000228125 0.0003 0.0002592593 0.0001 0.0001444444 0.0001 0.0001 0.0003 0.0001 0.0067 0.03395 0.147 0.40694 0.5896 1.8574 4.3487 8.353 13.5369 16.40878 21.0008 33.4276 84.8185 68.3076 66.50069 59.7356 55.2869 46.2877 38.0689 36.23445 34.2132 31.6997 30.5491 31.49 32.02743 32.6247 32.0905 29.7724 29.054 30.07487 30.1368 32.2314 35.4921 38.4327 40.76385 50.09085 54.5248 45.0341 43.8386 42.3004 39.59157 37.153 31.8823 27.1751 20.5636 23.05413 22.461 25.4353 25.9996 29.0389 30.80495 32.8416 35.6103 37.9269 39.053 37.5938 38.29937 40.0388 41.7122 41.1871 40.8797 46.46755 48.8435 80.5212 37.4804 25.3622 20.17628 14.3554 7.4033 3.0004 1.58185 0.4455 0.0976 0.0181 0.0024 0.0003 0.0003333333 
0.0001020576 0.0001 0.0001 0.0001026042 0.0001 0.0001875 0.000325 0.0003 0.0003777778 0.0001 0.0002333333 0.0001 0.0007 0.0007 0.0043 0.0301 0.14825 0.5764 1.2285 3.5477 7.9107 13.276 17.55618 19.0754 21.8402 74.6229 61.758 53.9567 53.30217 49.4762 45.4502 38.9595 33.9255 32.12457 30.8386 27.5595 27.043 27.2142 26.86128 26.2459 25.1497 23.5522 23.0409 23.84935 23.847 25.7743 29.3416 33.6446 43.1004 44.58358 53.4726 39.68805 36.53748 27.8475 33.42437 26.3966 25.4169 25.3817 20.8934 22.17668 23.1514 25.8761 26.775 29.6253 31.2839 32.9574 35.4853 37.5472 38.5157 37.8939 36.9542 40.4856 42.474 40.2939 37.9554 49.8638 54.4648 91.3364 32.8605 20.1561 15.07882 11.1653 5.1546 1.8788 0.5223 0.211875 0.1107 0.02813333 0.0005 0.001066667 0.0003 
0.0001 0.0001061728 0.0001 0.0001 0.0001104167 0.0001 0.000275 0.000625 0.0003 0.0007333333 0.0001 0.0005 0.01003333 0.0021 0.0144 0.0754 0.3405 1.8791 4.115475 6.1758 12.6822 19.876 24.82594 31.2198 49.3972 48.747 47.1801 47.7518 45.6226 42.7143 38.1213 32.9996 29.3397 28.73065 26.3615 23.2001 23.7593 22.4597 22.26567 21.1332 19.4649 18.0312 18.0758 19.08118 18.9416 20.4935 24.2423 28.1578 35.19977 46.1826 35.5787 30.8425 29.3618 24.69465 24.8283 24.61556 26.1952 26.1651 22.1675 23.65722 23.8232 26.5333 27.6406 30.2345 31.84555 33.0057 35.1169 36.8256 36.743 37.75447 38.5037 41.2781 42.3716 41.2309 44.70605 44.1215 72.9179 31.2422 23.7046 13.0094 10.20203 6.4245 2.5613 0.7838 0.182 0.1505333 0.0325 0.0046 0.001525 0.0003 0.0004416667 
0.0001160494 0.0001 0.0001185185 0.0001 0.0001 0.0001416667 0.0001 0.00045 0.00165 0.0003 0.0018 0.0093 0.05796667 0.0475 0.1981 0.6727 1.8443 3.85506 4.1031 7.5826 16.72358 19.68795 29.2111 40.6825 40.0034 39.7551 39.7316 39.07747 38.2618 35.6932 32.0941 28.93 27.72805 26.761 25.1576 22.9695 20.9761 19.2566 20.01038 17.2844 14.9129 12.1349 12.941 18.17758 17.6408 20.3794 21.0366 30.8114 30.83022 29.3018 24.8653 22.3218 20.5585 22.06598 21.0108 24.0583 24.96772 25.1909 24.80868 25.7112 26.1966 28.2924 29.3822 31.5085 32.67572 33.7419 35.3935 36.6365 36.2208 38.6147 39.5894 42.2376 43.1028 44.725 52.0518 59.9096 31.0026 23.3072 15.0223 12.13395 7.3388 3.1181 1.0268 0.2555 0.0485 0.04735 0.0072 0.0009 0.0001 0.0001 0.0001666667 
0.0001 0.0001481481 0.0001 0.0001555556 0.0001 0.0001 0.0002666667 0.0001 0.0008 0.0054 0.0201 0.1615333 0.0581 0.2303 0.7547 2.0296 4.51 7.095883 8.4774 14.0071 21.1275 25.0661 41.00602 39.0197 38.2107 33.4303 32.2595 32.16688 31.4092 30.3484 27.7756 25.4155 25.45167 22.9225 16.4506 18.1909 17.6845 19.4577 20.9029 20.4707 19.8293 18.1839 18.9757 19.15958 22.4906 24.4144 20.0501 24.5126 28.2986 26.0151 24.1835 21.627 19.7185 20.69253 19.6803 21.9951 26.2017 23.90365 26.1047 27.10555 28.138 30.3222 31.0274 32.7394 33.51723 34.8243 36.0532 36.0774 38.8124 40.1783 41.8189 43.5282 44.9407 50.364 55.56148 71.9598 25.2209 17.7268 9.4685 7.528833 4.2601 1.5064 0.4006 0.0803 0.0124 0.01226667 0.0015 0.0002 0.0004 0.0001 0.0001 
0.0001375 0.0001 0.0002444444 0.0001 0.0002666667 0.0001 0.0008 0.0006 0.0041 0.0755 0.2331 1.187117 0.6468 1.2108 2.1846 4.7958 8.9562 13.60607 14.6843 22.318 30.2433 58.6426 41.6385 39.6329 35.76 31.11645 25.9876 28.75197 25.3516 27.4015 27.7828 25.9695 25.16458 22.7115 16.2013 16.4039 17.9797 21.28897 22.3167 26.6313 27.4064 25.9078 25.0426 21.33347 17.8668 19.683 18.9794 26.5805 29.43048 32.5702 29.5446 24.1748 21.9997 21.93677 21.1874 20.0397 19.0817 25.1403 25.98302 28.3764 28.9748 29.996 31.4844 32.2485 32.9742 35.3151 36.6222 36.5552 40.4774 42.31272 44.1509 46.3335 51.205 68.5906 49.25122 37.8199 23.8049 13.751 6.5384 4.205683 2.5449 0.7505 0.1651 0.0275 0.02201667 0.0036 0.0004 0.00055 0.0002 0.0002333333 0.0001 
0.0001515625 0.000175 0.0001 0.0005333333 0.0001 0.0006 0.01555 0.0026 0.1278 0.4776 1.6557 3.566567 4.5089 9.1623 14.3589 17.5159 21.64023 21.0216 23.9869 32.7649 45.6349 51.2096 38.24637 33.6413 31.0946 28.1667 24.46778 23.23232 24.45328 24.3881 27.3684 27.2732 25.17347 26.6953 21.6383 22.9064 23.795 25.71083 26.5002 30.8247 33.4281 32.4722 26.6757 22.2422 21.3829 21.6588 22.864 29.867 32.67776 37.0375 33.7522 27.6169 25.1309 24.7172 23.9038 22.4199 19.6851 22.4072 26.09978 28.0082 28.0693 30.9347 30.1423 31.93822 33.0171 34.3736 36.0429 36.7271 39.6951 41.7472 46.8695 51.9913 65.4101 37.6587 37.06192 29.1143 19.3783 12.7478 1.6223 2.155133 0.7999 0.2353 0.0484 0.0074 0.006866666 0.0009 0.0001 0.00025 0.000275 0.0002 0.0001777778 
0.0001 0.00023125 0.00025 0.0001 0.0014 0.012 0.04816667 0.0774 0.3922 1.5149 4.4588 7.269633 9.8961 17.1789 25.4367 34.3495 41.72895 43.2024 69.0191 51.0858 38.6908 38.03867 20.2461 26.1057 24.4818 22.7986 20.9182 20.6833 20.6719 25.14508 26.83577 26.5745 25.88112 21.8168 26.0393 28.3487 30.6545 30.63162 33.0189 37.4591 39.9991 28.9112 28.89427 25.4782 26.0898 27.3147 27.6545 29.8878 32.8645 37.1469 37.0611 32.6179 28.7705 27.14015 27.3109 26.8579 21.9571 24.792 27.84125 27.8746 27.2738 27.8729 30.2772 31.71272 33.7877 34.20673 34.0467 38.7281 41.42536 43.9356 49.3174 56.5364 69.2275 45.36245 27.1078 22.0802 17.9257 3.8059 1.1131 0.75805 0.3122 0.0702 0.0122 0.0016 0.00208 0.0002 0.0004 0.0001 0.000175 0.0001875 0.0002 
0.0002 0.0001 0.000475 0.0004 0.0037 0.02123333 0.0262 0.1702 0.8715 3.0411 7.8256 11.7893 15.2727 24.2781 33.4751 45.4174 63.06015 88.8669 66.7704 57.7218 47.3764 37.39075 25.0742 22.785 18.4628 16.8863 19.41155 18.1114 23.0317 27.1144 28.296 28.91585 26.23577 27.0458 28.729 30.1951 32.6116 34.11385 37.2095 46.3707 34.5614 33.9155 33.77162 30.3463 28.8634 33.483 32.8593 32.30655 33.2175 36.1669 46.8193 39.6813 30.3007 28.90755 27.4241 26.9467 30.2936 31.6124 30.99637 32.3531 26.6131 24.3052 29.731 31.60322 33.8256 33.9345 35.36847 36.0822 41.95847 45.9888 55.3376 72.6379 45.0738 40.47265 27.6968 24.6478 6.712 2.1811 0.577 0.4065833 0.1238 0.0214 0.003 0.0003 0.00055 0.0002 0.0002 0.0002333333 0.0001 0.0001375 0.00015625 
0.0002333333 0.0003 0.0001 0.0013 0.0102 0.06125 0.0739 0.4025 1.6589 5.6022 12.0022 16.01487 21.2804 32.9384 46.4943 90.5059 74.11553 76.0188 65.9882 61.7377 58.613 40.73817 34.344 26.083 20.3891 18.0463 19.7178 19.7085 24.1863 29.2301 31.2869 29.506 30.69213 30.7033 30.10287 31.8994 33.66 33.11358 37.5286 34.778 35.4488 37.455 41.41193 46.5235 34.9941 33.6328 33.4332 34.84293 33.8103 41.9945 56.6599 45.8055 37.37053 31.4664 28.1727 26.3891 32.4185 34.2382 34.6124 35.1079 30.4702 27.8715 30.6025 32.01878 33.5798 33.9475 32.3726 39.1814 43.36832 55.65368 57.73326 51.147 40.0825 34.06963 33.6475 10.3896 4.0306 1.1819 0.82305 0.2667 0.0467 0.0065 0.0007 0.0001 0.0002 0.00025 0.0002 0.0002 0.0001777778 0.0001 0.00011875 
0.0005166667 0.0003 0.0005 0.0041 0.0346 0.1891167 0.2189 1.0596 3.889 8.4229 13.10617 15.2768 24.4315 39.8486 94.22 74.7494 72.7932 69.1348 65.6219 57.6807 37.672 42.72253 41.3494 31.8421 26.4877 22.7338 23.06647 22.8205 25.1347 30.5062 35.6309 36.33917 34.9938 31.2229 31.525 32.63376 32.89183 32.22185 24.5582 33.2806 36.2562 40.0706 50.0614 60.1607 49.1812 33.5842 34.6416 39.16895 41.0957 51.7613 57.8795 45.062 38.80658 31.9073 27.266 23.9502 29.5321 31.89377 34.8914 39.4714 35.1078 32.2061 31.8402 31.48242 32.5336 33.2953 30.9861 38.7716 43.56014 49.5315 71.7568 53.50003 42.4504 32.9118 15.4668 6.9886 2.3964 0.6141 0.4207167 0.1175 0.0173 0.002 0.0002 0.000275 0.0001 0.00015 0.00018 0.0002 0.0002 0.0001592593 0.0001 
0.0003 0.001166667 0.00598 0.0338 0.1386 0.26265 0.6585 2.354 6.5044 14.0909 18.6475 23.242 33.2344 86.6395 77.5096 70.27817 65.7286 60.6217 57.9756 55.598 42.808 40.26883 41.5488 38.4651 34.8589 29.3007 26.94355 25.789 27.47 34.019 46.3321 43.79312 40.2853 33.9126 33.2171 32.8673 31.88792 33.1406 28.90422 30.96062 36.3048 42.5667 46.2528 69.9058 57.5525 40.3114 42.7091 45.55803 49.3238 57.3046 61.1922 45.9757 39.4657 32.6226 27.3658 22.3528 24.4595 30.88482 35.8229 43.6969 45.5589 37.752 34.58692 30.2122 30.1262 31.2441 32.439 38.7726 48.81568 51.5436 74.9707 40.5928 38.53952 22.8528 9.4809 4.3099 1.3193 0.2952 0.2037 0.0489 0.0062 0.0006 0.0001 0.00015 0.00015625 0.0001 0.000125 0.000161 0.0002 0.0002 0.0001530864 
0.001166667 0.0003 0.0027 0.0223 0.21065 0.8221 2.5614 5.2995 11.4569 19.2137 29.85777 31.6387 74.261 63.8924 58.5189 54.09115 50.9425 45.6353 37.8435 32.2484 37.49586 37.5636 40.6712 41.2071 38.3306 32.8186 29.92708 28.1987 29.1646 40.6721 59.6014 53.30093 45.9152 36.7208 35.0474 34.4618 30.80308 27.082 24.5044 30.8595 34.9198 43.92038 53.9491 68.1086 60.165 47.9146 49.6657 52.07572 55.9123 64.5313 64.8269 47.355 40.61163 33.8716 28.4959 23.842 26.6227 31.03785 33.9803 42.1855 50.6539 43.1729 36.38503 32.3381 29.8413 27.0488 35.6752 48.0565 53.06328 66.2183 49.4168 48.7792 22.3357 14.2646 11.1583 4.531083 1.534367 0.128 0.09936 0.0185 0.0021 0.0002 0.00025 0.0001 0.000125 0.0001203125 0.0001 0.0001125 0.0001547 0.0002 0.0002 
0.0003 0.0029 0.0214 0.124 0.5577 1.2949 1.9336 5.823233 11.5771 19.2997 28.82234 71.6616 54.9384 42.7164 36.1616 33.03483 35.6857 38.7473 30.794 25.5831 30.27552 31.1741 39.2231 42.0221 38.744 34.1247 32.8245 29.3308 30.2203 46.6634 66.6988 65.16026 60.9728 41.3 34.9988 27.7021 30.4107 29.5647 30.26 33.3401 39.1748 47.3692 58.46943 58.24213 55.4101 50.4677 51.11206 53.3589 61.4845 70.4462 66.8914 49.1722 41.98017 34.6727 27.4664 26.9366 30.0414 32.77465 35.3003 41.6204 46.074 41.5573 39.13088 33.2777 26.0604 30.7277 47.574 51.45498 69.7165 44.0722 48.263 25.3425 16.3192 11.9757 7.2452 2.4939 0.6599 0.2814 0.050325 0.0062 0.0006 0.0001 0.00015 0.00015 0.0001 0.0001125 0.0001082031 0.0001 0.00010625 0.00015219 0.0002 
0.0004 0.0037 0.0261 0.1463 0.6317 0.8699167 2.0566 4.9664 9.2264 8.016875 23.98447 2.298 1.5944 3.4375 6.204 15.00985 10.6963 46.296 30.0302 23.6302 19.13082 31.4537 42.2231 48.4952 47.4074 31.7074 42.0265 30.4477 33.488 51.7607 79.728 85.75317 78.0454 54.607 30.8294 29.6863 32.3162 33.9673 35.3871 38.4867 43.219 46.28352 53.1339 58.6861 53.18928 51.84132 51.95445 54.1534 66.196 71.4349 65.6717 57.63513 50.5135 36.296 28.2208 29.8592 33.0475 33.67322 37.6557 42.6129 44.8951 43.0631 37.76122 41.3762 15.0878 25.5263 45.0554 52.37646 62.6523 56.5948 27.0321 18.2846 14.68788 10.6499 4.1459 1.2713 0.2891 0.0486 0.018075 0.0049 0.00178 0.0003 0.0001 0.000125 0.00011875 0.0001 0.00010625 0.0001036133 0.0001 0.000103125 0.0001388287 
0.00205 0.007575 0.0001 0.0005 0.15676 0.0049 0.035 0.195 0.8628 2.6786 1.313275 0.8388 1.252483 0.1389 0.3904 3.66588 0.9211 0.9164 0.2228 0.9206 9.876367 2.0232 5.1155 9.9358 14.7911 22.63293 13.1507 36.9615 45.4997 71.9346 75.29722 112.1014 116.9726 64.584 37.2679 34.8137 39.77735 38.1631 41.1192 44.0326 46.9952 49.99425 48.8947 53.0843 51.6497 49.8378 54.07858 61.63465 67.7538 72.2164 64.2063 56.49317 49.3557 35.5044 29.611 26.5614 27.82245 30.8009 35.1935 39.4393 40.9332 37.6083 33.552 29.6847 16.8428 22.4809 35.3922 44.1259 53.8684 33.2892 19.5163 11.7367 9.285466 5.7944 2.0369 0.5431 0.1066 0.08278333 0.0157 0.0018 0.0002 0.0002 0.0002 0.0001 0.0001125 0.0001078125 0.0001 0.000103125 0.0001016846 0.0001 0.0001015625 
0.003241667 0.0001 0.0003 0.0003 0.001933333 0.0004 0.0036 0.0258 0.1024 0.6551833 0.2555 0.021 0.0251 0.11284 0.144575 0.3674 0.1176 0.2058 0.0513 0.3474 0.7434833 0.8831 2.4502 4.9147 7.3604 9.310483 11.0615 27.7095 44.8629 66.3488 67.04227 69.9098 46.9267 36.7359 21.9202 34.68155 51.8982 50.1355 52.4598 54.4315 55.1003 51.31773 52.6224 55.0487 54.5982 53.8877 55.76378 58.4354 64.21819 66.80576 62.6084 55.69345 46.6034 30.8961 25.1057 22.159 23.38253 24.5067 27.9353 31.2967 32.3189 28.98 25.53325 20.5997 15.6626 19.2703 35.665 34.13693 32.1221 24.6376 12.5276 6.5874 5.139483 2.6598 0.8244 0.1899 0.0325 0.02803333 0.0042 0.0004 0.000625 0.0002 0.0002 0.000175 0.0001 0.00010625 0.0001035156 0.0001 0.0001015625 0.0001008118 0.0001 
0.0001 0.0002 0.0002333333 0.0007333333 0.0004 0.001433333 0.0003 0.0023 0.0096 0.06528334 0.0222 0.0004 0.0013 0.0085 0.01305 0.0405 0.0624 0.0002 0.0061 0.0641 0.261 0.2225 0.802 2.1003 3.1652 5.5134 6.334 19.6212 34.1443 43.3993 45.02235 38.5597 29.9093 24.5744 23.0213 29.7945 39.168 45.6873 50.6121 53.4574 54.3877 47.4126 49.9061 45.4507 72.035 63.8042 53.332 52.8538 65.3642 68.6855 55.05893 46.1855 33.2867 22.7832 19.1716 17.4179 18.1176 18.8493 21.3103 23.6982 24.2528 23.14562 21.4894 14.8374 14.734 10.6962 23.8471 24.23453 23.9268 17.1002 7.2761 3.0381 2.468967 1.0205 0.2717 0.0543 0.0082 0.007966666 0.001 0.0001 0.00025 0.00029375 0.0002 0.0002 0.00016875 0.0001 0.000103125 0.0001016602 0.0001 0.0001007813 0.0001003983 
0.00015 0.0001777778 0.0003916667 0.0004 0.0007111111 0.0003 0.0009 0.0001 0.0006 0.00678 0.0014 0.00425 0.0001 0.0005 0.01046 0.0027 0.0076 0.00298 0.01775 0.01985 0.0086 0.0403 0.1992 0.6953 1.2597 2.942617 3.8996 15.4124 28.6931 27.7536 27.5355 24.1629 18.125 16.4641 17.6075 22.44303 25.1518 29.635 33.6181 35.5532 38.83602 35.6715 36.7876 40.4387 52.9196 50.4453 45.2685 40.5656 44.202 46.2757 42.6661 32.28992 32.8641 21.41245 13.8219 12.4225 14.08194 13.3502 15.0058 16.652 16.9104 16.28285 14.9222 11.3967 7.0831 6.5784 10.97363 14.0628 15.7834 10.2932 3.9819 1.216 1.00895 0.292 0.0707 0.0127 0.0017 0.00228 0.0002 0.0004333333 0.0001 0.000175 0.0001921875 0.0002 0.0002 0.0001671875 0.0001 0.0001015625 0.0001008057 0.0001 0.0001003906 
0.0001638889 0.0002798611 0.0004 0.0004703704 0.0003 0.0004333333 0.0001 0.00035 0.00035 0.0007 0.0001 0.0005333333 0.0003 0.0003 0.0011 0.0001 0.0004 0.002866667 0.0006 0.0033 0.0137 0.04823333 0.0354 0.155 0.44465 0.423 2.5742 9.866 15.057 17.4241 16.75867 13.9134 10.2478 10.1501 11.7396 15.14205 17.97 22.0775 25.3973 27.1809 27.12032 26.7654 27.1693 29.1837 33.9423 36.15242 33.4944 30.4477 32.4377 33.6771 30.5058 27.48437 23.1237 16.7102 11.7661 10.70588 10.46525 8.3698 9.3563 10.4441 10.585 10.4338 9.5373 5.9197 3.7142 3.2688 5.995633 7.3885 9.0981 5.3276 1.7024 1.320417 0.4288 0.0583 0.0113 0.0023 0.0003 0.0007333333 0.0002 0.0002 0.0002444444 0.0001 0.0001375 0.0001574219 0.0002 0.0002 0.0001667969 0.0001 0.0001007813 0.0001003967 0.0001 
0.00028125 0.0004 0.0003901235 0.0003 0.0002777778 0.0001 0.000225 0.0002666667 0.000375 0.0001 0.0001 0.0001 0.0003083333 0.00045 0.0001 0.00025 0.00025 0.0005 0.0006 0.0004666667 0.0007 0.0052 0.03783333 0.0271 0.178225 0.1078 1.1964 5.1307 7.5324 9.620317 9.7724 7.5256 5.0088 5.0311 6.6026 9.672133 11.7808 15.1935 17.9869 18.8659 19.04835 18.685 18.4879 19.8095 23.078 23.81505 23.0349 20.9491 22.0855 22.8083 22.16078 20.3392 15.4073 11.0629 8.8606 7.7185 6.1339 6.794625 7.205483 5.6103 5.7616 6.57894 4.8863 2.8741 1.5725 1.3248 2.854517 3.3505 4.6017 2.195 0.4985 0.4770833 0.0949 0.0093 0.002 0.0004 0.001 0.0003 0.0003583333 0.0002 0.0002 0.0001814815 0.0001 0.00011875 0.000144043 0.0002 0.0002 0.0001666992 0.0001 0.0001003906 0.0001001968 
0.0004 0.0003633745 0.0003 0.0002259259 0.0001 0.0001625 0.0001972222 0.0002416667 0.0001 0.0001 0.0001 0.0001 0.0001 0.0001 0.000175 0.0002 0.0003333333 0.00045 0.0004133333 0.0004 0.0001 0.0004 0.0039 0.008725 0.04185 0.43165 0.3935 2.1628 3.2335 4.715917 4.7025 3.4813 1.8739 1.9716 3.1967 5.4761 6.7431 9.1059 11.1466 11.4344 12.00157 11.3585 11.052 12.2028 14.7752 15.3384 14.5655 12.5066 13.1837 13.6038 13.62865 12.0305 9.1629 6.3429 4.9169 3.9963 3.95962 4.451 5.0014 3.9432 4.112375 3.83415 2.1245 1.205 0.5061 0.4498 1.17245 1.3447 1.8803 0.6911 0.1204 0.1263833 0.0175 0.0013 0.0003 0.0009 0.0004 0.0005666667 0.0003 0.0002645833 0.0002 0.0002 0.0001604938 0.0001 0.000109375 0.0001383545 0.0002 0.0002 0.0001666748 0.0001 0.0001001953 
0.0003544582 0.0003 0.000208642 0.0001 0.00013125 0.0001532407 0.0001753472 0.0001 0.0001 0.0001 0.0001 0.0001 0.0001 0.000125 0.0001583333 0.0002361111 0.0003277778 0.0003093333 0.00025 0.0001 0.00025 0.001175 0.0003 0.0036 0.00935 0.0289 0.5724 1.30235 1.1796 2.747675 1.8751 1.2894 0.5217 0.6115 1.2589 1.2456 3.2878 4.5988 5.7464 5.867 6.5722 5.7986 5.5821 6.5279 8.4829 8.989384 8.0939 6.1988 6.6301 6.8969 7.345716 6.0932 4.6397 3.0376 2.2991 2.398783 1.7038 1.9285 2.2083 2.5134 2.5642 1.598725 1.09092 0.4189 0.1327 0.1231 0.4180333 0.4418 0.639 0.1796 0.0243 0.02825 0.0027 0.0002 0.0006 0.0003 0.0005333333 0.0004 0.0004222222 0.0003 0.0002411458 0.0002 0.0002 0.0001534979 0.0001 0.0001046875 0.0001357605 0.0002 0.0002 0.0001666687 0.0001 
0.0003 0.0002028807 0.0001 0.000115625 0.0001281636 0.0001399595 0.0001 0.0001 0.0001 0.0001 0.0001 0.0001 0.0001083333 0.0001277778 0.0001731481 0.0002407407 0.0002296444 0.000175 0.0001 0.000175 0.00045625 0.0003 0.001433333 0.0004 0.0076 0.0045 0.1005 0.7442 0.61985 1.00545 1.041025 0.3788 0.1144 0.152 0.4176 0.376 1.2835 1.8987 2.4156 3.043533 2.5165 2.4582 2.31 2.8997 4.2054 4.640733 3.8134 2.5118 2.7412 2.8869 3.384733 2.563 1.9545 1.1956 0.8801 0.98675 0.5965 0.6729 0.8084 0.915 1.249133 0.9388 0.7674 0.283 0.16482 0.07825 0.0284 0.1204 0.1802 0.0391 0.0042 0.00644 0.0004 0.0011 0.0002 0.0003666667 0.0003 0.0004111111 0.0004 0.0003740741 0.0003 0.0002352865 0.0002 0.0002 0.000151166 0.0001 0.0001023438 0.0001345261 0.0002 0.0002 0.0001666672 
0.0002009602 0.0001 0.0001078125 0.0001145962 0.000120937 0.0001 0.0001 0.0001 0.0001 0.0001 0.0001 0.0001027778 0.000112037 0.0001364198 0.0001805556 0.0001762067 0.0001375 0.0001 0.0001375 0.0002578125 0.0003 0.0007111111 0.0004 0.0004 0.0014 0.0006 0.0199 0.2093 0.3463 0.304875 0.6208 0.2322167 0.0201 0.0307 0.13318 0.0898 0.4024 0.6311 0.8317 1.1893 0.884 0.8523 0.7788 1.0245 1.789467 1.7319 1.5169 0.8298 0.9204 0.9683 1.305417 0.9001 0.6769 0.3852 0.2682 0.3385167 0.1728 0.2047 0.2329 0.2809 0.42655 0.2825 0.2296 0.1206 0.0288 0.017025 0.04555 0.0675 0.0426 0.0072 0.0006 0.001325 0.00025 0.0004 0.0005666667 0.0002 0.0002888889 0.0003 0.0003703704 0.0004 0.0003580247 0.0003 0.0002338216 0.0002 0.0002 0.0001503887 0.0001 0.0001011719 0.0001339245 0.0002 0.0002 
0.0001 0.0001039062 0.0001074696 0.0001108364 0.0001 0.0001 0.0001 0.0001 0.0001 0.0001 0.0001009259 0.0001049383 0.0001170782 0.0001430041 0.0001423864 0.00011875 0.0001 0.00011875 0.0001988281 0.0003 0.0004703704 0.0004 0.0004 0.00053 0.00035 0.0001 0.0032 0.0489 0.0834 0.2124667 0.169 0.0902 0.02778333 0.014725 0.035775 0.0174 0.1028 0.1714 0.2347 0.3864167 0.2533 0.2423 0.2146 0.2929 0.6436667 0.5824 0.5017 0.2243 0.2519 0.2559 0.4167167 0.2583 0.1988 0.1048 0.0702 0.09645 0.0433 0.0486 0.058 0.0713 0.1226167 0.0708 0.0572 0.029 0.0053 0.0083 0.0056 0.0278 0.01546667 0.0011 0.00225 0.0001 0.0001 0.0002125 0.0004 0.0003888889 0.0002 0.000262963 0.0003 0.0003567901 0.0004 0.0003526749 0.0003 0.0002334554 0.0002 0.0002 0.0001501295 0.0001 0.0001005859 0.0001336276 0.0002 
0.0001019531 0.0001037919 0.0001055531 0.0001 0.0001 0.0001 0.0001 0.0001 0.0001 0.0001003086 0.0001019547 0.0001076475 0.0001216735 0.0001223687 0.000109375 0.0001 0.000109375 0.0001793945 0.0003 0.0003901235 0.0004 0.0004 0.000331 0.000225 0.0001 0.001233333 0.0004 0.0097 0.017 0.05301667 0.0383 0.0176 0.0029 0.0052 0.00655 0.03625 0.05916667 0.0386 0.0548 0.10425 0.06 0.0573 0.049 0.0695 0.1927667 0.1608 0.1371 0.0503 0.057 0.1072333 0.0569 0.0608 0.0482 0.0237 0.0156 0.02368333 0.0086 0.0102 0.0122 0.015 0.02963333 0.0152 0.0121 0.0059 0.0008 0.00215 0.001 0.0055 0.0086 0.00285 0.0004666667 0.0001 0.0001 0.0001 0.000203125 0.0004 0.0003296296 0.0002 0.000254321 0.0003 0.0003522634 0.0004 0.0003508916 0.0003 0.0002333639 0.0002 0.0002 0.0001500432 0.0001 0.000100293 0.0001334801 
0.0001028725 0.0001028245 0.0001 0.0001 0.0001 0.0001 0.0001 0.0001 0.0001001029 0.0001007545 0.0001033036 0.0001104252 0.0001112754 0.0001046875 0.0001 0.0001046875 0.0001721924 0.0003 0.0003633745 0.0004 0.0004 0.0002787 0.0001625 0.0001 0.0005777778 0.0004 0.003 0.0017 0.00535 0.003 0.0074 0.0029 0.0004 0.0007 0.00186 0.0029 0.0219 0.02286667 0.0107 0.034375 0.012 0.0114 0.0095 0.0139 0.0485 0.0371 0.0313 0.0096 0.0106 0.02318333 0.0111 0.012 0.0098 0.0046 0.008 0.0029 0.0015 0.0018 0.0022 0.0027 0.006083333 0.0028 0.0022 0.001 0.0001 0.0005 0.0001 0.001 0.0015 0.0002 0.0002 0.0002133333 0.0001 0.0001 0.0001 0.0002007812 0.0004 0.0003098765 0.0002 0.0002514403 0.0003 0.0003507544 0.0004 0.0003502972 0.0003 0.000233341 0.0002 0.0002 0.0001500144 0.0001 0.0001001465 
0.000101899 0.0001 0.0001 0.0001 0.0001 0.0001 0.0001 0.0001000343 0.0001002858 0.000101387 0.0001048278 0.0001054696 0.0001023438 0.0001 0.0001023438 0.00016922 0.0003 0.0003544582 0.0004 0.0004 0.00026199 0.00013125 0.0001 0.0003592593 0.0004 0.0011375 0.00095 0.0002 0.0011 0.0005 0.0012 0.0004 0.0011 0.0004 0.0001 0.0004 0.0039 0.0073 0.00525 0.006625 0.00685 0.002 0.0016 0.0024 0.01038333 0.0073 0.0061 0.0016 0.0017 0.004283333 0.0018 0.002 0.0017 0.0007 0.001483333 0.0005 0.0002 0.0003 0.0004 0.00116 0.0004 0.0004 0.0003 0.0002 0.0004333333 0.0001 0.0004 0.0001 0.0002 0.0006333333 0.0002 0.0002 0.0001626667 0.0001 0.0001 0.0001 0.0002001953 0.0004 0.0003032922 0.0002 0.0002504801 0.0003 0.0003502515 0.0004 0.0003500991 0.0003 0.0002333352 0.0002 0.0002 0.0001500048 0.0001 
0.0001 0.0001 0.0001 0.0001 0.0001 0.0001 0.0001000114 0.0001001067 0.000100569 0.0001021668 0.0001025712 0.0001011719 0.0001 0.0001011719 0.0001678909 0.0003 0.0003514861 0.0004 0.0004 0.000255523 0.000115625 0.0001 0.0002864198 0.0004 0.000578125 0.000575 0.0002 0.0002 0.0002666667 0.0001 0.0002 0.0006 0.0004 0.0001 0.00025 0.00102 0.0006 0.0012 0.0018 0.0011 0.002 0.001066667 0.00115 0.0004 0.0023 0.0012 0.001 0.0002 0.0002 0.001 0.0003 0.0003 0.0003 0.0001 0.00035 0.0001 0.000275 0.0003 0.00035 0.0003 0.0001 0.0001 0.00025 0.00025 0.0002 0.0002466667 0.0001 0.00015 0.00015 0.0002 0.0003444444 0.0002 0.0002 0.0001525333 0.0001 0.0001 0.0001 0.0002000488 0.0004 0.0003010974 0.0002 0.00025016 0.0003 0.0003500838 0.0004 0.000350033 0.0003 0.0002333338 0.0002 0.0002 0.0001500016 
0.0001 0.0001 0.0001 0.0001 0.0001 0.0001000038 0.0001000394 0.000100229 0.0001009475 0.0001014733 0.0001005859 0.0001 0.0001005859 0.0001672657 0.0003 0.0003504954 0.0004 0.0004 0.0002908339 0.0001078125 0.0001 0.0002621399 0.0004 0.0004552083 0.0003875 0.0002 0.0002 0.0001916667 0.0001 0.00015 0.00015 0.0002 0.000325 0.00025 0.00043 0.00035 0.0001 0.0002 0.000875 0.0003 0.0003 0.0003 0.0002 0.0003 0.0006 0.0002 0.0001 0.000375 0.0002 0.00025 0.0003 0.0003 0.0002333333 0.0002 0.0001 0.0001 0.0001 0.00025625 0.0002625 0.0001 0.0001 0.0001 0.0001 0.0002 0.000225 0.00015 0.000125 0.0001333333 0.0001666667 0.000175 0.0002 0.0002481481 0.0002 0.0002 0.0001381333 0.0001 0.0001 0.0001 0.0002333496 0.0004 0.0003003658 0.0002 0.0002500534 0.0003 0.000350028 0.0004 0.000350011 0.0003 0.0002333335 0.0002 0.0002 
