ncols         145
nrows         91
xllcorner     94.931809154754
yllcorner     29.774620371892
cellsize      0.00031966406493476
NODATA_value  -9999
0.0001 0.0001 0.0001 0.0001000457 0.0001 0.0001021159 0.000103125 0.0001 0.0001125 0.0001212963 0.0001315972 0.0001 0.000125 0.0001685185 0.0002944444 0.0003354167 0.0001 0.0001083333 0.0001 0.0001 0.00015 0.0001 0.0003 0.0004 0.002 0.0064 0.07325 0.0189 0.053 0.1396 0.3435 0.7347 2.4372 4.83595 3.913725 0.0001 0.0005 0.0018 0.0063 1.673025 0.0195 0.0515 0.1094 0.2121 0.3622667 0.9645507 0.7744241 0.4643407 0.5239963 0.6141704 0.6953074 0.72155 0.7391 1.629566 1.782821 1.668813 1.5068 1.724831 1.698435 1.644837 1.5897 3.683306 3.469736 2.307735 1.498898 0.9325035 0.5470228 0.2885908 0.1432754 0.05575902 0.03012344 0.0006 1.501063 2.24503 2.2336 0.7616071 0.01068113 0.003129404 0.001367662 0.001013805 0.0009511719 0.0009 0.001853079 0.001633016 0.001305864 0.001226407 0.0012125 0.0012 0.002450409 0.0037 0.002649614 0.002110939 0.002105518 0.0021 4.101459 6.147563 6.146132 6.1447 2.74896 1.042708 1.037721 1.035706 1.035203 1.0347 0.3536679 0.009139877 0.006571425 0.00529948 0.004335159 0.00343317 0.002623256 0.001974658 0.001514248 0.001222363 0.001055931 0.0009698115 0.000929272 0.0009114969 0.0009044749 0.0009015098 0.0009007569 0.0009 0.0004533826 0.0002133188 0.0002041377 0.0002013212 0.0002004573 0.0002001477 0.0002000732 0.0002 0.0002423076 0.0002271527 0.0002073536 0.000201742 0.0002003528 0.000200059 0.0002000077 0.0002000007 0.0002 0.0002 0.0002 1.7756 3.551 1.1839 0.0003337229 
0.0001 0.0001 0.0001 0.0001 0.0001001372 0.0001 0.0001032227 0.00010625 0.0001 0.000125 0.0001388889 0.0001625 0.0001 0.00015 0.0002555556 0.0004777778 0.0005083333 0.0001 0.000125 0.0001 0.0002333333 0.0003 0.001 0.0021 0.01828571 0.0783 0.08098 0.1894 0.4212 0.8549 1.5648 2.2968 2.69116 4.2801 5.3918 5.9829 5.7259 4.4839 3.617583 3.6293 3.037 1.7296 0.3148 0.5124334 1.606142 1.425939 0.4638556 0.4334778 0.4956889 0.6428222 0.704 0.7391 1.9375 2.010839 1.830825 1.5068 1.886921 1.80563 1.699975 1.5897 4.929092 4.905592 3.308838 2.194777 1.419591 0.8823259 0.4955932 0.2631491 0.1070302 0.05964687 0.0006 1.513589 2.256461 2.2336 0.7827467 0.02379425 0.006287569 0.00196157 0.001139072 0.001002344 0.0009 0.00286749 0.002206455 0.001438371 0.001254222 0.001225 0.0012 0.002451227 0.0037 0.002665637 0.002121783 0.002111035 0.0021 4.105749 6.150424 6.147563 6.1447 2.759728 1.050665 1.040746 1.036713 1.035705 1.0347 0.3588466 0.01297349 0.008151746 0.006294398 0.00526813 0.004335913 0.003401432 0.002562165 0.00190617 0.001455638 0.001180937 0.001030514 0.000956341 0.0009225796 0.0009088954 0.0009030157 0.0009015137 0.0009 0.0004763121 0.0002284722 0.0002087462 0.0002027381 0.0002009288 0.0002002966 0.0002001465 0.0002 0.0002919608 0.0002602811 0.0002169887 0.0002041885 0.0002008835 0.0002001541 0.0002000209 0.000200002 0.0002000001 0.0002 0.0002 1.7756 3.551 1.183933 0.0003460706 0.0003213751 
0.0001 0.0001 0.0001 0.0001 0.0001 0.0001004115 0.0001 0.0001066406 0.0001125 0.0001 0.00015 0.0001666667 0.0002333333 0.0001 0.0002 0.0004666667 0.0007666667 0.0007 0.0001 0.0002 0.0002666667 0.0006 0.0024 0.0088 0.03 0.04075 0.105125 0.1119 0.2733 0.5788 1.6069 2.5565 3.681417 3.5877 4.6848 5.677 6.4807 7.1367 6.367717 6.4475 4.7206 3.0795 1.1131 3.510625 3.18395 0.6116 0.4822667 0.2977 0.5204667 0.6689 0.7391 2.485183 2.370867 2.15485 1.5068 2.213692 2.016941 1.81025 1.5897 6.551471 6.871017 4.70418 3.141582 2.080754 1.361995 0.8160259 0.4689569 0.2017968 0.1186937 0.0006 1.540834 2.279322 2.2336 0.8293715 0.05393259 0.01408268 0.003367494 0.00141253 0.001104687 0.0009 0.005263261 0.003554252 0.001752446 0.001312666 0.00125 0.0012 0.002453681 0.0037 0.002697199 0.002143279 0.00212207 0.0021 4.114322 6.156145 6.150427 6.1447 2.780947 1.066469 1.046798 1.038729 1.03671 1.0347 0.369194 0.02062521 0.01086724 0.007428012 0.006159984 0.005295197 0.004349207 0.003363336 0.002491754 0.001831406 0.001395349 0.001140158 0.001007304 0.0009440801 0.0009176391 0.0009060197 0.0009030274 0.0009 0.000525553 0.0002610747 0.0002186209 0.000205721 0.0002018967 0.0002005967 0.000200293 0.0002 0.0003969719 0.0003320709 0.0002388003 0.0002099719 0.0002021939 0.0002003997 0.0002000569 0.0002000056 0.0002000003 0.0002 0.0002 1.7756 3.551 1.184008 0.0003954614 0.0003298867 0.0003128636 
0.0001 0.0001 0.0001 0.0001 0.0001 0.0001 0.0001012346 0.0001 0.0001140625 0.000125 0.0001 0.0002 0.0002 0.0004333333 0.0001 0.0003 0.001 0.001 0.001775 0.000125 0.0001 0.0003 0.001 0.0038 0.0138 0.0409 0.0789 0.4114833 0.4095 1.2364 2.676 4.0807 4.983984 5.2867 6.5648 7.6351 8.2662 8.3568 8.85765 8.1521 7.8201 7.526 7.3991 5.2155 7.40555 1.1524 0.0708 0.2236 0.5987 0.7391 3.595833 2.8029 2.8029 1.5068 2.886848 2.430322 2.0308 1.5897 8.46361 9.458869 6.693704 4.460478 2.958357 2.005909 1.277994 0.8020806 0.3680028 0.2367875 0.0006 1.604094 2.325044 2.2336 0.928853 0.1215779 0.03345494 0.006764892 0.002028215 0.001309375 0.0009 0.01092829 0.006705418 0.002519342 0.001437997 0.0013 0.0012 0.002461042 0.0037 0.002758959 0.002185698 0.002144141 0.0021 4.131451 6.167581 6.156155 6.1447 2.822451 1.097734 1.058905 1.042767 1.03872 1.0347 0.3893718 0.03623395 0.01647012 0.009171546 0.006960059 0.006152432 0.005367461 0.004365697 0.003314463 0.002409847 0.00175095 0.001333421 0.001101675 0.0009853778 0.0009348582 0.0009120044 0.0009060547 0.0009 0.0006310467 0.0003312614 0.0002399038 0.0002120589 0.0002038999 0.0002012042 0.0002005859 0.0002 0.0006151629 0.0004852104 0.0002875144 0.000223488 0.0002053986 0.0002010292 0.0002001539 0.000200016 0.0002000009 0.0002 0.0002 1.7756 3.551 1.184162 0.0005039822 0.0003639327 0.0003184692 0.000307258 
0.0001 0.0001 0.0001 0.0001 0.0001 0.0001 0.0001 0.0001037037 0.0001 0.00013125 0.00015 0.0001 0.0003 0.00084 0.0009 0.0022 0.004 0.0058 0.026475 0.01555 0.0001 0.0004 0.0012 0.0036 0.0105 0.04123333 0.037 0.1258 1.5114 2.9644 4.5941 6.95925 6.6796 7.7127 9.0263 10.3485 11.3989 11.6397 11.69268 11.4131 11.0906 10.6041 10.4832 10.9658 9.5035 12.2885 11.0782 10.2505 8.3673 5.9494 5.98204 4.099 1.5068 4.339325 3.229367 2.4719 1.5897 10.29521 12.45567 9.513856 6.407078 4.160178 2.814178 1.900717 1.302833 0.6304333 0.472975 0.0006 1.765689 2.416487 2.2336 1.132188 0.2678349 0.08178889 0.01511003 0.003465895 0.00171875 0.0009 0.02441088 0.01395823 0.004444033 0.001713992 0.0014 0.0012 0.002483128 0.0037 0.002878743 0.002268812 0.002188281 0.0021 4.165664 6.190432 6.167609 6.1447 2.902764 1.159229 1.083112 1.050861 1.042741 1.0347 0.4269744 0.06718434 0.02862828 0.01288924 0.007892837 0.006732561 0.006254779 0.005469957 0.004377647 0.003249487 0.002316256 0.001663799 0.001272796 0.001063668 0.0009685613 0.0009239038 0.0009121094 0.0009 0.0008560515 0.0004821597 0.0002859754 0.0002256491 0.0002080869 0.0002024408 0.0002011719 0.0002 0.001059702 0.0008062419 0.0003947077 0.0002546816 0.0002131539 0.0002026284 0.0002004136 0.0002000454 0.0002000025 0.0002 0.0002 1.7756 3.551 1.184477 0.0007308918 0.0004401634 0.0003408915 0.0003107433 0.0003037727 
0.0001 0.0001 0.0001 0.0001 0.0001 0.0001 0.0001 0.0001 0.0001111111 0.0001 0.000175 0.0002 0.0007 0.00175 0.0022 0.0065 0.0169 0.0374 0.0617 0.27922 0.0003 0.001 0.0034 0.0107 0.034 2.491933 0.1112 0.4035 7.738214 18.9691 12.5587 15.23553 11.1664 11.1158 11.7078 12.8162 14.6908 15.3437 15.52355 15.2507 15.3636 14.8189 14.3513 13.9285 15.04247 13.4703 13.1107 11.512 10.6876 10.0699 11.09397 9.0528 7.7521 4.7443 3.3541 1.5897 11.70383 14.88125 13.00607 9.4797 6.0558 3.685733 2.739 2.0178 0.94535 0.94535 0.0006 2.229181 2.599375 2.2336 1.52748 0.5650982 0.2025741 0.03583241 0.006960185 0.0025375 0.0009 0.05721079 0.03014259 0.009390123 0.002341975 0.0016 0.0012 0.002549383 0.0037 0.003108535 0.002429874 0.002276562 0.0021 4.23396 6.236078 6.190518 6.1447 3.05577 1.279133 1.131452 1.067103 1.050781 1.0347 0.4933629 0.1255928 0.05424193 0.02171825 0.009924666 0.007024808 0.006729037 0.006443839 0.005591463 0.004374569 0.00316691 0.002206982 0.001574877 0.001209539 0.001033973 0.0009474925 0.0009242187 0.0009 0.001332757 0.0008054909 0.0003859579 0.0002550303 0.0002169381 0.0002049788 0.0002023438 0.0002 0.001945771 0.001466308 0.0006267303 0.0003256877 0.000231705 0.0002066521 0.0002011045 0.0002001287 0.0002000076 0.0002 0.0002 1.775601 3.551 1.185109 0.00119687 0.0006036016 0.0003922041 0.0003246845 0.0003057859 0.0003017596 
0.0001 0.0001 0.0001 0.0001 0.0001 0.0001 0.0001 0.0001 0.0001 0.0001333333 0.0001 0.0003 0.0009166666 0.0015 0.0049 0.0154 0.045 0.1209 0.3087 0.5057667 1.0253 1.9876 3.3946 4.9993 6.238 8.626083 8.5209 13.151 17.0423 22.51473 30.1361 24.6144 26.2783 23.953 22.0509 21.1469 17.3429 18.5841 19.1171 20.377 20.0378 20.0742 20.0215 20.0343 20.40488 19.5674 18.7535 18.0397 17.9619 18.374 19.54063 19.0187 19.4687 20.7185 19.1887 17.3635 14.81478 16.1583 13.6042 9.2557 5.5792 3.3325 2.1455 2.970133 1.8901 0.0006 3.717375 2.96515 2.2336 2.268542 1.103378 0.5044 0.08751667 0.01580556 0.004175 0.0009 0.1413413 0.06425741 0.02234444 0.003825926 0.002 0.0012 0.002748148 0.0037 0.003544517 0.002736497 0.002453125 0.0021 4.370206 6.327199 6.236336 6.1447 3.340729 1.509907 1.227745 1.099747 1.066862 1.0347 0.6039226 0.2296643 0.1051648 0.04194937 0.01561162 0.007593751 0.006568625 0.006912048 0.006706436 0.005713032 0.004354921 0.003055756 0.002090052 0.001475137 0.001159441 0.00099404 0.0009484375 0.0009 0.002333521 0.001494477 0.0006030315 0.0003189643 0.0002358779 0.0002102489 0.0002046875 0.0002 0.003669037 0.002794254 0.001119794 0.0004848753 0.000275522 0.0002166658 0.0002029272 0.0002003633 0.0002000229 0.0002 0.0002 1.775603 3.551 1.186353 0.002137203 0.0009480311 0.0005053743 0.0003573994 0.0003138387 0.0003028154 0.0003007037 
0.0001 0.0001 0.0001 0.0001 0.0001 0.0001 0.0001 0.0001 0.0001 0.0001 0.0002 0.0007 0.001233333 0.0021 0.0074 0.0239 0.073 0.2101 0.3070833 0.5577 1.0809 2.3754 4.8142 8.9688 15.2188 14.11012 21.6336 25.7616 28.321 28.0612 34.10413 35.21085 42.9325 39.6062 34.2913 24.1411 23.3489 25.24185 21.6612 23.0138 24.3639 24.9208 25.5582 24.5637 27.0866 28.3422 29.1934 30.2527 30.2059 30.4089 26.3645 30.3195 26.9773 24.219 20.9392 19.982 19.07543 18.9804 17.3995 16.0592 13.9705 9.8913 9.342366 4.8748 7.931733 8.9386 3.6967 2.2336 3.746467 1.836 1.2581 0.2160333 0.03906666 0.00745 0.0009 0.3791708 0.1285389 0.05675555 0.007477778 0.0028 0.0012 0.003344445 0.0037 0.004368576 0.003303241 0.00280625 0.0021 4.641825 6.508926 6.327972 6.1447 3.854013 1.945511 1.418694 1.165516 1.099025 1.0347 0.7769848 0.4040105 0.1999952 0.08498729 0.03051191 0.0103489 0.005974051 0.006458299 0.007273525 0.007004321 0.005841461 0.004293313 0.00292999 0.001943964 0.001396202 0.001085245 0.000996875 0.0009 0.004409287 0.002951223 0.001073573 0.0004586343 0.0002768871 0.0002213715 0.000209375 0.0002 0.006929139 0.005400971 0.00214604 0.0008357516 0.0003775898 0.0002412844 0.0002076919 0.0002010212 0.0002000686 0.0002 0.0002 1.775609 3.551 1.188751 0.003999389 0.001661258 0.0007509633 0.0004318724 0.0003332871 0.0003070388 0.0003011902 0.0003002172 
0.0001 0.0001 0.0001 0.0001 0.0001 0.0001 0.0001 0.0001 0.0001 0.000175 0.0002 0.0006 0.00135 0.0022 0.0073 0.0228 0.0669 0.1827 0.3167 0.4624 1.0789 2.3103 4.5263 8.1116 10.19435 13.3231 19.7263 26.2283 31.6773 36.7227 41.4965 40.94675 42.29708 44.1544 42.74 44.2372 38.2529 34.7407 31.7281 27.3153 26.5936 27.2306 26.7472 27.77367 27.9344 30.0794 32.1565 32.9365 32.6789 31.3911 28.92205 28.6748 28.1369 26.0189 24.2329 22.2005 20.67123 19.7679 17.8991 18.0257 17.9731 18.5789 14.50908 17.2312 14.6551 12.63438 13.4479 5.8656 12.24944 3.1402 0.5318 0.1023 0.014 0.0009 1.147 0.21975 0.1490333 0.01683333 0.0044 0.0012 0.005133333 0.0037 0.005964583 0.004297222 0.0035125 0.0021 5.183122 6.870836 6.511244 6.1447 4.733321 2.743799 1.794233 1.298499 1.16335 1.0347 1.03089 0.6774708 0.3648787 0.169682 0.06542483 0.01985501 0.006255899 0.004935802 0.006730453 0.007708642 0.007381482 0.00592284 0.004220062 0.002737037 0.00183287 0.001261986 0.00109375 0.0009 0.008647469 0.005999497 0.002090181 0.0007639918 0.0003665467 0.0002453646 0.00021875 0.0002 0.01290814 0.01037657 0.004231847 0.001594498 0.0006117741 0.0003009831 0.0002200122 0.0002028578 0.0002002058 0.0002 0.0002 1.775627 3.551 1.193281 0.007613287 0.003110024 0.001274857 0.0005988925 0.000379141 0.0003175837 0.0003031364 0.0003003963 0.0003000381 
0.0001 0.0001 0.0001 0.0001 0.0001 0.0001 0.0001 0.0001 0.00015 0.0002 0.0002 0.0006 0.001316667 0.0019 0.0063 0.0189 0.0535 0.141 0.2567167 0.3463 0.7896 1.6671 3.2514 5.8478 8.16275 9.696 14.835 20.9921 27.5101 33.5437 38.1817 39.4775 41.1763 43.616 48.506 49.471 48.3941 41.35783 45.059 38.5973 30.8873 30.5331 30.8451 30.90553 28.4705 27.7816 27.9805 27.3577 27.3059 27.20143 26.9867 25.7513 24.4151 23.6557 23.2627 22.1128 21.23683 20.9838 19.7896 18.2406 18.0397 18.1942 19.50748 18.2841 17.9925 17.0755 19.05434 26.661 16.48063 23.3468 18.7684 13.9686 9.5143 3.0423 5.55042 0.3978 0.0417 0.0076 0.0012 0.0105 0.0037 0.009366667 0.005866667 0.004925 0.0021 6.262582 7.590019 6.877788 6.1447 6.125983 4.140698 2.521904 1.568796 1.292 1.0347 1.380208 1.077478 0.6311738 0.3237609 0.1397014 0.04558374 0.0109893 0.002991975 0.00478642 0.007029012 0.008375926 0.007720988 0.006047531 0.004 0.002612654 0.001598457 0.0012875 0.0009 0.01712122 0.01229149 0.00427716 0.001429835 0.000563546 0.0002985939 0.0002375 0.0002 0.0235025 0.01957449 0.008355578 0.003199634 0.001140329 0.0004435299 0.0002514632 0.0002079561 0.0002006173 0.0002 0.0002 1.775682 3.551 1.201655 0.01447727 0.005991287 0.00237131 0.0009674745 0.0004857847 0.0003434182 0.0003082203 0.0003011126 0.0003000762 0.0003 
0.0001 0.0001 0.0001 0.0001 0.0001 0.0001 0.0001 0.0001 0.0001 0.000175 0.0002 0.0004166667 0.0006 0.002 0.0061 0.0176 0.0479 0.1213 0.2144 0.2866 0.6319 1.2995 2.495 4.4774 6.05965 7.5206 11.8359 17.4674 24.1894 31.3896 33.6477 37.6706 38.8624 39.46759 38.297 40.6956 43.23908 42.0242 42.6887 42.4891 44.8894 42.0552 38.3131 35.66217 33.1229 27.839 24.173 22.579 22.3861 22.941 22.4599 21.382 21.2586 20.9984 20.8818 19.23952 21.0042 21.3518 21.8828 22.5248 22.5165 21.7773 18.41483 22.9792 24.0665 25.0384 25.8717 19.4203 20.82894 20.4499 20.2513 17.8968 14.794 14.0156 9.751083 10.2955 5.4431 1.7285 0.0266 0.0037 0.01826667 0.00775 0.00775 0.0021 8.422869 9.014483 7.610875 6.1447 8.059528 6.405684 3.894022 2.122389 1.5493 1.0347 1.83419 1.623683 1.028257 0.5804926 0.2847716 0.1060185 0.0283142 0.002418519 0.002235185 0.004322222 0.007801852 0.008962963 0.008362963 0.005837037 0.003942593 0.00222037 0.001675 0.0009 0.03358427 0.02503786 0.008962757 0.002873868 0.000994856 0.0004207819 0.000275 0.0002 0.04159499 0.03596913 0.01624588 0.006508436 0.002312414 0.0007780521 0.0003305213 0.0002220165 0.0002018519 0.0002 0.0002 1.775846 3.551 1.216804 0.02722432 0.01159014 0.00461733 0.001766392 0.0007302088 0.0004058223 0.000321323 0.0003031093 0.0003002286 0.0003 0.0003 
0.0001 0.0001 0.0001 0.0001 0.0001 0.0001 0.0001 0.0001 0.0001 0.0001 0.0002 0.0004333333 0.0007 0.0022 0.0066 0.0187 0.0492 0.12 0.20355 0.2712 0.5681 1.1041 1.9986 3.389 4.837917 5.4271 8.2775 12.1292 17.2831 23.9786 30.89788 37.122 30.9223 34.8931 36.12708 38.0232 39.36532 40.8264 43.9026 48.1992 47.7617 45.2343 42.8912 38.55833 40.3302 34.9909 28.3245 23.3408 20.0519 21.34172 18.4555 17.2698 16.2959 15.2513 14.3853 15.71222 13.7903 13.4663 13.4434 13.7126 13.8086 14.2526 15.90845 15.0016 16.3475 17.2903 18.2588 18.05764 16.9595 14.2667 14.7294 15.0903 15.3798 15.5528 14.76568 15.2025 14.0021 11.5227 6.8867 0.0377 12.6793 0.0134 0.0021 12.79062 11.8217 9.07705 6.1447 10.14493 9.598884 6.3496 3.268567 2.0639 1.0347 2.396312 2.327735 1.578013 0.9653 0.5414593 0.2347185 0.07813704 0.0052 0.001605556 0.00045 0.00465 0.007866667 0.01088889 0.008133333 0.006066666 0.003311111 0.00245 0.0009 0.06431052 0.05014753 0.01897901 0.005987037 0.001922222 0.0007123457 0.00035 0.0002 0.07138613 0.06403334 0.03076049 0.01311358 0.00486358 0.001548148 0.0005255144 0.0002604938 0.0002055556 0.0002 0.0002 1.776339 3.551 1.24365 0.05036575 0.02220023 0.009106996 0.003463192 0.001281802 0.0005541838 0.0003546411 0.000308642 0.0003006859 0.0003 0.0003 0.0003 
0.0001 0.0001 0.0001 0.0001 0.0001 0.0001 0.0001 0.0001 0.0001 0.0001 0.0002 0.00045 0.0007 0.0024 0.0072 0.0204 0.0535 0.08755 0.1301 0.2921 0.6052 1.1548 2.029 3.2875 4.293766 4.9259 6.8467 8.828 10.4709 32.574 25.27117 22.6525 26.4876 30.4798 34.3738 33.70697 36.56906 35.2572 35.8981 38.1391 39.5377 39.566 40.5137 38.846 37.8466 36.4117 34.387 30.6417 25.0325 22.99252 19.6644 17.4742 15.8198 14.0659 12.6237 12.80572 11.588 10.8066 10.2195 9.9201 9.9792 10.89138 10.3517 11.0883 11.361 12.2701 13.0363 13.7011 13.50212 13.85592 14.2428 14.9651 15.6788 16.3902 14.77263 17.1375 18.0986 19.3785 21.1489 37.4093 14.33382 25.9324 21.84 17.311 12.0094 6.1447 11.31627 12.84095 10.2778 5.6779 3.0931 1.0347 3.058375 3.180722 2.31145 1.491033 0.9315556 0.4733111 0.2195111 0.01133333 0.003566667 0.0007 0.00055 0.0001 0.0133 0.0102 0.009166666 0.005033333 0.004 0.0009 0.1185939 0.09733518 0.04041296 0.01269444 0.00382963 0.001437037 0.0005 0.0002 0.1189896 0.1101296 0.05622531 0.02574506 0.01031111 0.003284568 0.0009950617 0.0003648148 0.0002166667 0.0002 0.0002 1.777818 3.551 1.290335 0.09147874 0.04178642 0.0178321 0.006982167 0.002506722 0.0009006858 0.0004379973 0.0003238683 0.0003020576 0.0003 0.0003 0.0003 0.0003 
0.0001 0.0001 0.0001 0.0001 0.0001 0.0001 0.0001 0.0001 0.0001 0.0001 0.0002 0.0004 0.0007 0.0022 0.0067 0.0189 0.0499 0.08143333 0.1226 0.2794 0.5891 1.1475 2.0643 2.550983 3.4341 5.299 7.6254 10.31 13.1431 16.1238 20.27812 19.1761 22.3393 25.6396 28.943 33.4879 33.3448 35.2506 32.8874 34.5989 36.3337 37.8357 38.62278 38.709 38.8649 38.0426 35.9783 33.1427 32.08292 30.0823 24.6685 20.0366 18.0191 15.1686 12.95 12.53838 11.497 10.705 9.9988 9.1952 8.5749 8.778617 8.3813 7.9266 9.0415 10.688 11.6032 11.42953 12.5751 13.4656 12.3517 11.0593 11.5592 12.0118 12.96963 12.341 12.5087 12.7312 32.377 11.3968 17.70387 11.2133 11.5847 11.9312 12.4089 12.9697 12.09008 14.8344 10.8475 5.1515 1.0347 3.9606 4.00685 3.23135 2.303967 1.399033 0.7701 0.6255333 0.0243 0.0087 0.001 0.001 0.0001 0.1252146 0.09847084 0.0133 0.0071 0.0071 0.0009 0.2088646 0.1781444 0.08646667 0.02739444 0.007377778 0.003311111 0.0008 0.0002 0.193762 0.183437 0.09855926 0.04839259 0.02172407 0.007118518 0.002090741 0.0006444444 0.00025 0.0002 0.0002 1.782253 3.551 1.370147 0.1631457 0.0770465 0.03424403 0.01406872 0.005183539 0.001694239 0.0006423868 0.0003654321 0.0003061728 0.0003 0.0003 0.0003 0.0003 0.0003 
0.0001 0.0001 0.0001 0.0001 0.0001 0.0001 0.0001 0.0001 0.0001 0.0001333333 0.0001 0.0003166667 0.0005 0.0016 0.005 0.0143 0.0381 0.06566667 0.0944 0.2173 0.4635 0.9149 1.67 2.236633 2.821 4.4223 6.4632 8.8579 11.48 12.90097 14.2025 16.9398 19.6618 22.3998 25.1097 29.3835 31.2753 33.10485 30.9137 33.0293 35.2724 37.4601 38.12143 39.3199 40.6336 41.0491 39.9573 37.72 35.85733 35.8783 33.5205 29.3662 22.6681 18.509 14.6249 14.5654 11.9467 10.7916 10.3067 9.3326 8.069 8.077884 7.3156 7.2178 7.3012 7.3217 8.4106 8.703584 9.2509 9.8473 10.5301 9.0867 8.9003 9.091166 9.6435 10.2938 33.0407 13.9393 9.3752 9.9014 10.0227 10.37 10.8185 11.3183 11.9345 12.7693 12.97018 13.7323 15.1375 14.118 7.3762 3.4709 6.36265 4.5428 1.9199 0.4492 1.828 0.0331 0.0155 2.146725 0.0019 0.0001 0.166825 0.1899333 0.144 0.04665 0.0133 0.0009 0.361575 0.2874333 0.18555 0.06145 0.0124 0.008333334 0.0014 0.0002 0.3090813 0.2998333 0.1659333 0.08454444 0.0452 0.01543333 0.004538889 0.001383333 0.00035 0.0002 0.0002 1.795559 3.551 1.504151 0.2860839 0.1393531 0.064 0.02778642 0.01094568 0.003474074 0.001130864 0.0004777778 0.0003185185 0.0003 0.0003 0.0003 0.0003 0.0003 0.0003 
0.0001 0.0001 0.0001 0.0001 0.0001 0.0001 0.0001 0.0001 0.0001111111 0.0001 0.0001 0.0001 0.0003 0.001 0.0032 0.0093 0.0252 0.04496667 0.0638 0.1504 0.329 0.6672 1.2526 1.71015 2.1778 3.5166 5.2907 7.4614 9.9195 11.16563 12.5369 15.2095 17.8717 20.4839 22.9538 24.8868 27.67796 33.3677 30.73228 31.3701 33.852 36.4682 37.54767 38.9357 40.9568 42.0748 41.5952 39.8608 39.60528 38.4599 36.2893 33.4935 29.8805 25.3289 23.73952 20.4216 15.9522 12.8328 10.9909 9.7843 8.6557 8.13185 7.4708 6.4765 5.6999 5.2735 5.0288 6.469333 5.3529 6.3313 7.6629 8.2754 5.6197 6.99044 6.8125 14.0392 6.1713 6.9136 7.7151 7.912317 8.3513 8.9034 9.3664 9.8344 10.4541 11.2653 11.73952 12.2501 14.6926 17.0233 18.8393 14.6737 7.783283 2.7632 1.0119 1.9097 2.8865 2.6763 3.048933 2.6431 5.9264 0.1774 0.2818 0.208 0.08 0.444625 0.47664 0.6838 0.4912 0.2704 0.1007 0.675425 0.0222 0.0026 0.0002 0.464325 0.4943 0.2775 0.1277 0.0926 0.03333334 0.009666666 0.0033 0.00065 0.0002 0.0002 1.835478 3.551 1.723377 0.4929741 0.2492519 0.1160259 0.05278148 0.02319259 0.007385185 0.002259259 0.0007777778 0.0003555556 0.0003 0.0003 0.0003 0.0003 0.0003 0.0003 0.0003 
0.0001 0.0001 0.0001 0.0001 0.0001 0.0001 0.0001 0.0001037037 0.0001 0.0001 0.0001 0.00015 0.0001 0.0005 0.0015 0.0045 0.009766666 0.0133 0.035 0.0862 0.1979 0.4218 0.8314 1.191433 1.5081 2.5435 4.0076 5.914 8.1801 9.366384 10.6748 13.2964 15.9891 18.7255 21.5031 22.32578 24.1031 26.6487 29.0642 30.46098 32.0948 33.97862 35.0303 38.0718 40.8007 42.6066 43.7519 43.1679 42.1297 42.5448 41.1973 39.1992 36.6522 33.5812 29.76208 29.9715 25.4372 20.202 15.7299 10.9964 11.73808 9.3577 7.9223 6.7353 6.0492 5.7598 5.5096 5.070933 5.2632 4.9742 4.6073 5.3372 6.6849 6.94735 3.9762 3.2758 3.7129 4.5285 5.7623 5.967484 6.3686 7.1067 7.6356 8.2065 8.8294 9.028084 9.5875 10.8326 13.3081 15.4002 18.6001 18.8091 9.3186 2.44 1.4857 4.9871 6.6081 6.3021 6.000767 6.6235 14.3389 0.5087 0.8889 0.9307 0.9085 0.8783 0.8069 2.464543 1.5688 1.4541 1.3466 4.147517 1.2322 1.0788 0.8685 0.6169 0.3717 3.592725 0.1833 0.0721 0.0224 0.0055 0.0011 1.355775 0.0002 1.955233 3.551 2.069165 0.8246778 0.4486667 0.2055778 0.09351111 0.04898889 0.01584444 0.004744445 0.001566667 0.0004666667 0.0003 0.0003 0.0003 0.0003 0.0003 0.0003 0.0003 0.0003 
0.0001 0.0001 0.0001 0.0001 0.0001 0.0001 0.0001012346 0.0001 0.0001 0.0001 0.0001125 0.0001 0.0001 0.0002 0.0006 0.0018 0.005133333 0.0045 0.0128 0.0344 0.0871 0.2091 0.38215 0.4723 0.9064 1.6033 2.6733 4.2569 6.2953 7.444317 8.5917 11.0453 13.6175 16.2495 18.9235 20.19822 21.5844 24.3112 26.947 29.4378 29.4729 31.66902 32.4478 35.6231 38.7631 41.3978 43.1167 44.267 44.55585 44.4778 43.7751 42.2509 39.74 36.598 36.83555 32.6713 28.4977 24.655 20.5551 17.2176 17.16505 14.4168 11.7239 9.1696 6.8055 5.3956 4.8843 5.559183 4.3868 3.867 3.3327 2.8112 11.381 6.414075 3.95235 4.17 4.0164 3.7786 3.413 4.910634 4.1946 5.4606 5.82 6.2056 6.6765 7.01675 7.3557 8.3544 10.0757 12.0919 12.7345 10.1437 11.0339 7.0819 2.3369 3.9294 6.8621 8.2171 8.55855 9.5425 14.738 25.3793 1.2924 1.6266 3.294133 1.7274 1.7346 1.6729 10.2936 11.2409 7.626266 11.2926 10.8908 9.934 8.6909 7.8813 7.4449 7.048883 6.371 5.4672 4.664 3.8917 3.1073 3.085783 2.3145 3.551 2.621925 1.271433 0.8323 0.3703 0.1434 0.1030333 0.0341 0.009833333 0.0036 0.0008 0.0003 0.0003 0.0003 0.0003 0.0003 0.0003 0.0003 0.0003 0.0003 
0.0001 0.0001 0.0001 0.0001 0.0001 0.0001004115 0.0001 0.0001 0.0001 0.000103125 0.0001 0.0001 0.0001 0.0002 0.0006 0.0018 0.002683333 0.0049 0.0126 0.0299 0.0664 0.1357 0.2227333 0.2226 0.4954 0.8617 1.3318 2.4888 4.4142 5.617967 6.5098 8.7267 11.1327 13.647 16.2246 17.51198 18.8506 21.541 24.2217 26.8507 29.5083 29.43913 29.2639 32.2647 35.6221 39.0336 42.2422 43.05583 45.2551 47.6225 49.1762 49.677 48.6773 46.208 42.88357 41.9833 36.9856 32.0141 28.4673 26.8204 24.39312 24.1814 21.8322 18.2109 13.9736 9.773 9.158983 7.2802 6.031 5.8002 5.7826 5.7342 5.9117 6.41372 4.3874 4.545767 4.8216 4.7885 4.8126 3.597567 4.9127 3.6322 3.9929 4.3231 4.5887 5.013817 5.0627 5.6069 6.6432 7.3848 16.7392 10.15148 12.3173 15.4114 8.2833 4.3813 7.1596 9.2339 8.973467 11.4322 17.0337 34.6817 5.6099 6.8939 5.519134 7.7079 8.4627 9.2892 8.526086 9.5865 9.90916 10.8369 12.4087 10.8012 13.0319 14.0615 11.35888 14.0896 13.8328 12.7757 11.368 9.6515 7.4907 5.151917 5.6009 3.6503 2.1497 1.1367 0.5279 0.2714 0.2127 0.0741 0.0223 0.0059 0.0013 0.0006 0.0003 0.0003 0.0003 0.0003 0.0003 0.0003 0.0003 0.0003 0.0002331055 
0.0001 0.0001 0.0001 0.0001 0.0001001372 0.0001 0.0001 0.0001 0.0001007813 0.0001 0.0001 0.0001 0.0001333333 0.0001 0.0002 0.0008 0.001733333 0.0023 0.0066 0.017 0.0405 0.085 0.1295333 0.2117 0.4005 0.8782 1.7861 2.6454 2.621067 3.2922 4.6046 6.5105 8.6761 11.0148 13.4752 14.77312 16.0136 18.6016 21.2091 23.8894 26.5365 27.0149 29.13453 28.9196 32.2209 35.6556 39.5997 41.67638 43.8543 48.047 51.527 54.2777 54.5555 52.07578 51.578 48.2628 45.987 39.515 36.9149 33.5362 31.05333 30.1863 26.8465 23.481 19.5634 15.7945 13.61167 11.8263 7.8415 7.387 6.0235 5.7069 5.553884 5.3965 4.992 4.8872 4.071686 3.1468 3.50545 2.5063 1.7462 1.9923 2.2394 2.8334 2.895 3.449517 3.5043 4.118 4.9759 6.6966 4.3753 6.832083 4.5989 8.0765 8.8513 4.3267 5.4271 6.332967 6.8068 8.6083 12.6607 21.0358 31.6786 7.4997 6.837667 7.6593 8.1165 8.5754 9.0241 7.855575 8.35475 6.5889 6.9937 11.0486 11.3917 12.047 9.913134 12.629 13.2057 13.2643 12.3422 10.5694 7.5499 4.659083 4.8482 2.9475 1.5496 0.6935 0.2618 0.1882667 0.0832 0.0224 0.0052 0.001 0.0002 0.0006 0.0003 0.0003 0.0003 0.0003 0.0003 0.0003 0.0003 0.0002324219 0.0001 
0.0001 0.0001 0.0001 0.0001000457 0.0001 0.0001 0.0001 0.0001001953 0.0001 0.0001 0.0001 0.0001111111 0.0001 0.00015 0.0003666667 0.0003666667 0.0001 0.0005 0.0015 0.0045 0.0121 0.0365 0.07331666 0.0857 0.1855 0.3558 0.6523 1.0364 1.729933 1.8494 3.0331 4.5904 6.4602 8.5505 9.68985 10.8067 13.268 15.9559 18.6833 21.2619 23.6759 24.03054 26.0899 27.68597 29.4895 33.066 37.1522 38.09137 41.9548 46.9559 51.408 55.6455 58.563 55.20132 52.8729 57.278 44.8801 42.6051 41.0193 37.882 34.64035 33.7137 29.8203 26.3937 23.1647 19.2778 27.3768 17.7182 34.0952 14.6944 8.9334 5.6588 8.238684 4.9152 4.4975 4.1192 3.6775 3.061 3.26602 2.7175 2.478 2.3769 2.1864 1.8576 2.2097 2.8911 2.4367 3.8576 4.8449 2.7551 1.8301 2.142533 1.1317 2.3047 2.246 2.7717 4.1118 5.264966 5.2586 6.705 9.2561 14.7987 31.6259 5.5717 9.5966 5.6935 5.9274 6.2045 6.405 6.4067 4.74665 4.975625 3.3584 3.5435 3.5703 3.4576 5.8294 3.1941 2.7642 2.1859 1.4401 0.8481 3.51115 1.3089 1.1559 0.708 0.3296 0.1208 0.0352 0.06506667 0.0088 0.0019 0.0003 0.0001 0.0004333333 0.0002 0.00035 0.0003 0.0003 0.0003 0.0003 0.0003 0.0002296875 0.0001 0.0001633111 
0.0001060394 0.0001 0.0001000274 0.0001 0.0001 0.0001 0.0001000488 0.0001 0.0001 0.0001 0.0001037037 0.0001 0.000125 0.0002055556 0.0002458333 0.0001 0.0003 0.000575 0.0002 0.0005 0.0019 0.0057 0.0253 0.0153 0.0385 0.1043 0.2222 0.518 0.8688334 1.0382 1.8867 3.1037 4.627 6.2883 7.697667 8.0036 9.8308 12.0821 15.0566 18.0785 20.6227 22.2047 23.2277 26.1682 26.6554 28.4346 31.1285 32.66698 34.8587 38.9862 43.0894 46.1936 63.8481 49.48415 49.7904 47.4663 43.7777 41.7808 39.0866 35.71338 36.8955 35.6284 34.8517 34.4214 34.4133 65.2265 30.19787 34.4175 24.0735 21.3436 19.6602 16.4804 11.87163 11.2743 5.9454 3.8965 3.4621 4.09382 3.854475 4.8985 3.0177 2.8913 2.7733 2.7043 2.654183 2.8439 3.457 2.8297 2.2984 1.8589 0.5758 1.021267 0.3434 0.888 2.3077 3.5316 4.5121 4.9882 5.4734 6.5755 7.4386 10.1261 17.3192 21.86322 28.7198 2.4356 3.9057 3.8713 3.4316 3.0295 4.23322 2.9615 3.337986 2.735 2.3137 1.9768 2.63485 1.6719 1.3582 1.0288 0.8605 0.54 0.6124167 0.2506 0.0954 0.0296 0.0075 0.0016 0.0267 0.0011 0.0003 0.0001 0.0006 0.0002 0.0001 0.0002444444 0.0002 0.0002875 0.0003 0.0003 0.0003 0.00021875 0.0001 0.000180211 0.0002097222 
0.0001123751 0.0001117824 0.0001 0.0001000914 0.0001 0.0001 0.0001 0.0001 0.0001 0.0001012346 0.0001 0.0001125 0.0001435185 0.0001690972 0.0001 0.0002 0.000255 0.0002 0.00025 0.0002 0.0006 0.002 0.0021 0.0065 0.0168 0.0441 0.1053 0.2311 0.5146334 0.5399 1.1477 2.2133 3.8571 5.5348 6.309583 7.0021 9.4481 11.8346 13.9918 16.2795 16.5327 18.7866 20.8254 22.96 25.4581 21.0114 25.484 23.8261 27.0816 30.4915 33.5174 34.6522 35.4456 39.0313 36.3849 36.4797 34.2286 32.6679 30.4008 29.15393 28.9961 28.4717 28.1097 27.8257 56.0949 34.861 24.1623 20.3849 20.2231 20.0853 19.4858 17.4378 14.83913 15.4633 13.979 9.9784 5.5276 4.7409 5.189575 3.5973 3.4674 3.3265 3.205 3.1196 3.005483 3.19 2.6742 2.9749 2.5881 2.7041 1.424733 1.0855 1.1611 2.0791 3.1808 4.0546 4.8559 5.252467 5.7174 6.0754 6.4502 8.5772 12.0894 20.79623 35.8533 4.9401 4.863 5.0181 4.8796 3.857 4.6275 4.1409 3.3089 3.3177 3.1224 2.9055 2.904417 2.6032 2.1646 1.6063 0.9688 0.5063 0.3498 0.2206 0.0852 0.0262 0.0065 0.0013 0.0008 0.0002 0.00036 0.0002 0.0001 0.00025 0.00015 0.0001 0.0001814815 0.0002 0.0002303571 0.0001964815 0.000175 0.0001 0.0002013997 0.0002166667 0.0002027778 
0.0001083687 0.0001163816 0.0001223792 0.0001 0.0001002744 0.0001 0.0001 0.0001 0.0001002058 0.0001 0.00010625 0.0001186728 0.0001312789 0.0001 0.000125 0.0001 0.0001416667 0.0001 0.0002 0.0001 0.0004 0.001716667 0.0013 0.0042 0.0146 0.0408 0.1044 0.2575167 0.2437 0.5169 0.9939 1.7369 2.7899 4.6968 6.344584 6.3319 8.2 9.8227 11.0249 12.0724 14.89125 13.3565 15.5472 17.5562 19.1036 21.5489 22.35163 23.0194 23.2876 23.7935 24.1142 24.0609 24.3283 26.72287 24.3905 23.9263 23.9486 22.8448 20.7164 22.08507 18.8282 18.2831 17.6345 42.8217 15.0675 22.0192 14.2015 14.3941 14.5289 14.5806 14.523 14.3272 13.89318 14.0518 13.9587 13.7064 12.697 8.1133 6.73044 3.0056 4.958743 4.0302 3.4956 3.3634 3.1879 2.8117 3.1308 3.2582 2.6165 1.0914 1.58195 1.2327 1.8255 2.8815 3.7555 4.4403 5.1871 5.368866 5.7689 5.5903 6.059 7.6003 9.7767 17.06147 21.019 24.7217 1.9424 2.9708 3.4802 3.9142 3.6936 3.6961 3.5206 3.412571 3.4558 4.65312 3.2839 4.9852 2.0439 1.4359 0.8424 0.4132 0.2790167 0.1681 0.0503 0.0125 0.0026 0.0005 0.00046 0.0001 0.00015 0.000192 0.00015 0.0001 0.001026984 0.0006488889 0.0003583333 0.0002425926 0.0001574074 0.000125 0.0001 0.0002555989 0.0002444444 0.0002055556 0.0002 
0.0001083687 0.0001163816 0.0001223792 0.0001 0.0001002744 0.0001 0.0001 0.0001 0.0001002058 0.0001 0.00010625 0.0001186728 0.0001312789 0.0001 0.000125 0.0001 0.0001416667 0.0001 0.0002 0.0001 0.0004 0.001716667 0.0013 0.0042 0.0146 0.0408 0.1044 0.2575167 0.2437 0.5169 0.9939 1.7369 2.7899 4.6968 6.344584 6.3319 8.2 9.8227 11.0249 12.0724 14.89125 13.3565 15.5472 17.5562 19.1036 21.5489 22.35163 23.0194 23.2876 23.7935 24.1142 24.0609 24.3283 26.72287 24.3905 23.9263 23.9486 22.8448 20.7164 22.08507 18.8282 18.2831 17.6345 42.8217 15.0675 22.0192 14.2015 14.3941 14.5289 14.5806 14.523 14.3272 13.89318 14.0518 13.9587 13.7064 12.697 8.1133 6.73044 3.0056 4.958743 4.0302 3.4956 3.3634 3.1879 2.8117 3.1308 3.2582 2.6165 1.0914 1.58195 1.2327 1.8255 2.8815 3.7555 4.4403 5.1871 5.368866 5.7689 5.5903 6.059 7.6003 9.7767 17.06147 21.019 24.7217 1.9424 2.9708 3.4802 3.9142 3.6936 3.6961 3.5206 3.412571 3.4558 4.65312 3.2839 4.9852 2.0439 1.4359 0.8424 0.4132 0.2790167 0.1681 0.0503 0.0125 0.0026 0.0005 0.00046 0.0001 0.00015 0.000192 0.00015 0.0001 0.001026984 0.0006488889 0.0003583333 0.0002425926 0.0001574074 0.000125 0.0001 0.0002555989 0.0002444444 0.0002055556 0.0002 
0.0001053048 0.0001114326 0.0001324074 0.0001456766 0.0001 0.000100823 0.0001 0.0001 0.0001 0.0001 0.0001 0.0001 0.0001 0.0001041667 0.0001 0.0001 0.0001 0.0001666667 0.0001 0.0004 0.0013 0.004716667 0.0046 0.0145 0.0424 0.1125 0.2711 0.56545 0.5895 1.1526 2.0207 3.1719 4.4944 5.9355 7.6009 8.5664 10.1848 11.583 12.6407 13.7161 14.78743 15.1364 16.6155 18.6111 20.6218 21.5496 21.55663 21.78365 19.769 18.0642 19.0925 19.8271 19.53025 19.8722 19.9157 20.1771 20.8394 20.9923 18.7782 17.88282 14.7907 14.6818 39.5257 11.1327 11.2418 11.9623 11.3472 11.4304 11.4701 11.448 11.3526 12.10283 11.1776 10.9014 10.518 10.0319 9.5436 9.0827 7.979267 8.7097 5.9966 6.1752 4.1559 3.3828 3.504733 3.2599 3.7369 3.9992 3.1899 2.066 1.5611 1.312 2.1843 3.2572 4.0271 4.7407 4.915467 5.3523 5.3316 5.3298 5.8285 6.9899 8.5905 12.43143 15.0399 29.421 2.5402 2.953 3.2937 3.5351 3.5106 3.6077 3.6083 3.5543 3.62345 5.238425 10.498 1.4179 1.3185 0.9573 0.5585 0.49615 0.2643 0.1016 0.0313 0.0078 0.0016 0.0002 0.00038 0.00015 0.00015 0.009045 0.008483334 0.00395 0.001883333 0.0007555556 0.0003555556 0.0002222222 0.00015 0.0001 0.0003890625 0.0003166667 0.0002166667 0.0002 0.0002 
0.000103125 0.0001074846 0.0001236883 0.0001660494 0.0001929688 0.0001 0.0001024691 0.0001 0.0001 0.0001 0.0001 0.0001 0.0001 0.0001 0.0001 0.0001 0.0001 0.0001 0.0003 0.0013 0.0047 0.005566667 0.016 0.0474 0.1316 0.3283 0.7323 0.7442333 1.4517 2.5452 3.9594 5.5978 7.3652 7.21445 9.1577 10.9171 12.4813 13.9129 15.2429 16.546 14.91632 17.8972 19.3021 20.8581 23.3435 20.5989 17.86074 21.0586 16.55893 14.7653 14.5259 14.3717 14.6422 14.7213 15.6682 17.1406 18.0866 19.7918 27.00817 21.0405 13.1429 48.5838 9.6177 9.7317 9.8736 10.04767 10.0422 10.2238 10.3951 10.5297 10.6054 10.60527 10.6312 10.5698 10.4037 10.0781 9.7674 9.314167 9.5226 9.4417 8.5591 6.469615 5.9651 4.9419 4.1432 4.0674 4.7952 5.5213 6.5271 2.4454 1.790333 1.2191 2.4207 3.389 4.1987 4.8116 4.807533 4.9608 4.9394 5.1788 5.6534 6.5553 7.241833 7.8242 12.3383 31.8253 3.4647 3.4851 3.5709 3.46955 3.6616 3.7307 3.7671 3.7677 3.716 7.4354 4.4062 2.3409 1.6392 1.0606 0.603 0.6282 0.2955 0.1243 0.0449 0.0141 0.0038 0.0009 0.03008 0.0002 0.023225 0.015 0.0067 0.00375 0.0014 0.0005 0.0003666667 0.0002 0.0001 0.00070625 0.0005 0.00025 0.0002 0.0002 0.0001708333 
0.0001 0.00010625 0.0001162037 0.0001486111 0.0002333333 0.0002899306 0.0001 0.0001074074 0.0001 0.0001 0.0001 0.0001 0.0001 0.0001 0.01069132 0.0001 0.0001 0.00015 0.0001 0.0004 0.00155 0.0014 0.0054 0.0201 0.0623 0.1743 0.4381 0.7788 0.9827 1.961 3.4661 5.4499 7.7317 7.6923 8.6022 10.1908 11.4233 12.2987 12.8504 13.3488 13.112 13.0902 12.7451 12.0057 10.8626 13.7131 13.2307 12.3835 13.313 9.716386 7.3591 8.7129 10.60243 10.348 12.1573 14.2537 16.7267 19.4118 35.98615 62.0344 39.0691 10.5999 8.5378 8.6536 8.7973 8.890133 8.9839 9.2114 9.4598 9.6986 9.8627 9.948566 10.0021 10.08 9.9229 9.5982 9.2111 9.241217 8.7576 8.222 7.6071 6.8283 7.793175 6.30215 7.0625 5.3907 4.3973 4.3421 1.7483 2.5006 1.8371 1.1989 2.4847 3.4229 4.0774 4.4293 4.562467 4.5505 4.7523 5.0752 5.5164 6.2307 6.78425 7.2604 10.6203 22.3969 18.8028 2.2274 3.1802 4.83 3.6003 3.8029 3.9083 3.9535 12.1596 5.6325 3.368 3.043814 2.4193 1.7439 1.2156 1.271933 0.8323 0.567 0.3838 0.2541 0.1611 0.2579167 0.096 0.0531 0.027 0.0126 0.0054 0.0021 0.0163 0.0007 0.0003 0.0001 0.001425 0.00095 0.00035 0.0002 0.0002 0.0001875 0.000125 
0.0001109375 0.0001 0.0001125 0.0001361111 0.0001972222 0.0003666667 0.0004958333 0.0001 0.0001222222 0.0001 0.0001 0.0001 0.0001 0.00635625 0.02225 0.03524167 0.060375 0.1052333 0.0001 0.0003 0.2586667 0.0012 0.0045 0.0156 0.0482 0.1339 0.3326 0.5911 0.7354 1.4445 2.5217 3.8929 5.3271 6.88665 7.9699 9.4267 10.4631 11.0536 11.2419 10.76808 11.0996 10.7005 10.1171 9.4109 6.5658 5.878 8.376034 5.7521 5.6173 6.3295 6.1046 7.1404 8.175433 8.3203 10.1558 12.9721 14.6011 57.3736 35.90057 36.2648 12.3409 7.4077 7.5295 7.631 7.735717 7.742 7.9018 8.1351 8.4406 8.8002 9.171 8.99715 9.419 9.4619 9.4213 9.3251 9.1899 8.878667 8.9987 8.6754 8.4396 10.3415 8.0378 8.8966 7.778875 8.5102 6.0886 7.1247 2.6176 2.31395 2.3027 1.3559 2.482 3.2647 3.7961 4.268 4.34515 4.3546 4.6638 5.0138 5.4202 5.9957 6.44955 6.8392 9.3947 18.2133 58.0499 12.735 7.9252 8.3875 6.5795 5.6876 5.1981 13.7699 4.8014 6.521283 4.1175 3.2232 4.1986 3.315 2.6155 2.450533 2.0697 1.6395 1.2899 0.9968 0.7476 0.7749667 0.5381 0.3683 0.2377 0.1436 0.0808 0.0965 0.0421 0.0203 0.009 0.0037 0.0014 0.0005 0.0009 0.0002 0.0003 0.00015 0.0001 
0.0001125 0.0001203125 0.0001 0.000125 0.0001833333 0.0002833333 0.0006333333 0.0009666667 0.0001 0.0001666667 0.0001 0.0001 0.003025 0.00565 0.01665 0.04445 0.07976667 0.13255 0.3155 0.5911 1.707117 0.9576 0.1053 0.0164 0.0502 0.1375 1.7949 0.335 0.7228 1.3797 2.3618 3.6434 5.1041 6.052933 6.5849 7.7128 8.4147 8.6436 8.4342 8.887433 7.8704 7.0572 6.1011 5.1264 6.3287 6.02435 6.3124 6.2171 6.0139 5.3775 6.567584 6.8879 7.2472 7.2838 8.5951 12.1699 50.8348 30.2253 24.4377 10.0935 6.2116 6.4657 6.6639 6.7707 6.722383 6.8197 6.8774 7.0044 7.2139 7.4568 7.2753 7.6642 7.8639 8.0365 8.1689 8.2803 8.4391 7.94965 8.6756 8.4802 9.777 8.7397 10.334 7.37504 10.1521 5.765757 4.0638 2.1943 2.5823 2.313683 2.1322 1.6534 2.501 3.184 3.8393 4.02095 4.166 4.3025 4.63 4.9838 5.3601 5.8352 6.2068 6.5361 8.4897 31.3889 12.9274 11.3476 11.786 9.6735 8.3848 7.4518 6.7708 10.0699 9.328267 8.1006 6.5806 5.2845 4.912529 5.1287 4.322 3.9463 3.6481 3.0802 2.5885 2.1478 1.742 1.61195 1.365 1.0209 0.72 0.4736 0.2879 0.19105 0.1607 0.0821 0.0382 0.0162 0.0063 0.0022 0.001066667 0.0007 0.0002 0.0001 0.0001 
0.0001 0.000125 0.00015625 0.0001 0.00015 0.0003 0.0004 0.0012 0.002166667 0.0001 0.0003 0.0007 0.0027 0.0086 0.056375 0.0247 0.0642 0.1504 3.629128 3.7361 7.142633 4.9564 7.5082 7.6118 6.1278 4.8578 10.30438 4.9726 5.6699 5.9557 6.4465 6.8428 9.532233 5.11 6.2216 7.067 7.5625 7.6956 7.5242 7.808967 7.1543 6.711 6.309 6.0179 5.0303 5.20485 6.0309 6.5504 7.0026 7.3941 7.0594 6.52935 6.711025 6.2381 6.4152 43.4632 24.3161 7.7085 10.26212 4.9605 5.3204 5.5863 5.7232 5.7416 5.537617 5.6293 5.4263 5.2356 5.1534 5.2102 5.3696 5.3494 5.5008 5.6276 5.693 5.684 5.7567 7.0372 6.6379 8.2687 4.2753 4.2671 4.2239 5.634433 4.1274 4.144 3.2742 2.6723 2.2202 2.177633 2.0271 2.069 2.6632 3.3326 3.9612 4.03415 4.0951 4.2997 4.6281 4.9771 5.3293 5.7341 6.055117 6.3005 12.1178 66.36 23.0488 15.6136 13.02522 12.9588 11.1705 9.8597 9.0547 9.9011 9.6744 9.3267 8.2935 7.1578 6.0799 5.95728 5.5002 5.8697 5.1528 4.5194 3.9482 3.4147 2.8968 2.636283 2.3822 1.8732 2.2386 0.6802 0.3824 0.40645 0.1924 0.089 0.0385 0.0157 0.006 0.006633333 0.0021 0.0007 0.0002 0.0001 0.0001333333 
0.0001111111 0.0001 0.00015 0.000275 0.0001 0.0002 0.0006 0.00545 0.0018 0.0046 0.0019 0.0069 0.0209 0.1336 0.0565 0.1357 0.2975 0.6703 1.9257 18.0148 11.77492 14.5998 16.7068 20.4339 24.0098 25.8063 17.89932 25.7171 24.8829 23.7793 21.5828 18.3569 15.65915 18.1362 15.589 13.6319 11.9582 10.5319 8.8272 8.178367 7.0435 6.0916 5.5693 3.7763 3.9809 4.605617 3.5459 4.005 4.3778 5.1214 5.7358 5.97646 6.075 7.720267 13.5756 15.2445 4.9629 8.234333 4.3068 4.2781 4.1838 4.1255 4.1373 4.164 4.262483 4.1004 3.8828 3.5701 3.2956 3.2196 3.333367 3.3174 3.4405 3.5464 3.5642 3.3005 3.787033 2.3162 10.3977 2.6898 2.6967 2.6765 2.5914 2.70605 2.3778 1.881 2.8616 2.58 1.8678 2.092417 2.2362 2.4576 2.9427 3.5347 4.064 4.07405 4.0793 4.3283 4.6504 4.9896 5.3223 5.50945 5.6787 6.2461 40.0494 18.0112 18.7776 15.0545 13.95822 13.5033 12.2736 11.4889 10.5753 10.5154 10.20977 10.1327 9.4117 8.514 7.5754 6.6804 6.87105 6.38452 6.4119 5.7789 5.1859 4.6097 4.273167 4.0236 3.4081 2.7619 2.3368 1.5428 0.9193 0.6804166 0.496 0.2437 0.1097 0.0453 0.0172 0.01241667 0.006 0.0019 0.0006 0.0002 0.000175 
0.0001 0.0001333333 0.0001 0.0002 0.0007 0.0021 0.0056 0.0084 0.0138 0.0226 0.0552 0.1066 0.2101 0.35295 0.5028 1.636 4.9863 10.2545 14.9043 12.59622 15.9314 17.5675 17.0798 18.4049 20.9077 22.9508 19.1435 23.0913 22.4038 21.8104 21.7836 22.7357 17.75047 22.7733 21.6303 19.5672 16.7351 13.3142 10.86958 10.4755 8.0455 5.4288 3.9731 4.684 4.5863 4.736067 4.4594 4.4437 4.7937 4.9914 5.2108 6.189433 5.8013 8.2164 8.546143 4.7201 4.1213 4.10765 3.9904 3.808 3.5734 3.3393 3.1654 3.332817 3.0397 2.8999 2.6682 2.3411 1.7995 1.3955 2.727167 1.5081 1.6847 1.9289 2.2826 2.8314 2.540233 2.8334 1.6447 1.1252 1.1313 1.1697 2.013917 1.2967 1.6191 2.4598 3.0199 2.59982 2.177025 1.7214 2.4818 2.7802 3.2139 3.7519 4.1135 4.12465 4.1312 4.3809 4.6915 5.0181 5.3345 5.50335 5.6578 13.3487 10.1522 14.7657 15.6028 14.80965 13.7458 12.8733 12.4627 11.7724 11.1287 10.8513 10.56872 10.5314 10.0235 9.3555 8.6035 7.8359 7.64324 7.0982 7.39 6.8081 6.2385 5.658 5.294734 5.0362 4.3472 3.5872 2.8467 2.0437 1.3223 1.014 0.7701 0.4041 0.1914 0.082 0.0319 0.02045 0.0113 0.0036 0.0011 0.0003 0.0001 
0.0001 0.0001 0.0002 0.0006 0.0016 0.0043 0.0101 0.01308333 0.0185 0.0443 0.0831 0.1579 0.3496 0.4581667 0.9778 2.9061 6.7479 11.1547 14.5928 13.78148 13.5435 14.79783 12.628 10.9585 9.5257 12.6074 8.5 8.7955 9.4332 10.2365 11.0747 11.8953 15.56527 12.6054 13.074 13.098 12.6744 11.8211 12.05335 10.2476 8.2995 7.8082 6.0775 5.8518 5.7277 5.8798 5.9641 6.1306 6.3767 6.6305 6.9448 7.9316 7.3689 7.8748 6.414 3.7776 3.6777 3.569867 3.5868 3.4527 3.2392 2.9987 2.8235 2.690583 2.667 2.47 2.0838 2.2827 2.8298 3.3484 3.168467 3.574 3.8529 4.1735 3.457 2.2411 2.668133 1.7188 1.8997 2.2065 2.1273 2.1319 2.003717 2.2173 2.4033 2.7091 2.9925 2.5389 2.46775 2.26315 2.7732 3.1063 3.4992 3.9875 4.148 4.185367 4.2119 4.4522 4.7489 5.0615 5.3633 7.893317 5.6635 31.3087 6.5425 11.834 13.2359 13.13947 12.4413 12.2789 11.8706 11.4821 11.0676 10.8111 10.61037 10.5704 10.2313 9.7696 9.214 8.6089 8.200817 7.9928 7.658371 7.612 7.097 6.5388 6.16605 5.9021 5.1561 4.2968 3.3778 2.4492 1.9974 1.6152 0.9611 0.5141 0.247 0.1067 0.0416 0.02665 0.0147 0.0047 0.0014 0.0004 0.0001 
0.0001 0.0001 0.0002 0.0007 0.0019 0.0048 0.008633333 0.0088 0.0217 0.0421 0.0753 0.1285 0.2273 0.45445 0.4814 1.2694 3.4217 7.4073 11.9505 12.16618 13.9163 14.0519 11.17901 9.4257 6.8411 7.2556 6.9191 7.606 8.3666 9.2027 10.158 11.2494 11.05165 12.1325 12.6944 13.0441 13.1738 13.1773 13.94255 13.2844 15.4097 9.3692 8.2723 6.8348 6.94145 6.5295 6.5517 6.5785 6.5744 6.4792 6.2089 9.155233 16.0549 6.7516 4.3472 4.004 3.0604 3.06478 2.9826 2.9155 2.7162 2.3599 2.231 3.02425 2.2169 2.7148 3.4928 3.9145 4.2474 4.198717 4.5199 4.6649 4.7584 3.9707 3.7572 3.4885 2.93975 2.8956 3.3672 2.6473 2.6043 2.6012 2.531017 2.6055 2.566 2.5049 3.306 3.5345 2.9056 2.0762 2.930057 3.4355 3.7932 4.2086 4.184083 4.1946 4.313 4.5421 4.823 5.1202 5.4085 8.976183 19.9323 11.2269 8.6194 11.2646 12.1345 11.31717 11.6765 11.2761 11.0726 10.8948 10.6842 10.56632 10.5235 10.3745 10.172 9.8823 9.5079 9.071 8.758917 8.5981 8.1094 7.904 7.7741 7.2519 6.8765 6.6093 5.8119 4.8588 3.8055 2.7481 2.2355 1.8059 1.0703 0.5693 0.2714 0.1162 0.0773 0.0448 0.0156 0.0066 0.0002 0.0001 0.0002 
0.0001 0.0001 0.0004 0.0012 0.0032 0.0069 0.0092 0.0169 0.0337 0.0612 0.0909 0.1449 0.2374 0.29325 0.4532 1.065 2.6593 5.5149 8.3563 10.26227 10.6377 13.3604 11.9655 5.8631 5.6709 5.723883 6.0768 6.4362 6.7748 7.009 7.0916 8.5199 8.4926 9.9347 10.8709 11.6219 11.8397 11.36 14.44772 23.7649 11.5046 10.6148 9.8141 8.6628 7.88075 7.89 7.4238 7.6034 7.9066 8.4243 6.74905 8.8518 9.5021 4.0702 3.5646 3.1865 2.752275 2.579375 2.0164 2.3592 2.8656 3.6332 4.424 3.2509 3.7831 4.2353 4.6773 4.9498 5.1096 4.753917 5.1372 5.0581 4.6481 4.4775 4.3301 4.04525 4.0248 3.2697 4.1619 2.9164 2.8697 2.8357 2.8015 2.7945 2.7311 2.9209 2.552 3.7988 3.009317 2.5796 3.1113 3.4283 3.9469 4.2922 4.260217 4.2736 4.4202 4.6429 4.9103 5.1933 7.693967 10.2142 7.2753 10.1599 9.3855 17.255 8.3839 10.1987 10.0309 10.2595 10.2827 10.2562 10.1881 10.15942 10.1234 10.0591 9.9634 9.8092 9.5877 9.4013 9.3056 8.9771 8.6139 8.2176 7.999983 7.8046 7.26884 7.1523 6.2981 5.2493 4.0781 2.9101 2.352233 1.8845 1.0981 0.5732 0.2678 0.1122 0.07676667 0.0423 0.0144 0.0047 0.0012 0.0003 0.0001 
0.000125 0.0001 0.0004 0.001 0.0023 0.0058 0.0111 0.012 0.0226 0.039 0.0732 0.1076 0.2638833 0.1492 0.211 0.3537 0.7704 1.9115 4.3888 13.44883 12.324 13.6402 9.7094 7.491843 4.6628 5.779 4.1726 4.6305 5.2198 6.0325 7.1084 8.30985 7.0194 7.2174 8.3476 10.1326 12.031 11.61578 13.0001 12.0996 11.6966 10.5256 10.3173 9.366 8.54075 8.0014 6.1862 4.1733 16.9759 6.0338 6.098333 4.4963 2.1643 2.4201 2.7207 2.5041 2.4052 2.2581 2.444971 2.6986 2.8344 2.9338 2.837 3.807833 4.0134 4.3268 4.5959 4.7796 4.8822 5.48605 4.6272 4.431 4.1636 4.2784 4.3817 4.219167 4.2892 3.8199 3.6002 3.1191 3.0597 3.000167 3.0088 2.9633 2.9479 3.4257 3.3588 3.6279 3.106933 2.4389 2.6187 3.203886 3.9804 4.2634 4.27665 4.3289 4.51 4.7392 5.0015 5.2754 9.172483 14.9522 4.8321 8.4624 15.7113 10.9662 9.3593 9.481833 9.6071 9.6796 9.7052 9.7207 9.7198 9.7461 9.7175 9.7151 9.6968 9.6434 9.5429 9.445784 9.3927 9.196 8.9545 8.6607 8.291 8.24285 7.68214 7.5261 6.5996 5.4485 4.1704 2.9184 2.338817 1.8464 1.0483 0.5321 0.2415 0.1387 0.05485 0.0064 0.0038 0.0015 0.0005 0.0001 0.00015 
0.0001 0.0002 0.0006 0.0014 0.0037 0.0082 0.0116 0.0168 0.0318 0.0567 0.1032 0.2305 0.7399167 0.7137 2.5765 8.4638 18.8745 24.8814 19.35505 23.6142 21.372 15.5507 9.066 5.5052 9.8144 7.1087 8.3119 8.6059 9.0387 9.4836 9.9039 9.596717 10.2432 10.6523 11.0922 11.3809 10.4125 11.40748 11.0514 12.1137 13.0016 12.6699 11.8191 10.0112 9.688833 7.3131 5.1124 26.3908 9.6662 5.1489 5.555267 3.6349 2.5517 2.1706 1.7518 1.9041 2.348733 2.1732 2.6011 3.0082 3.166 3.3696 3.422383 3.648 4.1415 4.2382 4.1492 3.7105 8.6446 5.2037 4.5155 4.5379 4.2015 4.3841 4.4282 3.986 3.861 2.9471 1.7446 7.8651 3.1622 3.13015 3.0649 2.9522 2.9608 4.5518 3.7814 3.5917 3.147867 2.6047 2.0697 3.2719 3.783833 4.1611 4.27834 4.3407 4.5673 4.8164 5.0844 9.9531 9.176066 9.4467 6.8317 13.8872 10.3545 10.8978 10.33853 9.8886 9.6212 9.4562 9.3746 9.3506 9.3537 9.400733 9.3741 9.4058 9.4375 9.4548 9.4451 9.418633 9.4007 9.3157 9.1814 8.9784 8.6705 8.511 8.2053 7.7224 6.7012 5.4414 4.0728 3.369717 2.7731 1.7004 0.9332 0.4573 0.2864 0.0223 0.03301667 0.0072 0.0023 0.0007 0.0002 0.0001 0.0001 
0.0001 0.0003 0.0006 0.0017 0.004 0.0087 0.01128333 0.0181 0.0384 0.0919 0.2678 0.8783 0.93305 2.3602 6.2202 12.6099 19.0941 27.2364 26.74828 34.098 31.7914 26.3662 22.1469 17.8021 11.2875 14.97185 14.00908 12.8396 13.4596 11.5956 11.8098 12.35223 11.4956 11.5648 11.5318 9.4115 10.5602 12.98288 11.3897 13.3607 13.4851 14.0813 13.8126 12.87867 12.8138 10.6275 32.2844 17.2834 10.2144 7.5313 6.345833 6.4864 2.8198 2.4931 2.4107 2.5387 2.586033 2.7142 2.8948 3.1238 3.5631 3.7464 3.774717 3.9995 4.2508 4.2927 4.2042 3.953 4.4099 3.6829 4.8698 5.0492 9.9856 4.2554 3.884 3.649133 3.0719 1.7205 2.5116 11.2703 3.2764 3.216017 3.2089 3.2133 3.541 4.3665 3.9294 4.186633 3.9639 2.6601 1.7628 3.0902 3.936 3.965425 4.19916 4.2976 4.5808 4.862 8.9434 6.4788 8.66455 8.9502 13.2427 9.4545 10.2891 10.7585 10.44895 10.1608 9.7487 9.4338 9.2384 9.1431 9.168767 9.1132 9.1261 9.1683 9.2275 9.2913 9.3471 9.372817 9.3833 9.3867 9.3373 9.2022 8.9306 8.649716 8.4576 7.708414 6.5886 5.2218 3.7916 3.09875 2.492 1.4697 0.7741 0.5265 0.0502 0.0179 0.01158333 0.0056 0.0016 0.0004 0.0001 0.000125 0.0001 
0.0001666667 0.0001 0.0004 0.001 0.0023 0.0037 0.0052 0.0107 0.0216 0.0457 0.1094 0.2891 0.8480167 1.1265 2.8441 5.6232 10.3326 19.6651 24.04763 30.9946 38.1277 39.2122 36.2919 30.6988 25.93738 23.8783 16.4097 19.43609 15.8 15.7533 17.12862 15.4512 15.2097 14.6976 12.8467 15.0086 16.3995 16.49417 18.084 20.2396 16.3152 15.2748 14.5025 22.16255 14.3128 45.5981 21.7435 15.7482 12.6301 10.2661 9.0852 6.1883 5.2152 2.998 2.9785 3.0445 2.902033 3.1415 3.2538 3.3796 4.134 3.8835 3.90128 4.0013 4.0222 3.8133 3.2782 2.1499 3.353917 4.3185 4.9967 5.5274 14.9084 4.0976 3.6108 3.803717 3.0389 2.4937 6.7681 7.9964 3.3359 3.301383 3.2478 3.1999 3.531 3.2591 4.0848 4.557583 5.7686 3.0877 1.9782 2.8195 3.7607 3.80444 4.0039 4.1925 4.5433 4.8675 12.8706 4.4477 8.742917 12.7108 9.0556 9.8113 10.353 10.6837 10.48812 10.3043 9.8805 9.4998 9.2254 9.063 9.05555 8.989 8.9795 9.0172 9.0887 9.1817 9.2831 9.344133 9.3776 9.4443 9.4517 9.3516 9.0781 8.768784 8.5562 7.7276 6.352583 4.7985 3.3526 2.704267 2.1104 1.1886 0.8726 0.1002 0.0381 0.02545 0.0127 0.0038 0.0011 0.0003 0.0001 0.0001 0.00010625 
0.0001 0.000175 0.0001 0.0003 0.0006 0.0018 0.0014 0.003 0.006 0.0124 0.0296 0.0921 0.0919 0.3421 0.8473 1.7958 5.0849 11.5291 16.55587 20.7626 30.7953 39.0879 41.2164 38.4378 33.63538 33.5198 27.6876 21.32 28.5361 25.7681 23.58857 22.3937 21.1366 19.218 20.7416 20.8646 21.0679 21.16238 21.4637 19.3972 22.7321 22.7792 22.1107 31.81253 55.4229 30.1284 19.6852 14.8494 12.4045 10.12917 9.7311 5.769 4.2791 3.3433 3.2337 3.1013 2.815367 2.872 2.4515 1.6763 8.5551 7.348875 3.90975 3.8757 3.8401 3.5873 2.5887 1.3306 3.51325 4.6886 5.4998 6.5416 21.0223 4.8834 4.583267 4.534 4.6827 5.1996 7.582 7.2675 3.4887 3.49505 3.2506 3.1754 3.4232 2.5636 4.0662 4.678167 5.5326 5.8055 2.3275 2.4135 3.5315 3.614983 3.7901 4.076914 4.4557 8.2893 8.4111 9.144317 10.6986 9.1714 9.3011 10.0026 10.4226 10.6437 10.5041 10.3777 9.9845 9.5907 9.2768 9.0684 9.0314 8.9566 8.9231 8.9512 9.0274 9.1387 9.224684 9.2706 9.4031 9.5067 9.5367 9.4294 9.1051 8.73925 8.4851 7.5248 6.2542 4.519 2.802 2.35736 1.677 1.3203 0.1795 0.0723 0.0256 0.01751667 0.0082 0.0024 0.0006 0.0002 0.000175 0.0001 0.0001 
0.00011875 0.0001 0.0001 0.0002 0.0004 0.0006666667 0.0009 0.0019 0.0037 0.0067 0.0115 0.02988333 0.0211 0.0499 0.1563 0.5376 1.7632 5.0525 8.953533 11.3313 19.9541 28.6403 34.8988 37.7752 35.3327 37.5024 34.4865 31.4404 29.37933 32.3324 29.06354 29.8327 27.0974 26.8566 25.5329 24.7286 23.19515 24.9454 25.0138 26.0369 28.8038 31.0502 52.9194 34.69862 31.6069 18.3516 13.7335 11.8589 8.7257 9.57785 8.1984 6.6427 4.8488 3.4553 3.1342 2.887683 2.693 2.0399 1.1328 2.4166 13.0784 3.8785 4.6784 4.240233 3.6699 1.9988 5.101 3.3959 4.603483 5.196 5.3782 14.7812 17.4446 5.1299 5.10595 5.2439 5.9285 6.6083 8.919 6.6379 5.225733 3.9839 3.6634 3.1681 3.4033 2.7473 3.3578 4.558483 5.259 8.0173 3.0471 2.4467 3.0831 3.38155 3.5206 4.0323 5.826083 7.1263 10.7867 8.949984 7.6512 9.6346 9.6815 10.2122 10.4906 10.55087 10.6118 10.4034 10.052 9.6748 9.353 9.1231 9.06595 8.9883 8.938 8.9589 9.0381 9.1618 9.253533 9.3122 9.463 9.5739 9.5859 9.4204 9.156584 8.9894 8.2216 7.1015 5.7051 4.2016 3.172975 1.79252 1.8448 0.292 0.1244 0.0465 0.0157 0.01096667 0.0048 0.0014 0.0003 0.0001 0.00015 0.00013125 0.0001 
0.0001 0.0001 0.0001333333 0.0001 0.0002 0.00042 0.0005 0.0013 0.0027 0.0054 0.0096 0.01203333 0.0156 0.0245 0.0447 0.117 0.3866 1.443283 1.2839 3.7618 8.8372 16.3914 24.6028 30.9583 29.11995 33.8027 33.7449 33.1393 33.119 32.84787 33.03632 34.9908 35.7695 33.2231 28.1199 24.1183 20.97343 23.4461 25.0444 23.3443 29.8413 75.7803 33.94898 31.4038 14.728 10.3664 12.0292 14.8288 8.7925 10.35995 9.6149 7.9825 5.6577 4.1275 2.908 4.98315 2.2559 1.4377 0.5936 3.2838 14.8534 11.5058 6.7389 4.2205 3.0963 3.0766 6.9353 5.333 6.541867 7.6768 9.7886 13.98 13.7143 5.3418 5.505267 5.5027 5.758 8.3955 10.2844 5.8713 5.0756 4.1051 4.0182 3.8277 3.8242 3.2956 3.904617 3.9077 5.2276 7.6414 4.1107 2.274 3.0253 3.113933 3.3387 3.8678 7.1851 8.498867 8.0954 8.52338 8.0569 10.0192 10.0719 10.4402 10.5618 10.55762 10.5747 10.3911 10.0824 9.7379 9.4305 9.2002 9.133833 9.0591 9.0034 9.0238 9.1079 9.2402 9.329233 9.3977 9.545 9.6287 9.575 9.2944 8.938717 8.7008 7.746 6.4602 4.9728 3.4861 2.2022 1.7233 0.4366 0.196 0.0773 0.0275 0.0089 0.006316666 0.0026 0.0007 0.0002 0.000175 0.0001 0.000125 0.0001140625 
0.0001 0.0001111111 0.0001 0.00015 0.00015 0.0002666667 0.0001 0.0004 0.001 0.0023 0.005 0.00705 0.0094 0.0156 0.0226 0.03 0.0478 0.3178167 0.1257 0.4131 1.3037 3.6165 8.0389 13.25022 14.2388 20.4423 24.1667 26.2287 30.9507 34.9894 29.66465 23.31192 22.4069 23.4099 21.7902 16.352 15.88922 12.2502 8.2125 11.4204 12.0365 8.6505 20.47465 3.8897 4.129 4.4505 4.5081 33.5625 13.3102 7.89085 13.518 16.7466 20.0135 20.2271 13.199 4.029317 5.7088 0.8241 1.1088 4.6478 21.8709 21.87125 8.6147 7.5851 4.935472 5.5358 7.4765 10.1572 7.7186 9.9309 11.7447 13.5774 11.5901 5.829 6.551084 5.9843 6.3211 12.3933 8.6983 5.5509 5.217517 4.3045 4.3383 4.4219 4.9026 4.8552 4.8732 5.2641 5.9764 6.8008 4.5863 2.8155 2.583 2.99255 3.1329 3.7011 8.0884 9.7113 8.584275 7.81368 8.0267 10.1869 10.3418 10.6109 10.5816 10.53592 10.5252 10.3515 10.0813 9.7762 9.4969 9.386017 9.2825 9.1498 9.1004 9.1278 9.2196 9.3564 9.433717 9.5071 9.6244 9.6401 9.4675 9.0147 8.5483 8.2126 7.0553 5.6309 4.1172 2.7257 2.4018 2.4096 0.67575 0.1186 0.0443 0.015 0.01095 0.0046 0.0013 0.0003 0.0001 0.00015 0.00013125 0.0001 0.0001125 
0.0001037037 0.0001 0.000125 0.0001333333 0.0001666667 0.0001 0.00025 0.00034 0.0001 0.0003 0.0008 0.002983333 0.0019 0.0041 0.0084 0.0157 0.0261 0.0591 0.0368 0.047 0.0648 0.1328 0.3972 5.98505 1.2653 3.5443 7.2258 11.0159 17.6658 28.5703 17.22646 20.1081 3.2843 7.0626 11.643 12.0724 10.36 7.0963 6.1316 6.2451 4.9724 2.3159 2.876583 0.8077 0.7747 1.1087 1.2524 1.3137 8.97815 1.1136 0.9959 0.8207 0.5731 0.2989 0.0917 3.7684 0.0125 2.3034 7.6004 27.1179 51.3748 21.20613 27.7748 5.3286 5.7054 10.90052 16.5196 11.6466 16.9602 17.4641 17.2552 16.4192 12.042 11.78168 7.5802 9.0685 12.2438 15.0952 10.5734 6.3813 5.0496 5.092 4.7585 5.0494 5.3047 5.5634 6.081917 6.3532 7.1727 6.8995 4.8946 2.7079 2.833467 2.8021 3.0733 3.6058 11.4762 9.7086 6.8218 7.4305 8.0676 10.3646 10.5537 10.709 10.5305 10.48018 10.4417 10.2838 10.0521 9.7898 9.5467 9.4481 9.3593 9.2464 9.2129 9.2536 9.3539 9.41985 9.4878 9.6131 9.6677 9.569 9.2236 8.5503 7.9707 7.517 6.1763 4.6759 3.2211 2.9798 1.652033 0.6074 0.2863 0.1182167 0.0235 0.0075 0.005633333 0.0022 0.0006 0.0001 0.00015 0.0001 0.000125 0.0001140625 0.0001 
0.0001 0.0001125 0.0001194444 0.00013125 0.0001 0.000175 0.000178 0.0001 0.0001 0.0001 0.000375 0.0003 0.0005 0.0008 0.001 0.0008 0.010675 0.03145 0.0419 0.037175 0.04902 0.0995 0.133025 0.4176 1.20885 2.018983 3.662867 5.962786 5.4823 8.881933 1.1934 1.2711 4.733957 0.9761 3.8178 6.75815 8.4026 5.9865 4.2944 3.6174 2.3752 0.9431 0.9452333 0.6526 1.1701 1.9918 2.4609 2.6724 2.234367 1.8965 1.7936 1.6659 1.4474 1.0809 0.9243667 0.5433 3.0551 10.4945 20.9672 28.0418 17.0976 18.56482 0.504 0.6057 0.5185 29.6473 16.91828 13.09344 9.5581 9.0767 8.6347 7.1455 3.2819 12.68735 30.3669 11.1547 8.3173 7.4328 5.2025 6.327 4.332 4.6369 5.1525 5.4963 6.3694 7.0072 7.128284 7.4484 8.3734 8.4834 6.1419 2.9975 3.652017 3.0948 3.1496 6.731 10.3569 10.2987 8.74165 6.8059 8.63215 10.6099 10.7418 10.6699 10.4608 10.39312 10.3413 10.196 10.0003 9.7812 9.5784 9.496266 9.4248 9.3395 9.3285 9.3856 9.4914 9.54265 9.61 9.6853 9.6391 9.3779 8.8126 7.8915 7.215517 6.6381 5.1713 3.6829 3.5383 0.7971 0.9201834 0.3926 0.1702 0.0664 0.0245 0.0035 0.00292 0.001 0.0002 0.0001 0.0001 0.0001125 0.0001 0.0001125 0.0001066406 
0.00010625 0.0001106482 0.0001157986 0.0001 0.0001375 0.0001306 0.0001 0.0001 0.0001 0.0001 0.0002 0.0004 0.000425 0.0001 0.0001 0.0001 0.00045 0.016915 0.022145 0.0001 0.0001 0.0004 0.0017 0.002975 0.0062 0.0196 0.0527 0.1189 0.1781 1.196567 0.2017 0.1673 0.2682 1.085633 0.8284 3.65922 3.7847 3.2328 3.6922 2.2949 1.2936 0.4749 0.51815 0.4772 1.1465 2.1216 3.0305 3.835 2.64565 2.575 2.4974 2.4148 2.4023 2.2149 2.783017 1.3165 7.9102 21.6896 27.9921 26.3044 10.5374 7.563017 4.1003 5.2204 7.3281 11.9521 9.5541 11.5177 12.8752 12.4211 12.3706 11.9503 11.0721 13.68717 11.781 8.219 9.3256 8.4223 6.2301 5.575417 5.2427 5.5962 6.1365 6.629 7.4991 7.9035 8.096833 8.494 9.2526 8.9573 7.3024 4.4591 4.954717 5.8507 2.7558 7.2109 10.8356 11.1764 9.3784 7.6385 8.3064 10.08955 10.9459 10.5477 10.43605 10.3598 10.2246 10.0923 9.9302 9.7531 9.5922 9.528916 9.4762 9.423 9.4375 9.51 9.6136 9.642467 9.6992 9.6945 9.5069 9.0402 8.2255 7.5974 7.0602 5.636 4.1294 4.0969 1.0017 0.5127 0.3963667 0.2315 0.0941 0.0346 0.0115 0.00545 0.00132 0.0004 0.0001 0.0001333333 0.0001 0.0001 0.000103125 0.0001 0.00010625 
0.0001084491 0.0001081742 0.0001 0.00011875 0.00011362 0.0001 0.0001 0.0001 0.0001 0.0001333333 0.0002333333 0.00028125 0.0001 0.0001 0.0001 0.0001 0.0001 0.000275 0.0001 0.0001 0.0002 0.0002 0.0009 0.002183333 0.0031 0.0085 0.0145 0.017 0.0405 0.11135 0.0834 0.153 0.2553 0.368 0.508475 1.660875 1.4626 4.0941 3.4491 1.6704 0.7482 0.5631667 0.264 0.2971 0.7886 1.4696 1.9595 1.8294 2.591233 3.0656 3.1548 3.5093 4.1699 4.8885 5.698884 6.654 17.4267 26.6364 26.2506 15.005 13.90417 8.9844 4.1544 11.0147 16.0007 16.0473 14.0834 13.69356 14.45812 15.0392 15.1907 14.7707 13.4608 12.82953 12.1603 10.4756 10.1905 8.6107 6.4891 6.11765 5.9561 6.2075 6.8227 7.5833 8.3633 8.340533 8.4095 9.3184 9.9722 9.3663 8.2641 9.2272 5.748083 4.099 4.5993 7.9587 10.8973 11.3812 10.08222 8.9697 8.9345 10.9988 10.8766 10.3552 10.30924 10.2229 10.0915 9.9753 9.845 9.7083 9.643967 9.5894 9.5125 9.493 9.5327 9.6161 9.706 9.701834 9.7346 9.6171 9.2511 8.5497 7.4826 6.772817 6.112 4.5963 4.1312 1.6991 0.7323 0.54925 0.3152 0.1291 0.0487 0.0168 0.0053 0.0015 0.000675 0.0002 0.0002333333 0.0001 0.0001111111 0.0001 0.0001 0.0001007813 0.0001 
0.0001055411 0.0001 0.000109375 0.000106474 0.0001 0.0001 0.0001 0.0001 0.0001111111 0.0001555556 0.0001869792 0.0001 0.0001 0.0001 0.0001 0.0001 0.0001 0.0001 0.0001 0.0001375 0.00015 0.0001 0.00032 0.0003 0.0009 0.0026 0.0098 0.0242 0.0566 0.07466666 0.1078 0.165 0.2052 0.2697 0.5678 0.853475 2.11238 3.0642 2.7608 1.8689 0.4442 0.3249667 0.1541 0.2136 0.5979 1.1902 1.7419 1.774567 2.0043 2.2381 6.7526 5.4459 5.7989 7.0165 10.22238 12.1029 27.28 24.9614 15.8973 13.7726 12.37085 8.8212 11.5388 16.4324 18.7236 18.7008 17.45407 16.5775 15.3776 16.30972 17.2863 16.6931 15.1284 14.7556 13.3746 11.6236 10.5685 8.5796 6.6345 6.43595 6.1534 6.574 7.4903 8.2466 8.7828 8.96955 9.085 10.0805 11.0028 10.8263 14.2008 7.98595 3.6144 7.2381 7.3517 10.2443 11.7676 11.4792 11.00187 9.8483 10.0124 11.3109 11.1011 10.72243 10.14528 10.0606 9.9433 9.8468 9.7472 9.6493 9.60605 9.5715 9.5337 9.5473 9.6089 9.6948 9.7553 9.70775 9.7023 9.4413 8.8692 7.9246 6.6323 5.877967 5.1243 3.6091 2.6562 1.2758 0.5291 0.37805 0.2045 0.0745 0.0253 0.008 0.0023 0.0006 0.00054 0.0002 0.00015 0.0001458333 0.0001 0.0001037037 0.0001 0.0001 0.0001001953 
0.0001 0.0001046875 0.0001031698 0.0001 0.0001 0.0001 0.0001 0.0001037037 0.0001222222 0.0001384115 0.0001 0.0001 0.0001 0.0001 0.0001 0.0001 0.0001 0.0001 0.0001125 0.000125 0.0001 0.0001 0.0001666667 0.0001 0.0005 0.0019 0.0068 0.0204 0.03351667 0.0518 0.1079 0.1852 0.2666 0.3433 0.4691 0.5925 0.9144 1.0266 0.7825 0.4313 0.2574 0.1877 0.0819 0.1208 0.3711 0.8137 1.3226 1.856267 1.7897 2.8914 8.8578 7.5563 8.5717 12.4703 15.78987 18.2021 30.9495 17.4602 17.246 14.7317 13.80225 12.9102 15.6295 17.4228 19.2176 20.2836 21.43007 19.0318 17.6188 17.3457 20.34287 22.3144 18.83832 19.0502 15.3593 12.5937 10.9118 8.6164 6.9089 6.686817 6.4737 6.7169 7.8729 8.3202 9.2954 9.6027 9.8813 11.2682 13.6659 18.1057 6.4816 7.997717 6.1276 8.664 9.6802 13.2573 15.0467 13.5525 12.5126 10.7803 10.7213 11.242 11.23 10.2034 10.04257 9.8843 9.7815 9.7063 9.6378 9.5776 9.553184 9.5402 9.5405 9.585 9.6632 9.7404 9.731283 9.7526 9.5957 9.167 8.3765 7.2041 5.7398 4.97925 4.1768 2.7468 1.7288 0.8563 0.3561 0.2538167 0.1311 0.0439 0.0136 0.0039 0.001 0.0008 0.0003 0.0001 0.0001 0.0001166667 0.000115625 0.0001 0.0001012346 0.0001 0.0001 
0.0001023438 0.0001015715 0.0001 0.0001 0.0001 0.0001 0.0001012346 0.000108642 0.0001160843 0.0001 0.0001 0.0001 0.0001 0.0001 0.0001 0.0001 0.0001 0.000105 0.0001125 0.0001 0.0001 0.0001166667 0.0001 0.000225 0.0002 0.0009 0.0037 0.0126 0.02426667 0.0355 0.0832 0.1616 0.2619 0.3609 0.4437 0.6381167 0.5675 0.8659286 0.8326 0.3685 0.1411 0.1075667 0.0475 0.0796 0.2513 0.6259 1.367 2.4233 2.9121 5.7392 9.3933 10.0054 12.6937 14.42058 20.0227 24.9247 19.7684 18.9313 18.0134 16.5102 16.18055 16.0676 17.5614 20.0657 23.9278 27.1245 25.2076 26.8622 24.9667 24.5017 23.916 23.77088 21.63242 21.0055 17.9044 14.2703 11.6206 8.8564 8.118867 7.1355 6.8149 6.9269 7.9187 8.4994 9.6047 10.69043 10.967 14.272 21.6228 8.4748 9.5896 8.702766 7.9723 10.0138 11.645 15.4373 18.2586 17.32565 16.458 12.9573 11.2341 10.9825 11.2653 10.022 9.92004 9.75384 9.6129 9.5496 9.5084 9.4894 9.4817 9.4911 9.5302 9.6039 9.6928 9.7497 9.7063 9.6949 9.4148 8.8046 7.8008 6.4373 5.665467 4.869 3.3333 2.0402 1.1432 0.5458 0.2227 0.1615333 0.0794 0.0253 0.0073 0.0019 0.0005 0.00042 0.0001 0.0001666667 0.0001 0.0001 0.0001055556 0.0001052951 0.0001 0.0001004115 0.0001 
0.0001009788 0.0001 0.0001 0.0001 0.0001 0.0001004115 0.0001032922 0.0001064902 0.0001 0.0001 0.0001 0.0001 0.0001 0.0001 0.0001 0.0001 0.00010225 0.00010625 0.0001 0.0001 0.0001041667 0.0001 0.00014375 0.00015 0.0001 0.0004 0.0016 0.006 0.01388333 0.0193 0.052 0.1189 0.2349 0.4169 0.3703833 0.7038 0.7302 1.2077 0.4556667 0.1809 0.16182 0.0748 0.0427 0.0954 0.2458 0.5682 2.5403 3.538333 4.6081 7.0689 9.1723 9.173 10.715 13.7813 22.0501 16.353 26.7499 19.1593 18.6765 18.91457 18.2295 18.6341 20.3661 23.6467 26.6396 28.9395 28.59758 29.004 27.7286 26.1864 25.19 23.6631 22.8687 22.1289 19.0904 16.1364 13.0762 9.6131 8.674566 7.5829 7.1689 7.2465 8.0801 8.8123 10.22603 10.4973 13.8969 22.3891 9.6787 11.6987 11.2544 11.15162 10.7911 11.9352 13.5938 16.8732 20.6004 20.09012 20.0377 16.0631 13.7863 11.6663 11.0269 11.23108 9.7988 9.6917 9.633233 9.399 9.3449 9.3691 9.400766 9.4228 9.5045 9.5998 9.6929 9.7186 9.633634 9.5816 9.164 8.3697 7.1737 5.6699 4.8928 4.0727 2.6173 1.528 0.7568 0.3424 0.1339 0.09791667 0.046 0.014 0.0038 0.001 0.0002 0.000225 0.0001 0.0001 0.0001222222 0.0001 0.0001 0.0001018519 0.0001017867 0.0001 0.0001001372 
0.0001 0.0001 0.0001 0.0001 0.0001001372 0.0001012346 0.0001025485 0.0001 0.0001 0.0001 0.0001 0.0001 0.0001 0.0001 0.0001 0.000101075 0.000103125 0.0001 0.0001 0.0001010417 0.0001 0.0001171875 0.000125 0.0001 0.0002 0.0001 0.0005 0.0022 0.00635 0.0077 0.0227 0.0552 0.1084 0.1612 0.2505167 0.1358 0.3154 0.0426 0.1017 0.07845 0.0804 0.0438 0.0525 0.1194 0.248 0.5194 2.6803 4.300217 7.1222 10.193 10.1781 9.3393 8.6161 13.06668 8.5902 35.6401 34.6405 20.311 20.5736 21.15743 21.4842 22.6559 24.2323 26.0194 28.3024 30.0224 30.11158 29.6329 28.6274 27.6195 26.3255 24.6773 23.51398 20.55915 18.8965 16.0025 13.6239 10.5421 9.210016 8.3174 7.7515 7.7792 8.6644 9.9749 12.33195 13.9676 21.5746 9.4037 12.2685 14.2868 13.7245 13.88143 13.5778 14.3116 15.7663 18.2712 22.2681 23.11432 22.9179 20.4973 18.3785 14.2396 13.8429 12.9805 11.4306 10.0158 9.5304 10.56056 9.4959 10.30703 9.278 9.3542 9.453 9.571 9.6611 9.6442 9.525033 9.4128 8.8485 7.8777 6.5222 4.9434 4.2636 3.3645 2.5094 1.1129 0.4938 0.2123 0.1571 0.0794 0.0261 0.0076 0.002 0.0005 0.0001 0.0001333333 0.0001 0.0001 0.0001 0.0001074074 0.0001 0.0001 0.0001006173 0.000100601 0.0001 
0.0001 0.0001 0.0001 0.0001000457 0.0001004572 0.0001009801 0.0001 0.0001 0.0001 0.0001 0.0001 0.0001 0.0001 0.0001 0.0001005275 0.0001015625 0.0001 0.0001 0.0001002604 0.0001 0.0001074219 0.0001125 0.0001 0.0001333333 0.0001 0.0002333333 0.0001 0.0006 0.002233333 0.0023 0.0072 0.0182 0.0355 0.0491 0.06753334 0.0363 0.0006 0.0025 0.0091 0.0221 0.0263 0.04578 0.0559 0.1177 0.2066 0.3601 1.274983 2.8484 6.002 10.5159 11.5789 8.3187 2.6694 16.22957 25.7593 48.5167 34.1739 22.465 23.7034 23.62118 24.2774 25.302 26.5485 28.2158 30.2101 30.81365 31.6823 31.3884 31.0777 29.0747 27.1975 24.9798 23.3072 22.1208 18.26998 14.4677 12.6115 10.5376 9.657233 8.667 8.2241 8.6556 9.9016 12.172 13.21867 18.5676 9.2272 11.5315 14.7232 16.3991 17.23668 16.7642 17.1766 18.2135 19.7446 22.2499 26.1018 26.55207 26.76 24.8499 24.3874 18.4861 17.2636 16.43057 14.5202 13.4526 12.4144 10.8973 12.842 11.57268 11.5123 10.1325 9.5543 9.5868 9.651 10.95595 9.5729 9.2201 8.4865 8.2728 5.3738 4.012 3.694717 3.5191 1.5049 0.5799 0.2978 0.128 0.09518334 0.0466 0.0148 0.0051 0.0015 0.0003 0.00022 0.0001 0.0001 0.0001 0.0001 0.0001 0.0001024691 0.0001 0.0001 0.0001002058 0.0001002017 
0.0001 0.0001 0.0001000152 0.0001001677 0.0001003708 0.0001 0.0001 0.0001 0.0001 0.0001 0.0001 0.0001 0.0001 0.0001002618 0.0001007813 0.0001 0.0001 0.0001000651 0.0001 0.000103418 0.00010625 0.0001 0.0001111111 0.0001 0.0001444444 0.0001 0.00035 0.0002666667 0.0001 0.0005 0.0018 0.0046 0.0094 0.0144 0.01838333 0.0084 0.0004 0.0011 0.0022 0.0087 0.01824 0.0306 0.0461 0.0888 0.1287 0.1238 0.8242667 1.1179 4.8331 9.1901 14.7047 9.8494 16.09915 19.1929 32.5495 38.3031 22.6645 24.0619 25.3827 26.19095 26.3058 27.1761 28.3758 29.9612 31.6826 32.13552 32.9821 33.4681 32.1952 29.542 26.8082 25.70443 23.9937 20.7644 17.368 14.9539 12.9698 11.74144 10.8274 9.0519 9.1755 10.0398 12.1544 16.5747 11.97345 8.0552 10.6903 13.552 16.914 20.5972 20.097 21.6483 22.0607 23.0751 24.2351 26.6092 27.84205 30.1095 31.1551 30.2627 29.0996 22.4527 21.8993 20.03585 19.6268 17.8134 15.7719 14.0002 14.69314 13.98987 14.7352 14.1342 13.8688 13.8479 13.7954 13.55452 13.4111 12.3992 14.5357 6.0195 4.5047 4.0695 2.957833 2.2598 0.6336 0.3644 0.1857 0.0775 0.05686667 0.0273 0.0083 0.0015 0.0003 0.0001 0.0001666667 0.0001 0.0001 0.0001 0.0001 0.0001 0.0001 0.000100823 0.0001 0.0001 0.0001000686 
0.0001 0.0001000051 0.000100061 0.0001001384 0.0001 0.0001 0.0001 0.0001 0.0001 0.0001 0.0001 0.0001 0.0001001305 0.0001003906 0.0001 0.0001 0.0001000163 0.0001 0.0001016357 0.000103125 0.0001 0.0001037037 0.0001 0.0001148148 0.0001 0.000225 0.0002041667 0.0001 0.0002333333 0.0001 0.0003 0.0008 0.0014 0.004316667 0.0004 0.0017 0.0002 0.0007 0.0024 0.0079 0.01498333 0.0219 0.04374286 0.0685 0.1092 0.1587 0.3511833 0.3367 1.4217 6.5753 8.4107 20.4472 26.82677 36.1173 40.5839 30.2119 24.1846 25.7903 28.2051 28.84832 29.2713 30.1171 30.9004 31.8124 32.9218 33.67335 33.3342 33.3699 33.3398 30.3697 27.1742 25.9317 24.0732 20.8545 17.4163 14.8901 14.1329 12.32684 11.7609 10.0272 10.3279 11.7599 15.1752 7.0263 10.05658 9.4449 12.0704 14.6164 18.5344 22.0076 21.83288 23.1656 24.2176 25.7122 27.4617 29.6062 30.17262 32.3757 34.3492 34.5855 31.1456 27.2467 25.0129 22.99377 21.8923 20.3607 19.7029 18.8562 16.87 18.094 17.105 19.3967 18.4964 18.1919 17.9255 19.11155 16.9712 22.9336 9.5772 7.3651 5.7565 3.491283 3.1501 0.7365 0.4104 0.2416 0.1165 0.0462 0.03356666 0.0156 0.0046 0.001 0.0002 0.000175 0.0001 0.0001166667 0.0001 0.0001 0.0001 0.0001 0.0001 0.0001 0.0001002744 0.0001 0.0001 
0.0001000025 0.000100022 0.0001000511 0.0001 0.0001 0.0001 0.0001 0.0001 0.0001 0.0001 0.0001 0.0001000652 0.0001001953 0.0001 0.0001 0.0001000041 0.0001 0.0001007996 0.0001015625 0.0001 0.0001012346 0.0001 0.0001049383 0.0001 0.0001625 0.0001572917 0.0001 0.0001444444 0.0001 0.0002 0.000325 0.0001 0.0002 0.000525 0.0001 0.0003 0.0001 0.0005 0.0017 0.0055 0.0096 0.0153 0.035 0.06736667 0.0996 0.1521 0.1990833 0.2179 0.5549 2.7939 10.0225 25.1561 35.89113 50.1977 51.008 29.7129 26.2562 28.727 30.23847 31.4532 32.4718 33.0297 33.3962 34.0031 35.0254 34.70927 36.094 35.9314 34.8307 31.8155 28.4055 26.52673 25.1354 21.8317 18.3188 15.3765 13.2952 12.9128 12.7809 11.127 11.2581 12.7167 6.7388 9.1055 8.366 10.8724 13.0093 14.7823 18.2397 20.6825 21.56505 22.8961 24.1087 25.6415 27.9637 30.0666 30.47413 32.2685 33.9474 33.9523 31.4841 27.8123 26.2898 25.8536 23.6777 21.6675 20.9014 20.7593 20.6169 20.64338 20.1539 21.06885 23.0047 23.1193 21.8056 19.50933 30.7605 13.6 10.523 6.7833 2.804 2.186233 0.6629 0.4039 0.2786 0.1555 0.0701 0.05223333 0.0263 0.0085 0.0024 0.0006 0.0001 0.0001333333 0.0001270833 0.0001 0.0001041667 0.0001 0.0001 0.0001 0.0001 0.0001 0.0001 0.0001000914 0.0001 
0.0001000123 0.0001000189 0.0001 0.0001 0.0001 0.0001 0.0001 0.0001 0.0001 0.0001 0.0001000326 0.0001000977 0.0001 0.0001 0.000100001 0.0001 0.0001003952 0.0001007813 0.0001 0.0001004115 0.0001 0.0001016461 0.0001 0.00013125 0.0001299479 0.0001 0.0001148148 0.0001 0.00015 0.00018125 0.0001 0.00015 0.00015 0.00015 0.0002 0.00015 0.0001 0.0002 0.0008 0.001916667 0.0024 0.0046 0.0353 0.0566 0.09186 0.11784 0.1323 0.1968 0.5643 2.553 11.3061 30.8202 37.56223 52.6083 52.5557 42.0097 30.1456 32.7804 33.63793 34.4748 35.2604 35.146 34.9306 34.9575 35.29637 35.0829 35.7973 36.9588 35.642 32.6688 28.971 27.24925 25.4011 21.9531 18.4558 15.7761 13.8142 13.49922 12.12792 11.3576 11.1809 6.0374 7.7955 8.384283 9.5312 11.6834 13.647 15.1124 17.9706 18.99215 19.441 21.1975 22.3195 23.8912 26.1076 28.5268 28.74742 30.001 31.5474 31.4053 29.925 27.0653 25.97142 24.748 23.3775 21.9683 21.4097 21.7303 21.90343 22.8508 22.7253 22.6361 20.22244 21.306 21.8318 14.5925 7.7614 4.789 2.3263 0.9278 0.4103 0.7824166 0.3336 0.2766 0.1817 0.0943 0.04 0.02996667 0.0143 0.0044 0.0012 0.0003 0.0001 0.0001 0.0001111111 0.0001095486 0.0001 0.0001010417 0.0001 0.0001 0.0001 0.0001 0.0001 0.0001 0.0001000305 
0.0001000104 0.0001 0.0001 0.0001 0.0001 0.0001 0.0001 0.0001 0.0001 0.0001000163 0.0001000488 0.0001 0.0001 0.0001000003 0.0001 0.0001001965 0.0001003906 0.0001 0.0001001372 0.0001 0.0001005487 0.0001 0.000115625 0.0001152995 0.0001 0.0001049383 0.0001 0.000125 0.0001328125 0.0001 0.000125 0.0001333333 0.00015 0.0001666667 0.00015 0.0001 0.000125 0.0001 0.0003 0.0009166666 0.0008 0.0013 0.0153 0.064 0.087 0.1025 0.1182 0.2492 0.932 3.3923 9.7995 22.5513 33.69978 44.0398 54.7046 59.5185 35.2599 36.5366 37.10483 37.8556 37.941 37.1913 36.5174 36.3423 36.48393 36.367 37.5281 37.5058 36.1935 33.2609 29.6147 27.55248 25.9678 22.4621 19.0313 16.3765 14.3596 13.72052 13.2462 10.85267 5.6669 6.3048 7.9469 8.477767 9.9273 11.8659 13.835 15.3499 18.365 18.16228 19.2541 20.807 21.1097 21.78 23.4976 25.2454 25.3704 26.3762 28.3072 30.1261 28.6297 26.0424 24.9227 24.3069 23.0172 22.0413 21.7014 22.1326 22.16262 23.3307 25.0928 23.9501 23.0004 4.5405 10.42918 4.0878 1.3079 0.5217 0.2703 0.2435 0.2467 0.26325 0.237 0.1835 0.1112 0.054 0.0217 0.0164 0.0074 0.0022 0.0006 0.0001 0.00015 0.0001 0.0001 0.0001037037 0.0001033131 0.0001 0.0001002604 0.0001 0.0001 0.0001 0.0001 0.0001 0.0001 
0.0001 0.0001 0.0001 0.0001 0.0001 0.0001 0.0001 0.0001 0.0001000081 0.0001000244 0.0001 0.0001 0.0001000001 0.0001 0.0001000979 0.0001001953 0.0001 0.0001000457 0.0001 0.0001001829 0.0001 0.0001078125 0.0001077311 0.0001 0.0001016461 0.0001 0.0001125 0.0001144531 0.0001 0.0001125 0.0001194444 0.0001361111 0.00015 0.0001416667 0.0001 0.00010625 0.0001 0.0001 0.0002 0.0006166667 0.001 0.0039 0.0161 0.0449 0.0725 0.08542 0.159325 0.1773 0.5876 2.1201 6.3003 11.89737 14.6772 37.5019 82.3407 64.8022 38.8811 40.128 39.6768 40.8536 40.1323 38.848 37.9962 37.8612 37.31008 38.2927 38.1666 37.4948 35.9493 33.286 31.25745 29.6129 25.7474 22.1445 18.9858 16.1038 14.4838 13.39055 12.6988 10.9656 6.251314 5.9447 6.8596 7.49555 8.8061 11.7583 14.01 12.9762 15.3233 16.97748 18.6197 20.9115 19.0798 18.3771 19.319 19.62155 19.7825 22.2905 24.1481 27.7495 26.8163 24.1927 23.84957 23.1809 22.1785 21.4617 21.2155 21.3773 20.03108 21.554 20.9287 18.6865 20.0044 10.2813 2.4422 0.3798 0.1885 0.1619 0.166 0.1819 0.1914 0.1875 0.1644 0.1155 0.0647 0.0296 0.0113 0.0086 0.0037 0.0011 0.0003 0.0001 0.0001 0.0001125 0.0001 0.0001 0.0001012346 0.0001011369 0.0001 0.0001000651 0.0001 0.0001 0.0001 0.0001 0.0001 
0.0001 0.0001 0.0001 0.0001 0.0001 0.0001 0.0001 0.0001000041 0.0001000122 0.0001 0.0001 0.0001 0.0001 0.0001000489 0.0001000977 0.0001 0.0001000152 0.0001 0.000100061 0.0001 0.0001039062 0.0001038859 0.0001 0.0001005487 0.0001 0.00010625 0.0001067383 0.0001 0.00010625 0.0001106482 0.0001226852 0.0001351852 0.0001319444 0.0001 0.0001015625 0.0001 0.0001 0.0001 0.0003 0.00055 0.0011 0.0041 0.0132 0.0323 0.0568 0.0678 0.0926 0.2742333 0.5476 1.8105 5.2251 9.38475 12.8308 35.6129 77.9477 67.89 40.8158 41.63003 40.8103 41.8767 40.9469 39.5625 38.6914 37.6628 38.06252 37.3345 37.9763 36.8887 35.1593 32.6619 30.90153 29.1083 25.1625 21.6791 18.5163 15.3601 14.45243 13.6445 11.9104 5.4697 5.1481 4.2594 4.58756 4.1005 7.3329 10.3368 13.2385 5.607 11.1199 14.79242 19.1829 20.9257 14.8683 12.6831 13.578 15.17672 16.3068 19.3326 24.1362 24.9429 24.6706 23.73307 23.6438 21.7307 19.8895 18.6056 17.7632 16.7887 15.01653 15.0032 12.6621 10.6934 3.1005 0.7607 0.3517 0.208325 0.1326 0.136 0.1448 0.1497 0.1454333 0.1391 0.1089 0.0695 0.0362 0.0157 0.0057 0.004366667 0.0018 0.0005 0.0001 0.00015 0.0001 0.0001 0.000103125 0.0001 0.0001 0.0001004115 0.0001003871 0.0001 0.0001000163 0.0001 0.0001 0.0001 0.0001 
0.0001 0.0001 0.0001 0.0001 0.0001 0.0001 0.000100002 0.0001000061 0.0001 0.0001 0.0001 0.0001 0.0001000244 0.0001000488 0.0001 0.0001000051 0.0001 0.0001000203 0.0001 0.0001019531 0.000101948 0.0001 0.0001001829 0.0001 0.000103125 0.0001032471 0.0001 0.000103125 0.0001056327 0.0001131944 0.0001228395 0.0001224537 0.0001 0.0001003906 0.0001 0.0001 0.0001 0.0002 0.000175 0.0002 0.0005 0.0013 0.0119 0.0225 0.0423 0.05883333 0.0748 0.1655 0.7887167 1.5874 4.6041 7.69315 12.671 27.7831 65.0344 69.602 48.9753 42.8366 40.1697 41.2401 40.7063 39.663 39.2593 38.5007 38.36185 38.7232 38.0365 36.7445 34.7883 32.1364 30.175 28.6037 24.6542 20.9981 17.0872 14.5057 12.55057 12.6167 5.4153 4.0983 3.8121 3.9644 3.23405 1.7736 5.0359 6.8058 8.5495 1.3645 6.8707 11.94727 17.638 14.4383 8.811 8.1188 8.6023 10.9175 13.4717 17.0895 22.8255 23.1284 22.3114 20.35605 20.7636 18.049 14.9383 12.477 10.7709 8.7831 8.4363 6.5929 4.3557 1.2134 0.3606 0.1339 0.24804 0.1324 0.1273833 0.1262 0.1254 0.1172 0.1086667 0.0972 0.0685 0.0401 0.0195 0.008 0.006233333 0.0028 0.0009 0.0002 0.0001 0.0001 0.0001125 0.0001 0.0001 0.0001007813 0.0001 0.0001 0.0001001372 0.0001001311 0.0001 0.0001000041 0.0001 0.0001 0.0001 
0.0001 0.0001 0.0001 0.0001 0.0001 0.000100001 0.0001000031 0.0001 0.0001 0.0001 0.0001 0.0001000122 0.0001000244 0.0001 0.0001000017 0.0001 0.0001000068 0.0001 0.0001009766 0.0001009753 0.0001 0.000100061 0.0001 0.0001015625 0.000101593 0.0001 0.0001015625 0.0001029192 0.0001073174 0.0001138889 0.0001146219 0.0001 0.0001000977 0.0001 0.0001 0.0001 0.00015 0.0001416667 0.0001333333 0.0001 0.0004 0.0017 0.0069 0.0146 0.0293 0.04295 0.0572 0.1427 0.4786 1.801467 2.9544 5.276767 7.8735 18.7559 46.0881 61.0801 50.315 40.38167 35.9335 37.3499 38.1426 37.4956 38.5446 37.1133 39.251 38.6989 37.6216 35.8903 33.6329 31.0384 28.62265 27.5013 23.4257 19.9445 15.5745 13.554 9.480733 5.6224 3.7945 3.1987 3.7997 2.8027 1.882125 2.55215 2.488 2.9821 1.8963 0.639 2.167383 3.0483 13.8238 5.7367 4.782 5.5903 5.1494 7.01695 8.3968 10.2149 18.3454 18.3048 16.4863 14.91153 14.2606 10.9689 7.649 5.3481 3.7423 4.3898 2.2718 1.1781 0.379 0.1681 0.1154 0.0995 0.1142333 0.1137 0.1234 0.1107 0.1011 0.0852 0.07661667 0.0636 0.0408 0.0221 0.0101 0.0039 0.003066667 0.0013 0.0004 0.0001 0.0001333333 0.0001 0.0001 0.000103125 0.0001 0.0001 0.0001001953 0.0001 0.0001 0.0001000457 0.0001000442 0.0001 0.000100001 0.0001 0.0001 
0.0001 0.0001 0.0001 0.0001 0.0001000005 0.0001000015 0.0001 0.0001 0.0001 0.0001 0.0001000061 0.0001000122 0.0001 0.0001000006 0.0001 0.0001000023 0.0001 0.0001004883 0.000100488 0.0001 0.0001000203 0.0001 0.0001007813 0.0001007889 0.0001 0.0001007813 0.0001014939 0.000103933 0.0001080418 0.0001089571 0.0001 0.0001000244 0.0001 0.0001 0.0001 0.000125 0.0001205556 0.0001111111 0.0001 0.0001 0.0002 0.0005 0.0025 0.0107 0.01488333 0.0182 0.0359 0.0824 0.2567 0.9276 1.218625 0.7994 2.7582 7.4489 27.5395 42.5405 39.9563 33.63933 26.9402 28.0345 35.27 31.9093 33.1044 33.89293 34.0198 35.1952 34.5765 32.8256 30.5001 29.31155 27.8864 24.5697 20.6576 17.226 15.9398 6.0271 6.337283 4.5585 2.5177 3.8078 4.1577 2.0411 1.59266 0.9111 1.37175 0.4834 0.2462 0.073 0.8719333 1.0088 6.3646 1.4497 1.2975 2.2546 2.77965 2.7748 3.7067 2.4512 10.1046 10.9467 9.0506 8.448517 6.5967 3.5926 1.915 0.9406 0.4888 1.17785 0.2819 0.161 0.1174 0.1033 0.0993 0.1014 0.0982 0.1077 0.1133 0.1105 0.075 0.0575 0.05063333 0.039 0.023 0.0116 0.005 0.0018 0.00145 0.0006 0.0002 0.0002 0.0001 0.0001111111 0.0001 0.0001 0.0001007813 0.0001 0.0001 0.0001000488 0.0001 0.0001 0.0001000152 0.0001000149 0.0001 0.0001000003 0.0001 
0.0001 0.0001 0.0001 0.0001000003 0.0001000008 0.0001 0.0001 0.0001 0.0001 0.0001000031 0.0001000061 0.0001 0.0001000002 0.0001 0.0001000008 0.0001 0.0001002441 0.0001002441 0.0001 0.0001000068 0.0001 0.0001003906 0.0001003925 0.0001 0.0001003906 0.0001007584 0.0001020694 0.0001044896 0.000105233 0.0001 0.0001000061 0.0001 0.0001 0.0001 0.0001125 0.0001098519 0.0001037037 0.0001 0.0001 0.0001333333 0.0001 0.0001 0.0008 0.0064 0.008883334 0.0101 0.0192 0.0341 0.065 0.1931 0.40368 0.9672 0.2446 0.9265 15.0399 28.0198 28.7298 25.27047 19.9612 20.2162 31.9694 27.4035 28.1804 28.46897 30.2574 30.7499 30.608 29.3072 27.4874 25.57138 25.3241 22.2497 18.5772 16.0209 5.7158 6.801617 4.9991 3.2626 2.2852 4.1573 3.3567 1.5007 1.1277 0.7077 0.6582 0.2865571 0.087 0.0559 0.3261667 0.4066 1.3816 0.3013 0.2466 0.3993 1.0295 0.5095 0.5797 0.3531 3.0489 3.8162 2.6991 3.40545 1.5978 0.4055 0.2036 0.1464 0.1657 0.2125 0.1166 0.1055 0.1012 0.0995 0.099 0.1030167 0.097 0.0987 0.0972 0.0889 0.07441667 0.054825 0.036 0.0225 0.0122 0.0058 0.0023 0.0008 0.0006666667 0.0003 0.0001 0.00015 0.0001375 0.0001 0.0001037037 0.0001 0.0001 0.0001001953 0.0001 0.0001 0.0001000122 0.0001 0.0001 0.0001000051 0.000100005 0.0001 0.0001000001 
0.0001 0.0001 0.0001000001 0.0001000004 0.0001 0.0001 0.0001 0.0001 0.0001000015 0.0001000031 0.0001 0.0001000001 0.0001 0.0001000003 0.0001 0.0001001221 0.0001001221 0.0001 0.0001000023 0.0001 0.0001001953 0.0001001958 0.0001 0.0001001953 0.000100383 0.0001010728 0.0001024391 0.000102948 0.0001 0.0001000015 0.0001 0.0001 0.0001 0.00010625 0.0001047173 0.0001012346 0.0001 0.0001 0.0001111111 0.0001 0.0001 0.0003833333 0.0008 0.0028 0.004666667 0.0051 0.0099 0.0165 0.0234 0.0317 0.06562 0.0666 0.2203833 0.0349 4.6291 20.4353 20.01698 21.0751 14.9602 14.4394 21.8424 20.386 22.19 21.9592 23.0618 24.429 24.5986 23.911 22.2926 20.75455 19.9377 17.0607 14.754 7.4765 4.5485 3.949867 3.5794 2.3348 2.2723 3.261 2.0469 1.1232 0.7337167 0.4824 0.3088 0.1357 0.0866 0.0766 0.2102167 0.3361 0.2632 0.1832 0.1386 0.1215 0.2174333 0.1173 0.1214 0.1369 0.5116 0.5359 1.26305 0.3012 0.1873 0.0792 0.0933 0.0998 0.1146 0.1163167 0.1074 0.1024 0.1017 0.1 0.1375 0.10115 0.0871 0.0575 0.0697 0.0638 0.0508 0.034575 0.022825 0.0121 0.0062 0.0027 0.0011 0.0008666667 0.0004 0.0001 0.0001666667 0.0001 0.000125 0.000115625 0.0001 0.0001012346 0.0001 0.0001 0.0001000488 0.0001 0.0001 0.0001000031 0.0001 0.0001 0.0001000017 0.0001000017 0.0001 
0.0001 0.0001000001 0.0001000002 0.0001 0.0001 0.0001 0.0001 0.0001000008 0.0001000015 0.0001 0.0001 0.0001 0.0001000001 0.0001 0.000100061 0.000100061 0.0001 0.0001000008 0.0001 0.0001000977 0.0001000978 0.0001 0.0001000977 0.0001001928 0.0001005504 0.0001012983 0.000101615 0.0001 0.0001000004 0.0001 0.0001 0.0001 0.000103125 0.0001022758 0.0001004115 0.0001 0.0001 0.0001037037 0.0001 0.0001 0.0001 0.0001 0.0004 0.0012 0.002183333 0.0024 0.0049 0.0084 0.0124 0.016 0.02923333 0.0207 0.029 0.7320143 0.3209 7.4617 11.49127 14.3802 7.9846 7.5331 12.0807 11.4511 12.2122 12.0371 16.0285 17.8954 18.5804 18.3192 16.1944 15.6482 13.2911 11.6962 7.1782 5.7249 2.7157 2.718117 2.1407 1.4991 1.3028 1.4461 1.042 0.8088334 0.3379 0.2504 0.2646 0.1036 0.09958334 0.1069 0.1648 0.2213 0.1605 0.1548 0.1067 0.0821 0.08793333 0.0749 0.075 0.0869 0.0939 0.1136 0.2050167 0.1123 0.1168 0.0757 0.0865 0.1054 0.09911667 0.0895 0.1041 0.1034 0.1012 0.1331 0.1176 0.09141666 0.0687 0.043 0.0349 0.0386 0.0308 0.0258 0.0207 0.008571428 0.0029 0.0012 0.0005 0.0004 0.0001 0.000175 0.0001 0.0001222222 0.0001 0.0001125 0.0001070313 0.0001 0.0001004115 0.0001 0.0001 0.0001000122 0.0001 0.0001 0.0001000008 0.0001 0.0001 0.0001000006 0.0001000006 
0.0001 0.0001000001 0.0001 0.0001 0.0001 0.0001 0.0001000004 0.0001000008 0.0001 0.0001 0.0001 0.0001 0.0001 0.0001000305 0.0001000305 0.0001 0.0001000003 0.0001 0.0001000488 0.0001000489 0.0001 0.0001000488 0.0001000968 0.0001002803 0.0001006805 0.0001008659 0.0001 0.0001000001 0.0001 0.0001 0.0001 0.0001015625 0.0001011076 0.0001001372 0.0001 0.0001 0.0001012346 0.0001 0.0001 0.0001 0.0001 0.0002 0.0002 0.0004333333 0.0005 0.0011 0.0024 0.0046 0.008 0.0137 0.01666 0.0267 0.0125 0.0169 0.0808 0.8841 4.699183 4.7112 2.2948 2.065 3.4529 2.9236 5.254833 4.2854 7.3996 10.3316 12.0315 12.6138 11.7275 10.16097 10.4459 5.4425 4.4431 2.2927 1.928 1.498633 1.3964 1.0283 0.5028 0.2807 0.185 0.3243833 0.118 0.2258 0.2379 0.0954 0.0996 0.14245 0.176475 0.1614 0.0969 0.173 0.088 0.0669 0.06723333 0.0649 0.0691 0.0777 0.0773 0.0753 0.09108333 0.0918 0.1097 0.0979 0.0916 0.1151 0.09208333 0.0703 0.0962 0.0994 0.0953 0.1456 0.0896 0.0744 0.048 0.0282 0.0214 0.0165 0.0159 0.01518333 0.0108 0.006 0.0013 0.0005 0.0002 0.0002 0.0001 0.0001 0.00011875 0.0001 0.0001074074 0.0001 0.00010625 0.0001033203 0.0001 0.0001001372 0.0001 0.0001 0.0001000031 0.0001 0.0001 0.0001000002 0.0001 0.0001 0.0001000002 
0.0001 0.0001 0.0001 0.0001 0.0001 0.0001000002 0.0001000004 0.0001 0.0001 0.0001 0.0001 0.0001 0.0001000153 0.0001000153 0.0001 0.0001000001 0.0001 0.0001000244 0.0001000244 0.0001 0.0001000244 0.0001000485 0.000100142 0.0001003525 0.0001004567 0.0001 0.0001 0.0001 0.0001 0.0001 0.0001007813 0.0001005432 0.0001000457 0.0001 0.0001 0.0001004115 0.0001 0.0001 0.0001 0.0001 0.0001375 0.00015 0.0001 0.00022 0.0002 0.0005 0.0012 0.0025 0.0045 0.0062 0.012325 0.01182 0.01 0.0147 0.1726 0.1369 1.31022 0.621 0.3014 0.4227 0.4394 0.3141 1.381033 0.5177 1.3021 2.7413 4.1479 5.1668 6.223583 5.7709 3.536 2.6318 1.8953 0.5998 0.5826 0.7142667 0.2284 0.2032 0.1859 0.155 0.1476 0.1388833 0.1158 0.1983 0.1979 0.087 0.147 0.14286 0.1584 0.1296667 0.0896 0.1406 0.0697 0.06225 0.0551 0.0595 0.0727 0.0841 0.0839 0.0659 0.07983334 0.0876 0.13 0.1009 0.0966 0.1187 0.08676667 0.0535 0.0828 0.0886 0.0835 0.1055 0.09466667 0.0926 0.0299 0.0127 0.012 0.0092 0.0078 0.0074 0.0051 0.0028 0.001785714 0.0002 0.0001 0.0001333333 0.0001 0.0001 0.0001 0.0001046875 0.0001 0.0001024691 0.0001 0.000103125 0.0001016113 0.0001 0.0001000457 0.0001 0.0001 0.0001000008 0.0001 0.0001 0.0001 0.0001 0.0001 
0.0001 0.0001 0.0001 0.0001 0.0001000001 0.0001000002 0.0001 0.0001 0.0001 0.0001 0.0001 0.0001000076 0.0001000076 0.0001 0.0001 0.0001 0.0001000122 0.0001000122 0.0001 0.0001000122 0.0001000243 0.0001000716 0.000100181 0.0001002378 0.0001 0.0001 0.0001 0.0001 0.0001 0.0001003906 0.0001002679 0.0001000152 0.0001 0.0001 0.0001001372 0.0001 0.0001 0.0001 0.0001 0.000115625 0.000125 0.0001 0.0001 0.0001333333 0.0001 0.0002 0.0006 0.0013 0.0023 0.002983333 0.0027 0.00514 0.0072 0.0117 0.0631 0.08485 0.261 0.1979 0.1787 0.3051 0.1846 0.1286 0.2144833 0.1168 0.148 0.2865 0.594 0.9845 2.2202 1.078 0.8181 0.5661 0.3506 0.0997 0.24165 0.0909 0.0593 0.152 0.1348 0.1468 0.1534 0.13185 0.1135 0.1546 0.1496 0.074 0.1664 0.14985 0.1429 0.1288 0.1059857 0.1113 0.0509 0.04723333 0.0429 0.0525 0.0776 0.0951 0.0893 0.07521667 0.0604 0.098 0.1135 0.0994 0.1154 0.1131 0.07941667 0.0499 0.0737 0.0582 0.0646 0.0731 0.06956667 0.0616 0.0262 0.0107 0.0069 0.0059 0.00495 0.0027 0.0021 0.0012 0.0005 0.00022 0.0001333333 0.0001 0.0001083333 0.0001 0.0001 0.0001 0.0001011719 0.0001 0.000100823 0.0001 0.0001015625 0.0001007935 0.0001 0.0001000152 0.0001 0.0001 0.0001000002 0.0001 0.0001 0.0001 0.0001 
0.0001 0.0001 0.0001 0.0001 0.0001000001 0.0001 0.0001 0.0001 0.0001 0.0001 0.0001000038 0.0001000038 0.0001 0.0001 0.0001 0.0001000061 0.0001000061 0.0001 0.0001000061 0.0001000122 0.0001000361 0.0001000923 0.0001001226 0.0001 0.0001 0.0001 0.0001 0.0001 0.0001001953 0.0001001327 0.0001000051 0.0001 0.0001 0.0001000457 0.0001 0.0001 0.0001 0.0001 0.0001070313 0.0001125 0.0001 0.0001 0.0001083333 0.0001 0.0001333333 0.0001 0.0003 0.0006 0.0011 0.001366667 0.0011 0.00315 0.0047 0.0082 0.0512 0.0628 0.0882 0.1555 0.1907 0.279 0.1728 0.1156 0.10975 0.0941 0.0925 0.1072 0.1321 0.1601 0.4298 0.1609 0.1835 0.2091 0.0938 0.0419 0.05666667 0.035 0.0255 0.1548 0.1143 0.1543 0.1566667 0.1601 0.1007 0.1072 0.1023 0.0576 0.1553 0.1387333 0.1291 0.1052 0.0769 0.0895 0.0338 0.03325 0.031 0.043 0.0801 0.1023 0.0913 0.07471666 0.0605 0.0865 0.1046 0.0924 0.1223 0.0987 0.07248333 0.0426 0.0599 0.0454 0.0373 0.0462 0.04473333 0.0384 0.0187 0.0078 0.004 0.0028 0.002433333 0.0013 0.001 0.0004 0.0002 0.0001 0.0001 0.0001083333 0.0001 0.0001020833 0.0001 0.0001 0.0001 0.000100293 0.0001 0.0001002744 0.0001 0.0001007813 0.0001003937 0.0001 0.0001000051 0.0001 0.0001 0.0001 0.0001 0.0001 0.0001 
0.0001 0.0001 0.0001 0.0001 0.0001 0.0001 0.0001 0.0001 0.0001 0.0001000019 0.0001000019 0.0001 0.0001 0.0001 0.0001000031 0.0001000031 0.0001 0.0001000031 0.0001000061 0.0001000181 0.0001000469 0.0001000627 0.0001 0.0001 0.0001 0.0001 0.0001 0.0001000977 0.0001000659 0.0001000017 0.0001 0.0001 0.0001000152 0.0001 0.0001 0.0001 0.0001 0.0001033203 0.00010625 0.0001 0.0001 0.0001020833 0.0001 0.0001111111 0.0001 0.0001666667 0.0001 0.0002 0.0005 0.0006 0.0005 0.001766667 0.0027 0.0051 0.0382 0.05578334 0.0733 0.2042 0.2297714 0.2652 0.1734 0.1404 0.1119 0.0915 0.0903 0.0989 0.1042 0.0999 0.1173833 0.0954 0.1225 0.1113 0.0754 0.0551 0.03821667 0.0174 0.0279 0.1654 0.1078 0.1646 0.1608667 0.1608 0.0806 0.0665 0.0633 0.0407 0.1188 0.1163833 0.1199 0.0837 0.0558 0.05508571 0.0204 0.02364 0.0205 0.0323 0.0771 0.1024 0.0886 0.07203333 0.0582 0.0725 0.0905 0.0804 0.0977 0.09333333 0.0973 0.0333 0.0443 0.0321 0.0201 0.0268 0.02631667 0.0223 0.0117 0.005 0.0022 0.0013 0.00115 0.0006 0.0004 0.0001 0.0002 0.00015 0.0001 0.0001 0.0001020833 0.0001 0.0001005208 0.0001 0.0001 0.0001 0.0001000732 0.0001 0.0001000914 0.0001 0.0001003906 0.0001001961 0.0001 0.0001000017 0.0001 0.0001 0.0001 0.0001 0.0001 
0.0001 0.0001 0.0001 0.0001 0.0001 0.0001 0.0001 0.0001 0.000100001 0.000100001 0.0001 0.0001 0.0001 0.0001000015 0.0001000015 0.0001 0.0001000015 0.000100003 0.0001000091 0.0001000237 0.0001000319 0.0001 0.0001 0.0001 0.0001 0.0001 0.0001000488 0.0001000328 0.0001000006 0.0001 0.0001 0.0001000051 0.0001 0.0001 0.0001 0.0001 0.0001016113 0.000103125 0.0001 0.0001 0.0001005208 0.0001 0.0001037037 0.0001 0.0001222222 0.0001 0.0001333333 0.0001 0.0002 0.0002666667 0.0002 0.0009333334 0.0014 0.0029 0.026 0.04743333 0.0578 0.2232 0.2017 0.2444 0.1653 0.13145 0.1034 0.087 0.0904 0.1004 0.1037 0.10085 0.0961 0.0919 0.1015 0.0697 0.0779 0.0598 0.04035 0.0201 0.0339 0.1778 0.108 0.1727 0.1602333 0.1527 0.0583 0.0371 0.0354 0.0261 0.0564 0.0836 0.0916 0.0673 0.0481 0.0611 0.0333 0.016125 0.0125 0.0221 0.0678 0.0955 0.0808 0.06565 0.0528 0.0644 0.067 0.0647 0.0736 0.07315 0.0704 0.0374 0.03 0.0207 0.0124 0.01421667 0.0125 0.0117 0.0066 0.0029 0.0012 0.0006 0.0005166667 0.0003 0.0002 0.0002 0.0001 0.0001375 0.000125 0.0001 0.0001 0.0001005208 0.0001 0.0001001302 0.0001 0.0001 0.0001 0.0001000183 0.0001 0.0001000305 0.0001 0.0001001953 0.0001000978 0.0001 0.0001000006 0.0001 0.0001 0.0001 0.0001 
0.0001 0.0001 0.0001 0.0001 0.0001 0.0001 0.0001 0.0001000005 0.0001000005 0.0001 0.0001 0.0001 0.0001000008 0.0001000008 0.0001 0.0001000008 0.0001000015 0.0001000046 0.0001000119 0.0001000162 0.0001 0.0001 0.0001 0.0001 0.0001 0.0001000244 0.0001000164 0.0001000002 0.0001 0.0001 0.0001000017 0.0001 0.0001 0.0001 0.0001 0.0001007935 0.0001015625 0.0001 0.0001 0.0001001302 0.0001 0.0001012346 0.0001 0.0001074074 0.0001 0.0001111111 0.0001 0.00015 0.0001333333 0.0001 0.0001 0.00054 0.0007 0.0015 0.0162 0.04281667 0.0731 0.1934 0.1989 0.2283429 0.1458 0.11478 0.0889 0.0778 0.086 0.0988 0.1038 0.09465 0.0974 0.0919 0.0873 0.0481 0.0856 0.06916667 0.0655 0.0242 0.041 0.1883 0.1103 0.1749 0.1528833 0.1357 0.0382 0.0187 0.018 0.0153 0.03646667 0.0539 0.065 0.0501 0.035 0.0406 0.02856 0.0111 0.01145714 0.0139 0.054 0.083 0.0687 0.05616667 0.0448 0.053 0.0467 0.0482 0.052 0.05143333 0.0479 0.0276 0.0236 0.0121 0.007 0.007433333 0.0065 0.0047 0.0032 0.0015 0.0006 0.0002 0.00026 0.0001 0.0001 0.00015 0.0001375 0.0001 0.000115625 0.0001125 0.0001 0.0001 0.0001001302 0.0001 0.0001000326 0.0001 0.0001 0.0001 0.0001000046 0.0001 0.0001000102 0.0001 0.0001000977 0.0001000489 0.0001 0.0001000002 0.0001 0.0001 0.0001 
0.0001 0.0001 0.0001 0.0001 0.0001 0.0001 0.0001000002 0.0001000002 0.0001 0.0001 0.0001 0.0001000004 0.0001000004 0.0001 0.0001000004 0.0001000008 0.0001000023 0.000100006 0.0001000082 0.0001 0.0001 0.0001 0.0001 0.0001 0.0001000122 0.0001000082 0.0001000001 0.0001 0.0001 0.0001000006 0.0001 0.0001 0.0001 0.0001 0.0001003937 0.0001007813 0.0001 0.0001 0.0001000326 0.0001 0.0001004115 0.0001 0.0001024691 0.0001 0.0001037037 0.0001 0.000125 0.0001208333 0.0001 0.0001 0.0001 0.0003 0.0003 0.0007 0.0186 0.04011667 0.0652 0.1626 0.2094 0.4329 0.203925 0.105825 0.0705 0.0647 0.0763 0.0906 0.094 0.08328333 0.0729 0.1216 0.0828 0.0613 0.0799 0.06356667 0.0463 0.0279 0.0476 0.1935 0.1111 0.1691 0.1388 0.1122 0.0228 0.0085 0.0083 0.0081 0.02173333 0.0318 0.0425 0.0343 0.0238 0.0245 0.0163 0.0055 0.007 0.0081 0.039 0.0669 0.06056667 0.0545 0.0354 0.0403 0.0343 0.03 0.0341 0.03398333 0.0306 0.0184 0.0164 0.0065 0.0036 0.003733333 0.0026 0.0022 0.0014 0.0007 0.0003 0.00026 0.0001 0.0001 0.0001 0.0001 0.000125 0.000115625 0.0001 0.0001070313 0.00010625 0.0001 0.0001 0.0001000326 0.0001 0.0001000081 0.0001 0.0001 0.0001 0.0001000011 0.0001 0.0001000034 0.0001 0.0001000488 0.0001000244 0.0001 0.0001000001 0.0001 0.0001 
0.0001 0.0001 0.0001 0.0001 0.0001 0.0001000001 0.0001000001 0.0001 0.0001 0.0001 0.0001000002 0.0001000002 0.0001 0.0001000002 0.0001000004 0.0001000011 0.000100003 0.0001000041 0.0001 0.0001 0.0001 0.0001 0.0001 0.0001000061 0.0001000041 0.0001 0.0001 0.0001 0.0001000002 0.0001 0.0001 0.0001 0.0001 0.0001001961 0.0001003906 0.0001 0.0001 0.0001000081 0.0001 0.0001001372 0.0001 0.000100823 0.0001 0.0001012346 0.0001 0.0001125 0.0001114583 0.0001 0.0001 0.0001 0.00016 0.0002 0.0001 0.0025 0.008533333 0.0152 0.0524 0.1248 0.1587 0.1189 0.1181 0.082 0.06494 0.0501 0.0627 0.0766 0.0782 0.0661 0.0534 0.1412 0.0799 0.0665 0.0702 0.05371667 0.0339 0.0299 0.0521 0.1907 0.1081 0.1294667 0.1548 0.0861 0.0124 0.0038 0.0032 0.004 0.01195 0.0173 0.0256 0.0216 0.015 0.0136 0.008966667 0.0025 0.0036 0.01277143 0.0257 0.05 0.04543334 0.0403 0.0261 0.0285 0.021 0.0197 0.0215 0.021 0.0183 0.0113 0.0089 0.0046 0.0017 0.001666667 0.001 0.0009 0.0006 0.0003 0.0001 0.0001666667 0.0001 0.0001 0.0001 0.0001 0.0001 0.0001125 0.0001070313 0.0001 0.0001033203 0.000103125 0.0001 0.0001 0.0001000081 0.0001 0.000100002 0.0001 0.0001 0.0001 0.0001000003 0.0001 0.0001000011 0.0001 0.0001000244 0.0001000122 0.0001 0.0001 0.0001 
0.0001 0.0001 0.0001 0.0001 0.0001000001 0.0001000001 0.0001 0.0001 0.0001 0.0001000001 0.0001000001 0.0001 0.0001000001 0.0001000002 0.0001000006 0.0001000015 0.0001000021 0.0001 0.0001 0.0001 0.0001 0.0001 0.0001000031 0.000100002 0.0001 0.0001 0.0001 0.0001000001 0.0001 0.0001 0.0001 0.0001 0.0001000978 0.0001001953 0.0001 0.0001 0.000100002 0.0001 0.0001000457 0.0001 0.0001002744 0.0001 0.0001004115 0.0001 0.00010625 0.0001059896 0.0001 0.0001 0.0001 0.000122 0.00015 0.0001 0.001125 0.0013 0.007 0.0129 0.0381 0.0873 0.1087 0.0759 0.08391666 0.0878 0.0516 0.04525714 0.0478 0.0599 0.06101667 0.0603 0.0378 0.1468 0.0747 0.0648 0.0605 0.04551667 0.0315 0.0214 0.0532 0.1787 0.1001 0.1154167 0.1336 0.0612 0.0062 0.0015 0.0011 0.001866667 0.0018 0.0087 0.0143 0.0131 0.0084 0.0067 0.00455 0.001 0.0017 0.0043 0.02205 0.0346 0.03346 0.0263 0.0192 0.0187 0.0121 0.012 0.01305 0.0122 0.0103 0.0064 0.0046 0.0028 0.0007 0.0007 0.0004 0.0004 0.0002 0.0001 0.0001666667 0.0001 0.0001166667 0.0001 0.0001 0.0001 0.0001 0.0001 0.00010625 0.0001033203 0.0001 0.0001016113 0.0001015625 0.0001 0.0001 0.000100002 0.0001 0.0001000005 0.0001 0.0001 0.0001 0.0001000001 0.0001 0.0001000004 0.0001 0.0001000122 0.0001000061 0.0001 0.0001 
0.0001 0.0001 0.0001 0.0001 0.0001 0.0001 0.0001 0.0001 0.0001 0.0001 0.0001 0.0001 0.0001000001 0.0001000003 0.0001000008 0.000100001 0.0001 0.0001 0.0001 0.0001 0.0001 0.0001000015 0.000100001 0.0001 0.0001 0.0001 0.0001 0.0001 0.0001 0.0001 0.0001 0.0001000489 0.0001000977 0.0001 0.0001 0.0001000005 0.0001 0.0001000152 0.0001 0.0001000914 0.0001 0.0001001372 0.0001 0.000103125 0.0001030599 0.0001 0.0001 0.0001 0.0001094 0.000125 0.0001 0.0006020833 0.0007333333 0.0006 0.005116667 0.0095 0.0256 0.0621 0.1407 0.0429 0.05443333 0.0599 0.0348 0.036 0.0338 0.0439 0.04628333 0.0472 0.0479 0.1112 0.0661 0.0581 0.0501 0.03858333 0.0269 0.0153 0.0506 0.1585 0.0877 0.09735 0.1082 0.0403 0.0028 0.0005 0.0004 0.0007333333 0.0007 0.004 0.0078 0.0068 0.0044 0.0031 0.0021 0.0004 0.0008 0.0021 0.0156 0.020275 0.0248 0.0161 0.013 0.0114 0.0066 0.0068 0.007433333 0.0066 0.0054 0.0034 0.0022 0.0015 0.001016667 0.0003 0.0001 0.0001 0.0001 0.0001333333 0.0001 0.0001222222 0.0001 0.0001041667 0.0001 0.0001 0.0001 0.0001 0.0001 0.000103125 0.0001016113 0.0001 0.0001007935 0.0001007813 0.0001 0.0001 0.0001000005 0.0001 0.0001000001 0.0001 0.0001 0.0001 0.0001 0.0001 0.0001000001 0.0001 0.0001000061 0.0001000031 0.0001 
0.0001 0.0001 0.0001 0.0001 0.0001 0.0001 0.0001 0.0001 0.0001 0.0001 0.0001 0.0001 0.0001000001 0.0001000004 0.0001000005 0.0001 0.0001 0.0001 0.0001 0.0001 0.0001000008 0.0001000005 0.0001 0.0001 0.0001 0.0001 0.0001 0.0001 0.0001 0.0001 0.0001000244 0.0001000488 0.0001 0.0001 0.0001000001 0.0001 0.0001000051 0.0001 0.0001000305 0.0001 0.0001000457 0.0001 0.0001015625 0.0001015462 0.0001 0.0001 0.0001 0.00010438 0.0001125 0.0001 0.0003928819 0.0004944445 0.00045 0.0003 0.00335 0.0061 0.0152 0.0321 0.0016 0.0225 0.03265 0.0376 0.0218 0.0241 0.02935714 0.0304 0.0367 0.036 0.0451 0.0817 0.055 0.0485 0.04408333 0.0398 0.0227 0.018 0.0358 0.1325 0.0723 0.07748333 0.0822 0.0246 0.0012 0.0002 0.0001 0.00032 0.0003 0.0017 0.0039 0.0033 0.0021 0.002166667 0.0013 0.0001 0.0003 0.0009 0.0087 0.0222 0.0153 0.01065 0.0077 0.006 0.0038 0.0036 0.003966667 0.0034 0.0027 0.0016 0.001 0.0007 0.00058 0.0001 0.00015 0.0001 0.0001 0.0001 0.0001111111 0.0001 0.0001074074 0.0001 0.0001010417 0.0001 0.0001 0.0001 0.0001 0.0001 0.0001015625 0.0001007935 0.0001 0.0001003937 0.0001003906 0.0001 0.0001 0.0001000001 0.0001 0.0001 0.0001 0.0001 0.0001 0.0001 0.0001 0.0001 0.0001 0.0001000031 0.0001000015 
0.0001 0.0001 0.0001 0.0001 0.0001 0.0001 0.0001 0.0001 0.0001 0.0001 0.0001 0.0001000001 0.0001000002 0.0001000003 0.0001 0.0001 0.0001 0.0001 0.0001 0.0001000004 0.0001000003 0.0001 0.0001 0.0001 0.0001 0.0001 0.0001 0.0001 0.0001 0.0001000122 0.0001000244 0.0001 0.0001 0.0001 0.0001 0.0001000017 0.0001 0.0001000102 0.0001 0.0001000152 0.0001 0.0001007813 0.0001007772 0.0001 0.0001 0.0001 0.000102126 0.00010625 0.0001 0.0003050492 0.0003898148 0.000375 0.0003 0.0002 0.0001 0.0035 0.0082 0.0155 0.0014 0.0113 0.01836667 0.0217 0.0127 0.015 0.0223 0.0216 0.028075 0.026 0.0364 0.0577 0.0428 0.0378 0.03426667 0.0302 0.0184 0.0166 0.0246 0.1043 0.08051667 0.056 0.0585 0.014 0.0005 0.00044 0.00015 0.0001666667 0.0001 0.0011 0.003 0.0025 0.0016 0.00114 0.0005 0.0004166667 0.0001 0.0004 0.0045 0.009683333 0.0132 0.0097 0.0042 0.003 0.002 0.0018 0.002 0.0016 0.0012 0.0008 0.0004 0.0003 0.0003 0.0001 0.0001 0.0001125 0.0001 0.0001 0.0001 0.0001037037 0.0001 0.0001024691 0.0001 0.0001002604 0.0001 0.0001 0.0001 0.0001 0.0001 0.0001007813 0.0001003937 0.0001 0.0001001961 0.0001001953 0.0001 0.0001 0.0001 0.0001 0.0001 0.0001 0.0001 0.0001 0.0001 0.0001 0.0001 0.0001 0.0001000015 
0.0001 0.0001 0.0001 0.0001 0.0001 0.0001 0.0001 0.0001 0.0001 0.0001 0.0001 0.0001000001 0.0001000001 0.0001 0.0001 0.0001 0.0001 0.0001 0.0001000002 0.0001000001 0.0001 0.0001 0.0001 0.0001 0.0001 0.0001 0.0001 0.0001 0.0001000061 0.0001000122 0.0001 0.0001 0.0001 0.0001 0.0001000006 0.0001 0.0001000034 0.0001 0.0001000051 0.0001 0.0001003906 0.0001003896 0.0001 0.0001 0.0001 0.0001010502 0.000103125 0.0001 0.0002665594 0.0003424383 0.0003375 0.0003 0.000175 0.0001 0.00126 0.0018 0.004 0.007 0.0009 0.0055 0.00975 0.0116 0.0069 0.0088 0.0138 0.0199 0.019 0.02482 0.0264 0.0389 0.0312 0.0276 0.02518333 0.0217 0.0141 0.0133 0.0162 0.0772 0.05871667 0.0408 0.0391 0.0074 0.0002 0.0002666667 0.0002122222 0.0001 0.0006 0.0014 0.0022 0.002366667 0.00205 0.0006 0.0002 0.000225 0.000175 0.0001 0.0022 0.005333333 0.0073 0.0055 0.004128572 0.0015 0.001 0.0011 0.0009 0.0007 0.0005 0.0003 0.0002 0.0001 0.0002 0.00016 0.0001 0.0001 0.000103125 0.0001 0.0001 0.0001 0.0001012346 0.0001 0.000100823 0.0001 0.0001000651 0.0001 0.0001 0.0001 0.0001 0.0001 0.0001003906 0.0001001961 0.0001 0.0001000978 0.0001000977 0.0001 0.0001 0.0001 0.0001 0.0001 0.0001 0.0001 0.0001 0.0001 0.0001 0.0001 0.0001 
0.0001 0.0001 0.0001 0.0001 0.0001 0.0001 0.0001 0.0001 0.0001 0.0001 0.0001 0.0001000001 0.0001 0.0001 0.0001 0.0001 0.0001 0.0001000001 0.0001000001 0.0001 0.0001 0.0001 0.0001 0.0001 0.0001 0.0001 0.0001 0.0001000031 0.0001000061 0.0001 0.0001 0.0001 0.0001 0.0001000002 0.0001 0.0001000011 0.0001 0.0001000017 0.0001 0.0001001953 0.0001001951 0.0001 0.0001 0.0001 0.0001005225 0.0001015625 0.0001 0.0002490826 0.0003203961 0.00031875 0.0003 0.00016875 0.0001 0.0001 0.0001 0.0008 0.0018 0.003 0.0005 0.001816667 0.0026 0.0058 0.0035 0.0048 0.008 0.0124 0.01368 0.0177 0.0176 0.025 0.0214 0.019 0.01748333 0.0148 0.0102 0.0105 0.0169 0.0461 0.04006667 0.0279 0.0244 0.0036 0.0001 0.00015 0.0001541667 0.00035 0.0007 0.0014 0.001988889 0.002205556 0.001053333 0.00015 0.0001 0.00015 0.0001 0.0001 0.001 0.00275 0.0038 0.0029 0.0021 0.001133333 0.0005 0.0006 0.0004 0.0003 0.0002 0.0001 0.0001 0.0001333333 0.0001 0.00015 0.000122 0.0001 0.0001 0.0001007813 0.0001 0.0001 0.0001 0.0001004115 0.0001 0.0001002744 0.0001 0.0001000163 0.0001 0.0001 0.0001 0.0001 0.0001 0.0001001953 0.0001000978 0.0001 0.0001000489 0.0001000488 0.0001 0.0001 0.0001 0.0001 0.0001 0.0001 0.0001 0.0001 0.0001 0.0001 0.0001 
0.0001 0.0001 0.0001 0.0001 0.0001 0.0001 0.0001 0.0001 0.0001 0.0001 0.0001 0.0001 0.0001 0.0001 0.0001 0.0001 0.0001 0.0001 0.0001 0.0001 0.0001 0.0001 0.0001 0.0001 0.0001 0.0001 0.0001000015 0.0001000031 0.0001 0.0001 0.0001 0.0001 0.0001000001 0.0001 0.0001000004 0.0001 0.0001000006 0.0001 0.0001000977 0.0001000976 0.0001 0.0001 0.0001 0.0001002608 0.0001007813 0.0001 0.0002409235 0.0003099237 0.000309375 0.0003 0.0001671875 0.0001 0.0001 0.0001 0.000325 0.0003 0.0007 0.0012 0.0002 0.00085 0.0012 0.0026 0.0017 0.0025 0.0044 0.006383333 0.0072 0.0112 0.0149 0.0152 0.0137 0.01366667 0.0122 0.0096 0.0069 0.0073 0.0098 0.0305 0.02536667 0.0179 0.0144 0.0017 0.001525 0.0001 0.000125 0.0002858333 0.0008166667 0.001362963 0.001864815 0.001094556 0.000125 0.0001 0.0001 0.0001 0.0001 0.000425 0.0004 0.001333333 0.0018 0.0014 0.001 0.0007 0.000425 0.000325 0.0002 0.0001 0.0001 0.000125 0.0001 0.0001 0.0001111111 0.0001 0.000125 0.0001094 0.0001 0.0001 0.0001001953 0.0001 0.0001 0.0001 0.0001001372 0.0001 0.0001000914 0.0001 0.0001000041 0.0001 0.0001 0.0001 0.0001 0.0001 0.0001000977 0.0001000489 0.0001 0.0001000244 0.0001000244 0.0001 0.0001 0.0001 0.0001 0.0001 0.0001 0.0001 0.0001 0.0001 0.0001 
0.0001 0.0001 0.0001 0.0001 0.0001 0.0001 0.0001 0.0001 0.0001 0.0001 0.0001 0.0001 0.0001 0.0001 0.0001 0.0001 0.0001 0.0001 0.0001 0.0001 0.0001 0.0001 0.0001 0.0001 0.0001 0.0001000008 0.0001000015 0.0001 0.0001 0.0001 0.0001 0.0001 0.0001 0.0001000001 0.0001 0.0001000002 0.0001 0.0001000488 0.0001000488 0.0001 0.0001 0.0001 0.0001001303 0.0001003906 0.0001 0.0002370344 0.0003048704 0.0003046875 0.0003 0.0001667969 0.0001 0.0001 0.0001 0.00018125 0.0002 0.0001 0.0003 0.0004 0.0001 0.00044 0.0005 0.0011 0.0007 0.0012 0.0023 0.003516667 0.004 0.0067 0.0109 0.01051667 0.0083 0.00918 0.0074 0.0058 0.0044 0.0047 0.0054 0.019 0.01591667 0.0108 0.0079 0.0007 0.0009 0.0007229167 0.0001 0.0001125 0.0005355926 0.001348148 0.0009069667 0.0001125 0.0001 0.0001 0.0001 0.0001 0.000225 0.0003 0.0002 0.0006 0.0008 0.0007 0.0005 0.0003 0.0002 0.00015 0.0001333333 0.000125 0.0001 0.0001 0.00010625 0.0001 0.0001 0.0001037037 0.0001 0.0001125 0.00010438 0.0001 0.0001 0.0001000488 0.0001 0.0001 0.0001 0.0001000457 0.0001 0.0001000305 0.0001 0.000100001 0.0001 0.0001 0.0001 0.0001 0.0001 0.0001000488 0.0001000244 0.0001 0.0001000122 0.0001000122 0.0001 0.0001 0.0001 0.0001 0.0001 0.0001 0.0001 0.0001 0.0001 
0.0001 0.0001 0.0001 0.0001 0.0001 0.0001 0.0001 0.0001 0.0001 0.0001 0.0001 0.0001 0.0001 0.0001 0.0001 0.0001 0.0001 0.0001 0.0001 0.0001 0.0001 0.0001 0.0001 0.0001 0.0001000004 0.0001000008 0.0001 0.0001 0.0001 0.0001 0.0001 0.0001 0.0001 0.0001 0.0001000001 0.0001 0.0001000244 0.0001000244 0.0001 0.0001 0.0001 0.0001000651 0.0001001953 0.0001 0.0002351528 0.0003024047 0.0003023437 0.0003 0.0001666992 0.0001 0.0001 0.0001 0.0001328125 0.00015 0.0001 0.0001666667 0.0001 0.0002 0.0002333333 0.000225 0.0002 0.0005 0.0003 0.0005 0.0011 0.001833333 0.0021 0.0037 0.0063 0.0087 0.0066 0.006175 0.0043 0.0034 0.0026 0.0028 0.0029 0.007683333 0.0112 0.0061 0.0041 0.0003 0.0003666667 0.0004888889 0.0003835069 0.0001 0.00010625 0.0004576011 0.00010625 0.0001 0.0001 0.0001 0.0001 0.000175 0.00025 0.0002 0.00015 0.0001 0.0003 0.0003 0.0002 0.0001 0.0001 0.0001333333 0.0001 0.0001 0.000105 0.0001 0.0001 0.0001015625 0.0001 0.0001 0.0001012346 0.0001 0.00010625 0.000102126 0.0001 0.0001 0.0001000122 0.0001 0.0001 0.0001 0.0001000152 0.0001 0.0001000102 0.0001 0.0001000003 0.0001 0.0001 0.0001 0.0001 0.0001 0.0001000244 0.0001000122 0.0001 0.0001000061 0.0001000061 0.0001 0.0001 0.0001 0.0001 0.0001 0.0001 0.0001 0.0001 
0.0001 0.0001 0.0001 0.0001 0.0001 0.0001 0.0001 0.0001 0.0001 0.0001 0.0001 0.0001 0.0001 0.0001 0.0001 0.0001 0.0001 0.0001 0.0001 0.0001 0.0001 0.0001 0.0001 0.0001000002 0.0001000004 0.0001 0.0001 0.0001 0.0001 0.0001 0.0001 0.0001 0.0001 0.0001 0.0001 0.0001000122 0.0001000122 0.0001 0.0001 0.0001 0.0001000326 0.0001000977 0.0001 0.0002342327 0.0003011922 0.0003011719 0.0003 0.0001666748 0.0001 0.0001 0.0001 0.0001144531 0.000125 0.0001 0.0001222222 0.0001 0.00015 0.00015 0.0002 0.00015 0.0001 0.0002 0.0001 0.0002 0.0005 0.0009 0.001 0.002 0.0034 0.0047 0.0047 0.00345 0.00254 0.0018 0.0015 0.0015 0.0014 0.004266667 0.0062 0.0033 0.002 0.0001 0.0002 0.0002222222 0.000287037 0.0002319878 0.0001 0.000103125 0.0001 0.0001 0.0001 0.0001 0.00016 0.000225 0.0002 0.00015 0.0001 0.0001666667 0.0001 0.0001 0.0001 0.000125 0.0001 0.0001 0.0001 0.0001 0.0001 0.000101 0.0001 0.0001 0.0001003906 0.0001 0.0001 0.0001004115 0.0001 0.000103125 0.0001010502 0.0001 0.0001 0.0001000031 0.0001 0.0001 0.0001 0.0001000051 0.0001 0.0001000034 0.0001 0.0001000001 0.0001 0.0001 0.0001 0.0001 0.0001 0.0001000122 0.0001000061 0.0001 0.0001000031 0.0001000031 0.0001 0.0001 0.0001 0.0001 0.0001 0.0001 0.0001 
0.0001 0.0001 0.0001 0.0001 0.0001 0.0001 0.0001 0.0001 0.0001 0.0001 0.0001 0.0001 0.0001 0.0001 0.0001 0.0001 0.0001 0.0001 0.0001 0.0001 0.0001 0.0001 0.0001000001 0.0001000002 0.0001 0.0001 0.0001 0.0001 0.0001 0.0001 0.0001 0.0001 0.0001 0.0001 0.0001000061 0.0001000061 0.0001 0.0001 0.0001 0.0001000163 0.0001000488 0.0001 0.0002337796 0.0003005927 0.0003005859 0.0003 0.0001666687 0.0001 0.0001 0.0001 0.0001067383 0.0001125 0.0001 0.0001074074 0.0001 0.000125 0.0001333333 0.0001666667 0.00015 0.0001 0.0001333333 0.0001 0.00014 0.0001 0.00022 0.0002 0.0005 0.001 0.0017 0.0024 0.0025 0.0024 0.0023 0.0009 0.0008 0.0008 0.001 0.002216667 0.0029 0.0017 0.0009 0.00085 0.0001 0.00015 0.0001574074 0.0001898148 0.000162318 0.0001 0.0001 0.0001 0.0001 0.0001545 0.0002125 0.0002 0.00015 0.0001 0.0001222222 0.0001 0.0001 0.0001 0.0001 0.0001 0.00010625 0.0001 0.0001 0.0001 0.0001 0.0001 0.0001002 0.0001 0.0001 0.0001000977 0.0001 0.0001 0.0001001372 0.0001 0.0001015625 0.0001005225 0.0001 0.0001 0.0001000008 0.0001 0.0001 0.0001 0.0001000017 0.0001 0.0001000011 0.0001 0.0001 0.0001 0.0001 0.0001 0.0001 0.0001 0.0001000061 0.0001000031 0.0001 0.0001000015 0.0001000015 0.0001 0.0001 0.0001 0.0001 0.0001 0.0001 
0.0001 0.0001 0.0001 0.0001 0.0001 0.0001 0.0001 0.0001 0.0001 0.0001 0.0001 0.0001 0.0001 0.0001 0.0001 0.0001 0.0001 0.0001 0.0001 0.0001 0.0001 0.0001 0.0001000001 0.0001 0.0001 0.0001 0.0001 0.0001 0.0001 0.0001 0.0001 0.0001 0.0001 0.0001000031 0.0001000031 0.0001 0.0001 0.0001 0.0001000081 0.0001000244 0.0001 0.0002335553 0.0003002952 0.000300293 0.0003 0.0001666672 0.0001 0.0001 0.0001 0.0001032471 0.00010625 0.0001 0.0001024691 0.0001 0.0001125 0.0001194444 0.0001416667 0.0001375 0.0001 0.0001111111 0.0001 0.0001 0.0001 0.0001 0.0001333333 0.0001 0.0002 0.0004 0.0008 0.0012 0.0013 0.001416667 0.0012 0.0009571429 0.0004 0.0004 0.0004 0.0011 0.0014 0.0008 0.0004 0.0005 0.0004208333 0.0001 0.000125 0.0001274691 0.0001432613 0.0001237805 0.0001 0.0001 0.00015215 0.00020625 0.0002 0.00015 0.0001 0.0001074074 0.0001 0.0001 0.0001 0.0001 0.0001 0.0001 0.0001 0.0001015625 0.0001 0.0001 0.0001 0.0001 0.0001 0.00010004 0.0001 0.0001 0.0001000244 0.0001 0.0001 0.0001000457 0.0001 0.0001007813 0.0001002608 0.0001 0.0001 0.0001000002 0.0001 0.0001 0.0001 0.0001000006 0.0001 0.0001000004 0.0001 0.0001 0.0001 0.0001 0.0001 0.0001 0.0001 0.0001000031 0.0001000015 0.0001 0.0001000008 0.0001000008 0.0001 0.0001 0.0001 0.0001 0.0001 
0.0001 0.0001 0.0001 0.0001 0.0001 0.0001 0.0001 0.0001 0.0001 0.0001 0.0001 0.0001 0.0001 0.0001 0.0001 0.0001 0.0001 0.0001 0.0001 0.0001 0.0001 0.0001 0.0001 0.0001 0.0001 0.0001 0.0001 0.0001 0.0001 0.0001 0.0001 0.0001 0.0001000015 0.0001000015 0.0001 0.0001 0.0001 0.0001000041 0.0001000122 0.0001 0.0002334439 0.0003001473 0.0003001465 0.0003 0.0001666668 0.0001 0.0001 0.0001 0.000101593 0.000103125 0.0001 0.000100823 0.0001 0.00010625 0.0001106482 0.000124537 0.0001246528 0.0001 0.0001037037 0.0001 0.0001 0.0001 0.0001 0.0001083333 0.0001 0.0001333333 0.0001 0.0002 0.0004 0.0005 0.0006833333 0.0006 0.0006 0.0005 0.0003166667 0.0002 0.00028 0.0003 0.0006 0.0003 0.0002 0.0002333333 0.0002944444 0.0002440972 0.0001 0.0001125 0.000113323 0.0001209448 0.0001102499 0.000151055 0.000203125 0.0002 0.00015 0.0001 0.0001024691 0.0001 0.0001 0.0001 0.0001 0.0001 0.0001 0.0001 0.0001 0.0001 0.0001003906 0.0001 0.0001 0.0001 0.0001 0.0001 0.000100008 0.0001 0.0001 0.0001000061 0.0001 0.0001 0.0001000152 0.0001 0.0001003906 0.0001001303 0.0001 0.0001 0.0001 0.0001 0.0001 0.0001 0.0001000002 0.0001 0.0001000001 0.0001 0.0001 0.0001 0.0001 0.0001 0.0001 0.0001 0.0001000015 0.0001000008 0.0001 0.0001000004 0.0001000004 0.0001 0.0001 0.0001 0.0001 
0.0001 0.0001 0.0001 0.0001 0.0001 0.0001 0.0001 0.0001 0.0001 0.0001 0.0001 0.0001 0.0001 0.0001 0.0001 0.0001 0.0001 0.0001 0.0001 0.0001 0.0001 0.0001 0.0001 0.0001 0.0001 0.0001 0.0001 0.0001 0.0001 0.0001 0.0001 0.0001000008 0.0001000008 0.0001 0.0001 0.0001 0.000100002 0.0001000061 0.0001 0.0002333885 0.0003000735 0.0003000732 0.0003 0.0001666667 0.0001 0.0001 0.0001 0.0001007889 0.0001015625 0.0001 0.0001002744 0.0001 0.000103125 0.0001056327 0.0001138117 0.0001149595 0.0001 0.0001012346 0.0001 0.0001 0.0001 0.0001 0.0001020833 0.0001 0.0001111111 0.0001 0.0001333333 0.0001 0.0002 0.0002 0.0003 0.0003 0.0003 0.0002 0.0002 0.00015 0.00016 0.0001 0.0003 0.0001 0.0001 0.00015 0.0001611111 0.0001935185 0.0001701678 0.0001 0.00010625 0.0001065243 0.000110198 0.0002015625 0.0002 0.00015 0.0001 0.000100823 0.0001 0.0001 0.0001 0.0001 0.0001 0.0001 0.0001 0.0001 0.0001 0.0001 0.0001 0.0001000977 0.0001 0.0001 0.0001 0.0001 0.0001 0.0001000016 0.0001 0.0001 0.0001000015 0.0001 0.0001 0.0001000051 0.0001 0.0001001953 0.0001000651 0.0001 0.0001 0.0001 0.0001 0.0001 0.0001 0.0001000001 0.0001 0.0001 0.0001 0.0001 0.0001 0.0001 0.0001 0.0001 0.0001 0.0001000008 0.0001000004 0.0001 0.0001000002 0.0001000002 0.0001 0.0001 0.0001 
0.0001 0.0001 0.0001 0.0001 0.0001 0.0001 0.0001 0.0001 0.0001 0.0001 0.0001 0.0001 0.0001 0.0001 0.0001 0.0001 0.0001 0.0001 0.0001 0.0001 0.0001 0.0001 0.0001 0.0001 0.0001 0.0001 0.0001 0.0001 0.0001 0.0001 0.0001000004 0.0001000004 0.0001 0.0001 0.0001 0.0001000013 0.0001000031 0.0001 0.0002111479 0.000300055 0.0003000366 0.0003 0.0001888889 0.0001 0.0001 0.0001 0.0001005234 0.0001007813 0.0001 0.0001000914 0.0001 0.0001015625 0.0001029192 0.0001075231 0.000108601 0.0001 0.0001004115 0.0001 0.0001 0.0001 0.0001 0.0001005208 0.0001 0.0001037037 0.0001 0.0001111111 0.0001 0.0001333333 0.0001 0.0001 0.000175 0.0001 0.0001 0.0001 0.0001 0.0001 0.0001 0.0001 0.0001 0.0001 0.0001 0.0001 0.000125 0.0001430556 0.000168287 0.0001461516 0.0001 0.000103125 0.0001048247 0.0002 0.00015 0.0001 0.0001002744 0.0001 0.0001 0.0001 0.0001 0.0001 0.0001 0.0001 0.0001 0.0001 0.0001 0.0001 0.0001 0.0001 0.0001000244 0.0001 0.0001 0.0001 0.0001 0.0001 0.0001000004 0.0001 0.0001 0.0001000004 0.0001 0.0001 0.0001000017 0.0001 0.0001000977 0.0001000407 0.0001 0.0001 0.0001 0.0001 0.0001 0.0001 0.0001 0.0001 0.0001 0.0001 0.0001 0.0001 0.0001 0.0001 0.0001 0.0001 0.0001000004 0.0001000003 0.0001 0.0001000001 0.0001000001 0.0001 0.0001 
