ncols         161
nrows         100
xllcorner     94.928748382514
yllcorner     29.77231360311
cellsize      0.00032366392509532
NODATA_value  -9999
0.0002 0.0001530864 0.0001 0.0001 0.0001074074 0.0001333333 0.0002012346 0.0002272009 0.0001125 0.0001 0.0002 0.0002875 0.0001 0.0002333333 0.0001 0.000675 0.0003 0.0011 0.0034 0.0043 0.003 0.0015 0.0015 2.724942 7.236722 7.840723 0.0001 0.0001 0.0008 0.0114 0.05816667 0.0865 0.1517 7.105329 7.004489 4.222333 2.228267 1.6222 1.6222 8.331724 8.524511 5.258543 2.832956 1.471092 0.8165805 0.6865875 0.4526 1.662741 1.309831 0.7122741 0.5052698 0.4417574 0.4226222 0.4093438 0.405025 0.4003 0.4141906 0.4697732 0.5344 0.7447932 0.7290503 0.5784698 0.4411822 0.3402773 0.2832298 0.2591054 0.2522291 0.2511 0.2511 0.08627978 0.003457181 0.003320703 0.0032 0.4277039 0.6137916 0.5966921 0.589715 0.5871301 0.5861034 0.5858512 0.5856 0.2949168 0.0042 0.2128027 0.3164323 0.3160524 0.3159716 0.3159 0.1053675 0.0001003637 0.0001000395 0.0001000023 0.0001 0.0001 0.0001678272 0.0002005225 0.0002000689 0.0002000079 0.0002000005 0.0002 0.0002 0.0003000001 0.0004 0.0003333883 0.0003000549 0.0003 0.3971787 0.5948955 0.5945664 0.5945077 0.5945005 0.5945 0.5945 0.5945 0.5945 0.1988534 0.0005182953 0.0002266837 0.0001357678 0.0001098625 0.0001028293 0.0001008837 0.0001002958 0.0001001069 0.0001000352 0.0001000175 0.0001 0.001037811 0.001503233 0.00150115 0.001500426 0.001500141 0.001500071 0.0015 0.0006349901 0.0002011083 0.000200354 0.0002001184 0.0002000428 0.0002000141 0.0002000071 0.0002 0.0004062291 0.0005042001 0.0005013286 0.0005004277 0.0005001437 0.0005000499 0.0005000184 0.0005000061 0.0005000031 0.0005 0.00828376 0.007241741 0.003564776 0.001707796 0.0008121372 0.0004003773 0.000220941 0.0001488024 0.0001273065 
0.0001541667 0.0002 0.0001592593 0.0001 0.0001 0.0001222222 0.0001777778 0.0003037037 0.0003148222 0.000125 0.0001 0.0003 0.00065 0.0001 0.0005 0.003116667 0.0018 0.0063 0.011 0.0163 0.0145 0.02714 0.9992333 3.0393 6.859733 11.81113 12.69193 0.0001 11.02063 0.0015 0.0213 0.1517 10.69655 9.968667 7.6044 3.4404 1.6222 1.6222 11.13733 12.21404 8.353328 5.006166 2.416133 1.076567 0.920575 0.4526 2.877388 2.259826 1.061148 0.6085185 0.4671555 0.4401352 0.4179815 0.40975 0.4003 0.4280812 0.460729 0.5344 0.8320653 0.8773714 0.7353359 0.5744438 0.4256298 0.323473 0.271729 0.2544872 0.2511 0.2511 0.08684756 0.003730138 0.003441406 0.0032 0.460098 0.6399782 0.6075394 0.5938571 0.5886799 0.586608 0.5861024 0.5856 0.2949505 0.0042 0.2137572 0.3170396 0.3162141 0.3160432 0.3159 0.1053689 0.0001009726 0.0001001118 0.0001000068 0.0001 0.0001 0.0001697634 0.0002013624 0.0002001829 0.0002000223 0.0002000014 0.0002 0.0002 0.0003000004 0.0004 0.0003334432 0.0003001099 0.0003 0.3982499 0.5954887 0.5946762 0.5945216 0.5945014 0.5945 0.5945 0.5945 0.5945 0.1995385 0.0009965365 0.0003787994 0.00017955 0.0001217015 0.000106052 0.0001018341 0.0001006018 0.0001002151 0.0001000705 0.0001000351 0.0001 0.001042397 0.001506532 0.001502314 0.001500853 0.001500283 0.001500141 0.0015 0.0006368767 0.0002023487 0.0002007351 0.000200241 0.000200086 0.0002000283 0.0002000141 0.0002 0.0004132053 0.0005089079 0.0005028032 0.0005008891 0.0005002934 0.0005001007 0.0005000369 0.0005000122 0.0005000061 0.0005 0.01393231 0.01245797 0.006244767 0.003022488 0.001427074 0.0006738254 0.000335512 0.0001917944 0.0001355166 0.0001190963 
0.0001125 0.00015 0.0002 0.0001777778 0.0001 0.0001 0.0001666667 0.0002666667 0.0004777778 0.0006046667 0.00015 0.0001 0.0005 0.0019 0.0054 0.01498333 0.0106 0.0206 0.0444 0.0719 0.0843 0.3705 0.0324 2.9638 6.1217 11.4937 17.818 21.4559 13.05293 22.625 22.0418 17.9871 14.6972 9.9502 5.2586 13.65337 1.6222 15.44365 16.05343 11.43003 9.15865 4.4713 1.38855 1.38855 0.4526 5.136008 4.096294 1.82465 0.8585333 0.5002611 0.4667611 0.4344445 0.4192 0.4003 0.4558625 0.4801348 0.5344 0.9110142 0.9938387 0.8890085 0.7492671 0.5677321 0.4063321 0.3028253 0.2612617 0.2511 0.2511 0.08829983 0.0043076 0.003682812 0.0032 0.519394 0.6891319 0.6286661 0.6021366 0.5918155 0.5876193 0.5866047 0.5856 0.2950517 0.0042 0.2158963 0.3183765 0.316556 0.3161863 0.3159 0.1053726 0.0001025826 0.000100315 0.0001000203 0.0001 0.0001 0.000175029 0.0002035428 0.0002004818 0.0002000627 0.0002000042 0.0002 0.0002 0.0003000011 0.0004 0.0003335531 0.0003002197 0.0003 0.4007943 0.5969418 0.5949636 0.5945607 0.5945042 0.5945 0.5945 0.5945 0.5945 0.2009417 0.00200139 0.0007108356 0.0002773835 0.0001481791 0.0001130874 0.000103838 0.0001012305 0.0001004338 0.0001001412 0.0001000702 0.0001 0.001051706 0.001513218 0.001504664 0.001501712 0.001500566 0.001500282 0.0015 0.0006409535 0.000205014 0.0002015392 0.000200493 0.0002001733 0.0002000566 0.0002000282 0.0002 0.0004279583 0.000518917 0.0005059458 0.0005018611 0.0005006026 0.0005002036 0.0005000739 0.0005000245 0.0005000122 0.0005 0.02319796 0.02118114 0.01085013 0.00534263 0.002541536 0.001183298 0.0005563886 0.0002817902 0.0001683573 0.0001252356 0.000112957 
0.0001 0.000125 0.000175 0.0002 0.0002333333 0.0001 0.0001 0.0003 0.0004 0.0007333333 0.00164 0.0002 0.001 0.0056 0.04445 0.0252 0.0464 0.0852 0.1772 0.272 0.4384 1.744167 1.2829 7.476687 14.5432 15.8886 15.7289 16.4218 18.36577 17.8133 19.2715 22.4777 23.4367 23.9806 24.0414 17.6336 23.6913 20.4883 15.9728 11.6992 6.6181 13.94328 2.3245 0.4526 9.3423 7.353533 3.3956 1.53975 0.5386 0.49725 0.4649333 0.4381 0.4003 0.511425 0.5299765 0.5344 1.048536 1.080276 0.9808444 0.9203957 0.7657852 0.5616204 0.3757907 0.2815852 0.2511 0.2511 0.09237651 0.005557176 0.004165625 0.0032 0.6255531 0.7795861 0.669237 0.6185727 0.5981886 0.5896485 0.5876094 0.5856 0.295355 0.0042 0.2207284 0.3213615 0.3172954 0.3164726 0.3159 0.1053827 0.0001068028 0.000100884 0.000100061 0.0001 0.0001 0.0001896627 0.0002091958 0.0002012574 0.0002001753 0.0002000127 0.0002 0.0002 0.0003000034 0.0004 0.0003337729 0.0003004395 0.0003 0.4067217 0.600447 0.5957087 0.5946696 0.5945126 0.5945 0.5945 0.5945 0.5945 0.2037583 0.004079469 0.001428982 0.0004957189 0.0002078057 0.000128626 0.0001081057 0.0001025304 0.000100878 0.0001002831 0.0001001404 0.0001 0.001070608 0.001526795 0.001509421 0.00150344 0.001501133 0.001500565 0.0015 0.0006497878 0.0002107744 0.0002032521 0.0002010156 0.0002003499 0.0002001135 0.0002000565 0.0002 0.0004590059 0.0005401597 0.0005126675 0.0005039239 0.000501246 0.0005004134 0.0005001486 0.0005000489 0.0005000244 0.0005 0.03812527 0.03552546 0.01864108 0.009376871 0.004532446 0.002118572 0.0009735883 0.0004577319 0.0002378457 0.0001497928 0.0001174335 0.0001084805 
0.0001395833 0.0001 0.00015 0.00025 0.0002 0.0004 0.0001 0.001375 0.0005 0.0003 0.0014 0.0062 0.0256 0.0896 0.21145 0.139 0.2493 0.3873 0.7501 0.8371 2.6577 9.149433 5.9693 10.7622 18.138 16.3849 15.3352 15.563 17.7858 16.3156 17.4815 18.7628 20.4048 22.2931 22.0784 24.6554 26.5327 27.3757 27.2678 26.5304 25.5241 16.21668 21.3064 17.3769 12.4324 7.1073 2.5209 0.5586 5.03045 0.5186 0.4759 0.4003 0.62255 0.6737813 0.5344 1.416466 1.253344 0.9899352 0.9975482 0.95505 0.8085889 0.5337167 0.3425556 0.2511 0.2511 0.1049345 0.008340278 0.00513125 0.0032 0.8110249 0.9422677 0.7457199 0.6507708 0.6112203 0.5937268 0.5896187 0.5856 0.2962649 0.0042 0.2316743 0.3280981 0.318941 0.3170453 0.3159 0.1054106 0.0001177564 0.0001024691 0.0001001829 0.0001 0.0001 0.0002315513 0.0002238531 0.0002032465 0.0002004877 0.0002000381 0.0002 0.0002 0.0003000102 0.0004 0.0003342127 0.0003008789 0.0003 0.4202166 0.6087526 0.5976173 0.5949711 0.5945377 0.5945 0.5945 0.5945 0.5945 0.2092759 0.008294238 0.002963136 0.0009810337 0.0003427771 0.0001633458 0.0001172943 0.0001052379 0.0001017848 0.0001005685 0.0001002808 0.0001 0.001108969 0.00155439 0.001519073 0.00150692 0.00150227 0.001501129 0.0015 0.0006689382 0.0002232761 0.0002069368 0.0002021102 0.0002007092 0.0002002275 0.0002001129 0.0002 0.0005238766 0.0005850727 0.0005270742 0.0005083323 0.0005025959 0.0005008433 0.0005002989 0.0005000979 0.0005000488 0.0005 0.06170794 0.05868976 0.0316034 0.01628324 0.008036619 0.003810758 0.001749961 0.0007949982 0.0003758054 0.0002023923 0.0001353393 0.0001116468 0.0001053143 
0.00015 0.00016875 0.0001 0.0002 0.0005 0.0002 0.0009 0.005483333 0.004 0.018 0.0631 0.136 0.2445 0.3631 0.9473166 0.6462 1.217 1.6705 3.7653 11.2745 22.4971 18.00513 22.0512 20.2406 22.68731 25.891 23.4182 22.63055 21.1975 19.4036 17.8785 17.8632 18.4446 18.9584 20.20125 18.5415 17.5683 18.252 19.0336 19.3347 19.6232 19.9316 21.9038 21.034 19.4318 17.6646 15.37 11.7216 6.59685 7.323 3.5486 0.8448 1.137875 0.5344 2.323508 1.755078 1.052878 0.9520778 0.96485 1.075717 0.8245834 0.5254667 0.2511 0.2511 0.1468172 0.01475833 0.0070625 0.0032 1.126385 1.227724 0.8867901 0.7122889 0.6380805 0.6019429 0.5936375 0.5856 0.2989947 0.0042 0.2563934 0.3433714 0.3227324 0.3181906 0.3159 0.1054898 0.0001458619 0.0001068587 0.0001005487 0.0001 0.0001 0.0003559948 0.0002619342 0.0002082762 0.0002013489 0.0002001143 0.0002 0.0002 0.0003000305 0.0004 0.000335093 0.0003017578 0.0003 0.4501091 0.628019 0.6024386 0.5958004 0.594613 0.5945 0.5945 0.5945 0.5945 0.2197729 0.01664252 0.006188111 0.002052083 0.0006492148 0.0002418033 0.0001373133 0.0001109208 0.0001036488 0.0001011441 0.0001005615 0.0001 0.001186658 0.001610501 0.001538719 0.001513951 0.00150455 0.001502258 0.0015 0.0007103533 0.0002504627 0.0002149366 0.0002044289 0.000201445 0.0002004566 0.0002002258 0.0002 0.0006581001 0.0006794499 0.0005579563 0.0005178119 0.0005054542 0.0005017308 0.0005006028 0.0005001962 0.0005000976 0.0005 0.09817584 0.0953685 0.05278742 0.02791337 0.0141094 0.00682694 0.00317352 0.001431813 0.0006445511 0.0003086306 0.0001742344 0.0001243119 0.0001074717 0.0001031569 
0.0001 0.0002 0.000275 0.0001 0.0003 0.0014 0.0058 0.01276667 0.0216 0.0583 0.1371 0.3301 0.7083 1.2299 2.619133 3.2161 4.7139 11.2048 24.0088 27.0575 27.4092 25.93343 27.4463 27.8804 27.6497 34.5517 32.2113 30.12192 28.0581 23.317 20.508 19.0223 19.3875 18.8958 19.81082 17.8633 16.6037 15.8129 15.5166 16.0347 15.7824 18.09387 15.4497 15.0697 14.5476 13.8442 12.9549 13.53548 11.0493 8.41 5.7127 2.772 0.5344 4.604533 2.8482 1.3069 1.110133 0.7416 1.0045 1.14845 1.0742 0.2511 0.2511 0.2950937 0.03015 0.010925 0.0032 1.643469 1.716815 1.142057 0.8243 0.6940129 0.6185537 0.601675 0.5856 0.307184 0.0042 0.3117408 0.3778169 0.331816 0.3204812 0.3159 0.1057234 0.0002170096 0.00011893 0.0001016461 0.0001 0.0001 0.0007418804 0.0003613169 0.0002207819 0.0002037037 0.0002003429 0.0002 0.0002 0.0003000915 0.0004 0.0003368565 0.0003035156 0.0003 0.5141418 0.6715802 0.6144145 0.5980622 0.594839 0.5945 0.5945 0.5945 0.5945 0.2390541 0.0327084 0.01282907 0.004390091 0.001345174 0.0004209839 0.0001814869 0.0001229392 0.0001075139 0.0001023093 0.000101123 0.0001 0.001343334 0.00172448 0.001578819 0.001528204 0.001509134 0.001504517 0.0015 0.0007994285 0.0003095437 0.0002324411 0.0002094033 0.0002029654 0.0002009181 0.0002004517 0.0002 0.0009323437 0.0008760443 0.0006240126 0.000538293 0.0005115635 0.0005035792 0.0005012199 0.0005003933 0.0005001953 0.0005 0.1532542 0.1522067 0.08674245 0.04715633 0.02446348 0.0121203 0.005744413 0.002616112 0.001160036 0.00051929 0.0002543271 0.0001522749 0.0001161012 0.0001045596 0.0001017542 
0.00015 0.0001 0.0003 0.0006 0.0019 0.0047 0.012 0.0211 0.0323 0.0997 0.2667 0.6174 1.7703 4.3515 5.173883 5.908 12.2577 19.5157 22.6816 23.9393 25.17548 26.2716 29.9252 33.2167 34.6154 34.88511 37.8754 37.24543 37.971 36.5089 32.9393 28.4399 24.234 22.5995 25.24898 22.0064 19.7635 18.0937 17.9162 18.4935 18.40253 18.1093 17.6948 17.3812 16.9698 16.3397 15.5078 14.85983 14.6093 13.6418 12.7269 11.6974 9.088 4.1912 8.11125 1.5052 1.1086 0.7166 0.3996 1.8973 1.6876 0.2511 0.842025 0.0686 0.01865 0.0032 2.428844 2.53625 1.605583 1.008611 0.8119778 0.6523111 0.61775 0.5856 0.3317519 0.0042 0.4343751 0.4539028 0.3544855 0.3250625 0.3159 0.1064477 0.0003942387 0.0001518519 0.0001049383 0.0001 0.0001 0.001993653 0.0006226337 0.0002512346 0.0002100823 0.0002010288 0.0002 0.0002 0.0003002743 0.0004 0.0003403946 0.0003070312 0.0003 0.6456963 0.767014 0.6435568 0.6041697 0.5955169 0.5945 0.5945 0.5945 0.5945 0.2730061 0.06255909 0.02615103 0.009415078 0.002921091 0.0008341047 0.0002803248 0.000148522 0.0001156138 0.0001046819 0.0001022461 0.0001 0.001657106 0.001955352 0.001660878 0.001557209 0.001518369 0.001509033 0.0015 0.0009892998 0.0004374496 0.0002709644 0.0002202171 0.0002061417 0.000201851 0.0002009033 0.0002 0.00148391 0.001280837 0.0007646275 0.0005826681 0.0005247421 0.0005074687 0.0005024797 0.0005007893 0.0005003906 0.0005 0.2342905 0.2382069 0.1400194 0.07839385 0.04181412 0.02126102 0.01031531 0.004784553 0.002133373 0.0009304088 0.0004163269 0.0002111342 0.00013552 0.0001101704 0.0001026133 0.0001008951 
0.00015 0.0002 0.0004 0.0012 0.0026 0.0064 0.0159 0.03723333 0.039 0.1396 0.4549 1.3054 2.7007 2.700433 4.5187 11.8191 12.7533 16.3479 17.2893 21.1768 21.7211 25.1985 28.6839 31.5282 34.1906 36.3393 41.6475 40.52098 45.7093 49.0845 50.5633 49.4565 44.5841 38.33622 38.3808 31.7481 29.644 27.3238 23.8057 21.0911 21.64645 20.9042 20.1698 19.7958 19.4799 18.9813 18.06 17.3874 16.9777 16.0196 15.163 14.6749 14.4639 14.4242 8.923634 12.3244 9.3599 6.4897 3.8477 3.3158 4.11898 2.9144 0.1685 0.0341 0.0032 3.343225 3.8566 2.51235 1.2398 1.0646 0.7214333 0.6499 0.5856 0.4054556 0.0042 0.705817 0.6141518 0.4133315 0.334225 0.3159 0.1088227 0.0008271605 0.0002407407 0.0001148148 0.0001 0.0001 0.006233872 0.001317284 0.0003234568 0.0002271605 0.0002030864 0.0002 0.0002 0.000300823 0.0004 0.0003475159 0.0003140625 0.0003 0.9019015 0.9679222 0.7126616 0.6204583 0.5975507 0.5945 0.5945 0.5945 0.5945 0.329834 0.1156883 0.05200201 0.01998692 0.006464176 0.001794135 0.0005049621 0.0002032168 0.0001327957 0.0001095534 0.0001044922 0.0001 0.002278889 0.002420462 0.001829074 0.00161652 0.001537041 0.001518066 0.0015 0.001388883 0.0007123277 0.0003559885 0.0002440327 0.0002128721 0.0002037465 0.0002018066 0.0002 0.002571976 0.002102036 0.001061626 0.0006788492 0.0005534068 0.0005157483 0.0005050712 0.0005015866 0.0005007812 0.0005 0.3500923 0.3649142 0.2216554 0.1280511 0.0703515 0.03677891 0.01831196 0.008692196 0.003941786 0.001719677 0.0007386574 0.0003328925 0.0001774309 0.0001230793 0.0001060497 0.0001013821 0.000100408 
0.0001 0.0002 0.0006 0.0017 0.0045 0.0107 0.02336667 0.0324 0.0918 0.1999 0.4067 0.7508 0.9124 2.5506 1.949 3.1085 4.7817 6.6355 10.3457 14.4728 17.63575 19.2676 23.6927 28.256 32.8513 37.3395 36.00778 37.89346 39.4017 44.8234 48.3636 50.3064 50.8842 45.93362 49.3347 47.4384 43.9666 39.9414 36.0159 27.2502 28.46063 24.0304 22.4763 21.7633 21.4987 21.5449 20.4115 20.56498 18.7581 17.1467 15.19 13.5888 12.198 14.17748 11.0306 10.0662 8.3438 7.0852 5.9295 4.5049 7.504375 11.0272 10.7417 8.3075 5.6565 4.3036 3.4096 6.4454 1.6151 0.8645 0.7142 0.5856 0.6265666 0.0042 1.329162 0.9183611 0.5715445 0.35255 0.3159 0.1170538 0.001859259 0.0004777778 0.0001444444 0.0001 0.0001 0.02115586 0.003190741 0.0004888889 0.0002722222 0.0002092593 0.0002 0.0002 0.0003024691 0.0004 0.0003619385 0.000328125 0.0003 1.366762 1.369434 0.8711097 0.663223 0.6036521 0.5945 0.5945 0.5945 0.5945 0.4193639 0.2053894 0.1000825 0.04159315 0.01433037 0.004037247 0.001024912 0.0003202475 0.000169727 0.0001196758 0.0001089844 0.0001 0.003492608 0.003349151 0.002173796 0.001738437 0.001574989 0.001536133 0.0015 0.002215644 0.001296394 0.0005434938 0.0002970951 0.0002273766 0.0002076262 0.0002036133 0.0002 0.004668576 0.003737403 0.001681926 0.0008867809 0.0006161727 0.000533594 0.0005104538 0.0005031973 0.0005015625 0.0005 0.5102943 0.5461143 0.3434606 0.2051677 0.116338 0.06264775 0.03206872 0.01562027 0.007246875 0.003209443 0.001369041 0.0005805461 0.0002663854 0.0001517461 0.0001141613 0.0001033305 0.0001006574 0.0001001586 
0.0001 0.0002 0.0007 0.0021 0.0069 0.0217 0.02725 0.0531 0.1224 0.2642 0.5272 0.8854 1.9871 1.761067 3.2357 4.8429 6.5554 7.1763 9.3039 11.497 12.7995 14.2018 17.8635 21.7627 25.859 30.1419 29.62034 34.5707 28.1381 31.4476 35.3911 39.6025 44.0017 43.91448 48.4162 50.9135 50.0939 47.6002 43.5111 41.5989 37.88894 35.889 32.3301 29.8408 28.3252 24.9692 25.20498 24.984 24.1986 22.36 20.6755 18.8993 17.266 16.77428 15.6822 14.2578 13.0729 12.361 11.8914 11.571 13.01052 14.63682 16.3807 13.9944 13.3692 12.4433 11.1548 7.96315 9.6021 7.2673 4.0741 1.2899 0.0042 2.946567 1.35635 1.009533 0.3892 0.3159 0.1469708 0.004244444 0.0011 0.0002333333 0.0001 0.0001 0.07534011 0.008333334 0.00085 0.0003888889 0.0002277778 0.0002 0.0002 0.0003074074 0.0004 0.0003915039 0.00035625 0.0003 2.13166 2.116929 1.21816 0.7732127 0.6219562 0.5945 0.5945 0.5945 0.5945 0.550831 0.3473694 0.1847552 0.08404339 0.03144889 0.00928716 0.002255051 0.0005695302 0.0002501536 0.0001410587 0.0001179688 0.0001 0.005813322 0.005178765 0.002878343 0.001990346 0.001652701 0.001572266 0.0015 0.003889777 0.002517952 0.0009548483 0.000416382 0.0002592513 0.0002156521 0.0002072266 0.0002 0.008595688 0.006920635 0.00295798 0.001333594 0.0007542031 0.0005725457 0.0005217695 0.0005064668 0.000503125 0.0005 0.724142 0.796732 0.5198033 0.3218076 0.1887709 0.1049246 0.05531855 0.02770007 0.01318754 0.005973192 0.002579893 0.001075245 0.0004519839 0.0002144095 0.0001327626 0.0001080662 0.0001016551 0.0001002701 0.000100047 
0.0001666667 0.0002 0.0006 0.002 0.0053 0.0135 0.0228 0.0321 0.066 0.1373 0.2405 0.5634 0.9611 1.57455 1.5211 2.2367 3.1432 5.3284 6.1631 7.266016 7.6346 9.7232 12.3766 15.2373 18.2436 21.3892 24.07548 24.6604 24.7882 23.2639 26.2089 29.5073 33.285 35.82962 37.5651 41.8154 45.1222 46.8809 48.4603 44.63038 49.8847 48.6804 43.909 38.4958 30.4937 30.0891 29.64797 29.2312 29.648 29.0119 27.0433 24.8379 23.0586 20.8087 21.4103 20.1376 19.6237 19.0571 19.3361 20.0039 17.02192 17.9456 17.0889 16.2949 14.9488 12.8502 12.30317 11.0093 10.988 10.6745 11.0276 9.3211 6.5853 5.66328 2.2502 0.4625 0.3159 0.25975 0.009533334 0.0027 0.0005 0.0001 0.0001 0.2769437 0.02273333 0.001583333 0.0006833333 0.0002833333 0.0002 0.0002 0.0003222222 0.0004 0.0004535156 0.0004125 0.0003 3.223825 3.373175 1.929342 1.048269 0.6768685 0.5945 0.5945 0.5945 0.5945 0.7297431 0.5554219 0.3236591 0.1630273 0.06757927 0.02152361 0.005243802 0.001094067 0.0004272848 0.0001872385 0.0001359375 0.0001 0.01012993 0.008714839 0.004308522 0.002512935 0.001813571 0.001644531 0.0015 0.007191097 0.005020109 0.001847902 0.0006858453 0.0003307974 0.0002325033 0.0002144531 0.0002 0.01570493 0.01294609 0.005531738 0.00228408 0.001058122 0.0006585785 0.0005459083 0.0005131503 0.00050625 0.0005 0.9988496 1.130725 0.7664931 0.4929776 0.2999394 0.1725059 0.09386737 0.04840064 0.02368764 0.01101194 0.004863048 0.002044588 0.0008320429 0.0003491033 0.0001748057 0.0001193195 0.0001041626 0.0001007164 0.0001000864 0.0001000076 
0.0002 0.0003333333 0.0007666667 0.0012 0.002 0.0047 0.01201667 0.0117 0.0331 0.0658 0.1718 0.3396 0.4973833 0.6348 1.1075 1.57 2.0637 2.5311 3.7437 4.9461 5.2538 7.0279 9.0103 11.1394 13.3628 15.6558 17.64615 18.0349 20.5653 17.6247 19.6172 21.8281 24.16283 24.3675 27.3422 30.7186 34.3194 37.8655 41.1493 43.01395 43.178 43.9529 44.8638 42.3395 42.4638 36.9213 34.61878 31.693 28.7154 28.1998 27.6372 25.5866 24.2173 22.26027 23.2178 22.3837 21.4134 20.3353 19.288 17.68495 17.6372 17.9519 15.56206 14.7835 14.3504 13.6843 12.96642 12.6771 11.1049 10.7267 10.6867 10.591 10.1867 9.83135 9.29 5.8695 0.6954 0.0232 0.0045 0.0009 2.3381 0.0001 1.040875 0.0639 0.0029 0.0014 0.00045 0.0002 0.0002 0.0003666667 0.0004 0.0005890625 0.000525 0.0003 4.484179 5.173103 3.237719 1.708703 0.8416055 0.5945 0.5945 0.5945 0.5945 0.9572895 0.8356278 0.5315549 0.2990831 0.1403392 0.04965957 0.01273904 0.002172222 0.0008201389 0.0002898405 0.000171875 0.0001 0.01787329 0.0153706 0.007175823 0.003598092 0.00215165 0.001789063 0.0015 0.01349811 0.0100115 0.003754774 0.00129405 0.0004948824 0.0002686035 0.0002289063 0.0002 0.02805761 0.02396863 0.01059348 0.004276147 0.001725583 0.0008505106 0.0005982739 0.0005269509 0.0005125 0.0005 1.338278 1.558225 1.098395 0.7355561 0.4655282 0.2778485 0.1564414 0.08322765 0.04193308 0.02004121 0.009088624 0.003905985 0.001594533 0.000633247 0.0002683483 0.0001457146 0.0001103541 0.00010189 0.0001002439 0.0001000152 0.0001 
0.0002041667 0.00015 0.0002 0.0004 0.0009 0.002133333 0.0029 0.0072 0.0154 0.0423 0.0885 0.1731 0.2857167 0.3123 0.4533 0.7955 1.2006 1.9018 2.8462 3.5572 4.0352 5.4413 7.0143 8.695 10.4307 12.1857 13.55087 13.9509 15.7528 16.18219 15.5746 17.108 18.65438 18.8811 21.0264 23.7067 27.0413 31.1882 35.7764 37.33273 39.635 38.7851 41.4976 44.4705 44.0323 41.895 36.16065 37.8831 31.4158 24.5078 24.0444 23.7594 23.77925 21.4784 20.1792 19.133 17.4034 16.2841 15.3799 15.05855 14.4646 13.9899 14.2424 12.1994 12.7913 13.4437 11.4357 14.1339 14.8175 14.6273 13.495 14.2454 15.0152 11.7706 15.6607 16.0169 16.3906 12.0457 7.6337 6.664333 5.3776 3.9738 0.1837 0.0059 0.0021 0.0007 0.11555 0.0002 0.0005 0.0004 0.00090625 0.00075 0.0003 5.612902 7.14197 5.181547 3.195792 1.335817 0.5945 0.5945 0.5945 0.5945 1.236232 1.188557 0.8098679 0.508458 0.2763389 0.1124525 0.03222623 0.0043 0.001690895 0.0005257716 0.00024375 0.0001 0.03112068 0.02746116 0.01281132 0.005839326 0.002876826 0.002078125 0.0015 0.02511326 0.01964902 0.00773017 0.002655315 0.0008788366 0.0003479981 0.0002578125 0.0002 0.04849023 0.04330649 0.02023372 0.008365661 0.00318107 0.00128171 0.0007139689 0.0005558528 0.000525 0.0005 1.743611 2.083181 1.525821 1.065673 0.7036905 0.4373043 0.2555895 0.1406517 0.0730828 0.03594838 0.01676805 0.007407194 0.003090626 0.001220134 0.0004728395 0.0002067673 0.0001254382 0.0001049383 0.0001006859 0.0001000457 0.0001 0.0001 
0.0001277778 0.0001333333 0.0001 0.0002 0.0006 0.001283333 0.0017 0.0036 0.0105 0.0236 0.0498 0.098 0.1512333 0.1565 0.2992 0.54 0.9195 1.4774 2.2424 2.779967 3.2219 4.3964 5.722 7.1405 8.5937 9.541933 10.0358 11.4421 12.8111 14.1722 13.3396 14.3613 15.44743 15.3803 16.4694 17.7658 19.5392 22.3264 26.5025 32.89292 37.7552 29.6154 31.7524 33.4693 34.4207 36.53725 34.5281 34.0434 32.5877 33.4762 30.1306 26.2205 24.65617 21.4133 17.1169 14.3603 12.978 12.5392 12.2841 11.57345 11.2975 11.3947 11.7105 9.608612 6.992 7.2059 8.830833 7.4693 7.7614 7.825 8.1299 8.757 10.27913 9.8592 10.6118 11.5526 12.6719 14.0585 14.4297 9.887466 12.5396 9.6933 9.2844 5.6636 2.5594 0.4604 2.338583 0.0009 0.0004 0.001725 0.0012 0.0003 7.199825 8.699717 6.551767 6.174425 2.81845 0.5945 0.5945 0.5945 0.5945 1.565983 1.635943 1.148504 0.7812259 0.4998741 0.2442741 0.08486852 0.008214815 0.00359537 0.001089815 0.0003875 0.0001 0.05238673 0.04842377 0.02357222 0.0103875 0.004474228 0.00265625 0.0015 0.04565103 0.03754907 0.01575293 0.005645062 0.001792515 0.0005283693 0.000315625 0.0002 0.08036955 0.07553395 0.03785741 0.01652812 0.006315638 0.002253224 0.0009743484 0.0006175583 0.00055 0.0005 2.218663 2.704432 2.050851 1.49426 1.032352 0.6704082 0.4083118 0.2331929 0.125264 0.06349836 0.0304861 0.01386068 0.005957385 0.002403521 0.0009109739 0.0003459076 0.0001616369 0.0001127572 0.0001019204 0.0001001372 0.0001 0.0001 0.0001 
0.0001111111 0.0001 0.0001 0.0002 0.0005 0.0008166667 0.0011 0.0032 0.0076 0.0169 0.0317 0.0549 0.089 0.1126 0.2185 0.4007 0.6943 1.1364 1.460883 1.7583 2.5758 3.5823 4.7468 6.0197 7.3431 8.058933 8.6626 9.9369 11.1432 12.2746 12.91204 13.0587 13.65002 13.8952 14.5825 15.046 15.1554 14.6778 22.27608 34.7326 22.9558 24.9771 27.1949 29.3897 31.4712 31.29952 32.8762 34.6122 37.2088 35.553 32.0988 29.0285 25.07055 26.0369 21.0633 15.428 11.5373 9.2718 8.3992 9.1433 7.6154 7.1283 6.8657 6.8554 5.2122 5.80894 5.2957 5.4365 5.6319 5.8946 6.2448 6.8823 6.934166 6.9157 7.5603 8.0833 8.5629 9.0112 9.4454 10.70145 9.8988 10.4084 10.9774 11.0955 10.474 8.7092 6.859833 4.8601 0.0041 0.0021 0.0003 10.0063 11.48625 7.30645 7.30645 5.0424 5.075863 0.5945 0.5945 0.5945 1.838117 2.24365 1.587667 1.076511 0.7813333 0.4858333 0.2324556 0.01453333 0.007616667 0.002494444 0.000675 0.0001 0.08341545 0.08266482 0.04336667 0.01923981 0.008110185 0.0038125 0.0015 0.08044577 0.06938086 0.03127747 0.01198889 0.003992438 0.000953858 0.00043125 0.0002 0.1268841 0.1259695 0.06842449 0.03220782 0.01293992 0.004436626 0.00157037 0.0007526749 0.0006 0.0005 2.782294 3.424963 2.666895 2.021439 1.464218 0.997124 0.635713 0.3783879 0.2108344 0.1103565 0.05460096 0.02553759 0.01131975 0.004724691 0.001827709 0.0006581619 0.0002470507 0.0001325103 0.0001053498 0.0001004115 0.0001 0.0001 0.0001 0.0001 
0.0001 0.0001 0.0001333333 0.0001 0.0003 0.0004833333 0.0007 0.0017 0.0036 0.0071 0.0165 0.02846667 0.0363 0.0757 0.1497 0.2802 0.4963 0.8317 1.088067 1.3191 1.9823 2.8283 3.8432 4.9921 6.2263 6.849617 7.4921 8.7405 9.9401 11.0675 12.1104 12.06188 12.078 13.1266 14.1649 15.2017 16.2391 17.14 19.4893 18.2772 19.5351 20.9536 22.5348 24.158 27.1229 28.35878 27.378 26.729 27.5747 27.6589 26.4302 24.7002 25.10493 23.0239 21.3445 19.4765 16.3569 11.9442 8.2347 8.217533 7.0289 6.2306 5.5331 5.2418 5.22356 4.61262 4.3389 4.4039 4.4527 4.5023 4.6176 4.143 5.187767 5.0478 6.2566 6.884 7.5332 8.1281 8.6799 8.379633 9.2153 9.7632 10.3319 10.9529 11.7221 10.14542 12.8568 14.2716 29.841 19.3129 16.6166 13.402 10.09558 9.5705 5.0424 8.56605 7.419734 3.756633 0.5945 1.57245 2.87645 2.309067 1.545433 0.9085 0.7756 0.6599 0.022 0.01546667 0.006133333 0.00125 0.0001 0.1204562 0.1346 0.07850555 0.03488889 0.01670556 0.006125 0.0015 0.1367924 0.1236259 0.05986482 0.02465185 0.00931574 0.001999074 0.0006625 0.0002 0.1901848 0.1992031 0.1179488 0.06075679 0.0265679 0.009298765 0.002953087 0.001058025 0.0007 0.0005 3.485826 4.274472 3.368376 2.63204 2.000268 1.43201 0.9603755 0.5989862 0.3477774 0.1884 0.09632593 0.04634362 0.02113333 0.009135802 0.003690124 0.001348148 0.000444856 0.0001814815 0.0001148148 0.0001012346 0.0001 0.0001 0.0001 0.0001 0.0001 
0.0001 0.0001111111 0.0001 0.0002 0.0001666667 0.0001 0.0002 0.0006 0.0017 0.0041 0.0097 0.01676667 0.0217 0.0461 0.0933 0.1791 0.326 0.5625 0.7583666 0.9204 1.4285 2.1061 2.9559 3.9612 5.0872 5.676167 6.2864 7.5039 8.7107 9.8792 11.0004 11.09174 11.88468 11.6717 12.6652 13.6581 14.6188 15.5723 16.14113 16.5359 17.5271 18.5504 19.6328 20.7153 23.4635 25.32872 27.8409 24.1408 24.5401 24.8555 24.8502 24.3903 24.23237 23.4498 21.9598 19.8597 17.4723 14.9222 13.52022 10.553 7.474 6.6812 5.2815 4.5067 4.3017 4.0584 3.9146 4.29 4.3489 4.1486 3.9725 4.1484 4.0364 3.9894 3.7847 4.5309 5.2639 5.7427 6.149083 6.2868 6.7516 7.226 7.6836 8.0535 8.2681 13.11585 8.8423 27.1804 7.1837 7.5559 7.9857 8.4546 9.420617 8.9552 9.5692 11.5838 8.0688 2.6066 4.51425 4.4676 2.5504 3.2025 1.1743 0.2595 1.2917 1.2277 0.0281 0.0159 0.0024 0.0001 0.133975 0.20615 0.1416 0.05605 0.03786667 0.01075 0.0015 0.221925 0.2134333 0.1103111 0.04713333 0.02215 0.004672222 0.001125 0.0002 0.2716816 0.2973444 0.191513 0.1087518 0.05358148 0.01993704 0.006185185 0.001774074 0.0009 0.0005 4.413935 5.343865 4.185002 3.294548 2.625578 1.975993 1.399233 0.9208043 0.5610889 0.3150654 0.1671778 0.08295679 0.03884321 0.01723086 0.007325926 0.002850617 0.0008938272 0.0003 0.0001407407 0.0001037037 0.0001 0.0001 0.0001 0.0001 0.0001 0.0001 
0.0001037037 0.0001 0.00015 0.0001416667 0.0001 0.0001333333 0.0001 0.0003 0.0008 0.0021 0.005 0.0092 0.0114 0.0247 0.0513 0.1012 0.1899 0.3393 0.4785 0.5772 0.9346 1.4389 2.1085 2.9458 3.44935 3.9337 5.0313 6.1837 7.3521 8.5002 9.6075 9.75584 10.6624 10.78793 11.2757 12.2262 13.2137 14.1809 14.62147 15.1405 16.1227 17.127 18.1253 19.0236 19.4985 22.87095 26.6685 22.863 23.644 24.3881 24.898 24.77178 25.0558 24.7742 23.9751 22.4214 20.4355 18.7098 16.53558 16.7574 13.5791 8.8832 6.4428 4.514 3.6784 4.29156 4.39544 3.987 4.0662 4.0323 3.9227 3.7396 3.5541 3.3357 3.1331 2.9575 3.018 3.6203 4.2176 4.4367 4.8721 5.3375 5.8809 6.4099 28.1419 10.34632 8.8639 5.8963 6.3176 6.7436 7.1981 7.7378 7.902667 8.4036 9.2494 10.4616 12.571 10.5877 8.9083 4.2682 10.4573 1.5154 0.5928 1.0903 1.8331 2.164767 1.7579 1.7046 3.7104 0.1235 0.2212 0.1911 0.41705 0.0921 0.02 0.0015 0.3229 0.362 0.2013 0.077 0.05263333 0.01176667 0.00205 0.0002 0.3737375 0.42195 0.2908389 0.1792444 0.1044556 0.04255556 0.01373333 0.003522222 0.0013 0.0005 5.580425 6.788761 5.286056 3.956778 3.312174 2.614693 1.949869 1.363417 0.8844148 0.5145815 0.2842704 0.1463444 0.07091852 0.03160741 0.0140037 0.006081481 0.001892593 0.0005777778 0.0002111111 0.0001111111 0.0001 0.0001 0.0001 0.0001 0.0001 0.0001 0.0001 
0.0001 0.000125 0.0001229167 0.0001 0.0001111111 0.0001 0.00015 0.0001 0.0003 0.0009 0.0022 0.004516667 0.0052 0.0114 0.024 0.0483 0.0925 0.1495667 0.1701 0.3015 0.5187 0.8512 1.331 1.9784 2.391583 2.7898 3.7895 4.8546 5.9735 7.0999 8.2175 8.719434 9.2914 10.2907 9.6584 10.6342 11.6648 12.674 13.1153 13.6252 14.624 15.703 16.8708 18.1303 18.23113 19.2957 20.4586 21.5481 22.5476 23.5602 24.4238 24.59052 25.0126 25.1863 24.8213 23.6095 21.7587 20.1209 19.67498 18.1502 15.8563 13.2901 10.3727 7.5205 5.236 6.36374 4.3271 5.4585 3.3396 3.2262 3.3473 3.504717 3.4926 3.3254 3.1729 3.0285 2.8847 2.7183 2.676083 2.5008 2.9021 3.2282 3.9593 10.6564 3.7233 8.31325 4.2384 4.7843 5.2428 5.6905 6.1217 6.3569 6.6402 7.2246 7.9065 8.8728 11.4667 12.8829 11.22708 14.1961 8.126762 1.3259 0.7105 2.7742 4.1473 3.743567 3.9305 3.6834 8.539 0.2968 0.6072 0.7 0.6357333 0.685 0.6395 0.5661 0.4442 0.2798 0.5551 0.1228 0.0312 0.0039 0.0002 0.4844 0.587 0.42335 0.2555 0.1936667 0.08856667 0.03113333 0.007966666 0.0021 0.0005 6.469917 8.508233 7.34305 4.515 4.000117 3.355217 2.581189 1.907672 1.360744 0.8218333 0.4706667 0.2512445 0.1309 0.05688889 0.02496667 0.01296667 0.004077778 0.0012 0.0004 0.0001333333 0.0001 0.0001 0.0001 0.0001 0.0001 0.0001 0.0001 0.0001 
0.0001125 0.0001119792 0.0001 0.0001037037 0.0001 0.0001125 0.0001 0.0001 0.0002 0.0004 0.0008833333 0.001 0.0023 0.005 0.0105 0.021 0.039 0.07766667 0.0666 0.1039 0.1971 0.3619 0.6438 1.1004 1.527517 1.6014 2.5713 3.5214 4.5709 5.6085 6.7008 7.262967 7.837 8.7593 8.793987 8.8527 9.9092 10.38807 11.0959 11.9753 12.8717 13.8521 14.933 16.1073 16.69308 17.3314 18.6444 19.9272 21.1121 22.3454 23.5439 23.8289 24.609 25.3245 25.3664 25.3305 23.921 22.8504 21.65727 21.4612 19.7892 17.9323 15.9545 13.8971 11.02097 11.0503 7.5269 6.408185 5.6075 4.4507 3.5848 5.11005 3.1268 2.8068 2.5171 2.2154 1.897 1.5626 2.491083 1.2178 0.8749 9.2374 2.1755 1.8313 3.864033 2.1816 2.7304 3.5615 4.0548 4.6261 5.0214 5.149183 5.4222 5.8891 6.5311 7.555 9.9279 11.2494 11.53382 14.1782 15.1342 3.9388 1.0076 2.1917 4.7673 5.143434 6.0253 6.2137 9.3106 19.2686 0.6422 1.623333 1.0277 1.1185 1.1272 1.0909 1.016 0.9365 3.297883 0.8813 0.8489 0.8186 0.7634 0.6623 0.5117 2.5535 0.335 0.176 0.07 0.0197 0.0037 0.0005 5.222767 7.8339 12.8225 4.8683 4.33835 4.33835 3.32365 2.40365 2.016267 1.3031 0.7628667 0.3995333 0.2496 0.1046 0.0385 0.02756667 0.008833333 0.0025 0.0009 0.0002 0.0001 0.0001 0.0001 0.0001 0.0001 0.0001 0.0001 0.0001 0.0001 
0.0001081597 0.0001 0.0001012346 0.0001 0.000103125 0.0001 0.0001 0.00014 0.0001 0.0002 0.0006666667 0.0006 0.0015 0.0025 0.006 0.0139 0.031 0.07941667 0.0668 0.1363 0.2116 0.3154 0.4512 0.6296 1.31105 1.0655 1.3667 2.1836 3.3437 4.1691 5.290017 4.9772 6.5539 7.3357 8.0553 6.7656 7.3965 9.479934 9.588 10.3909 11.157 12.0154 12.9802 14.0558 14.62637 15.238 16.5302 17.8835 19.2349 20.5948 21.9953 22.494 23.3888 24.5785 25.2508 25.2315 24.9513 24.83668 24.2505 23.1104 21.5091 19.5364 17.407 15.294 15.28712 13.1279 10.7409 7.8568 9.767743 10.5414 9.5142 8.277583 7.5946 5.4502 3.7683 3.4105 3.3713 2.9823 3.4151 3.5319 3.6604 3.9431 2.5335 2.4293 2.47225 2.3623 2.2573 2.081 2.6016 3.4582 3.7057 3.883417 3.9839 4.3071 4.7984 5.4834 6.8699 8.0479 9.967 8.6484 6.2323 7.408057 5.36 2.477 3.4128 5.0426 6.9476 8.2364 12.0352 28.0185 2.1107 6.688517 4.6522 5.7389 6.528 7.307 8.1657 8.8796 5.56435 8.6873 8.0676 7.0845 5.9054 5.1585 4.9485 5.440667 4.4188 3.976 3.6136 3.3164 3.0671 4.432317 2.8453 12.8225 8.95185 6.214375 4.8683 3.8084 3.793275 2.8389 1.9684 1.2415 0.6994 0.3477 0.1515 0.086025 0.0577 0.0193 0.0057 0.0015 0.0003 0.0001666667 0.0001 0.0001 0.0001 0.0001 0.0001 0.0001 0.0001 0.0001 0.0001 
0.0001 0.0001004115 0.0001 0.0001007813 0.0001 0.0001 0.0001 0.0001 0.0002 0.0005 0.00055 0.0013 0.0034 0.0096 0.0217 0.0465 0.094 0.08096667 0.1791 0.3211 0.5406 0.8545 1.259 0.97735 1.5081 1.9613 2.4208 2.8534 3.2681 4.4336 4.61585 5.8509 5.6419 6.472 6.8444 8.108712 10.2703 8.367467 8.6197 8.9684 9.5717 10.2553 11.0516 11.9857 12.5168 13.04 14.2253 15.5295 16.9667 18.4218 18.99268 19.9154 21.5116 23.1519 24.5947 25.6299 26.3711 25.89032 26.6758 26.4836 25.7285 24.3471 22.5369 20.5207 19.6755 17.8327 14.886 12.4989 11.8148 15.6041 12.8436 13.7563 12.0888 9.9719 8.0274 6.0403 3.8794 7.57305 3.7684 3.6655 3.5357 3.3597 3.0647 3.0256 2.600083 3.0034 2.9972 3.0243 3.1219 2.2421 2.4608 2.6489 2.7065 2.8788 3.3422 4.0178 4.5946 4.5896 6.989767 13.0885 8.608 11.5755 4.869529 2.5529 2.963567 3.4453 4.5072 5.5477 8.2295 15.8657 27.9849 11.15147 3.7134 4.5557 5.2555 5.7642 6.0568 6.4003 6.371417 7.6011 9.1908 8.0063 9.9714 10.968 8.3345 11.1676 11.2624 11.1075 11.0668 11.0948 10.5393 8.27955 10.138 9.3975 7.52 6.0674 6.4018 4.9698 3.491717 3.556 2.2936 1.3069 0.6464 0.2757 0.1663833 0.1019 0.033 0.0094 0.0024 0.0005 0.0001 0.0001666667 0.0001 0.0001 0.0001 0.0001 0.0001 0.0001 0.0001 0.0001 0.0001003447 
0.0001001372 0.0001 0.0001001953 0.0001 0.0001 0.0001 0.0001 0.0001333333 0.0001 0.0002 0.00052 0.0005 0.0012 0.0032 0.0077 0.0176 0.03563333 0.0379 0.077 0.147 0.2636 0.4437 0.7107 1.009467 1.3055 1.8337 2.4357 3.0779 3.7248 4.3044 4.573167 3.9599 5.4625 6.6071 8.3626 10.243 6.932 7.94706 7.3983 7.8379 8.2861 8.7677 9.3031 9.608684 9.9555 10.8258 11.9297 13.183 14.5007 15.824 16.31857 17.2048 18.8511 20.6513 22.4278 24.2133 25.866 25.82017 27.2272 28.0945 28.5456 28.1996 26.5636 25.4575 24.14493 25.8202 21.0023 19.2766 17.3548 16.61066 15.92286 14.802 12.4854 10.6664 8.559 8.9239 23.4727 10.74537 7.5314 3.855 3.1936 2.9686 2.7352 2.5208 2.5252 2.2591 1.9293 1.5057 0.9723 1.1059 1.625083 1.291 1.7455 1.7007 2.5107 3.1634 3.4568 3.7908 4.693 2.8712 2.91 5.0135 5.5814 1.5264 2.68518 2.7372 3.4718 4.2286 5.8746 10.5332 27.2004 16.10647 1.2472 2.209 2.8736 3.1789 3.2956 3.629283 3.3152 3.345 3.5048 6.8194 7.3474 8.3122 7.42485 9.4522 10.935 12.4338 13.4899 14.1471 12.5002 8.8957 10.5874 10.0018 8.991 7.7609 6.1204 4.21674 3.5468 2.2304 1.2303 0.5896 0.2471 0.0915 0.08826666 0.03 0.0087 0.0022 0.0005 0.0001 0.0002333333 0.0001 0.0001166667 0.0001 0.0001 0.0001 0.0001 0.0001 0.0001 0.0001005974 0.0001007813 
0.0001 0.0001000488 0.0001 0.0001 0.0001 0.0001 0.0001111111 0.0001 0.00015 0.00015 0.0002666667 0.0001 0.0002 0.0007 0.0019 0.0051 0.01261667 0.0127 0.0297 0.0653 0.1347 0.2608 0.4726 0.6144834 0.8009 1.2681 1.8755 2.5912 3.3339 3.7303 3.759233 5.1599 5.5612 6.2134 5.9473 6.4724 6.95104 6.54014 6.515 6.9024 7.1922 7.4122 7.5791 8.283967 7.7771 8.0635 8.6481 9.8968 11.4112 12.6213 13.62143 13.9241 15.4444 17.1982 19.1158 21.1403 23.3139 22.67618 25.467 27.3215 29.2197 30.862 25.6437 25.42758 32.3353 22.9032 22.1969 22.031 20.55 17.7296 17.06358 17.7223 17.5323 17.6278 48.6827 18.8714 13.6296 13.1109 12.1907 11.4366 9.0921 6.1329 2.7778 4.139184 2.29 2.0523 1.8193 1.612 1.4617 1.3952 1.4197 1.2555 0.9694 1.4101 1.6293 2.8365 3.622 2.6942 1.7888 1.0788 0.5265 1.2588 1.1248 2.385 2.63678 3.1641 3.785 4.4066 5.4163 7.4145 12.58615 14.6823 21.8106 0.8201 1.5077 1.4752 1.3914 2.332733 1.3164 1.5014 1.8323 2.0592 2.2075 2.2999 4.154016 2.3492 2.3549 2.3046 1.965 1.6411 3.7012 5.762816 5.9081 7.4635 7.7196 6.4959 5.0266 2.770925 1.1387 0.7579 0.416 0.1916 0.0716 0.0236 0.02573333 0.0069 0.0018 0.0004 0.0001 0.0002333333 0.0001 0.0001444444 0.0001 0.0001041667 0.0001 0.0001 0.0001 0.0001 0.0001014244 0.0001015625 0.0001 
0.0001001139 0.0001 0.0001 0.0001 0.0001 0.0001037037 0.0001 0.000125 0.0001333333 0.0001666667 0.0001 0.00015 0.000275 0.0001 0.0002 0.0006 0.003433333 0.0018 0.005 0.0129 0.0308 0.0684 0.1359 0.3119167 0.2613 0.4669 0.7751 1.19 1.5544 2.4062 3.270767 2.9947 3.5097 3.9294 4.8995 5.0714 5.50704 6.0364 5.819 6.5349 7.1584 7.6837 7.6418 7.9543 7.4472 8.3692 9.1135 9.4123 9.8715 10.8023 10.31207 11.3521 12.0179 12.8207 13.8692 15.1435 15.92098 16.4956 17.6874 18.4698 18.4692 34.2999 21.5268 21.8384 21.0386 19.9482 19.4661 18.7861 18.2612 18.0004 16.44276 19.85048 14.5615 43.6323 13.3623 10.5133 11.54833 10.7872 11.0538 11.2288 10.0272 9.1554 8.8242 6.061033 5.6871 2.7952 2.7987 3.0681 1.8314 1.7646 1.708283 1.706 1.7893 2.2307 2.819 1.8484 1.3464 1.90565 1.2582 0.3373 0.1835 0.4489 1.4457 2.2467 2.93935 3.5095 3.9833 4.488 4.7675 6.172 8.4472 9.5145 29.1379 0.5996 1.1399 1.9359 2.2844 1.8356 2.3934 2.2113 1.8807 1.6377 1.4537 1.3115 1.78105 1.1991 1.1048 1.044 1.4247 1.5047 1.647533 1.1362 0.7438 0.42 0.5081 1.1941 1.3716 1.51308 0.38088 0.0012 0.0002 0.0001 0.0036 0.0018 0.0066 0.0006 0.0002 0.000625 0.00025 0.0001 0.0001444444 0.0001 0.0001148148 0.0001 0.0001010417 0.0001 0.0001 0.0001039969 0.000103125 0.0001 0.0001004115 
0.0001 0.0001005208 0.0001 0.0001 0.0001012346 0.0001 0.0001125 0.0001194444 0.00013125 0.0001 0.000125 0.00015625 0.0001 0.00015 0.00025 0.0001 0.0007 0.0003 0.0011 0.0032 0.009 0.0234 0.0625 0.1093833 0.1383 0.2826 0.5312 0.8803 1.563 1.76645 2.2773 3.0562 3.8008 4.0083 4.4916 4.8477 5.882884 5.1073 6.954762 7.7693 7.8809 8.0451 8.7513 8.570517 8.5293 8.2846 7.8718 7.3063 6.6856 8.833283 6.3684 6.8042 7.3406 7.6671 8.5079 9.0009 12.01793 10.4317 11.8355 12.6562 13.0263 13.9984 14.8303 15.9413 15.6557 14.7932 14.4498 14.0478 14.0388 14.3227 13.10098 14.4388 34.9975 8.1747 7.5517 7.6857 8.27815 7.8028 7.8938 7.9477 7.951 7.949 8.2429 7.269933 8.5442 8.5623 5.3831 1.7338 2.1342 2.0755 2.147533 2.0529 2.2549 2.7165 2.0645 2.2809 1.7251 1.410767 1.6934 0.6392 0.7105 1.2295 2.0295 2.410167 2.8371 3.657286 4.1234 4.4176 4.3376 5.4481 6.647017 7.4518 16.6196 16.0288 0.7003 1.2728 1.6885 1.8798 1.9395 2.0217 1.9835 1.9078 1.8336 1.744317 1.779 1.7476 1.7256 1.6768 1.387 1.0982 1.144317 0.8038 0.5988 0.3659 0.1808 0.0714 0.0227 0.2835 0.0058 0.0008 0.0001 0.001 0.001833333 0.001833333 0.0001 0.0003 0.0004 0.0002 0.00029375 0.000175 0.0001 0.0001138889 0.0001 0.0002224537 0.0002 0.000146142 0.0001137346 0.00010625 0.0001 0.0001012346 0.0001 
0.0001002744 0.0001 0.0001020833 0.0001030221 0.0001 0.0002375 0.0002813889 0.000316832 0.0001 0.0001125 0.0001203125 0.0001 0.000125 0.00015 0.0001 0.0001 0.0001666667 0.00036 0.0001 0.0004 0.0015 0.005 0.0214 0.0153 0.043 0.1096 0.2353 0.5454 1.0349 1.5723 1.7629 2.6968 3.7471 5.2211 6.1842 6.8759 6.853717 7.3586 7.6486 9.364 9.352 9.2374 9.8696 9.0959 9.9576 9.7849 9.6486 9.576 9.588 9.7114 9.6839 9.8237 9.9389 10.3261 10.3988 10.8665 10.64078 10.1694 9.7839 9.6279 10.0367 10.5068 11.1072 12.3114 11.4892 11.6247 11.0711 10.0126 9.2576 10.49773 9.462 9.281 14.9454 6.3096 6.3722 6.4236 6.745667 6.4563 6.4654 6.4485 6.4038 6.3288 6.2209 6.862367 6.1003 6.0389 6.1218 6.678 4.7029 2.9935 2.88865 2.2927 2.5527 2.1587 2.5136 2.4999 2.22105 1.8025 0.639 0.6673 1.2082 1.8621 2.6163 2.875167 3.2857 3.7086 4.1534 4.0859 3.9985 4.9356 5.7312 6.3601 11.5523 22.8466 0.3859 0.8751 1.182533 1.3187 1.6543 1.8613 1.9671 2.0142 2.0358 2.974417 2.0523 3.9606 1.6842 1.7617 1.6278 1.3433 1.045367 0.9797 0.5521 0.2695 0.112 0.0435 0.0138 0.009283333 0.0036 0.001771429 0.000325 0.0001 0.003402083 0.0001 0.0001 0.0001 0.0007952381 0.0005666667 0.0003125 0.0001722222 0.000125 0.0001 0.0004486111 0.0003740741 0.0001972222 0.0001287037 0.0001125 0.0001 0.0001037037 0.0001 0.0001003472 
0.0001 0.000100823 0.0001 0.00010625 0.0001106482 0.0002483507 0.0005 0.000575 0.0006796296 0.00107963 0.001530556 0.002440555 0.003078968 0.0001 0.0001 0.0001133333 0.0001 0.0001 0.0002 0.0007 0.0022 0.0057 0.01641667 0.0165 0.044 0.0892 0.2321 0.5029 0.9976 1.7095 1.7981 2.9466 4.3946 5.9897 7.4593 8.1106 8.638516 8.8222 9.2158 10.53525 11.8527 11.9898 11.56723 12.0981 12.2231 12.2304 12.3113 12.4845 12.7658 11.3571 13.1767 13.7597 14.6002 15.7473 12.782 12.5361 10.34007 10.8401 8.8082 9.42 9.869 9.9419 10.13442 10.1222 10.6638 11.2263 11.2319 9.7851 7.4628 13.68413 8.4425 34.2842 6.2456 5.8318 5.9217 6.0125 6.03 6.0931 6.1544 6.1911 6.1987 6.1725 6.1063 6.000617 5.9596 5.8187 5.7088 5.7088 5.7263 4.569833 4.6821 3.2352 2.2844 2.5923 2.8857 2.8502 3.09445 2.1677 1.2854 0.7007 1.4997 2.2857 3.0054 3.17025 3.477 3.8254 3.823175 3.6705 3.7828 4.180984 4.538 5.6536 9.2858 26.2104 0.2946 0.7487 0.9767333 1.1914 1.5465 1.8008 1.9722 2.0884 2.1738 4.05625 7.972 1.2596 1.4331 1.5243 1.4433 1.1945 1.045817 0.8527 0.5075 0.2519 0.1038 0.0316 0.02283333 0.0081 0.0017 0.0003 0.0001 0.0067 0.01 0.00565 0.0033 0.0026 0.001333333 0.0006333333 0.0002666667 0.00015 0.0001 0.0007333333 0.0006555556 0.0003055556 0.0001611111 0.000125 0.0001 0.0001111111 0.0001 0.0001010417 0.0001 
0.0001004115 0.0001 0.0001024691 0.0001 0.0001125 0.0001194444 0.0002614583 0.0005 0.00065 0.0008888889 0.0017 0.003433333 0.006844445 0.0108 0.01783333 0.0149 0.0001 0.0001 0.0004 0.0014 0.0046 0.0149 0.01575 0.0411 0.102 0.2572 0.5427 1.0386 1.7986 1.815967 2.8649 4.2492 5.278 6.751 8.1689 8.794983 9.9863 10.6775 11.204 11.6168 14.0281 14.352 12.27375 12.6302 12.5274 12.3536 12.1537 11.9239 11.6452 11.38352 11.283 10.7814 10.0484 9.0064 10.5664 9.142616 8.778 8.8503 9.4672 8.6719 8.4644 9.132 9.291166 9.9964 11.0519 11.88 12.7044 12.7401 4.7582 17.1713 42.7217 5.6991 5.7545 5.586675 5.422 5.5368 5.616066 5.6577 5.7747 5.8912 5.9861 5.9888 5.913116 5.8784 5.7382 5.5592 5.3181 5.0058 4.7426 5.28645 4.5716 4.5114 3.1656 3.3008 3.786 4.3039 3.107783 4.9425 1.6092 0.6849 1.6668 2.5134 3.1321 3.264383 3.505 3.8306 3.9167 3.3943 3.6127 3.934083 4.2183 5.1301 7.8632 17.9421 11.4992 0.5911 2.949 1.1354 1.5442 1.8307 2.0318 2.18 7.2372 4.4296 2.8664 2.2045 1.8823 1.6829 1.4483 1.367583 1.1311 0.7736 0.4517 0.2223 0.0915 0.0312 0.04973333 0.0088 0.0021 0.0004 0.02568571 0.013 0.007 0.033125 0.0043 0.0023 0.0012 0.0005 0.0002 0.0001 0.0011 0.0012 0.0005333333 0.0002333333 0.00015 0.0001 0.0001333333 0.0001 0.0001041667 0.0001 0.0001 
0.0001 0.0001012346 0.0001 0.0001074074 0.0001 0.000125 0.0001333333 0.0002875 0.0005 0.0008 0.001366667 0.002933333 0.006 0.0116 0.0148 0.0271 0.0324 0.03501667 0.0001 0.0003 0.0011 0.0038 0.01311667 0.0125 0.0404 0.1113 0.2772 0.6207 0.9722667 1.2416 2.195 3.4458 5.4681 7.206 8.8307 8.997283 10.2141 11.6979 12.7899 13.5062 12.36091 10.7006 11.55673 11.8718 11.6323 11.2979 10.895 10.4403 9.6905 9.9554 9.475 9.0602 8.7793 6.2241 5.371 6.332967 4.8222 4.3456 4.9541 5.8341 6.7434 7.6953 8.176983 8.8592 9.9761 11.3109 12.3273 52.504 31.682 16.67142 7.9606 5.222 5.257 5.3252 4.9356 5.06558 5.0967 5.2996 5.4823 5.595 5.6342 5.6572 5.454134 5.6755 5.6989 5.7216 5.6818 5.4086 5.2917 5.42785 6.7044 5.6878 5.908 5.1132 3.9485 3.2494 3.503 1.133 1.737 0.6696 1.7414 2.5528 2.763367 3.0493 3.4175 3.597 3.4542 3.456137 3.4838 3.7429 3.9689 4.7173 6.8421 14.2835 50.9004 8.7974 4.826867 5.23 3.7641 3.1177 2.8306 7.4071 5.080717 3.1435 3.1847 2.8175 2.4338 2.0733 1.6958 1.591617 1.2925 0.9034 0.5815 0.3545 0.214 0.1329 0.1702833 0.0858 0.0562 0.0362 0.0223 0.1075 0.0738 0.09895 0.0474 0.029 0.0168 0.0091 0.0046 0.007816667 0.0022 0.001 0.0004 0.0002 0.0001 0.0002 0.0001 0.0001166667 0.0001 0.0001 0.0001074074 
0.0001010417 0.0001 0.0001037037 0.0001 0.0001222222 0.0001 0.00015 0.00015 0.00035 0.0005 0.0011 0.0025 0.0052 0.0103 0.0193 0.04585 0.0349 0.0622 0.1124 0.2037 0.0734 0.1247833 0.0013 0.0051 0.0167 0.0507 0.1398 0.3493 1.811 0.7848 1.5616 2.7458 4.3014 6.0116 7.6741 8.244833 9.1096 10.2263 10.9229 11.2101 11.1126 10.37825 9.874 9.9118 9.4875 8.9386 8.2801 7.5193 7.564417 6.6589 5.6953 4.6159 3.4437 4.4961 4.3103 4.5346 4.1499 3.9536 3.321 4.0123 4.9949 6.0439 6.997517 7.3351 9.3723 9.698 50.2351 29.6286 8.1147 10.26935 4.7913 4.7704 4.7771 4.829 4.74174 4.3588 4.3368 4.388 4.4655 4.5554 4.6402 4.7189 4.536684 4.806 4.942 5.1957 5.5877 5.1673 5.9399 4.714334 5.3169 6.5404 7.4068 6.5998 4.8295 3.643417 5.5465 1.8427 1.6267 0.8112 1.7682 2.438 2.6675 2.8946 3.1892 3.2106 3.147 3.2498 3.3906 3.65536 3.7831 4.3922 6.0582 26.8575 7.3844 16.53788 7.2054 6.0019 4.9735 4.2493 3.7696 5.6815 5.357367 4.835 4.3179 3.7858 3.2534 2.7362 2.2312 2.072733 1.7508 1.3261 0.9843 0.7316 0.5536 0.428 0.4526 0.335 0.2617 0.2009 0.1498 0.1940333 0.2678 0.2689 0.1923 0.1296 0.0819 0.0483 0.0264 0.02313333 0.0134 0.0063 0.0028 0.0011 0.0004 0.0001 0.0001666667 0.0001 0.0001 0.0001222222 0.0001 
0.0001 0.000103125 0.0001 0.0001111111 0.0001 0.0001666667 0.0001 0.0002 0.00075 0.00274 0.0035 0.0073 0.0142 0.0262 0.0765 0.0468 0.0824 0.1489 0.2842 0.5446 0.2308 2.638883 0.4383 0.718 1.3255 2.4137 3.6881 4.1859 4.7509 3.6837 2.7832 2.1818 3.1162 4.6067 6.1368 7.411033 7.5037 8.5666 9.2741 9.6645 9.8258 9.68634 9.10956 7.9581 7.4867 6.933 6.3301 5.7091 5.71175 5.1035 4.5524 4.1062 3.8276 3.295 3.996 3.549333 4.5582 5.1031 5.4523 5.2522 5.5787 5.263183 5.4204 6.6312 8.8978 46.6628 26.7096 6.7247 9.556883 4.5507 4.5168 4.4488 4.3713 4.315 4.3039 3.7579 3.121 3.0561 3.0661 3.1185 3.164 3.1861 3.283233 3.1764 3.1666 3.35 4.7411 5.8982 3.796867 2.5128 2.5203 2.5268 2.5482 2.7164 3.0502 3.175433 1.2364 1.8772 1.3948 1.148 1.8094 2.3367 2.559217 2.7336 2.9374 2.9743 2.9992 3.1621 3.24732 3.54196 3.6504 4.1438 10.4037 59.7019 14.8417 10.2138 10.098 8.0767 6.6952 5.7051 5.0797 5.6095 5.635533 5.4676 5.1229 4.6519 4.1132 3.5503 2.9936 2.7645 2.4725 2.0153 1.6389 1.3435 1.1163 0.9391 0.91825 0.7948 0.6706 0.5583 0.4539 0.3569 0.454125 0.5319 0.4017 0.2822 0.1836 0.1103 0.0611 0.05678333 0.0311 0.0146 0.0063 0.0025 0.0009 0.0003 0.00034 0.0001 0.0001666667 0.0001 0.0001222222 
0.0001 0.0001 0.0001125 0.0001 0.0001333333 0.0001 0.0003 0.0007 0.0014 0.0016 0.007 0.0161 0.039 0.0995 0.2764833 0.2569 0.6299 1.376 2.635 1.9886 5.3778 8.1293 9.7117 13.8658 16.5098 16.8401 14.6079 11.064 11.2803 8.4377 7.1057 7.853 7.4902 6.6892 10.14648 6.5742 7.4678 8.2778 8.8939 9.277 9.3918 10.40122 8.2275 9.5764 8.1003 6.977 6.1529 5.1727 5.38975 4.107 3.6891 3.3252 2.2064 2.2943 2.939717 1.9861 2.2955 2.7314 3.6054 4.3222 4.7296 5.214917 4.8116 4.8872 40.212 25.0659 7.0007 4.172 4.496833 4.1506 4.0738 3.9353 3.7271 3.49 3.2699 3.10108 2.38502 2.059 1.8913 1.9271 1.9579 2.054567 1.9541 1.8579 1.5361 0.7347 8.1366 1.6299 2.154283 1.6331 1.6341 1.6305 1.5793 1.3424 2.63 2.12395 1.76 1.4959 1.3155 1.5276 1.9174 2.3241 2.503183 2.6283 2.8458 2.8248 2.9305 3.1081 3.19162 3.326 3.5597 4.8142 36.8076 11.9918 11.9206 10.99135 9.8327 8.6538 7.6446 6.9214 6.2201 6.1673 6.08845 6.0523 5.7952 5.4044 4.9184 4.3809 3.8319 3.558 3.307 2.8345 2.4301 2.0962 1.8244 1.731717 1.6011 1.4115 2.0583 0.8458 0.768 0.6588 0.76882 0.80516 0.787 0.5673 0.381 0.2371 0.1363 0.11965 0.0724 0.0355 0.0161 0.0067 0.0026 0.002283333 0.0009 0.0003 0.0001 0.0001666667 0.0001 
0.0001 0.0001 0.0001 0.00015 0.0001 0.0002 0.0006 0.001366667 0.0014 0.0031 0.016775 0.043 0.1211 0.3432 0.4402167 0.8863 1.9811 3.9435 5.4819 11.1979 14.8881 14.02738 18.1291 22.2717 24.8819 23.8512 22.4874 19.23923 20.9915 19.319 14.3603 14.5103 16.2747 18.0354 15.45395 18.8366 18.5943 18.2926 17.4169 15.7113 13.0001 13.56433 11.5609 12.77109 15.195 12.3534 9.3841 6.90275 7.062 5.1842 3.3193 2.4616 2.9639 3.0031 3.039417 3.0638 3.2491 3.6184 3.8744 3.9681 4.2664 5.456316 6.4828 13.0043 15.6312 5.7918 3.8525 3.7718 3.85465 3.6112 3.4534 3.3058 3.0484 2.8127 2.5271 2.3819 2.2835 1.4055 0.8173 0.882 0.9728 1.83345 1.0925 1.2586 1.5412 1.5757 0.958 0.6161 1.1686 0.6356 0.6803 0.7907 1.0365 1.774 2.3309 2.038883 1.7362 1.0408 1.5095 1.7526 2.0549 2.203583 2.3576 2.6388 2.7874 2.7527 2.8981 3.0777 3.186967 3.2842 6.989625 9.3022 7.9403 10.2244 10.1208 9.683133 9.1343 8.5017 8.0731 7.4757 6.9223 6.6932 6.548383 6.5408 6.3289 6.0131 5.6018 5.1256 4.82695 4.6208 4.1222 3.6572 3.2432 2.8862 2.5834 2.450533 2.326 2.1022 2.1508 1.8034 1.5234 1.271 1.29334 1.0255 1.2797 0.9632 0.6775 0.4427 0.37065 0.2676 0.1494 0.077 0.0366 0.0161 0.0065 0.005 0.0025 0.0009 0.0003 0.0001 0.0001333333 
0.0001 0.0001 0.0001 0.0001 0.0003 0.0008 0.0017 0.002183333 0.0035 0.0075 0.0169 0.039 0.1053 0.2942 0.5661167 0.7612 1.6459 2.53 6.3895 10.6752 13.45183 15.5558 20.5018 22.6039 22.0131 23.2265 24.2182 22.01722 22.0664 17.682 17.7082 17.2996 18.4987 20.5337 16.62082 22.0546 22.3888 21.9985 21.1658 20.2126 20.0409 13.53095 19.1648 17.5727 11.02974 7.6605 7.2156 7.84265 6.4292 5.3476 4.9383 3.8125 3.7889 3.8786 3.726717 4.0106 4.1989 4.4323 4.667 4.9576 5.4976 7.746367 6.9499 7.4845 5.5291 4.0385 3.9097 3.7991 3.497283 3.6232 3.3782 3.0387 2.6724 2.4321 2.16045 2.0653 1.7637 1.74195 2.0963 2.2186 2.3822 2.127817 2.6412 2.0877 1.2503 0.9366 1.0447 1.2597 1.191317 1.2372 1.2745 1.3705 1.539 1.9001 1.939333 2.1429 1.6333 0.8833 1.5795 1.8967 2.1597 2.294083 2.4078 2.7043 2.7227 2.7414 2.8894 3.0651 3.167917 3.2607 3.5012 24.8688 5.0488 8.2803 8.7174 8.714117 8.373 8.2798 7.9443 7.5859 7.2166 7.017317 6.9923 6.8444 6.6782 6.4387 6.114 5.7195 5.445683 5.283 4.8346 4.4003 3.9983 3.6382 3.3222 3.165733 3.0461 2.8015 2.6634 2.4453 2.1913 1.9094 1.7509 1.602 1.465571 1.4072 1.0293 0.7 0.67345 0.4402 0.2552 0.1362 0.0669 0.0302 0.0126 0.006533334 0.0049 0.0017 0.0006 0.0002 0.0001 
0.0001 0.0001 0.0001 0.0002 0.0005 0.001 0.0022 0.00285 0.0037 0.0076 0.0163 0.0698625 0.1035 0.2656167 0.2992 0.8126 1.4515 4.3467 8.6954 12.5383 12.94753 15.8557 17.0526 16.1464 16.8838 18.6213 20.7712 19.84003 21.5686 19.4737 16.7794 14.2047 12.3781 10.82 12.45077 9.4446 8.5004 8.0344 8.1219 8.5843 11.93727 8.7237 8.6953 8.3415 7.9927 8.0924 8.2446 9.166817 8.7204 10.9837 6.0763 5.7015 4.3417 4.1919 4.571983 4.2123 4.2133 4.1638 4.0497 3.9925 15.8712 7.617267 7.4103 4.4147 3.4342 3.109 2.9476 2.795017 3.052 3.1264 2.9776 2.4957 2.029 1.8365 1.883517 1.289 1.1319 1.4758 2.9616 3.0087 3.3256 2.710883 2.3526 2.0641 1.8899 1.585 2.297 1.916667 1.707 1.6923 1.6117 1.602 1.5443 1.3149 1.78245 2.1732 2.5842 1.4057 1.7863 2.042 2.2574 2.407133 2.5271 2.7693 2.6866 2.7548 2.8989 3.0675 3.164317 3.2523 3.4671 9.3709 6.0416 7.8027 8.37775 8.0699 7.8693 7.7114 7.5799 7.4161 7.2154 7.082133 7.0641 6.9571 6.8441 6.6797 6.4437 6.1397 5.908967 5.7855 5.4048 5.0205 4.6508 4.3079 3.9974 3.832417 3.7193 3.4683 3.2654 3.0521 2.8071 2.653017 2.5178 2.1797 1.8017 1.651843 1.3964 0.9761 0.9203833 1.2141 0.0549 0.0526 0.0347 0.0189 0.0089 0.0092 0.0038 0.0014 0.0005 0.0002 0.00016 
0.00010625 0.0001 0.0001 0.0002 0.0004 0.0009 0.0018 0.003466667 0.0042 0.0083 0.0168 0.0385 0.2226 0.37366 0.5689 0.9449 2.586 5.0026 7.43 9.9546 14.33687 13.1056 15.9534 17.783 17.5986 15.0025 13.7979 16.10835 16.6179 16.0603 15.1845 12.0188 9.1999 8.083467 6.5447 5.307 5.6694 6.0388 6.4073 6.8021 6.783933 7.26 7.6556 7.8843 8.0064 7.4486 6.0767 9.389 18.3144 7.1429 6.7512 6.5399 6.2344 6.0122 5.133533 5.1263 5.3506 5.8683 6.9275 8.1368 6.394283 7.5603 2.4143 2.164 1.8323 1.5449 1.3882 1.706817 1.6735 1.9852 2.0883 1.7393 1.0274 1.4461 2.15215 2.2321 2.61 2.791 2.976443 3.589 3.13642 2.7128 2.8509 2.5873 2.2527 1.9161 3.1681 2.356533 2.0235 2.0972 2.0618 1.8032 1.7313 1.731 1.8398 1.4326 2.5309 1.8497 2.036 2.214 2.4185 2.517017 2.6723 2.7971 2.7006 2.7879 2.9237 3.007083 3.0831 3.2572 15.3507 7.3181 7.663772 12.0103 7.858933 5.3859 6.6702 6.997 7.0934 7.0945 7.0341 6.975783 6.9703 6.9197 6.8618 6.7661 6.6125 6.3971 6.217817 6.129 5.8252 5.5042 5.1829 4.8744 4.696983 4.5867 4.3228 4.0799 3.861 3.6414 3.3946 3.236517 3.0979 2.738 2.3172 1.8575 1.7536 1.2473 0.9241667 0.9446 0.4771 0.2291 0.1046 0.045 0.02698333 0.0182 0.0068 0.0024 0.0008 0.0002 0.0001 
0.0001 0.000125 0.0001 0.0003 0.0007 0.0014 0.002183333 0.0029 0.006 0.0128 0.0305 0.081 0.26582 1.28664 0.6741 1.8433 3.5846 6.2399 9.5628 14.6281 19.20005 19.9389 25.2951 27.9686 26.5819 21.6073 21.99247 14.3963 9.4982 13.3093 12.4906 8.5218 4.7454 5.543217 4.8127 4.1557 4.2354 4.3779 4.3878 4.2918 5.40405 5.0417 6.0483 6.5149 6.7215 6.6756 7.7789 9.25042 7.199 6.9464 6.4707 6.5964 6.9151 6.181067 6.0831 5.1754 3.9445 22.6778 4.2025 2.1697 3.425517 0.6352 0.7262 0.8815 0.8999 0.8699 0.4797 1.516467 0.6999 1.0311 1.6316 2.4791 2.7318 2.9262 2.766533 3.183 3.4882 3.533 3.476 3.32 3.06022 3.046 3.0524 2.8788 2.7438 2.6103 2.682 2.83845 2.2616 2.3954 2.4022 2.3241 2.1247 2.2139 2.38845 2.1732 2.3849 1.5936 1.5164 2.1083 2.2857 2.4666 2.7602 2.7748 2.7414 2.8313 2.9596 3.0368 3.1097 6.0369 4.2745 6.4824 6.2352 7.7561 7.57116 6.1287 6.3614 6.5603 6.6877 6.7596 6.7833 6.783317 6.7875 6.7882 6.7788 6.7408 6.6573 6.558733 6.521 6.3346 6.1087 5.8572 5.5946 5.3332 5.17555 5.0823 4.8464 4.6248 4.4143 4.1985 3.9523 3.7888 3.6494 3.2701 2.8112 2.2921 2.28655 0.96994 0.6163 0.5466 0.3693 0.2125 0.1084 0.0499 0.0321 0.021 0.0081 0.0029 0.0009 0.0003 0.0001 
0.0001 0.0001 0.0002 0.0004 0.0008 0.002 0.003983333 0.0041 0.0115 0.0345 0.1029 0.2872 0.6998 1.803225 4.2678 8.0952 13.2471 14.956 19.6396 20.85785 26.2439 31.3292 32.0314 33.5249 36.6895 35.9419 28.65248 31.2089 23.4217 18.1027 12.8758 7.9981 4.7403 8.01675 3.2163 2.8715 3.056 3.6277 4.2233 4.5818 5.3316 4.4469 4.2054 4.7129 5.7092 7.1811 6.71026 7.14678 6.8831 7.5564 7.6528 7.539 6.4359 8.44775 5.4057 6.7013 39.1389 8.5894 4.4379 1.267 1.775883 0.7841 0.5702 0.4249 0.6831 1.2275 2.4167 1.824017 2.4408 2.2877 2.094 2.1916 3.2287 2.941 3.3384 3.4734 3.6747 3.7045 3.5032 2.7118 3.127625 3.2415 3.1499 2.9876 2.4015 1.9257 1.1573 3.77065 5.7382 2.9993 2.6568 2.4353 2.0641 2.830083 3.978 2.802 2.6085 1.7598 1.2078 2.0217 2.352717 2.4851 2.7866 2.7373 2.7767 2.8752 3.0007 3.512617 3.144 8.7147 2.7673 5.2896 10.1607 7.65674 6.96398 6.5748 6.4051 6.3942 6.4382 6.4959 6.545567 6.5433 6.5814 6.6152 6.6408 6.6461 6.6177 6.563383 6.5468 6.4322 6.2791 6.0969 5.8971 5.6905 5.559817 5.4862 5.2893 5.0998 4.9124 4.7115 4.4724 4.305017 4.1662 3.7688 3.2729 6.0622 0.5066 0.743475 0.7259 0.4789 0.2982 0.1697 0.0876 0.041 0.0294 0.0175 0.0068 0.0025 0.0008 0.0002 0.0001 
0.0001 0.000125 0.0001 0.0003 0.0009 0.0028 0.005766666 0.0107 0.0365 0.1189 0.3539 0.9245 1.5712 2.89242 5.3112 8.5222 12.348 19.8654 25.3453 20.13202 29.7274 28.2324 27.8804 30.2009 33.5857 34.0013 33.45837 34.7592 34.4612 29.2961 24.1521 21.2652 18.6041 17.17717 11.9817 6.3964 6.5567 6.9199 7.2342 7.0769 7.222967 6.5505 6.5066 6.7123 6.8466 5.6956 6.36012 6.2201 7.6528 8.738 9.5917 9.9926 10.9986 18.88262 14.8481 45.3692 12.8266 6.8177 5.1532 3.9962 2.456817 1.8031 1.7624 1.84 1.9758 2.1766 2.39085 2.3776 2.5294 2.5987 2.5855 2.6866 2.8025 2.790633 2.6184 2.4473 2.3553 8.5451 2.5553 3.5112 4.94476 4.5609 3.0194 2.3726 1.4481 0.7375 2.341383 2.0656 8.7192 3.7267 3.0081 2.9291 2.977 2.978917 3.6228 3.0939 3.4175 1.899 0.8823 2.0626 2.18505 2.972 3.4135 3.126 2.8898 2.9434 3.0861 4.4043 5.7756 5.3033 3.9015 8.4883 6.5797 7.552 7.0569 6.8083 6.5441 6.3959 6.3349 6.3327 6.373183 6.3586 6.3969 6.4414 6.4853 6.5183 6.529 6.509533 6.5085 6.4528 6.3634 6.2458 6.1082 5.9594 5.859817 5.8073 5.6568 5.5075 5.3524 5.1749 5.0453 4.9485 4.6413 4.2257 8.5592 1.8144 1.1251 0.92628 0.6378 0.5206 0.292 0.153 0.0743 0.0333 0.0244 0.0137 0.0052 0.0018 0.0006 0.0002 0.0001 
0.00010625 0.0001 0.0001 0.0002 0.0009 0.0031 0.005316667 0.0119 0.0431 0.1415 0.4095 0.9702 1.2248 2.7399 5.1834 3.0587 5.0389 7.5871 9.7314 13.25758 10.1045 14.1295 19.1346 24.2812 27.0672 30.4187 29.67837 34.4202 37.7289 37.7385 36.188 34.8967 29.62823 33.3299 31.1907 26.9244 20.6756 19.6892 12.9275 13.72707 11.6309 9.0508 8.144 7.3247 5.6776 6.2808 7.967033 6.423 11.0195 12.2582 12.3897 14.0706 18.7593 30.08403 56.8481 16.6274 9.1171 6.1516 4.6718 3.623067 3.4594 3.4311 2.4452 2.5551 2.7363 2.978 2.515617 3.1687 3.2508 3.191 2.9404 2.7433 2.5365 2.036283 2.2193 1.8253 1.4654 1.1725 4.0725 4.5586 8.04372 10.7007 2.693 2.179 1.5794 1.6508 3.419083 6.5114 7.8128 3.3235 3.2216 3.0552 2.4592 2.732483 2.7724 3.1596 4.8588 3.1026 0.9849 1.2518 1.7088 2.3171 3.2877 4.0594 4.1076 4.028 7.6105 6.1003 3.8089 5.1006 7.5822 5.6352 6.3874 6.870367 7.2925 6.874928 6.6823 6.4764 6.3353 6.264 6.27745 6.2446 6.2588 6.294 6.3396 6.3852 6.42 6.4259 6.4352 6.4251 6.3885 6.3278 6.2484 6.185266 6.1566 6.0589 5.9587 5.8546 5.7374 5.5879 5.46585 5.3766 5.0681 10.9357 2.7938 2.096 1.3982 1.231 0.8756 0.588 0.3104 0.1524 0.0695 0.05021667 0.0294 0.0115 0.0042 0.0014 0.0004 0.0001 0.000125 
0.0001 0.0001 0.0001333333 0.0001 0.0002 0.00102 0.0008 0.0026 0.0092 0.0302 0.0922 0.3362 0.8168167 0.8068 1.6603 1.936475 0.317 0.7346 1.5672 4.202833 3.0697 5.4574 8.8065 11.8083 15.4289 17.9588 19.9668 24.504 28.5603 31.7982 34.3364 35.0951 30.69767 34.5784 33.9487 33.2344 30.5203 22.5275 23.199 21.2237 20.2939 18.2134 15.052 9.4757 10.0796 10.9326 11.07292 12.2501 14.6457 19.9681 20.9507 22.1723 30.24155 59.4906 19.5595 9.7251 5.9786 3.4203 2.4452 2.59685 2.0126 1.9229 2.1107 1.9786 2.0381 2.1625 1.85135 2.2303 2.1216 10.0631 2.2724 1.713 1.2366 1.402783 0.8044 0.4548 0.1602 3.3218 4.8571 5.028783 5.3378 16.1103 7.853588 2.945 3.0897 3.7492 4.703084 5.8 6.6147 3.3514 3.3561 3.275 2.788 2.365683 1.7755 2.866 3.8484 7.1807 1.8885 0.4106 1.226333 1.2387 2.2128 3.2534 4.0807 4.3449 7.546933 14.155 2.1657 9.6087 5.0493 5.7882 6.3206 6.836817 7.09 6.9174 6.7899 6.5802 6.3952 6.2672 6.248917 6.1976 6.1752 6.187 6.2212 6.2665 6.29665 6.3125 6.3502 6.3732 6.3784 6.3658 6.3384 6.30855 6.3006 6.2564 6.2075 6.1504 6.073 5.9524 6.367767 5.7548 10.052 5.3257 3.8737 2.6577 1.717 1.362983 1.0391 0.6617625 0.3295 0.1551 0.0676 0.047 0.0272 0.0102 0.0035 0.0011 0.0003 0.0001 0.0001 
0.0001 0.0001111111 0.0001 0.00015 0.00015 0.0003666667 0.0001 0.0002 0.0005 0.0016 0.0056 0.0146 0.1991167 0.0332 0.0677 0.1262 0.0396 0.0979 0.4459167 0.2309 0.5133 1.0654 2.0568 3.6632 5.9695 9.03235 8.9017 12.113 15.0603 17.6546 19.9425 22.102 23.74598 24.1839 26.1285 27.6937 29.8073 32.8418 32.1202 26.89423 27.1707 24.4079 18.8769 19.1 15.6401 14.3321 16.44678 16.2189 16.5465 25.56191 27.0782 50.6616 26.76167 16.2949 8.4184 7.2067 5.2631 2.4037 1.7293 1.71165 1.2628 0.9203 0.6233 0.5396 0.4195 0.3063 0.8371834 0.2623 6.1939 19.236 1.6361 1.0792 1.484217 0.8769 0.743 0.1229 0.0361 4.4104 5.3468 7.17425 5.9999 21.603 3.0228 3.5749 3.8566 4.1866 5.622733 6.3205 5.0166 3.2862 3.4998 3.3192 2.8041 2.485017 1.5949 2.2114 3.067 8.7957 4.4961 2.806217 1.7776 0.3622 1.0147 1.9899 3.2217 12.8175 8.2991 2.3257 11.752 3.5599 6.6193 7.2825 6.905 7.474017 7.0254 6.9625 6.899787 6.6829 6.4808 6.4075 6.3163 6.2038 6.1428 6.1246 6.1387 6.1743 6.20745 6.2214 6.2709 6.3162 6.3531 6.38 6.398 6.398334 6.4093 6.4158 6.4168 6.4056 6.3663 6.2711 7.396767 9.2638 6.3376 5.6006 4.3411 3.0539 2.425767 1.9726 1.1754 0.6473 0.3288 0.1506 0.0635 0.0433 0.0248 0.0089 0.003 0.0009 0.0003 0.0001 0.0001 
0.0001037037 0.0001 0.000125 0.0001333333 0.0001916667 0.0001 0.00015 0.000225 0.0005 0.001357143 0.0013 0.0012 0.008933334 0.0027 0.0062 0.0155 0.038625 0.0138 0.06416667 0.0311 0.0727 0.1647 0.3549 0.723 1.3878 3.198933 2.5394 4.145 6.0834 8.2033 10.2929 12.291 13.72073 14.2255 16.2397 18.5938 21.5676 25.4539 29.109 27.38723 29.4726 28.4362 30.3734 27.7367 24.0372 20.98567 22.1094 22.8376 24.1281 25.8661 55.3119 8.4136 13.24117 3.537 4.1962 5.204 5.9771 1.5191 1.4021 1.44215 1.4179 1.3122 0.5315 0.1575 0.0915 4.441117 0.0466 0.0151 11.7918 21.0559 6.355 2.0248 2.164 1.9748 1.1592 5.7666 3.7894 4.1043 5.3609 8.773283 16.143 13.1731 3.4745 3.45 3.2578 5.9324 6.6021 7.7477 4.0817 3.2277 3.5869 3.5797 3.507967 3.2509 2.6967 3.2201 1.5011 6.7824 6.6993 4.08955 1.5652 1.0917 1.162 1.6994 12.4006 5.9693 8.379216 10.1822 1.586 4.0133 7.0885 9.0078 9.1213 8.806983 8.3818 7.3748 6.9127 6.9779 6.5944 6.612633 6.3911 6.2465 6.1519 6.1035 6.094 6.1144 6.14545 6.1556 6.2092 6.2685 6.3287 6.3875 6.4443 6.471233 6.4994 6.5524 6.5996 6.6303 6.6236 8.278983 11.5006 5.6379 5.8306 5.3282 4.3067 3.1156 2.510517 2.0378 1.2129 0.6597 0.3685375 0.1349 0.0556 0.03776667 0.0211 0.0074 0.0024 0.0007 0.0002 0.0001 0.0001 
0.0001 0.0001125 0.0001194444 0.0001375 0.0001 0.000125 0.000135 0.0001 0.0001 0.0001 0.0003 0.0006166667 0.0006 0.0013 0.0024 0.0041 0.0071 0.0048 0.01226 0.0065 0.0079 0.012 0.0254 0.0583 0.1283 0.7245833 0.2669 0.5267 0.9844 1.7269 2.773 4.0464 6.095833 5.4756 7.0882 9.126 11.9495 16.0014 17.25737 22.5705 23.8804 28.8878 31.3275 31.0968 26.9975 21.8594 22.7977 21.5471 20.9125 23.9299 16.59844 0.3022 2.14285 0.2377 0.1854 0.1172 9.0126 0.6149 0.9280834 0.9781 1.8627 3.7786 7.349 10.4459 12.7889 14.74022 12.9939 9.3498 21.5044 31.6214 6.4491 4.2906 3.802833 2.7377 4.0086 7.8523 6.1087 7.2987 8.8764 9.337334 10.9127 7.1522 3.4552 3.4113 3.5469 6.73396 9.5903 5.8351 3.9484 3.4351 3.8456 4.0699 4.075617 4.024 3.7071 4.0757 4.3351 5.6868 5.6215 4.126333 4.3776 0.12 0.3369 0.7932 8.0368 17.829 7.297067 1.1516 2.0902 4.286 7.003 9.2556 9.44285 10.628 10.7804 9.5695 8.0546 8.098075 7.3265 7.30205 6.5667 6.3201 6.1915 6.1164 6.0841 6.0876 6.113517 6.1194 6.1721 6.2396 6.3171 6.4016 6.4512 6.4914 6.585 6.6794 6.7672 6.8327 12.3797 8.554317 6.5326 6.1604 5.7684 5.0851 4.0792 2.9529 2.40865 1.9303 1.1426 0.6143 0.301 0.1117 0.0449 0.03073333 0.0167 0.0057 0.0018 0.0005 0.0001 0.000125 0.0001 
0.00010625 0.0001106482 0.0001173611 0.0001 0.0001125 0.000112 0.0001 0.0001 0.0001 0.00015 0.0001 0.00026 0.0002 0.0005 0.001 0.0018 0.0032 0.004 0.004875 0.0051 0.0081 0.0115 0.0141 0.0149 0.0135 0.105075 0.0116 0.0136 0.0262 0.0574 0.1163 1.786025 0.2084 0.3281 0.464 0.5988 0.6693 0.5378 8.193833 9.8716 4.6059 8.1461 12.7689 20.3747 22.5411 17.58092 12.6735 5.6849 4.0905 1.8747 0.4907 0.2931 0.1766 0.19 0.2444 0.3483 0.5038 0.5243 0.6025167 0.53 0.4817 0.6376 1.1647 2.3226 4.5825 17.2929 57.9379 29.5349 37.8701 33.6581 4.6553 4.9183 3.6748 6.8708 6.7531 7.475 7.1864 7.6216 8.534317 7.7399 6.9911 4.7388 3.5805 3.5642 5.37268 7.62292 11.3424 7.4959 5.0524 4.3382 4.1545 4.7134 4.701117 4.8158 4.5863 4.8443 5.0914 5.4154 5.4956 3.7534 0.9988 0.9097 0.8946 1.098 20.0911 11.61957 8.1608 0.4895 1.0067 2.872 5.5571 8.248 9.279783 10.3964 11.8269 12.015 10.6703 8.8942 9.354 8.16434 7.5796 6.5789 6.2726 6.1568 6.1033 6.10625 6.0911 6.113 6.1629 6.2355 6.3264 6.4322 6.498067 6.5502 6.6772 6.8069 6.9274 12.0771 7.2626 7.97665 7.0268 6.488 5.7918 4.8813 3.7952 2.6885 2.194283 1.7268 1.0048 0.5303 0.2547 0.1668 0.06018 0.0339 0.0122 0.0041 0.0013 0.0004 0.0001 0.0001 0.00010625 
0.0001084491 0.0001085648 0.0001 0.00010625 0.0001049 0.0001 0.0001 0.0001 0.0001125 0.0001 0.0001 0.000125 0.0001 0.0002 0.0005 0.0009 0.0018 0.0031 0.002675 0.00322 0.0014 0.001 0.0006 0.0002 0.007175 0.01255 0.008433334 0.01038 0.01648333 0.03418333 0.044625 0.084475 0.142225 0.1800667 0.2211143 0.0006 0.0019 0.0927 1.809017 0.089 0.31 1.1521 3.6899 9.4174 13.043 11.90835 7.4327 3.168 1.3414 0.458 0.2029 0.88754 1.23458 1.3625 1.2544 1.2939 1.4134 0.4543 1.9816 0.5135 0.5369 0.4219 0.2096 0.2303 4.2723 18.96808 11.1819 8.5491 6.8345 1.2115 0.7225 4.347333 1.1604 2.071 51.2683 14.4045 13.635 10.811 6.828033 8.8583 6.9428 5.7168 5.8733 7.093 9.248 7.6505 4.387 2.9269 3.1454 4.3012 4.8578 5.1105 5.407017 5.4731 5.4408 5.1959 5.1068 4.7026 4.602 4.5926 1.4343 1.2975 1.2691 12.9556 7.5937 9.152683 8.006 1.1621 1.605 2.8428 4.955 7.4416 8.866734 9.7091 11.5775 12.7434 12.8002 11.4999 11.07686 10.32316 9.9949 7.992 6.7177 6.2636 6.1505 6.153633 6.1209 6.1342 6.1817 6.2585 6.3609 6.4852 6.564333 6.6278 6.7828 6.9406 11.8197 7.3516 7.4619 7.297067 7.1963 6.5901 5.7118 4.6343 3.4737 2.3818 1.929083 1.4854 0.8407 0.432 0.2021 0.0864 0.0518 0.024 0.0084 0.0027 0.0008 0.0002 0.0001 0.0001 0.0001 
0.0001056713 0.0001 0.000103125 0.00010223 0.0001 0.0001 0.0001 0.000103125 0.0001 0.0001 0.000105 0.0001 0.0001 0.0002 0.0003 0.0005 0.0007 0.0011 0.00116 0.0014 0.0001 0.0001 0.0001 0.0001 0.00015 0.004086905 0.0001 0.0001 0.0004 0.0012 0.0036 0.006 0.0096 0.0228 0.0475 0.086 0.1322 0.137 0.1000167 0.126 0.184 0.9272 3.1151 6.6675 7.715617 8.7974 6.9624 5.364 2.7825 2.2847 1.9423 1.9328 1.6252 2.8186 3.0075 3.4198 4.0429 4.4482 4.997033 5.4193 6.5197 7.5772 8.4341 8.8377 8.5548 14.6475 21.1864 14.6902 5.6321 4.3446 6.438 5.721967 8.1895 10.6348 16.2356 5.9401 5.1096 3.363 6.208583 2.5744 1.8496 0.958 29.9389 8.3681 5.6246 5.46336 3.5445 3.1868 3.5832 4.8783 5.5794 5.76815 5.9975 6.3318 5.9336 5.065 5.019 3.8325 4.03495 3.5733 2.4317 12.1881 0.0908 1.7447 4.539 5.368617 6.5255 3.6958 4.1607 4.9429 6.234 7.8355 8.855634 9.5698 11.2233 12.6182 13.4762 13.4113 12.95916 12.2249 12.4624 10.1959 8.1239 6.7875 6.277 6.2766 6.179 6.18 6.2264 6.3085 6.4221 6.5634 6.652933 6.7272 6.9048 10.9653 7.6697 7.7086 7.606 7.4181 7.2288 6.5029 5.485 4.3002 3.1066 2.689067 2.0556 1.2364 0.6749 0.3352 0.1518 0.0629 0.04642 0.0114 0.0054 0.0017 0.0005 0.0001 0.000125 0.0001 0.0001 
0.0001 0.0001015625 0.000101071 0.0001 0.0001 0.0001 0.0001007813 0.0001 0.0001 0.000101 0.0001 0.0001 0.00015 0.0002 0.000275 0.0001 0.0006 0.0006333333 0.0001 0.0001 0.000425 0.0001 0.0001 0.0001 0.0001 0.00011 0.0001 0.0001 0.0003 0.0011 0.0031 0.004966666 0.0077 0.0164 0.029 0.0301 0.0291 0.07998333 0.0533 0.1021 0.2873 0.9442 2.4356 3.989 5.372033 4.3794 3.1634 3.3618 4.1408 3.3205 3.0468 2.677517 2.8468 3.55855 4.1276 4.734 5.5968 6.916183 9.0254 10.1215 10.9452 11.3199 11.1508 10.0633 12.14738 13.2777 10.6629 5.4047 3.4955 5.5637 6.0245 10.05897 11.7969 14.3239 11.6707 7.7617 6.515 5.7835 5.441983 5.8613 6.3887 7.707 10.5005 4.2109 4.3778 4.29138 3.6794 3.5424 4.5433 5.537 6.1976 6.4902 6.8661 6.92 6.2023 5.2093 5.2877 3.9495 5.880267 3.5592 13.0876 1.7271 1.5798 1.5283 2.0909 3.799433 3.4566 4.5882 5.8494 6.5836 7.6311 7.965333 8.6833 9.8945 11.1458 12.3624 13.3718 13.9398 13.48642 13.7199 12.5977 11.9341 9.7128 7.791 6.6455 6.558733 6.2867 6.2496 6.294 6.383 6.5088 6.6662 6.763283 6.8478 8.1139 8.6712 8.3706 8.1224 8.156317 7.7923 7.2233 6.3463 5.2115 3.9516 2.991 2.611417 2.1257 0.9845 0.4896 0.2372 0.1057 0.0429 0.03184 0.0159 0.0033 0.001 0.0003 0.0001 0.0001 0.00010625 0.0001 
0.0001007813 0.0001005267 0.0001 0.0001 0.0001 0.0001001953 0.0001 0.0001 0.0001002 0.0001 0.0001 0.000125 0.00015 0.00018125 0.0001 0.0001 0.0001 0.0001 0.0001 0.0001 0.0001 0.00018125 0.0001 0.0001 0.0001 0.0001 0.0001 0.000175 0.0002 0.0006 0.0013 0.0017 0.0041 0.0084 0.0144 0.0323 0.0508 0.06413333 0.0775 0.1215 0.3172 0.9659 1.9902 3.493 4.1243 4.9059 4.2989 3.013 2.6693 3.1835 3.2256 3.790033 3.3784 3.6742 6.9901 7.8692 8.7989 8.881033 9.5849 15.2533 10.8097 9.7206 8.9001 9.7045 12.79195 16.3536 5.8763 4.2851 6.4434 7.0599 12.4954 12.7737 15.4095 14.2548 11.2306 9.006 8.2274 7.6445 7.343067 7.4252 7.2704 7.1765 6.7238 4.4496 4.373267 4.1049 3.6702 4.111388 4.9102 6.0754 6.7981 6.957716 7.5025 7.3728 6.4149 5.746 5.8453 4.9302 8.069134 15.4369 2.465 2.7897 2.2382 2.139 2.67365 2.5705 3.6141 4.9356 7.7915 7.5025 8.2577 8.486484 9.1504 10.111 11.0999 12.116 13.0469 13.6994 13.7218 13.9232 13.3918 12.9294 11.2703 9.1145 8.369184 7.4252 6.539 6.3533 6.3825 6.4787 6.6175 6.709067 6.7899 6.9852 7.7965 8.4073 8.5106 8.3605 9.493934 9.3481 9.6316 8.9845 7.4906 5.5681 3.6834 2.120733 1.7062 0.7512 0.3541 0.1641 0.0704 0.0276 0.01971667 0.0099 0.005442857 0.0005 0.0002 0.000175 0.0001 0.0001 0.0001015625 
0.000100327 0.0001 0.0001 0.0001 0.0001000488 0.0001 0.0001 0.00010004 0.0001 0.0001 0.0001125 0.000125 0.0001390625 0.0001 0.0001 0.0001 0.0001 0.0001 0.0001 0.0001 0.0001 0.0001 0.0001203125 0.0001 0.0001 0.0001 0.00013125 0.00015 0.0001 0.0003 0.00075 0.001 0.003 0.0079 0.0185 0.0385 0.0676 0.08226667 0.1065 0.1827 0.4932 1.3765 2.6651 3.7506 3.865317 4.2279 4.9635 4.1646 4.0408 4.3354 4.454683 4.813 5.4296 6.1642 7.089086 9.3144 9.5764 11.42108 10.7038 15.287 12.4674 11.25 11.3128 10.8636 12.48932 16.489 6.0652 8.1326 9.9371 12.2645 15.7032 15.65865 15.2127 13.4775 11.8151 10.6549 9.7813 9.585167 9.056 8.2879 7.5694 6.816 5.9206 4.8342 4.610483 4.2622 3.8449 3.8382 4.8625 6.2206 6.9802 7.100067 7.4018 7.8052 7.2738 7.0162 7.6737 9.0671 14.82 5.719 2.5793 3.3219 2.9259 2.9205 4.08255 4.7927 6.0111 7.1713 8.7469 7.096 8.151 8.46125 9.0454 9.9534 10.8678 11.7783 12.6272 13.3138 13.43817 13.7347 13.702 12.95047 12.4328 10.6196 9.570184 8.6193 7.2132 6.5625 6.4986 6.5923 6.7433 6.84635 6.9287 7.176 7.6801 8.236 10.1068 11.3197 11.30363 12.0206 11.5864 9.5103 6.3759 3.5628 1.5613 1.397167 0.6568 0.3657 0.2009 0.0977 0.0421 0.03135 0.0163 0.0057 0.0018 0.00065 0.0001 0.00015 0.00013125 0.0001 0.0001 
0.0001 0.0001 0.0001 0.0001000122 0.0001 0.0001 0.000100008 0.0001 0.0001 0.00010625 0.0001125 0.0001191406 0.0001 0.0001 0.0001 0.0001 0.0001 0.0001 0.0001 0.0001 0.0001 0.0001 0.0001 0.0001040625 0.0001 0.0001140625 0.000125 0.0001 0.000175 0.0002 0.00045 0.0007 0.0022 0.0066 0.0171 0.0379 0.0717 0.09265 0.1195 0.208 0.5075 1.2467 2.2137 3.004283 3.0838 3.7307 3.9569 4.1231 4.5156 5.1462 6.0876 6.0244 6.8841 7.3 8.3115 10.84727 14.2764 11.67885 15.5861 16.5133 16.4795 14.3831 14.759 13.6694 12.70365 7.8558 10.351 12.6181 14.3537 16.2128 17.29425 17.6831 17.448 16.3807 14.9061 13.4807 12.0123 11.70073 10.7895 9.3667 8.1712 7.1084 6.1724 5.3268 5.0284 4.6852 4.2386 4.2511 4.939 5.9283 6.4603 6.6835 7.2343 8.2827 9.0903 11.2046 15.2976 9.53645 5.8358 7.6375 3.8992 4.0976 3.9152 4.9026 5.906667 7.17 9.3789 9.7059 9.362 6.582 7.641 8.2666 8.522 9.4185 10.3062 11.1538 11.9513 12.42855 12.6858 13.2721 13.5779 13.3491 12.47194 11.785 10.82 9.8575 8.0739 7.003 6.661 6.7225 6.8804 7.00595 7.1183 7.3359 9.3022 11.0757 12.7209 13.7678 12.25222 13.0051 9.7759 5.7988 2.8039 1.1777 1.231533 0.4925 0.2828 0.1829 0.1061 0.0528 0.0229 0.0177 0.0088 0.003 0.001 0.0003 0.0001666667 0.0001 0.000125 0.0001140625 0.0001 
0.0001 0.0001 0.0001000031 0.0001 0.0001 0.0001000016 0.0001 0.0001 0.000103125 0.00010625 0.0001094727 0.0001 0.0001 0.0001 0.0001 0.0001 0.0001 0.0001 0.0001 0.0001 0.0001 0.0001 0.0001 0.0001 0.0001066406 0.0001125 0.0001 0.00013125 0.00015 0.0001 0.00032 0.0004 0.0014 0.0045 0.0127 0.031 0.04523333 0.0652 0.1254 0.2741 0.7433 1.6035 2.5554 2.374783 3.7571 5.0798 6.8235 7.8525 8.195 7.6726 7.224133 8.534 9.5733 10.9277 11.2853 12.3196 11.80898 10.2964 9.634 8.2971 6.6121 6.6394 15.3973 14.94788 7.9555 19.3886 14.2207 16.2002 18.1927 20.1848 20.63948 21.7171 22.064 20.8335 18.9414 17.2108 15.5647 13.70872 13.0006 10.9367 9.2397 7.8475 6.7323 5.8613 5.539967 5.2007 4.735 4.5958 4.8765 5.420075 6.37348 6.4889 7.4374 9.5974 12.8151 20.018 6.6544 8.55625 6.9372 6.4141 5.7607 5.5054 5.5097 6.3014 7.793 9.3528 11.4679 11.9281 11.3685 9.2034 8.160334 7.7463 8.4939 9.2814 10.0985 10.8894 11.6377 12.24672 12.3555 12.9596 13.3628 13.4167 12.9472 12.7532 11.9879 11.2854 9.3899 7.8839 7.0584 6.8957 7.0785 7.6176 7.2865 9.2298 11.3388 13.3984 14.5273 12.94805 13.5208 9.8793 5.6441 2.5552 0.9909 0.3851 0.44565 0.2098 0.1429 0.0947 0.0547 0.0271 0.0117 0.009316667 0.0044 0.0015 0.0005 0.0001 0.0001666667 0.0001333333 0.0001 0.0001125 0.0001066406 
0.0001 0.0001000008 0.0001 0.0001 0.0001000003 0.0001 0.0001 0.0001015625 0.000103125 0.0001047119 0.0001 0.0001 0.0001 0.0001 0.0001 0.0001 0.0001 0.0001 0.0001 0.0001 0.0001 0.0001 0.0001 0.0001025781 0.00010625 0.0001 0.0001140625 0.000125 0.0001 0.0001 0.0002 0.0002 0.0007 0.0024 0.0075 0.02 0.03276667 0.0456 0.0895 0.1573 0.2899 0.6154 1.084 1.70315 1.5547 2.5558 3.268 4.7027 6.3181 7.8837 7.818733 8.0839 8.5364 9.1011 10.0513 10.3435 10.30588 9.62538 9.3654 9.1715 8.7135 7.9839 5.89 22.83967 32.0161 29.0162 17.9607 19.7658 21.8394 23.705 23.21003 24.3341 23.8202 22.5824 20.5257 18.1113 16.2131 15.36503 14.6721 12.5404 10.567 8.8643 7.4976 6.994733 6.4772 5.6886 5.1827 4.9471 5.0998 5.7757 6.331175 6.991 8.9492 13.9146 21.5792 8.1041 8.1981 8.282766 8.4144 7.4062 7.275 6.9266 7.3517 7.72545 7.932 11.0992 13.5603 13.9102 16.4751 8.9286 9.993917 8.8607 9.549 10.2618 10.9735 11.6022 12.1447 12.69363 12.7053 13.2734 13.6987 13.8003 13.567 13.87564 14.19428 14.2584 12.8708 11.3904 10.4698 9.3528 9.338367 7.944 9.3979 11.2307 13.2161 14.5529 13.4139 11.18243 9.7376 5.5028 2.4247 0.8954 0.3289 0.2223 0.20345 0.1865 0.1102 0.0611 0.0314 0.0145 0.0059 0.004866667 0.0022 0.0007 0.0002 0.0001 0.0001 0.0001222222 0.0001138889 0.0001 0.00010625 
0.0001000003 0.0001 0.0001 0.0001000001 0.0001 0.0001 0.0001007813 0.0001015625 0.0001023499 0.0001 0.0001 0.0001 0.0001 0.0001 0.0001 0.0001 0.0001 0.0001 0.0001 0.0001 0.0001 0.0001 0.0001011406 0.000103125 0.0001 0.0001066406 0.0001125 0.0001 0.0001 0.00013 0.00015 0.0001 0.0003 0.001 0.0035 0.0101 0.01915 0.0247 0.0511 0.0924 0.1675 0.3096 0.4908 0.77335 0.7769 1.1866 2.0257 3.4275 4.9837 5.75505 6.5797 8.1585 8.7285 8.9782 9.1185 9.2178 9.5786 9.3521 9.479 9.8873 11.161 6.878 29.1653 30.84447 46.6138 31.5752 21.5029 23.0528 24.0846 24.6147 24.34885 24.7045 24.1408 22.8683 21.0087 18.714 17.8835 17.2954 15.4443 13.4968 11.5292 9.7546 8.2658 7.608634 7.1342 6.217 5.6252 5.3395 5.6073 6.0691 6.70814 10.43638 11.2371 18.8388 9.0952 9.1297 9.4348 9.6822 9.8103 9.4421 9.0252 8.8131 9.1399 10.14587 10.118 13.4859 16.4327 17.1041 21.502 13.1192 12.9072 12.1053 12.1574 12.4389 12.8542 13.2619 13.5058 13.76043 13.8128 14.381 14.7251 14.9812 15.1068 15.004 16.19895 17.6704 16.7121 16.3247 13.2905 12.3827 12.54832 12.3765 13.0674 14.2998 15.1326 13.8391 10.091 8.0623 5.804 2.6907 1.1048 0.4153 0.2625 0.1453 0.1175167 0.0717 0.0639 0.0443 0.0246 0.0115 0.006133333 0.0038 0.0012 0.0004 0.0001 0.0001333333 0.0001 0.0001 0.0001074074 0.0001053241 0.0001 
0.0001 0.0001 0.0001 0.0001 0.0001 0.0001003906 0.0001007813 0.0001011734 0.0001 0.0001 0.0001 0.0001 0.0001 0.0001 0.0001 0.0001 0.0001 0.0001 0.0001 0.0001 0.0001 0.0001005406 0.0001015625 0.0001 0.0001032227 0.00010625 0.0001 0.0001 0.000111 0.000125 0.0001 0.0001666667 0.0001 0.0004 0.0013 0.004 0.009016667 0.0105 0.0231 0.0432 0.0782 0.1457 0.2237167 0.2584 0.4753 0.8835 1.3097 1.8765 3.2855 4.567567 5.4796 6.8926 7.9277 8.5125 8.828 9.8956 11.11435 9.084 12.8886 15.9891 12.4508 23.5566 34.7456 35.44462 36.636 21.4793 23.0967 23.8566 24.3019 24.65545 24.4096 24.3252 23.7683 22.4004 20.9815 19.6656 18.01527 17.3016 15.3352 13.5514 11.7365 10.1215 8.696 8.075167 7.581 6.6745 6.0024 5.6668 5.9713 6.6455 7.79522 8.0594 16.9452 7.8709 9.2394 10.1974 10.84612 11.2973 12.3245 12.3353 11.8718 11.9835 12.3266 13.8574 14.007 19.157 21.8837 23.2898 27.1852 18.2656 16.90433 16.1638 15.1294 14.9822 14.9751 15.0851 15.1688 15.16603 15.2252 15.7809 16.1588 16.7864 17.4342 17.41223 17.863 20.30721 27.087 18.0355 16.7953 16.3903 16.34748 16.8436 17.3726 17.4205 15.429 11.1771 6.4502 5.0998 2.8771 0.9831 0.3089 0.2107 0.1104 0.10065 0.0548 0.0245 0.0098 0.0035 0.0011 0.0003 0.00332 0.0008 0.0004 0.0001 0.0002 0.0001 0.0001111111 0.0001 0.0001 0.0001024691 0.0001019483 
0.0001 0.0001 0.0001 0.0001 0.0001001953 0.0001003906 0.0001005863 0.0001 0.0001 0.0001 0.0001 0.0001 0.0001 0.0001 0.0001 0.0001 0.0001 0.0001 0.0001 0.0001 0.0001002644 0.0001007813 0.0001 0.0001015869 0.000103125 0.0001 0.0001 0.0001047 0.0001125 0.0001 0.0001222222 0.0001 0.0002 0.0001 0.0004 0.001233333 0.0013 0.0035 0.0081 0.0156 0.0271 0.0436 0.1001333 0.0942 0.2909 0.6786 1.1953 1.8418 2.837 3.66325 4.2399 6.005 7.9035 9.8162 11.6447 13.9167 14.9086 15.2199 15.1226 18.9748 29.6419 39.3939 38.08183 37.7492 27.7578 23.1536 24.5166 25.0578 25.2498 25.31262 25.2721 24.894 23.8694 22.4216 20.1294 17.9715 18.15842 17.1435 15.1666 13.4245 11.7349 10.2429 8.9099 8.40495 7.8641 7.0405 6.3254 5.8929 6.6701 7.423067 7.7866 10.4155 10.29861 8.0638 9.9374 11.4281 12.25613 13.342 15.2598 16.487 16.9301 17.3662 17.9793 17.1376 19.5736 22.1503 24.0833 26.6053 24.871 21.6664 19.92432 20.1057 18.6236 17.8115 17.2121 16.8881 16.67835 16.7462 16.5374 17.0161 17.3265 18.1236 19.063 19.7349 20.0024 21.0597 21.7559 20.769 19.9773 19.804 18.86083 20.2878 19.8944 17.4407 13.0385 8.0057 5.946683 3.8787 1.4978 0.4954 0.1391 0.0501 0.0214 0.0362 0.0095 0.004 0.0015 0.0005 0.0002 0.000425 0.0004333333 0.0002 0.0001 0.0002 0.0001 0.0001333333 0.0001 0.0001037037 0.0001 0.0001 0.000100823 
0.0001 0.0001 0.0001 0.0001000977 0.0001001953 0.0001002931 0.0001 0.0001 0.0001 0.0001 0.0001 0.0001 0.0001 0.0001 0.0001 0.0001 0.0001 0.0001 0.0001 0.000100131 0.0001003906 0.0001 0.0001007874 0.0001015625 0.0001 0.0001 0.00010219 0.00010625 0.0001 0.0001074074 0.0001 0.0001333333 0.0001 0.0002 0.0001 0.00044 0.0003 0.001 0.0023 0.0045 0.0078 0.0143 0.03536667 0.0446 0.1545 0.4266 0.9051 1.47 2.3596 3.120183 3.7779 5.8314 8.5018 11.7556 15.3329 19.0399 21.03913 22.2955 24.5966 31.8235 42.9227 49.1992 44.34023 43.8465 25.6619 24.5028 25.6611 26.2486 26.3464 26.25402 26.2959 25.8409 25.0027 23.7105 22.4323 19.3892 18.44105 17.4791 15.4324 13.6542 11.968 10.4983 9.9125 9.1787 8.2 7.4769 6.8683 6.697 7.6519 9.148283 9.813 15.8689 6.4412 8.724 10.5263 12.2382 13.44808 15.0338 16.7299 18.0019 18.7635 19.0502 19.2178 18.72257 19.7213 21.158 22.6194 24.3907 23.0043 22.43538 21.9966 21.3478 20.5131 19.5861 18.7859 18.2445 18.15828 17.9374 17.8388 17.8483 18.2285 19.1043 20.6073 24.77582 23.4395 36.1628 23.69784 21.9844 21.0902 19.94645 20.2995 19.5398 17.5554 13.7023 8.7741 4.4251 3.334883 1.7433 0.5814 0.2047 0.0857 0.0295 0.0144 0.01108333 0.0067 0.0028 0.001 0.0004 0.0001 0.00015 0.0002 0.00015 0.00015 0.0001 0.0001333333 0.0001 0.0001111111 0.0001 0.0001012346 0.0001 0.0001 
0.0001 0.0001 0.0001000488 0.0001000977 0.0001001465 0.0001 0.0001 0.0001 0.0001 0.0001 0.0001 0.0001 0.0001 0.0001 0.0001 0.0001 0.0001 0.0001 0.0001000653 0.0001001953 0.0001 0.0001003921 0.0001007813 0.0001 0.0001 0.000101063 0.000103125 0.0001 0.0001024691 0.0001 0.0001111111 0.0001 0.0001333333 0.0001 0.0001 0.0001666667 0.0001 0.0002 0.0005 0.0011 0.0018 0.0036 0.01656667 0.0119 0.0485 0.1645 0.4606 1.0478 1.9662 2.937233 3.5405 7.7994 9.4945 13.9058 19.1976 21.5762 25.0733 30.6895 30.0146 39.7763 53.5385 52.1319 47.59823 43.7207 36.5815 25.6361 26.6196 27.1096 27.3253 27.31715 27.0346 26.4609 25.3883 23.3778 21.3823 21.50273 20.4848 18.1782 16.0354 14.1989 12.4632 10.9711 10.38767 9.6741 8.7813 8.1018 7.5919 7.7098 9.162 9.62765 13.8061 5.908 6.8309 8.969063 11.0148 11.87315 12.85 15.7964 17.3082 18.0344 18.8134 18.9635 18.35828 17.7548 18.0886 18.4673 19.6277 20.2697 21.4609 21.67442 21.6131 21.497 21.0679 20.3837 19.6816 19.1225 19.16838 20.011 18.7318 18.529 19.0339 20.7762 24.4222 29.50583 41.1205 23.2785 22.9582 21.6142 20.2338 18.0123 18.2739 15.6852 11.9987 7.6543 3.848 1.479 1.437517 0.4775 0.1836 0.1019 0.062 0.032 0.011 0.009016667 0.0035 0.001 0.0003 0.0001 0.000175 0.0001 0.00015 0.0001666667 0.0001333333 0.000125 0.0001 0.0001111111 0.0001 0.0001037037 0.0001 0.0001004115 0.0001 
0.0001 0.0001000244 0.0001000488 0.0001000732 0.0001 0.0001 0.0001 0.0001 0.0001 0.0001 0.0001 0.0001 0.0001 0.0001 0.0001 0.0001 0.0001 0.0001000326 0.0001000977 0.0001 0.0001001957 0.0001003906 0.0001 0.0001 0.0001005251 0.0001015625 0.0001 0.000100823 0.0001 0.0001037037 0.0001 0.0001111111 0.0001 0.0001 0.0001166667 0.0001 0.00015 0.0002 0.0001 0.0003 0.001 0.0046 0.0182 0.0204 0.0735 0.2228 0.5744 1.1766 1.705183 2.1302 3.849 7.342 11.5011 16.0582 22.1116 23.00347 28.7019 29.2713 39.2227 47.9121 47.96737 50.3398 54.23689 46.3513 51.7121 30.3321 29.5839 29.2734 29.05007 28.7034 28.1973 27.4916 26.5122 24.9438 23.7476 22.5263 21.5802 19.1164 16.873 14.9293 13.0985 11.6227 11.00392 10.3811 9.4189 8.7199 8.1411 8.7331 12.2302 8.3854 5.1027 6.2359 7.6035 9.2472 11.3646 12.08402 13.245 16.1718 17.4209 18.8081 19.3009 18.1815 17.3102 16.9819 16.9245 16.9305 18.3102 19.4132 20.7099 20.96078 21.2617 21.4147 21.3002 20.8203 20.2423 19.8287 19.9157 19.8662 20.3601 19.9093 24.0515 26.981 25.57598 44.1315 23.314 23.3144 22.7994 18.88794 15.771 13.421 12.4054 8.5808 5.0887 2.4635 0.9477 0.3421 0.4496 0.1581 0.1013 0.0735 0.0501 0.0291 0.02021667 0.0133 0.0052 0.0018 0.0005 0.0001 0.0001333333 0.00014375 0.0001 0.0001375 0.0001416667 0.0001194444 0.0001125 0.0001 0.0001037037 0.0001 0.0001012346 0.0001 0.0001001372 
0.0001000122 0.0001000244 0.0001000366 0.0001 0.0001 0.0001 0.0001 0.0001 0.0001 0.0001 0.0001 0.0001 0.0001 0.0001 0.0001 0.0001 0.0001000163 0.0001000488 0.0001 0.0001000977 0.0001001953 0.0001 0.0001 0.0001002613 0.0001007813 0.0001 0.0001002744 0.0001 0.0001012346 0.0001 0.0001037037 0.0001 0.0001 0.0001041667 0.0001 0.000125 0.00013 0.0001 0.0001 0.0006 0.0031 0.005266667 0.0141 0.0546 0.1743 0.4505 0.914 1.4705 1.74605 2.4398 4.2069 7.1387 11.3367 16.6022 20.814 22.4681 22.1224 30.3302 37.2233 43.9239 48.1491 48.12077 53.7044 79.1732 53.0126 32.2741 32.4771 31.4931 30.83303 30.3956 29.4364 28.5756 27.6404 26.8533 25.258 23.7571 22.7049 20.06 17.7648 15.6622 13.8184 12.3591 11.6141 11.0154 10.0207 8.82 9.0119 11.3081 7.71195 4.6886 5.3228 6.5822 8.1548 9.6186 10.5048 11.05678 11.9457 14.741 17.7647 20.3207 18.4447 16.679 15.06277 15.3005 14.504 15.343 16.7309 18.1042 19.9245 20.327 20.7946 21.1258 21.1866 20.9286 20.5549 20.31138 20.3177 20.3481 21.0268 23.4662 42.41 16.9377 23.6101 20.2073 21.809 22.0221 20.7754 18.4949 8.4566 8.77392 5.3853 3.0412 1.4633 0.6069 0.2565 0.3185333 0.1403 0.1006 0.0788 0.0594 0.0405 0.024 0.01766667 0.0119 0.0051 0.0019 0.0006 0.0002 0.0001666667 0.0001555556 0.0001387153 0.0001 0.0001246528 0.000124537 0.0001106482 0.00010625 0.0001 0.0001012346 0.0001 0.0001004115 0.0001 
0.0001000183 0.0001000183 0.0001 0.0001 0.0001 0.0001 0.0001 0.0001 0.0001 0.0001 0.0001 0.0001 0.0001 0.0001 0.0001 0.0001000081 0.0001000244 0.0001 0.0001000489 0.0001000977 0.0001 0.0001 0.0001001304 0.0001003906 0.0001 0.0001000914 0.0001 0.0001004115 0.0001 0.0001012346 0.0001 0.0001 0.0001010417 0.0001 0.0001125 0.000111 0.0001 0.0001 0.0003 0.0002 0.0014 0.0045 0.0074 0.0314 0.1103 0.3176 0.7267 1.2511 1.465817 2.0081 3.3262 5.4088 8.3238 11.5267 16.9162 19.73513 24.1425 29.0296 32.2584 36.1379 40.2898 47.94182 69.59502 80.9813 58.1964 32.7239 33.4984 33.2437 32.6291 31.889 30.4304 29.3011 27.203 25.7048 25.6382 24.69675 23.6137 20.8771 18.6078 16.4024 14.4688 13.58253 12.8719 11.4344 10.3763 9.1529 11.3508 4.4785 5.718333 4.8332 5.781 6.5001 7.714 9.9689 12.3247 11.4626 6.4039 11.0061 19.1766 24.1081 17.9625 12.2291 11.32313 11.0046 12.0357 13.325 14.7658 17.0691 18.00877 19.0729 20.1984 20.7437 21.0001 20.8254 20.5241 20.19957 20.4006 20.5441 22.5527 39.1539 19.2533 16.5859 15.667 16.8172 17.373 16.7456 14.6784 11.7317 9.40092 3.87218 1.8513 0.8958 0.3747 0.1859 0.1244 0.1339167 0.1002 0.0831 0.0657 0.0479 0.0315 0.0184 0.0139 0.0093 0.0041 0.0016 0.0005 0.0002 0.0001666667 0.0001555556 0.0001481481 0.0001300492 0.0001 0.0001149595 0.0001138117 0.0001056327 0.000103125 0.0001 0.0001004115 0.0001 0.0001001372 
0.0001000122 0.0001 0.0001 0.0001 0.0001 0.0001 0.0001 0.0001 0.0001 0.0001 0.0001 0.0001 0.0001 0.0001 0.0001000041 0.0001000122 0.0001 0.0001000244 0.0001000488 0.0001 0.0001 0.0001000651 0.0001001953 0.0001 0.0001000305 0.0001 0.0001001372 0.0001 0.0001004115 0.0001 0.0001 0.0001002604 0.0001 0.00010625 0.0001047 0.0001 0.0001 0.0002 0.0002 0.000525 0.0002 0.001983333 0.0008 0.004 0.0162 0.0584 0.1832 0.4939 1.1769 1.1315 2.2397 6.437 6.4872 10.1433 12.07797 14.618 19.7977 24.1908 28.2214 33.5381 39.7655 46.48866 57.8003 76.3159 66.0596 38.9662 34.612 35.0309 34.01465 33.7223 31.5849 30.2069 27.9817 27.5594 26.77627 26.2729 24.6928 23.0184 20.2725 17.1319 14.8847 14.00632 13.0923 11.7794 9.8367 11.9675 4.5396 4.207 4.2537 4.7946 5.6213 4.8482 7.1312 10.3293 15.1761 10.33338 6.50028 7.3382 21.0888 27.0751 13.7199 11.43667 7.272 5.4536 7.7352 10.1729 12.4742 15.651 16.47113 18.2309 19.6564 20.2788 20.5072 20.2513 19.8083 19.15615 19.5918 20.2896 36.0293 16.4723 14.5076 12.3564 11.49548 11.0975 10.2427 9.0185 7.1749 5.0932 4.50854 3.2282 0.4395 0.2165 0.1346 0.1088 0.097 0.09353333 0.0851 0.0702 0.0534 0.0371 0.0234 0.0132 0.01011667 0.0066 0.0029 0.0011 0.0004 0.0001 0.0001333333 0.0001333333 0.0001333333 0.0001320988 0.000119858 0.0001 0.000108601 0.0001075231 0.0001029192 0.0001015625 0.0001 0.0001001372 0.0001 
0.0001 0.0001 0.0001 0.0001 0.0001 0.0001 0.0001 0.0001 0.0001 0.0001 0.0001 0.0001 0.0001 0.000100002 0.0001000061 0.0001 0.0001000122 0.0001000244 0.0001 0.0001 0.0001000326 0.0001000977 0.0001 0.0001000102 0.0001 0.0001000457 0.0001 0.0001001372 0.0001 0.0001 0.0001000651 0.0001 0.000103125 0.00010219 0.0001 0.0001 0.0001666667 0.0002 0.00031875 0.00025 0.0003 0.00066 0.0018 0.0093 0.0388 0.1329 0.3683 0.32175 0.8083 1.3685 2.2408 3.6274 5.6022 8.2101 9.9938 11.0535 14.1958 18.3956 24.4047 32.0588 40.6656 45.28602 53.9221 60.39806 64.4118 42.5443 33.1701 32.52197 35.2922 34.9098 31.7013 30.8089 29.7295 28.5291 27.05838 26.9532 25.3119 23.6176 21.8036 19.1078 15.5023 14.7435 13.2179 12.1578 11.6762 4.8589 3.3716 3.3148 3.822983 3.8941 4.3432 3.9183 6.1449 9.4254 14.1295 8.5261 3.6327 4.1205 22.5239 21.8925 10.4784 8.247784 6.9581 2.0586 2.9703 5.5826 8.7523 12.6563 13.46317 16.1466 18.2478 19.0858 19.1029 18.5344 17.7229 18.52078 16.8892 31.8024 13.1324 10.8398 8.5865 8.172584 6.7419 5.374 4.2894 3.3065 2.3823 1.5721 1.868483 0.9175 0.65675 0.1 0.0942 0.0903 0.0831 0.07705 0.0714 0.0566 0.0411 0.0273 0.0164 0.0089 0.0069 0.0043 0.0019 0.0007 0.0003 0.0001 0.0001 0.0001111111 0.0001148148 0.0001172839 0.0001185185 0.0001116517 0.0001 0.0001047608 0.0001040016 0.0001014939 0.0001007813 0.0001 0.0001000457 
0.0001 0.0001 0.0001 0.0001 0.0001 0.0001 0.0001 0.0001 0.0001 0.0001 0.0001 0.0001 0.000100001 0.0001000031 0.0001 0.0001000061 0.0001000122 0.0001 0.0001 0.0001000163 0.0001000488 0.0001 0.0001000034 0.0001 0.0001000152 0.0001 0.0001000457 0.0001 0.0001 0.0001000163 0.0001 0.0001015625 0.000101063 0.0001 0.0001 0.0001555556 0.0002 0.0002734375 0.000275 0.0003 0.0003 0.0007666667 0.0002 0.0009 0.0033 0.0098 0.0251 0.2100333 0.0517 0.0759 0.07 2.9551 6.6248 6.506 7.53425 9.4319 12.8338 16.7079 21.03 25.9229 33.1632 38.48773 46.3994 65.476 52.7994 37.2625 26.6314 28.53293 30.3952 37.158 30.0355 28.2432 27.0178 27.2217 26.64992 25.814 24.2381 22.6358 20.8599 18.9591 17.1378 15.75395 14.626 16.1883 4.8883 4.1078 2.6394 3.1271 3.432283 3.6003 3.3803 2.4504 4.6259 8.4337 7.526583 6.5554 3.1368 8.370837 18.6959 13.0295 5.9498 5.446717 5.1085 2.8351 4.5335 1.1046 3.3969 7.066 9.0315 11.0282 14.0522 15.6173 15.7259 14.9517 15.77768 13.7196 23.3929 10.0494 7.9173 5.7264 4.0171 4.108417 2.826 2.0162 1.4307 0.9331 0.488 0.246 0.5085 0.1539 0.1166 0.0818 0.0815 0.0774 0.07288333 0.0689 0.0568 0.043 0.0299 0.0189 0.0109 0.008683333 0.0057 0.0027 0.0011 0.0004 0.0001 0.00015 0.0001 0.0001 0.0001037037 0.0001061728 0.0001082305 0.0001097394 0.0001062737 0.0001 0.0001025641 0.0001020923 0.0001007584 0.0001003906 0.0001 
0.0001 0.0001 0.0001 0.0001 0.0001 0.0001 0.0001 0.0001 0.0001 0.0001 0.0001 0.0001000005 0.0001000015 0.0001 0.0001000031 0.0001000061 0.0001 0.0001 0.0001000081 0.0001000244 0.0001 0.0001000011 0.0001 0.0001000051 0.0001 0.0001000152 0.0001 0.0001 0.0001000041 0.0001 0.0001007813 0.0001005251 0.0001 0.0001 0.0001518519 0.0002 0.0002652344 0.0002875 0.0003 0.0003 0.0003916667 0.0002 0.0004 0.0001 0.0005 0.0013 0.0027 0.01421667 0.0041 0.0041 0.0023 0.1087 4.9649 3.867 4.998433 6.137 9.1003 12.587 16.4212 20.5018 21.7365 25.1516 31.6245 51.6228 42.77448 30.7539 21.0879 24.06363 24.6208 37.6648 30.1844 27.7681 27.1292 26.4119 25.39502 24.9696 23.5821 22.0925 20.3196 18.7472 17.5251 14.69757 16.5146 4.9226 3.8243 3.3019 2.6992 2.852417 3.1845 3.4729 2.6374 1.6897 2.0903 3.611 3.94935 3.0045 1.6238 2.568 10.6651 4.7936 1.9257 2.67205 2.2598 1.7073 2.9453 0.1471 0.7234 2.367267 2.3246 4.9673 8.7206 9.1323 9.6622 9.1455 10.81033 20.592 5.4998 4.1697 3.0408 2.1555 1.4961 1.64115 0.9829 0.5265 0.2521 0.1315 0.0918 0.0818 0.1166833 0.0797 0.0805 0.08221429 0.0699 0.0636 0.0589 0.054 0.0425 0.0308 0.0204 0.0123 0.0068 0.00545 0.0034 0.0016 0.0006 0.0002 0.0001 0.0001 0.0001125 0.0001 0.0001 0.0001012346 0.0001024691 0.0001037037 0.0001048011 0.0001031688 0.0001 0.0001013537 0.0001010804 0.000100383 0.0001001953 
0.0001 0.0001 0.0001 0.0001 0.0001 0.0001 0.0001 0.0001 0.0001 0.0001 0.0001000003 0.0001000008 0.0001 0.0001000015 0.0001000031 0.0001 0.0001 0.0001000041 0.0001000122 0.0001 0.0001000004 0.0001 0.0001000017 0.0001 0.0001000051 0.0001 0.0001 0.000100001 0.0001 0.0001003906 0.0001002613 0.0001 0.0001 0.0001506173 0.0002 0.0002647461 0.00029375 0.0003 0.0003 0.0002979167 0.0002 0.0002333333 0.0001 0.0002333333 0.0001 0.0003 0.0007 0.001633333 0.001 0.0009 0.0004 0.4933 0.9135 1.92535 1.4743 2.5744 4.2596 6.5272 9.1869 11.8575 13.96525 13.822 18.6998 37.3354 41.5867 25.3591 20.1299 21.07295 21.5166 27.8514 25.5305 25.6892 24.4797 24.2882 24.6561 23.2968 22.0213 20.0507 17.172 15.2598 14.11047 15.3573 7.0246 3.2639 2.5318 2.6546 2.424 2.590483 3.0403 2.935 2.0929 1.4852 1.2901 1.2653 1.547067 0.8262 0.3411 1.7565 3.1443 0.8089 1.34615 0.3145 0.474 0.4384 0.816 0.1529 0.1469 0.6603667 0.5458 1.2312 6.0056 2.6948 5.9695 4.2251 6.104917 2.2281 1.7677 1.2972 0.9013 0.546 0.4213 0.5278834 0.1035 0.0374 0.0573 0.0626 0.0653 0.07171667 0.0681 0.0706 0.0725 0.0727 0.05882857 0.0495 0.04528333 0.04 0.03 0.0207 0.0131 0.0076 0.004 0.003233333 0.0019 0.0009 0.0003 0.0001 0.000125 0.0001 0.0001 0.000103125 0.0001 0.0001 0.0001004115 0.0001009602 0.0001016004 0.0001022558 0.0001015238 0.0001 0.0001007043 0.0001005529 0.0001002892 
0.0001 0.0001 0.0001 0.0001 0.0001 0.0001 0.0001 0.0001 0.0001 0.0001000001 0.0001000004 0.0001 0.0001000008 0.0001000015 0.0001 0.0001 0.000100002 0.0001000061 0.0001 0.0001000001 0.0001 0.0001000006 0.0001 0.0001000017 0.0001 0.0001 0.0001000003 0.0001 0.0001001953 0.0001001304 0.0001 0.0001 0.0001502058 0.0002 0.0002654053 0.000296875 0.0003 0.0003 0.0002744792 0.0002 0.0001777778 0.0001 0.0001444444 0.0001 0.00015 0.0001 0.0002833333 0.0003 0.001 0.0036 0.014 0.0457 0.0972 0.4604167 0.2352 0.5705 1.204 2.1434 3.4819 5.1889 6.7239 7.2697 10.1905 27.1104 32.8752 28.69168 22.623 19.0574 20.0251 23.3319 20.0537 16.8954 20.5818 21.11257 22.4705 21.8727 20.6778 17.2446 12.0072 10.7995 9.686234 6.9739 4.6315 1.4859 2.0153 2.1058 1.9944 2.119083 2.2005 2.0509 1.5575 1.1977 0.9803 0.4338 0.4739 0.1416 0.0622 0.3438 4.0678 0.1507 0.28344 0.0835 0.0989 0.1005 0.1582 0.0611 0.0841 0.1726 0.1374 0.2225 0.8878 1.4695 1.544 0.3419 1.164533 0.0969 0.1455 0.1638 0.1508 0.1743 0.2442 0.1065 0.057 0.0355 0.0319 0.0504 0.0595 0.06025 0.0638 0.0654 0.065 0.0624 0.0572 0.0365 0.03456 0.0281 0.0201 0.0132 0.008 0.0044 0.0023 0.001916667 0.001 0.0004 0.0002 0.0001 0.0001 0.00010625 0.0001 0.0001 0.0001007813 0.0001 0.0001 0.0001001372 0.0001003658 0.0001006706 0.0001010212 0.0001007048 0.0001 0.0001003866 0.000100421 
0.0001 0.0001 0.0001 0.0001 0.0001 0.0001 0.0001 0.0001 0.0001000001 0.0001000002 0.0001 0.0001000004 0.0001000008 0.0001 0.0001 0.000100001 0.0001000031 0.0001 0.0001 0.0001 0.0001000002 0.0001 0.0001000006 0.0001 0.0001 0.0001000001 0.0001 0.0001000977 0.0001000651 0.0001 0.0001 0.0001500686 0.0002 0.0002659607 0.0002984375 0.0003 0.0003 0.0002686198 0.0002 0.0001592593 0.0001 0.0001148148 0.0001 0.0001125 0.0001 0.0001 0.00016 0.0002 0.0006 0.0019 0.0053 0.0108 0.0159 0.06511667 0.0264 0.0534 0.1217 0.2625 0.5108 0.8885 2.94796 1.3168 3.3844 18.4408 26.2536 25.9456 20.10435 15.9016 16.4574 19.5252 16.706 13.4434 16.1541 16.52397 18.3332 18.5822 17.9292 14.1848 11.2135 5.3133 5.652067 4.4136 1.8242 1.6232 1.7276 1.7069 1.5839 1.39275 1.4714 1.2456 0.8594 0.5178 0.3446 0.3584333 0.1131 0.0634 0.1393 0.1641 0.7413 1.051 0.111125 0.0596 0.0505 0.047 0.0629 0.0385 0.0557 0.07206666 0.0657 0.0745 0.1172 0.3235 0.1254 0.3677 0.0756 0.0196 0.0502 0.0703 0.0732 0.1276 0.1217167 0.0895 0.0587 0.0387 0.0343 0.0321 0.0489 0.0524 0.0559 0.0573 0.0552 0.0507 0.0443 0.03918 0.0241 0.0187 0.0127 0.008 0.0046 0.0025 0.002083333 0.0017 0.0006 0.0002 0.0001 0.0001333333 0.0001 0.0001 0.0001015625 0.0001 0.0001 0.0001001953 0.0001 0.0001 0.0001000457 0.0001001372 0.0001002744 0.0001004488 0.0001003159 0.0001 0.0001002692 
0.0001 0.0001 0.0001 0.0001 0.0001 0.0001 0.0001 0.0001 0.0001000001 0.0001 0.0001000002 0.0001000004 0.0001 0.0001 0.0001000005 0.0001000015 0.0001 0.0001 0.0001 0.0001000001 0.0001 0.0001000002 0.0001 0.0001 0.0001 0.0001 0.0001000488 0.0001000326 0.0001 0.0001 0.0001500229 0.0002 0.0002662949 0.0002992188 0.0003 0.0003 0.0002671549 0.0002 0.0001530864 0.0001 0.0001049383 0.0001 0.000103125 0.0001 0.0001 0.0001 0.000125 0.0001 0.0004 0.0011 0.0027 0.005 0.0069 0.01126667 0.0091 0.0125 0.018 0.0246 0.0252 0.3572 0.57295 0.0759 0.2927 7.512 18.3312 20.5135 15.60296 14.9009 9.0672 10.8672 7.9418 9.5133 11.2304 11.1295 10.3738 10.0566 10.2751 10.3275 5.0452 3.819 3.1713 2.5931 0.6862 0.9181 0.8055 0.7416 0.846 0.6694 0.4369 0.2995 0.1727 0.1811 0.2018 0.1640167 0.077 0.122 0.1372 0.121 0.1445 0.1507 0.096075 0.05002 0.0435 0.0404 0.0442 0.0379 0.04413333 0.0442 0.0453 0.052 0.0801 0.1021 0.0571 0.0769 0.0622 0.0204 0.0448 0.0579 0.0611 0.0993 0.1087667 0.1331 0.0589 0.0253 0.031 0.0311 0.0403 0.0412 0.046 0.0468 0.044 0.0389 0.0325 0.0254 0.018175 0.0118 0.0077 0.0046 0.0026 0.0013 0.001116667 0.0003 0.0002 0.0001 0.0001333333 0.0001 0.0001111111 0.0001 0.0001 0.0001003906 0.0001 0.0001 0.0001000488 0.0001 0.0001 0.0001000152 0.0001000508 0.0001001101 0.0001001925 0.000100138 0.0001 
0.0001 0.0001 0.0001 0.0001 0.0001 0.0001 0.0001 0.0001 0.0001 0.0001000001 0.0001000002 0.0001 0.0001 0.0001000003 0.0001000008 0.0001 0.0001 0.0001 0.0001 0.0001 0.0001000001 0.0001 0.0001 0.0001 0.0001 0.0001000244 0.0001000163 0.0001 0.0001 0.0001500076 0.0002 0.0002664761 0.0002996094 0.0003 0.0003 0.0002667887 0.0002 0.0001510288 0.0001 0.0001016461 0.0001 0.0001007813 0.0001 0.0001 0.0001 0.000105 0.0001 0.0001 0.0003 0.0006 0.0015 0.0028 0.0038 0.004 0.0053 0.0067 0.0077 0.0073 0.0043 0.01053333 0.03083333 0.0106 0.0262 1.183 8.3758 10.2547 9.417017 6.4001 5.993775 2.8617 2.4099 3.5598 5.1604 5.779117 5.5251 5.626 5.3425 3.7934 2.6963 2.46865 1.8277 1.0611 0.2653 0.2671 0.1979 0.2028 0.3304167 0.1714 0.1139 0.1059 0.0842 0.1544 0.1756 0.1249833 0.072 0.1654 0.128 0.1072 0.1004 0.1184 0.09594 0.0556 0.0409 0.0398 0.0426 0.0421 0.04525 0.0464 0.0393 0.0563 0.0604 0.0676 0.0733 0.07105 0.0678 0.0288 0.0509 0.0431 0.0568 0.087 0.10145 0.1161 0.0724 0.0381 0.0309 0.0422 0.0231 0.03325 0.033 0.0351 0.0327 0.0281 0.0225 0.0193 0.0168 0.008385714 0.0043 0.0025 0.0013 0.0007 0.0004833333 0.0002 0.0001 0.000125 0.0001 0.0001111111 0.0001 0.0001037037 0.0001 0.0001 0.0001000977 0.0001 0.0001 0.0001000122 0.0001 0.0001 0.0001000051 0.0001000186 0.0001000435 0.0001000809 0.000100059 
0.0001 0.0001 0.0001 0.0001 0.0001 0.0001 0.0001 0.0001 0.0001 0.0001000001 0.0001 0.0001 0.0001000001 0.0001000004 0.0001 0.0001 0.0001 0.0001 0.0001 0.0001 0.0001 0.0001 0.0001 0.0001 0.0001000122 0.0001000081 0.0001 0.0001 0.0001500025 0.0002 0.0002665702 0.0002998047 0.0003 0.0003 0.0002666972 0.0002 0.0001503429 0.0001 0.0001005487 0.0001 0.0001001953 0.0001 0.0001 0.0001 0.000101 0.0001 0.0001 0.00015 0.0001 0.0004 0.0008 0.0016 0.002216667 0.0025 0.0035 0.0045 0.005 0.0043 0.0021 0.0028 0.007333333 0.006 0.0099 0.1148 1.5721 3.0813 3.625583 1.3516 2.1709 0.3306 0.282 0.499 1.7355 1.0024 1.3826 1.6157 1.3067 1.0274 0.8356 1.037767 0.5881 0.218 0.0531 0.05 0.0396 0.0996 0.1247333 0.0977 0.0913 0.0968 0.0828 0.1492 0.1557 0.11025 0.0678 0.182 0.1255 0.0961 0.0897 0.09755 0.103 0.052 0.0439875 0.0399 0.0454 0.0491 0.05075 0.0518 0.0399 0.0532 0.0634 0.0653 0.0904 0.08281667 0.0755 0.0335 0.0552 0.0459 0.0425 0.0743 0.0864 0.0989 0.0741 0.0445 0.0311 0.0329 0.02766667 0.0227 0.0344 0.0247 0.0216 0.0173 0.0094 0.01108333 0.0092 0.0067 0.0022 0.0013 0.0007 0.0003 0.00025 0.0001 0.0001 0.0001 0.00010625 0.0001 0.0001037037 0.0001 0.0001012346 0.0001 0.0001 0.0001000244 0.0001 0.0001 0.0001000031 0.0001 0.0001 0.0001000017 0.0001000068 0.0001000169 0.0001000334 
0.0001 0.0001 0.0001 0.0001 0.0001 0.0001 0.0001 0.0001 0.0001 0.0001 0.0001 0.0001000001 0.0001000002 0.0001 0.0001 0.0001 0.0001 0.0001 0.0001 0.0001 0.0001 0.0001 0.0001 0.0001000061 0.0001000041 0.0001 0.0001 0.0001500009 0.0002 0.0002666181 0.0002999023 0.0003 0.0003 0.0002666743 0.0002 0.0001501143 0.0001 0.0001001829 0.0001 0.0001000488 0.0001 0.0001 0.0001 0.0001002 0.0001 0.0001 0.0001125 0.0001 0.0001 0.0002 0.0004 0.0009 0.00145 0.0015 0.0022 0.0028 0.0025 0.0034 0.002 0.001933333 0.0045 0.0054 0.0082 0.0452 0.1494 0.4713 0.9077333 0.1945 0.272 0.4299625 0.074 0.0745 0.30125 0.1169 0.1608 0.2021 0.2104 0.1777 0.1581 0.30535 0.1208 0.0601 0.0351 0.0143 0.0171 0.093 0.09215 0.0839 0.0954 0.1054 0.0856 0.1338 0.1295167 0.1298 0.0606 0.1653 0.1397 0.0828 0.0623 0.088 0.1115 0.0464 0.0382 0.0391 0.0495 0.0576 0.05731667 0.0575 0.0417 0.0505 0.0661 0.0672 0.07685 0.0873 0.1026 0.0359 0.0573 0.0471 0.0314 0.04678333 0.0607 0.0814 0.0681 0.0449 0.0298 0.0259 0.02265 0.0192 0.0308 0.0159 0.013 0.0097 0.0051 0.005166667 0.0035 0.0033 0.0021 0.0006 0.0003 0.00032 0.0001 0.0001 0.0001 0.0001 0.0001 0.0001015625 0.0001 0.0001012346 0.0001 0.0001004115 0.0001 0.0001 0.0001000061 0.0001 0.0001 0.0001000008 0.0001 0.0001 0.0001000006 0.0001000024 0.0001000065 
0.0001 0.0001 0.0001 0.0001 0.0001 0.0001 0.0001 0.0001 0.0001 0.0001 0.0001 0.0001000001 0.0001 0.0001 0.0001 0.0001 0.0001 0.0001 0.0001 0.0001 0.0001 0.0001 0.0001000031 0.000100002 0.0001 0.0001 0.0001500003 0.0002 0.0002666423 0.0002999512 0.0003 0.0003 0.0002666686 0.0002 0.0001500381 0.0001 0.000100061 0.0001 0.0001000122 0.0001 0.0001 0.0001 0.00010004 0.0001 0.0001 0.000103125 0.0001 0.0001 0.0001666667 0.0002 0.0004 0.0009 0.00115 0.0013 0.0012 0.0013 0.0017 0.0025 0.0021 0.0017 0.00348 0.0049 0.0076 0.0365 0.0614 0.1958 0.2191 0.1286 0.1429 0.1037 0.0636 0.0553 0.07045 0.0594 0.0673 0.0724 0.0734 0.0725 0.0766 0.08255 0.0529 0.0471 0.0338 0.0106 0.0158 0.0588 0.0997 0.079 0.1039 0.115 0.0826 0.1084 0.10385 0.1002 0.0508 0.1454 0.1261 0.0776 0.0706 0.07935 0.0909 0.0389 0.0341 0.04205 0.0535 0.05895 0.0656 0.0623 0.0434 0.0537 0.0605 0.0672 0.07463333 0.0837 0.0975 0.0628 0.0566 0.0459 0.0305 0.03798333 0.0413 0.0629 0.0575 0.0406 0.0267 0.0203 0.01778333 0.0149 0.0246 0.0094 0.0072 0.005 0.0025 0.002316667 0.0013 0.0014 0.001 0.0003 0.0002 0.0002 0.0001 0.0001 0.0001 0.0001 0.0001 0.0001 0.0001003906 0.0001 0.0001004115 0.0001 0.0001001372 0.0001 0.0001 0.0001000015 0.0001 0.0001 0.0001000002 0.0001 0.0001 0.0001000002 0.0001000009 
0.0001 0.0001 0.0001 0.0001 0.0001 0.0001 0.0001 0.0001 0.0001 0.0001 0.0001 0.0001 0.0001 0.0001 0.0001 0.0001 0.0001 0.0001 0.0001 0.0001 0.0001 0.0001000015 0.000100001 0.0001 0.0001 0.0001500001 0.0002 0.0002666545 0.0002999756 0.0003 0.0003 0.0002666671 0.0002 0.0001500127 0.0001 0.0001000203 0.0001 0.0001000031 0.0001 0.0001 0.0001 0.000100008 0.0001 0.0001 0.0001007813 0.0001 0.0001 0.0001555556 0.0002 0.0003 0.0005 0.00065 0.0011 0.00085 0.0006 0.0007 0.001 0.0017 0.001516667 0.0013 0.002683333 0.0041 0.0066 0.0324 0.0957 0.1389667 0.1779 0.1329 0.1386 0.0934 0.0765 0.0574 0.05921667 0.0592 0.0631 0.0639 0.0622 0.0608 0.06651667 0.0564 0.0305 0.0469 0.0361 0.0112 0.0179 0.06398334 0.1093 0.0775 0.1133 0.1218 0.0732 0.0794 0.0766 0.0715 0.0397 0.1222 0.1111 0.0707 0.0587 0.06965 0.0821 0.0304 0.0289 0.0366 0.0565 0.06394 0.071 0.0652 0.0443 0.0554 0.0533 0.0643 0.06921667 0.0781 0.0897 0.0651 0.0704 0.0422 0.0278 0.03036667 0.0362 0.0388 0.0433 0.0332 0.0221 0.0155 0.01343333 0.0109 0.0178 0.0052 0.0037 0.0024 0.00205 0.0009 0.0006 0.0006 0.0004 0.0003666667 0.0002 0.0002 0.00015 0.0001 0.0001 0.0001 0.0001 0.0001 0.0001 0.0001000977 0.0001 0.0001001372 0.0001 0.0001000457 0.0001 0.0001 0.0001000004 0.0001 0.0001 0.0001 0.0001 0.0001 0.0001000001 
0.0001 0.0001 0.0001 0.0001 0.0001 0.0001 0.0001 0.0001 0.0001 0.0001 0.0001 0.0001 0.0001 0.0001 0.0001 0.0001 0.0001 0.0001 0.0001 0.0001 0.0001000008 0.0001000005 0.0001 0.0001 0.00015 0.0002 0.0002666606 0.0002999878 0.0003 0.0003 0.0002666668 0.0002 0.0001500042 0.0001 0.0001000068 0.0001 0.0001000008 0.0001 0.0001 0.0001 0.0001000016 0.0001 0.0001 0.0001001953 0.0001 0.0001 0.0001518519 0.0002 0.00025 0.0003333333 0.0004833333 0.00075 0.00062 0.0003333333 0.0003 0.0004 0.0006 0.001 0.001 0.0009 0.00205 0.0032 0.0053 0.0489 0.1049 0.1387833 0.1748 0.1808 0.3513 0.0967 0.0654 0.06265 0.0606 0.0634 0.0657 0.0613 0.0454 0.0824 0.06786667 0.0504 0.0353 0.0419 0.0231 0.0131 0.0214 0.07071666 0.1198 0.0784 0.1223 0.1241 0.0597 0.0529 0.052 0.0472 0.0289 0.0971 0.0941 0.0618 0.05473333 0.0479 0.0677 0.0222 0.023 0.0325 0.04192 0.06584 0.0731 0.0656 0.0438 0.0551 0.0525 0.0524 0.06186667 0.0696 0.0795 0.0624 0.0775 0.0365 0.0238 0.02381667 0.0226 0.0285 0.0312 0.0251 0.017 0.01436667 0.0114 0.0076 0.012 0.0026 0.0018 0.0011 0.0009 0.0004 0.0002 0.0002 0.0002 0.0001 0.0001 0.00015 0.0002 0.0001375 0.0001 0.0001 0.0001 0.0001 0.0001 0.0001 0.0001000244 0.0001 0.0001000457 0.0001 0.0001000152 0.0001 0.0001 0.0001000001 0.0001 0.0001 0.0001 0.0001 0.0001 
0.0001 0.0001 0.0001 0.0001 0.0001 0.0001 0.0001 0.0001 0.0001 0.0001 0.0001 0.0001 0.0001 0.0001 0.0001 0.0001 0.0001 0.0001 0.0001 0.0001000004 0.0001000003 0.0001 0.0001 0.00015 0.0002 0.0002666636 0.0002999939 0.0003 0.0003 0.0002666667 0.0002 0.0001500014 0.0001 0.0001000023 0.0001 0.0001000002 0.0001 0.0001 0.0001 0.0001000003 0.0001 0.0001 0.0001000488 0.0001 0.0001 0.0001506173 0.0002 0.000225 0.0002611111 0.0003555556 0.0005222222 0.0004351111 0.0002 0.0001666667 0.0001 0.0002 0.0003 0.0006 0.0006 0.0005 0.00145 0.0023 0.0144 0.0495 0.1084 0.13785 0.171 0.169 0.1027 0.0991 0.0672 0.0643 0.06348 0.0659 0.0669 0.0577 0.0348 0.1072 0.07885 0.05 0.0391 0.0363 0.0156 0.0155 0.0258 0.07781667 0.1301 0.0806 0.1297 0.121 0.0449 0.04125 0.0365 0.0245 0.0196 0.0725 0.076 0.0513 0.04506667 0.038 0.0517 0.015 0.0172 0.027 0.057 0.063925 0.0716 0.0632 0.0418 0.0524 0.0427 0.047 0.05301667 0.0598 0.0678 0.056 0.0619 0.0453 0.03078333 0.019 0.0135 0.0195 0.0214 0.0178 0.0123 0.01036667 0.0079 0.0051 0.0075 0.0013 0.0008 0.0005 0.00046 0.0001 0.0001 0.0001 0.0001 0.0001333333 0.0001 0.0001 0.0001375 0.0002 0.000134375 0.0001 0.0001 0.0001 0.0001 0.0001 0.0001 0.0001000061 0.0001 0.0001000152 0.0001 0.0001000051 0.0001 0.0001 0.0001 0.0001 0.0001 0.0001 0.0001 
0.0001 0.0001 0.0001 0.0001 0.0001 0.0001 0.0001 0.0001 0.0001 0.0001 0.0001 0.0001 0.0001 0.0001 0.0001 0.0001 0.0001 0.0001 0.0001000002 0.0001000001 0.0001 0.0001 0.00015 0.0002 0.0002666651 0.000299997 0.0003 0.0003 0.0002666667 0.0002 0.0001500005 0.0001 0.0001000008 0.0001 0.0001 0.0001 0.0001 0.0001 0.0001000001 0.0001 0.0001 0.0001000122 0.0001 0.0001 0.0001502058 0.0002 0.0002125 0.0002287037 0.0002805555 0.0003796296 0.0003122074 0.0001407407 0.0001222222 0.0001 0.0001 0.0001 0.0002 0.0003 0.00035 0.0003 0.00095 0.0015 0.0104 0.0576 0.08101667 0.1058 0.1622 0.1593 0.1141 0.0977 0.0663 0.06372 0.062 0.0655 0.0652 0.0526 0.0273 0.1321 0.08418334 0.051 0.0409 0.0329 0.0157 0.011 0.02098333 0.0305 0.1393 0.0832 0.1342 0.1125 0.0313 0.02773333 0.0222 0.0122 0.0124 0.0508 0.0581 0.043 0.03508333 0.0284 0.0345 0.0095 0.0121 0.021 0.054 0.05948 0.06034 0.0548 0.0417 0.0475 0.0333 0.03666667 0.0399 0.0494 0.0553 0.0473 0.0481 0.0458 0.02921667 0.0143 0.0078 0.0124 0.0139 0.0118 0.0083 0.00705 0.0053 0.004 0.0036 0.0006 0.0003 0.0002 0.000225 0.0001 0.0001 0.0001 0.0001 0.0001 0.0001111111 0.0001 0.0001 0.000134375 0.0002 0.0001335938 0.0001 0.0001 0.0001 0.0001 0.0001 0.0001 0.0001000015 0.0001 0.0001000051 0.0001 0.0001000017 0.0001 0.0001 0.0001 0.0001 0.0001 0.0001 
0.0001 0.0001 0.0001 0.0001 0.0001 0.0001 0.0001 0.0001 0.0001 0.0001 0.0001 0.0001 0.0001 0.0001 0.0001 0.0001 0.0001 0.0001000001 0.0001000001 0.0001 0.0001 0.00015 0.0002 0.0002666659 0.0002999985 0.0003 0.0003 0.0002666667 0.0002 0.0001500002 0.0001 0.0001000003 0.0001 0.0001 0.0001 0.0001 0.0001 0.0001 0.0001 0.0001 0.0001000031 0.0001 0.0001 0.0001500686 0.0002 0.00020625 0.0002137346 0.0002405864 0.0002962963 0.0002381822 0.0001160494 0.0001074074 0.0001 0.0001 0.0001 0.000125 0.0001 0.00018 0.0002 0.0002 0.0005833333 0.0009 0.0072 0.0606 0.0794 0.1042 0.1954 0.4982 0.113 0.0915 0.0625 0.06065 0.0606 0.06175 0.0626 0.0542 0.052 0.08123333 0.1131 0.0517 0.0413 0.0303 0.0148 0.0081 0.02105 0.035 0.1463 0.0852 0.1349 0.0994 0.0202 0.01706667 0.0113 0.0065 0.0073 0.0333 0.0451 0.0299 0.02568333 0.0199 0.0221 0.0056 0.0079 0.0152 0.0479 0.05358 0.0669 0.0452 0.0392 0.0409 0.025 0.02938333 0.0321 0.0391 0.0433 0.0378 0.0361 0.0408 0.02513333 0.0101 0.0055 0.0066 0.0084 0.0074 0.0052 0.004533333 0.0033 0.0028 0.0017 0.0002 0.0001 0.000175 0.0001 0.0001 0.0001 0.0001 0.0001 0.0001 0.0001 0.0001037037 0.0001 0.0001 0.0001335938 0.0002 0.0001333984 0.0001 0.0001 0.0001 0.0001 0.0001 0.0001 0.0001000004 0.0001 0.0001000017 0.0001 0.0001000006 0.0001 0.0001 0.0001 0.0001 0.0001 
0.0001 0.0001 0.0001 0.0001 0.0001 0.0001 0.0001 0.0001 0.0001 0.0001 0.0001 0.0001 0.0001 0.0001 0.0001 0.0001 0.0001 0.0001 0.0001 0.0001 0.00015 0.0002 0.0002666663 0.0002999992 0.0003 0.0003 0.0002666667 0.0002 0.0001500001 0.0001 0.0001000001 0.0001 0.0001 0.0001 0.0001 0.0001 0.0001 0.0001 0.0001 0.0001000008 0.0001 0.0001 0.0001500229 0.0002 0.000203125 0.0002066615 0.0002201903 0.0002502057 0.0001964122 0.0001061728 0.0001024691 0.0001 0.0001 0.0001 0.00010625 0.0001 0.0001 0.0001333333 0.0001 0.0001 0.0004 0.0005 0.0047 0.0576 0.07253333 0.0906 0.1409 0.0163 0.1021 0.0812 0.056 0.05558333 0.0565 0.0624 0.0592 0.0567 0.0646 0.08035 0.0983 0.0514 0.0405 0.0284 0.0159 0.0147 0.02058333 0.027 0.1499 0.0856 0.1309 0.0832 0.0121 0.009666666 0.0053 0.0033 0.004 0.0205 0.0323 0.0198 0.0215 0.0131 0.0134 0.0031 0.0049 0.0104 0.02498333 0.0395 0.0596 0.04465 0.0325 0.03 0.0211 0.02305 0.0249 0.0297 0.0324 0.0287 0.0261 0.0331 0.01995 0.0067 0.0036 0.0033 0.0047 0.0043 0.004033333 0.0031 0.002 0.0018 0.0007 0.0001 0.0001333333 0.0001 0.0001 0.0001 0.0001 0.0001 0.0001 0.0001 0.0001 0.0001 0.0001012346 0.0001 0.0001 0.0001333984 0.0002 0.0001333496 0.0001 0.0001 0.0001 0.0001 0.0001 0.0001 0.0001000001 0.0001 0.0001000006 0.0001 0.0001000002 0.0001 0.0001 0.0001 0.0001 
0.0001 0.0001 0.0001 0.0001 0.0001 0.0001 0.0001 0.0001 0.0001 0.0001 0.0001 0.0001 0.0001 0.0001 0.0001 0.0001 0.0001 0.0001 0.0001 0.00015 0.0002 0.0002666665 0.0002999996 0.0003 0.0003 0.0002666667 0.0002 0.00015 0.0001 0.0001 0.0001 0.0001 0.0001 0.0001 0.0001 0.0001 0.0001 0.0001 0.0001000002 0.0001 0.0001 0.0001500076 0.0002 0.0002015625 0.0002032622 0.0002099923 0.0002256859 0.0001738829 0.000102332 0.000100823 0.0001 0.0001 0.0001 0.0001015625 0.0001 0.0001 0.0001083333 0.0001 0.0001 0.0001 0.000275 0.0003 0.0029 0.05 0.06066667 0.0722 0.0996 0.023 0.0851 0.0682 0.05766667 0.0477 0.0502 0.057 0.0566125 0.0574 0.0685 0.07623333 0.0856 0.0497 0.0387 0.0269 0.0171 0.0175 0.01918333 0.0212 0.1493 0.0837 0.1224 0.066 0.03685 0.0068 0.0023 0.0015 0.0038 0.0243 0.051 0.03285 0.0283 0.018 0.0077 0.0016 0.0028 0.0066 0.01875 0.0303 0.0504 0.0377 0.0257 0.0211 0.0167 0.01781667 0.0185 0.0215 0.0231 0.0206 0.0181 0.0219 0.0248 0.0042 0.0022 0.0016 0.0025 0.0024 0.002283333 0.0018 0.0011 0.0008 0.0005 0.000375 0.0001 0.0001083333 0.0001 0.0001 0.0001 0.0001 0.0001 0.0001 0.0001 0.0001 0.0001 0.0001004115 0.0001 0.0001 0.0001333496 0.0002 0.0001333374 0.0001 0.0001 0.0001 0.0001 0.0001 0.0001 0.0001 0.0001 0.0001000002 0.0001 0.0001000001 0.0001 0.0001 0.0001 
0.0001 0.0001 0.0001 0.0001 0.0001 0.0001 0.0001 0.0001 0.0001 0.0001 0.0001 0.0001 0.0001 0.0001 0.0001 0.0001 0.0001 0.0001 0.00015 0.0002 0.0002666666 0.0002999998 0.0003 0.0003 0.0002666667 0.0002 0.00015 0.0001 0.0001 0.0001 0.0001 0.0001 0.0001 0.0001 0.0001 0.0001 0.0001 0.0001 0.0001 0.0001 0.0001500025 0.0002 0.0002007812 0.0002016082 0.000204939 0.0002129801 0.0001621043 0.0001008688 0.0001002744 0.0001 0.0001 0.0001 0.0001003906 0.0001 0.0001 0.0001020833 0.0001 0.0001 0.0001 0.000175 0.0002 0.0002 0.0017 0.02086667 0.04 0.0536 0.0682 0.0228 0.0659 0.0543 0.04656667 0.0386 0.0426 0.0502 0.0547 0.0553 0.0664 0.06963333 0.074 0.0466 0.036 0.0252 0.0177 0.0183 0.0179 0.0168 0.1439 0.0792 0.1099 0.0495 0.0271 0.0035 0.0009 0.0011 0.007675 0.02636667 0.03765 0.03965 0.011625 0.0001 0.0042 0.0008 0.0015 0.0039 0.01323333 0.0218 0.0405 0.0299 0.02255 0.0156 0.01411667 0.0125 0.0132 0.0149 0.0158 0.0141 0.0142 0.01518333 0.0151 0.0025 0.0013 0.0007 0.0013 0.0012 0.001233333 0.0009 0.0006 0.0005 0.0002 0.0002666667 0.0002229167 0.0001 0.0001020833 0.0001 0.0001 0.0001 0.0001 0.0001 0.0001 0.0001 0.0001 0.0001 0.0001001372 0.0001 0.0001 0.0001333374 0.0002 0.0001333344 0.0001 0.0001 0.0001 0.0001 0.0001 0.0001 0.0001 0.0001 0.0001000001 0.0001 0.0001 0.0001 0.0001 
0.0001 0.0001 0.0001 0.0001 0.0001 0.0001 0.0001 0.0001 0.0001 0.0001 0.0001 0.0001 0.0001 0.0001 0.0001 0.0001 0.0001 0.00015 0.0002 0.0002666666 0.0002999999 0.0003 0.0003 0.0002666667 0.0002 0.00015 0.0001 0.0001 0.0001 0.0001 0.0001 0.0001 0.0001 0.0001 0.0001 0.0001 0.0001 0.0001 0.0001 0.0001500009 0.0002 0.0002003906 0.0002007965 0.0002024428 0.0002065091 0.0001560748 0.0001003201 0.0001000914 0.0001 0.0001 0.0001 0.0001000977 0.0001 0.0001 0.0001005208 0.0001 0.0001 0.0001 0.0001483333 0.0001888889 0.0002 0.0001 0.0043 0.0155 0.0263 0.0372 0.0449 0.019 0.0477 0.0408 0.03575 0.0298 0.0346 0.0426 0.0491 0.05305 0.058125 0.0604 0.0629 0.0421 0.0325 0.0232 0.0181 0.01896667 0.0215 0.0365 0.1046 0.0722 0.0944 0.0351 0.01903333 0.0017 0.0005 0.0008333334 0.0011 0.01819792 0.03455555 0.017825 0.0001 0.0001 0.0021 0.0003 0.0008 0.0022 0.0088 0.0146 0.0308 0.0226 0.0178 0.01 0.01054 0.0088 0.009 0.0099 0.0103 0.0091 0.0102 0.009966667 0.0087 0.0014 0.0007 0.0003 0.0006 0.0006 0.0006166667 0.0005 0.0003 0.0003 0.0001 0.00015 0.0001722222 0.0001550347 0.0001 0.0001005208 0.0001 0.0001 0.0001 0.0001 0.0001 0.0001 0.0001 0.0001 0.0001 0.0001000457 0.0001 0.0001 0.0001333344 0.0002 0.0001333336 0.0001 0.0001 0.0001 0.0001 0.0001 0.0001 0.0001 0.0001 0.0001 0.0001 0.0001 0.0001 
0.0001 0.0001 0.0001 0.0001 0.0001 0.0001 0.0001 0.0001 0.0001 0.0001 0.0001 0.0001 0.0001 0.0001 0.0001 0.0001 0.00015 0.0002 0.0002666666 0.0003 0.0003 0.0003 0.0002666667 0.0002 0.00015 0.0001 0.0001 0.0001 0.0001 0.0001 0.0001 0.0001 0.0001 0.0001 0.0001 0.0001 0.0001 0.0001 0.0001500003 0.0002 0.0002001953 0.0002003957 0.00020121 0.0002032495 0.0001530307 0.0001001168 0.0001000305 0.0001 0.0001 0.0001 0.0001000244 0.0001 0.0001 0.0001001302 0.0001 0.0001 0.0001 0.0001333704 0.0001703704 0.0001777778 0.0001666667 0.0003 0.0021 0.01076667 0.0186 0.0244 0.0282 0.014 0.0323 0.0291 0.0261 0.0219 0.0268 0.0347 0.0424 0.0504 0.05165 0.05392 0.0522 0.0367 0.0284 0.0208 0.0175 0.01878333 0.0211 0.0263 0.0952 0.0632 0.0776 0.0236 0.01275 0.0008 0.000825 0.0005 0.0008111111 0.0011 0.01197975 0.0001 0.0001 0.0001 0.001 0.0002 0.0004 0.0008666667 0.0011 0.0092 0.0221 0.0162 0.0127 0.01108 0.0077 0.0058 0.0058 0.0062 0.0064 0.0057 0.0068 0.0062 0.0048 0.0007 0.0004 0.0001 0.0003 0.0003333333 0.0003 0.0002 0.0001 0.0001 0.00015 0.0001 0.000125 0.0001324074 0.0001249855 0.0001 0.0001001302 0.0001 0.0001 0.0001 0.0001 0.0001 0.0001 0.0001 0.0001 0.0001 0.0001000152 0.0001 0.0001 0.0001333336 0.0002 0.0001333334 0.0001 0.0001 0.0001 0.0001 0.0001 0.0001 0.0001 0.0001 0.0001 0.0001 0.0001 
0.0001 0.0001 0.0001 0.0001 0.0001 0.0001 0.0001 0.0001 0.0001 0.0001 0.0001 0.0001 0.0001 0.0001 0.0001 0.00015 0.0002 0.0002666666 0.0003 0.0003 0.0003 0.0002666667 0.0002 0.00015 0.0001 0.0001 0.0001 0.0001 0.0001 0.0001 0.0001 0.0001 0.0001 0.0001 0.0001 0.0001 0.0001 0.0001500001 0.0002 0.0002000977 0.000200197 0.0002006003 0.0002016184 0.0001515072 0.0001000423 0.0001000102 0.0001 0.0001 0.0001 0.0001000061 0.0001 0.0001 0.0001000326 0.0001 0.0001 0.0001 0.000121242 0.0001469136 0.0001481481 0.0001444444 0.0001666667 0.0001 0.0011 0.007016667 0.0122 0.015 0.0169 0.0094 0.0207 0.02113333 0.0196 0.0154 0.02 0.0272 0.0351 0.0437 0.045 0.0521 0.042 0.0308 0.0239 0.018 0.0159 0.01696667 0.0186 0.0186 0.083 0.053 0.061 0.015 0.008133333 0.0003 0.0004 0.0004729167 0.0005 0.0008037037 0.00035 0.0001 0.0001 0.00045 0.0005 0.0001 0.0002 0.0004166667 0.0005 0.0054 0.015 0.0111 0.0087 0.0062 0.00485 0.0042 0.0036 0.0038 0.0038 0.0033 0.004066667 0.0042 0.0025 0.0004 0.0001 0.0001 0.0001 0.0001666667 0.0001 0.0001 0.0001 0.0001 0.0001 0.0001125 0.0001 0.0001125 0.0001149691 0.0001115512 0.0001 0.0001000326 0.0001 0.0001 0.0001 0.0001 0.0001 0.0001 0.0001 0.0001 0.0001 0.0001000051 0.0001 0.0001 0.0001333334 0.0002 0.0001333333 0.0001 0.0001 0.0001 0.0001 0.0001 0.0001 0.0001 0.0001 0.0001 0.0001 
0.0001 0.0001 0.0001 0.0001 0.0001 0.0001 0.0001 0.0001 0.0001 0.0001 0.0001 0.0001 0.0001 0.0001 0.00015 0.0002 0.0002666667 0.0003 0.0003 0.0003 0.0002666667 0.0002 0.00015 0.0001 0.0001 0.0001 0.0001 0.0001 0.0001 0.0001 0.0001 0.0001 0.0001 0.0001 0.0001 0.0001 0.00015 0.0002 0.0002000488 0.0002000982 0.0002002983 0.0002008052 0.0001507485 0.0001000152 0.0001000034 0.0001 0.0001 0.0001 0.0001000015 0.0001 0.0001 0.0001000081 0.0001 0.0001 0.0001 0.0001123142 0.000127572 0.0001259259 0.0001222222 0.0001222222 0.0001 0.0001 0.00072 0.0013 0.0068 0.0088 0.0096 0.0059 0.0125 0.01336667 0.0126 0.0104 0.0143 0.0205 0.0279 0.036 0.0394 0.0428 0.0347375 0.0248 0.0193 0.0149 0.0136 0.0143 0.0151 0.013 0.0693 0.0426 0.0457 0.02808333 0.009 0.0001 0.0001666667 0.0002222222 0.0003293403 0.0005 0.0001 0.0001 0.0002416667 0.0002666667 0.0002 0.0002 0.0001 0.00022 0.0002 0.003 0.0097 0.0072 0.0056 0.0037 0.00358 0.0037 0.0021 0.0022 0.0021 0.0019 0.002366667 0.0025 0.0012 0.0002 0.0001 0.0001 0.0001 0.0001 0.0001 0.0001 0.0001 0.0001 0.0001 0.0001 0.000103125 0.0001 0.00010625 0.000107073 0.0001054373 0.0001 0.0001000081 0.0001 0.0001 0.0001 0.0001 0.0001 0.0001 0.0001 0.0001 0.0001 0.0001000017 0.0001 0.0001 0.0001333333 0.0002 0.0001333333 0.0001 0.0001 0.0001 0.0001 0.0001 0.0001 0.0001 0.0001 0.0001 
0.0001 0.0001 0.0001 0.0001 0.0001 0.0001 0.0001 0.0001 0.0001 0.0001 0.0001 0.0001 0.0001 0.00015 0.0002 0.0002666667 0.0003 0.0003 0.0003 0.0002666667 0.0002 0.00015 0.0001 0.0001 0.0001 0.0001 0.0001 0.0001 0.0001 0.0001 0.0001 0.0001 0.0001 0.0001 0.0001 0.00015 0.0002 0.0002000244 0.000200049 0.0002001485 0.0002004006 0.0001503716 0.0001000055 0.0001000011 0.0001 0.0001 0.0001 0.0001000004 0.0001 0.0001 0.000100002 0.0001 0.0001 0.0001 0.0001066055 0.0001148148 0.0001127572 0.0001098765 0.0001074074 0.0001 0.0001 0.0001 0.00075 0.001 0.0036 0.0048 0.0052 0.0034 0.0072 0.00805 0.0076 0.0067 0.0098 0.0148 0.0212 0.0282 0.03113333 0.0336 0.0327 0.0191 0.015 0.0118 0.01146667 0.011 0.0116 0.0088 0.0554 0.0327 0.0327 0.0196 0.0051 0.0001 0.0001 0.0001222222 0.0001481481 0.0002141493 0.0001 0.0001597222 0.0001722222 0.00015 0.0001 0.0001333333 0.0001 0.0001333333 0.0001 0.0016 0.0057 0.0046 0.0034 0.002983333 0.0021 0.0022 0.0018125 0.0012 0.0012 0.0011 0.001316667 0.0012 0.0006 0.0001 0.0001333333 0.0001 0.0001 0.0001 0.0001 0.0001 0.0001 0.0001 0.0001 0.0001 0.0001 0.0001007813 0.0001 0.000103125 0.0001033993 0.0001025998 0.0001 0.000100002 0.0001 0.0001 0.0001 0.0001 0.0001 0.0001 0.0001 0.0001 0.0001 0.0001000006 0.0001 0.0001 0.0001333333 0.0002 0.0001333333 0.0001 0.0001 0.0001 0.0001 0.0001 0.0001 0.0001 0.0001 
0.0001 0.0001 0.0001 0.0001 0.0001 0.0001 0.0001 0.0001 0.0001 0.0001 0.0001 0.0001 0.00015 0.0002 0.0002666667 0.0003 0.0003 0.0003 0.0002666667 0.0002 0.00015 0.0001 0.0001 0.0001 0.0001 0.0001 0.0001 0.0001 0.0001 0.0001 0.0001 0.0001 0.0001 0.0001 0.00015 0.0002 0.0002000122 0.0002000245 0.000200074 0.0002001994 0.0001501845 0.0001000019 0.0001000004 0.0001 0.0001 0.0001 0.0001000001 0.0001 0.0001 0.0001000005 0.0001 0.0001 0.0001 0.000103333 0.0001074531 0.0001058985 0.0001041152 0.0001024691 0.0001 0.0001 0.0001 0.0004033333 0.0006666667 0.0006 0.0018 0.0025 0.0027 0.0019 0.004 0.004616667 0.0044 0.0041 0.0065 0.0103 0.0154 0.021 0.02351667 0.0252 0.0245 0.0178 0.0112 0.009 0.00885 0.0085 0.0094 0.0117 0.0355 0.0241 0.0223 0.01315 0.0028 0.00235 0.0001 0.0001 0.0001074074 0.0001138889 0.0001261574 0.0001324074 0.000125 0.0001 0.0001 0.0001 0.0001133333 0.0001 0.000725 0.0008 0.0032 0.0028 0.0019 0.001733333 0.0012 0.0013 0.0012 0.0006 0.0007 0.0006 0.0006833333 0.0006 0.0003 0.000275 0.0001 0.0001083333 0.0001 0.0001 0.0001 0.0001 0.0001 0.0001 0.0001 0.0001 0.0001 0.0001 0.0001001953 0.0001 0.0001015625 0.0001016539 0.0001012587 0.0001 0.0001000005 0.0001 0.0001 0.0001 0.0001 0.0001 0.0001 0.0001 0.0001 0.0001 0.0001000002 0.0001 0.0001 0.0001333333 0.0002 0.0001333333 0.0001 0.0001 0.0001 0.0001 0.0001 0.0001 0.0001 
0.0001 0.0001 0.0001 0.0001 0.0001 0.0001 0.0001 0.0001 0.0001 0.0001 0.0001 0.00015 0.0002 0.0002666667 0.0003 0.0003 0.0003 0.0002666667 0.0002 0.00015 0.0001 0.0001 0.0001 0.0001 0.0001 0.0001 0.0001 0.0001 0.0001 0.0001 0.0001 0.0001 0.0001 0.00015 0.0002 0.0002000061 0.0002000122 0.0002000369 0.0002000993 0.0001500917 0.0001000007 0.0001000001 0.0001 0.0001 0.0001 0.0001 0.0001 0.0001 0.0001000001 0.0001 0.0001 0.0001 0.0001016024 0.0001035665 0.0001026063 0.0001016461 0.000100823 0.0001 0.0001 0.0001 0.0002595556 0.0004333333 0.0004 0.0004 0.0009 0.0012 0.0013 0.001 0.00175 0.0021 0.0024 0.0025 0.0041 0.0069 0.0107 0.01323333 0.015 0.0181 0.0177 0.0142 0.008 0.0065 0.006533334 0.0063 0.0069 0.0073 0.0262 0.0169 0.0146 0.0083 0.0014 0.001633333 0.001220833 0.0001 0.0001 0.0001024691 0.0001149691 0.0001125 0.0001 0.0001 0.0001 0.0001 0.0001 0.00038125 0.0004666667 0.0004 0.0018 0.0015 0.0011 0.0009833333 0.0007 0.0007 0.0006 0.0005375 0.0004 0.0003833333 0.0003 0.0003 0.0001 0.0002 0.00016875 0.0001 0.0001020833 0.0001 0.0001 0.0001 0.0001 0.0001 0.0001 0.0001 0.0001 0.0001 0.0001 0.0001000488 0.0001 0.0001007813 0.0001008117 0.0001006153 0.0001 0.0001000001 0.0001 0.0001 0.0001 0.0001 0.0001 0.0001 0.0001 0.0001 0.0001 0.0001000001 0.0001 0.0001 0.0001333333 0.0002 0.0001333333 0.0001 0.0001 0.0001 0.0001 0.0001 0.0001 
0.0001 0.0001 0.0001 0.0001 0.0001 0.0001 0.0001 0.0001 0.0001 0.0001 0.00015 0.0002 0.0002666667 0.0003 0.0003 0.0003 0.0002666667 0.0002 0.00015 0.0001 0.0001 0.0001 0.0001 0.0001 0.0001 0.0001 0.0001 0.0001 0.0001 0.0001 0.0001 0.0001 0.00015 0.0002 0.0002000031 0.0002000061 0.0002000184 0.0002000495 0.0001500456 0.0001000002 0.0001 0.0001 0.0001 0.0001 0.0001 0.0001 0.0001 0.0001 0.0001 0.0001 0.0001 0.0001007412 0.000101641 0.0001011126 0.0001006401 0.0001002744 0.0001 0.0001 0.0001 0.0001854296 0.0002851852 0.0002611111 0.0002333333 0.0002 0.0004 0.0006 0.0006 0.0005 0.0008833333 0.001 0.0013 0.0014 0.0025 0.0044 0.0071 0.009033334 0.0102 0.0124 0.0123 0.01 0.007928572 0.0045 0.004616667 0.0044 0.0051 0.0069 0.0172 0.0108 0.01018333 0.008 0.0007 0.0008 0.0009333334 0.0006746528 0.0001 0.0001 0.00010625 0.0001 0.0001 0.0001 0.0001 0.0001 0.0002051389 0.0002833333 0.0002333333 0.0002 0.0009 0.0008 0.0006 0.00055 0.0004 0.0004 0.0003 0.0003 0.0002 0.00022 0.0001 0.0001 0.0001666667 0.0001 0.00015 0.0001296875 0.0001 0.0001005208 0.0001 0.0001 0.0001 0.0001 0.0001 0.0001 0.0001 0.0001 0.0001 0.0001 0.0001000122 0.0001 0.0001003906 0.0001004008 0.0001003028 0.0001 0.0001 0.0001 0.0001 0.0001 0.0001 0.0001 0.0001 0.0001 0.0001 0.0001 0.0001 0.0001 0.0001 0.0001333333 0.0002 0.0001333333 0.0001 0.0001 0.0001 0.0001 0.0001 
0.0001 0.0001 0.0001 0.0001 0.0001 0.0001 0.0001 0.0001 0.0001 0.00015 0.0002 0.0002666667 0.0003 0.0003 0.0003 0.0002666667 0.0002 0.00015 0.0001 0.0001 0.0001 0.0001 0.0001 0.0001 0.0001 0.0001 0.0001 0.0001 0.0001 0.0001 0.0001 0.00015 0.0002 0.0002000015 0.0002000031 0.0002000092 0.0002000247 0.0001500227 0.0001000001 0.0001 0.0001 0.0001 0.0001 0.0001 0.0001 0.0001 0.0001 0.0001 0.0001 0.0001 0.0001003321 0.0001007316 0.0001004623 0.0001002439 0.0001000914 0.0001 0.0001 0.0001 0.0001450798 0.0001987654 0.0001824074 0.0001611111 0.00015 0.0001 0.0002 0.0003 0.0003 0.0002 0.0004166667 0.0005 0.0007 0.0008 0.0015 0.0027 0.0045 0.0059 0.0067 0.0082 0.0082 0.0068 0.0055 0.00415 0.003 0.003 0.0037 0.0055 0.0108 0.006 0.00595 0.0048 0.0003 0.0003666667 0.0004444444 0.0005296296 0.0003908854 0.0001 0.0001 0.0001 0.0001 0.0001 0.0001 0.0001447315 0.0001898148 0.0001611111 0.00015 0.0001 0.0004 0.0004 0.0004 0.0003 0.0002 0.0002 0.0002 0.0002 0.00018 0.000125 0.0001 0.0001 0.0001 0.0001222222 0.0001 0.000125 0.0001136719 0.0001 0.0001001302 0.0001 0.0001 0.0001 0.0001 0.0001 0.0001 0.0001 0.0001 0.0001 0.0001 0.0001000031 0.0001 0.0001001953 0.0001001987 0.0001001498 0.0001 0.0001 0.0001 0.0001 0.0001 0.0001 0.0001 0.0001 0.0001 0.0001 0.0001 0.0001 0.0001 0.0001 0.0001333333 0.0002 0.0001333333 0.0001 0.0001 0.0001 0.0001 
0.0001 0.0001 0.0001 0.0001 0.0001 0.0001 0.0001 0.0001 0.00015 0.0002 0.0002666667 0.0003 0.0003 0.0003 0.0002666667 0.0002 0.00015 0.0001 0.0001 0.0001 0.0001 0.0001 0.0001 0.0001 0.0001 0.0001 0.0001 0.0001 0.0001 0.0001 0.00015 0.0002 0.0002000008 0.0002000015 0.0002000046 0.0002000123 0.0001500113 0.0001 0.0001 0.0001 0.0001 0.0001 0.0001 0.0001 0.0001 0.0001 0.0001 0.0001 0.0001 0.000100145 0.0001003178 0.000100188 0.0001000914 0.0001000305 0.0001 0.0001 0.0001 0.0001233421 0.0001512346 0.0001412037 0.0001287037 0.000125 0.0001 0.0001333333 0.0001 0.0001 0.0001 0.0001 0.00022 0.0002 0.0003 0.0004 0.0008 0.0016 0.0028 0.0037 0.0041 0.0052 0.0053 0.0045 0.0036 0.00326 0.00218 0.002 0.0025 0.0039 0.0064 0.0033 0.00335 0.0028 0.0001 0.0001666667 0.0002111111 0.0002592593 0.0003111111 0.0002144734 0.0001 0.0001 0.0001 0.0001 0.0001204278 0.0001436728 0.0001287037 0.000125 0.0001 0.0002 0.0002 0.0002 0.0002 0.0001 0.0001 0.0001 0.0001 0.0001 0.0001 0.0001 0.0001 0.0001 0.0001 0.0001 0.0001074074 0.0001 0.0001125 0.000106543 0.0001 0.0001000326 0.0001 0.0001 0.0001 0.0001 0.0001 0.0001 0.0001 0.0001 0.0001 0.0001 0.0001000008 0.0001 0.0001000977 0.0001000988 0.0001000744 0.0001 0.0001 0.0001 0.0001 0.0001 0.0001 0.0001 0.0001 0.0001 0.0001 0.0001 0.0001 0.0001 0.0001 0.0001333333 0.0002 0.0001333333 0.0001 0.0001 0.0001 
0.0001 0.0001 0.0001 0.0001 0.0001 0.0001 0.0001 0.00015 0.0002 0.0002666667 0.0003 0.0003 0.0003 0.0002666667 0.0002 0.00015 0.0001 0.0001 0.0001 0.0001 0.0001 0.0001 0.0001 0.0001 0.0001 0.0001 0.0001 0.0001 0.0001 0.00015 0.0002 0.0002000004 0.0002000008 0.0002000023 0.0002000061 0.0001500056 0.0001 0.0001 0.0001 0.0001 0.0001 0.0001 0.0001 0.0001 0.0001 0.0001 0.0001 0.0001 0.0001000619 0.0001001351 0.0001000751 0.0001000339 0.0001000102 0.0001 0.0001 0.0001 0.0001119001 0.0001260974 0.0001203961 0.0001137346 0.0001125 0.0001 0.0001111111 0.0001 0.0001 0.0001 0.0001 0.0001 0.0001333333 0.0001 0.0001 0.0002 0.0005 0.0009 0.001383333 0.0016 0.0025 0.0031 0.0032 0.0028 0.0023 0.00208 0.0019 0.001 0.0019 0.0025 0.0037 0.0017 0.001833333 0.0015 0.0001 0.0001 0.0001222222 0.0001444444 0.0001703704 0.0001995885 0.0001488206 0.0001 0.0001 0.0001096617 0.0001212191 0.0001137346 0.0001125 0.0001 0.0001375 0.00015 0.0001 0.0001 0.000125 0.0001 0.0001 0.0001 0.0001 0.0001 0.0001 0.0001 0.0001 0.0001 0.0001 0.0001 0.0001 0.0001024691 0.0001 0.00010625 0.0001031982 0.0001 0.0001000081 0.0001 0.0001 0.0001 0.0001 0.0001 0.0001 0.0001 0.0001 0.0001 0.0001 0.0001000002 0.0001 0.0001000488 0.0001000492 0.000100037 0.0001 0.0001 0.0001 0.0001 0.0001 0.0001 0.0001 0.0001 0.0001 0.0001 0.0001 0.0001 0.0001 0.0001 0.0001333333 0.0002 0.0001333333 0.0001 0.0001 
0.0001 0.0001 0.0001 0.0001 0.0001 0.0001 0.00015 0.0002 0.0002666667 0.0003 0.0003 0.0003 0.0002666667 0.0002 0.00015 0.0001 0.0001 0.0001 0.0001 0.0001 0.0001 0.0001 0.0001 0.0001 0.0001 0.0001 0.0001 0.0001 0.00015 0.0002 0.0002000002 0.0002000004 0.0002000011 0.0002000031 0.0001500028 0.0001 0.0001 0.0001 0.0001 0.0001 0.0001 0.0001 0.0001 0.0001 0.0001 0.0001 0.0001 0.000100026 0.0001000564 0.0001000295 0.0001000124 0.0001000034 0.0001 0.0001 0.0001 0.0001060004 0.0001131401 0.0001100609 0.0001066615 0.00010625 0.0001 0.0001037037 0.0001 0.0001 0.0001 0.0001 0.0001 0.0001083333 0.0001 0.0001 0.0001 0.0001 0.0002 0.0005 0.0007833333 0.0009 0.0014 0.0018 0.0019 0.0017 0.0014 0.001383333 0.0012 0.00115 0.0011 0.0016 0.002 0.001633333 0.0009 0.0008 0.0007 0.0001 0.0001 0.0001074074 0.0001172839 0.0001300412 0.0001454047 0.0001213416 0.0001046518 0.0001103352 0.0001066615 0.00010625 0.0001 0.000115625 0.000125 0.0001 0.0001 0.0001 0.0001 0.0001 0.0001 0.0001 0.0001 0.0001 0.0001 0.0001 0.0001 0.0001 0.0001 0.0001 0.0001 0.0001 0.000100823 0.0001 0.000103125 0.0001015808 0.0001 0.000100002 0.0001 0.0001 0.0001 0.0001 0.0001 0.0001 0.0001 0.0001 0.0001 0.0001 0.0001 0.0001 0.0001000244 0.0001000245 0.0001000184 0.0001 0.0001 0.0001 0.0001 0.0001 0.0001 0.0001 0.0001 0.0001 0.0001 0.0001 0.0001 0.0001 0.0001 0.0001333333 0.0002 0.0001333333 0.0001 
0.0001 0.0001 0.0001 0.0001 0.0001 0.00015 0.0002 0.0002666667 0.0003 0.0003 0.0003 0.0002666667 0.0002 0.00015 0.0001 0.0001 0.0001 0.0001 0.0001 0.0001 0.0001 0.0001 0.0001 0.0001 0.0001 0.0001 0.0001 0.00015 0.0002 0.0002000001 0.0002000002 0.0002000006 0.0002000015 0.0001500014 0.0001 0.0001 0.0001 0.0001 0.0001 0.0001 0.0001 0.0001 0.0001 0.0001 0.0001 0.0001 0.0001000107 0.0001000232 0.0001000115 0.0001000045 0.0001000011 0.0001 0.0001 0.0001 0.0001030042 0.0001065701 0.0001049619 0.0001032622 0.000103125 0.0001 0.0001012346 0.0001 0.0001 0.0001 0.0001 0.0001 0.0001020833 0.0001 0.0001 0.0001 0.0001 0.0001 0.0001 0.0003 0.0004333333 0.0005 0.0008 0.001 0.0011 0.001 0.0008 0.0008166667 0.0007 0.0007 0.0007 0.0009 0.001 0.0008833333 0.0005 0.0004 0.0004666667 0.000375 0.0001 0.0001 0.0001024691 0.0001065844 0.0001124829 0.0001201189 0.0001050533 0.0001032622 0.000103125 0.0001 0.0001070313 0.0001125 0.0001 0.0001 0.0001 0.0001 0.0001 0.0001 0.0001 0.0001 0.0001 0.0001 0.0001 0.0001 0.0001 0.0001 0.0001 0.0001 0.0001 0.0001 0.0001 0.0001002744 0.0001 0.0001015625 0.0001007858 0.0001 0.0001000005 0.0001 0.0001 0.0001 0.0001 0.0001 0.0001 0.0001 0.0001 0.0001 0.0001 0.0001 0.0001 0.0001000122 0.0001000123 0.0001000092 0.0001 0.0001 0.0001 0.0001 0.0001 0.0001 0.0001 0.0001 0.0001 0.0001 0.0001 0.0001 0.0001 0.0001 0.0001333333 0.0002 0.0001444444 
0.0001 0.0001 0.0001 0.0001 0.00015 0.0002 0.0002666667 0.0003 0.0003 0.0003 0.0002666667 0.0002 0.00015 0.0001 0.0001 0.0001 0.0001 0.0001 0.0001 0.0001 0.0001 0.0001 0.0001 0.0001 0.0001 0.0001 0.00015 0.0002 0.0002000001 0.0002000001 0.0002000003 0.0002000008 0.0001500007 0.0001 0.0001 0.0001 0.0001 0.0001 0.0001 0.0001 0.0001 0.0001 0.0001 0.0001 0.0001 0.0001000044 0.0001000094 0.0001000044 0.0001000016 0.0001000004 0.0001 0.0001 0.0001 0.0001014978 0.0001032723 0.0001024504 0.0001016082 0.0001015625 0.0001 0.0001004115 0.0001 0.0001 0.0001 0.0001 0.0001 0.0001005208 0.0001 0.0001 0.0001 0.0001 0.0001 0.0001 0.0001 0.0001 0.0002333333 0.0003 0.0004 0.0005 0.0006 0.0005 0.0005333333 0.0004 0.0004 0.0003 0.000475 0.0004 0.0006 0.0004833333 0.0003 0.0002 0.0002333333 0.0002833333 0.0002298611 0.0001 0.0001 0.000100823 0.0001024691 0.0001050754 0.0001016082 0.0001015625 0.0001 0.0001033203 0.00010625 0.0001 0.0001 0.0001 0.0001 0.0001 0.0001 0.0001 0.0001 0.0001 0.0001 0.0001 0.0001 0.0001 0.0001 0.0001 0.0001 0.0001 0.0001 0.0001 0.0001 0.0001 0.0001000914 0.0001 0.0001007813 0.0001003918 0.0001 0.0001000001 0.0001 0.0001 0.0001 0.0001 0.0001 0.0001 0.0001 0.0001 0.0001 0.0001 0.0001 0.0001 0.0001000061 0.0001000061 0.0001000046 0.0001 0.0001 0.0001 0.0001 0.0001 0.0001 0.0001 0.0001 0.0001 0.0001 0.0001 0.0001 0.0001 0.0001 0.0001333333 0.0002 
0.0001 0.0001 0.0001 0.00015 0.0002 0.0002666667 0.0003 0.0003 0.0003 0.0002666667 0.0002 0.00015 0.0001 0.0001 0.0001 0.0001 0.0001 0.0001 0.0001 0.0001 0.0001 0.0001 0.0001 0.0001 0.0001 0.00015 0.0002 0.0002 0.0002000001 0.0002000001 0.0002000004 0.0001500004 0.0001 0.0001 0.0001 0.0001 0.0001 0.0001 0.0001 0.0001 0.0001 0.0001 0.0001 0.0001 0.0001000018 0.0001000038 0.0001000017 0.0001000006 0.0001000001 0.0001 0.0001 0.0001 0.0001007452 0.0001016269 0.0001012125 0.0001007965 0.0001007813 0.0001 0.0001001372 0.0001 0.0001 0.0001 0.0001 0.0001 0.0001001302 0.0001 0.0001 0.0001 0.0001 0.0001 0.0001 0.0001 0.0001 0.0001 0.0001 0.0001 0.0002 0.0003 0.0003 0.0003 0.0002666667 0.0002 0.0002 0.0002 0.0004 0.0002 0.0003 0.0002833333 0.0002 0.0001 0.00015 0.0001611111 0.0001898148 0.0001620949 0.0001 0.0001 0.0001002744 0.0001009145 0.0001007813 0.0001 0.0001016113 0.000103125 0.0001 0.0001 0.0001 0.0001 0.0001 0.0001 0.0001 0.0001 0.0001 0.0001 0.0001 0.0001 0.0001 0.0001 0.0001 0.0001 0.0001 0.0001 0.0001 0.0001 0.0001 0.0001 0.0001 0.0001000305 0.0001 0.0001003906 0.0001001956 0.0001 0.0001 0.0001 0.0001 0.0001 0.0001 0.0001 0.0001 0.0001 0.0001 0.0001 0.0001 0.0001 0.0001 0.0001000031 0.0001000031 0.0001000023 0.0001 0.0001 0.0001 0.0001 0.0001 0.0001 0.0001 0.0001 0.0001 0.0001 0.0001 0.0001 0.0001 0.0001 0.0001333333 
0.0001 0.0001 0.00015 0.0002 0.0002666667 0.0003 0.0003 0.0003 0.0002666667 0.0002 0.00015 0.0001 0.0001 0.0001 0.0001 0.0001 0.0001 0.0001 0.0001 0.0001 0.0001 0.0001 0.0001 0.0001 0.00015 0.0002 0.0002 0.0002 0.0002000001 0.0002000002 0.0001500002 0.0001 0.0001 0.0001 0.0001 0.0001 0.0001 0.0001 0.0001 0.0001 0.0001 0.0001 0.0001 0.0001000007 0.0001000015 0.0001000006 0.0001000002 0.0001 0.0001 0.0001 0.0001 0.0001004069 0.0001008412 0.0001006012 0.0001003957 0.0001003906 0.0001 0.0001000457 0.0001 0.0001 0.0001 0.0001 0.0001 0.0001000326 0.0001 0.0001 0.0001 0.0001 0.0001 0.0001 0.0001 0.0001 0.0001 0.0001 0.0001 0.0001 0.0001 0.0001 0.0002 0.0001 0.00015 0.0001 0.0001 0.0001 0.0002 0.0002166667 0.00018 0.0002 0.0001 0.0001333333 0.0001 0.000125 0.0001287037 0.0001436728 0.0001315924 0.0001 0.0001 0.0001000914 0.0001 0.0001007935 0.0001015625 0.0001 0.0001 0.0001 0.0001 0.0001 0.0001 0.0001 0.0001 0.0001 0.0001 0.0001 0.0001 0.0001 0.0001 0.0001 0.0001 0.0001 0.0001 0.0001 0.0001 0.0001 0.0001 0.0001 0.0001 0.0001 0.0001000102 0.0001 0.0001001953 0.0001000977 0.0001 0.0001 0.0001 0.0001 0.0001 0.0001 0.0001 0.0001 0.0001 0.0001 0.0001 0.0001 0.0001 0.0001 0.0001000015 0.0001000015 0.0001000011 0.0001 0.0001 0.0001 0.0001 0.0001 0.0001 0.0001 0.0001 0.0001 0.0001 0.0001 0.0001 0.0001 0.0001 
0.0001 0.00015 0.0002 0.0002555556 0.0003 0.0003 0.0003 0.0002666667 0.0002 0.00015 0.0001 0.0001 0.0001 0.0001 0.0001 0.0001 0.0001 0.0001 0.0001 0.0001 0.0001 0.0001 0.0001 0.00015 0.0002 0.0002 0.0002 0.0002 0.0002000001 0.0001625001 0.0001 0.0001 0.0001 0.0001 0.0001 0.0001 0.0001 0.0001 0.0001 0.0001 0.0001 0.0001 0.0001000004 0.0001000009 0.0001000004 0.0001000001 0.0001 0.0001 0.0001 0.0001 0.0001002629 0.0001006448 0.0001004483 0.0001002955 0.0001001953 0.0001 0.0001000152 0.0001 0.0001 0.0001 0.0001 0.0001 0.0001000081 0.0001 0.0001 0.0001 0.0001 0.0001 0.0001 0.0001 0.0001 0.0001 0.0001 0.0001 0.0001 0.0001 0.0001 0.0001 0.0001 0.0001 0.0001 0.0001 0.0001 0.0001 0.0001 0.0001 0.0001333333 0.0001 0.0001333333 0.0001 0.0001111111 0.0001 0.0001125 0.0001206018 0.0001321373 0.0001212432 0.0001 0.0001 0.0001003332 0.0001007813 0.0001 0.0001 0.0001 0.0001 0.0001 0.0001 0.0001 0.0001 0.0001 0.0001 0.0001 0.0001 0.0001 0.0001 0.0001 0.0001 0.0001 0.0001 0.0001 0.0001 0.0001 0.0001 0.0001 0.0001 0.0001 0.0001 0.0001 0.0001000034 0.0001 0.0001000977 0.0001000651 0.0001 0.0001 0.0001 0.0001 0.0001 0.0001 0.0001 0.0001 0.0001 0.0001 0.0001 0.0001 0.0001 0.0001 0.0001000008 0.0001000011 0.0001000008 0.0001 0.0001 0.0001 0.0001 0.0001 0.0001 0.0001 0.0001 0.0001 0.0001 0.0001 0.0001 0.0001 
