ncols         131
nrows         83
xllcorner     94.933721056626
yllcorner     29.776287993795
cellsize      0.00032453614785115
NODATA_value  -9999
0.000100076 0.0001000543 0.0001000365 0.0001000244 0.0001 0.0001000025 0.0001000025 0.0001 0.0001 0.0001 0.0001500686 0.0002 0.0002125 0.0002277435 0.0002878944 0.0004436214 0.0008814815 0.002034088 0.002635607 0.0001 0.0001005208 0.0001 0.0001 0.0001074074 0.0001 0.0002 0.0002 0.0002 0.0003666667 0.0002 0.0003 0.0001 0.0003 0.0013 0.0049 0.0709 0.15805 0.15805 0.1334 0.119175 0.03761667 0.002566667 0.004277778 0.005794445 0.006077778 0.00635 0.0061 0.1089963 0.2155 5.242017 8.712902 9.278491 9.02274 8.066794 6.724767 5.424198 4.451507 3.921219 3.718017 3.6776 3.6776 1.427738 0.2290062 0.0885 3.495495 5.163272 5.0985 2.147609 0.3471103 0.1371651 0.06056669 0.03488492 0.02930547 0.0246 0.04451534 0.03516417 0.02638843 0.02500422 0.02506534 0.02512578 0.0252 0.01608312 0.01150466 0.0115 0.0115 5.037318 7.531607 7.524158 7.5167 3.679514 1.715662 1.687863 1.676135 1.673167 1.6702 0.5844613 0.02140269 0.008394771 0.003524591 0.001998339 0.001606186 0.001524129 0.00150656 0.001503272 0.0015 0.001251651 0.0008363661 0.0006725946 0.0006218192 0.0006070956 0.0006022284 0.0006010986 0.0006 0.01350809 0.01374906 0.007975792 0.004197022 0.002013883 0.0008994056 0.000397109 0.0001976999 0.0001282262 0.0001070939 0.0001015266 0.0001002732 0.0001000384 0.0001000038 0.0001000002 0.0001 0.0001 0.1245512 
0.0001001309 0.0001000977 0.0001000721 0.0001000486 0.0001000488 0.0001 0.0001000051 0.0001000051 0.0001 0.0001 0.0001 0.0001502058 0.0002 0.000225 0.0002582305 0.0003804527 0.0006921811 0.001571811 0.003838272 0.005032346 0.0001 0.0001015625 0.0001 0.0001 0.0001222222 0.0001 0.0003 0.0002 0.00078 0.0007 0.0023 0.0069 0.0153 0.0262 0.0251 0.087875 0.1827 0.1334 0.2325 0.1104 0.0004 0.00205 0.00525 0.005533333 0.0066 0.0061 0.1053889 0.2155 4.198627 7.597778 8.956164 9.584763 9.294546 8.188913 6.716924 5.268465 4.287206 3.79885 3.6776 3.6776 1.575341 0.3695125 0.0885 3.566935 5.228044 5.0985 2.552252 0.6758795 0.263806 0.1016453 0.04604382 0.03401094 0.0246 0.0729855 0.05127165 0.0292042 0.02501664 0.02494446 0.02505156 0.0252 0.0161185 0.01151399 0.0115 0.0115 5.059649 7.546507 7.531615 7.5167 3.736439 1.759529 1.705387 1.682071 1.676133 1.6702 0.6095686 0.04171334 0.01636326 0.006131463 0.002689594 0.001752715 0.001552707 0.001513136 0.001506543 0.0015 0.001643872 0.001105916 0.000756814 0.0006463682 0.0006146017 0.0006044878 0.0006021973 0.0006 0.01944965 0.02097542 0.0130073 0.007264449 0.003655626 0.001670991 0.0007150333 0.0003121922 0.0001641014 0.0001168061 0.0001037709 0.0001007048 0.000100104 0.0001000107 0.0001000006 0.0001 0.0001 0.1494435 0.2241102 
0.0001003059 0.0001002406 0.0001001845 0.0001001433 0.0001000971 0.0001000977 0.0001 0.0001000152 0.0001000152 0.0001 0.0001 0.0001 0.0001506173 0.0002 0.00025 0.0003246914 0.0005666667 0.001185185 0.00296358 0.00736605 0.009699754 0.0001 0.00010625 0.0001 0.0001 0.0001666667 0.0001 0.0006 0.001916667 0.0022 0.0072 0.0196 0.0467 0.0953 0.1388 0.25754 0.54174 0.4661 0.3304 0.0001 0.0007 0.029125 0.0034 0.0071 0.0061 0.09456667 0.2155 3.04305 5.863117 7.672839 9.257378 9.938278 9.558634 8.386727 6.621378 5.142667 4.04135 3.6776 3.6776 1.884741 0.650525 0.0885 3.723151 5.357587 5.0985 3.274274 1.30633 0.5299039 0.1914045 0.07010959 0.04342188 0.0246 0.1389436 0.09093263 0.03746577 0.02541655 0.02473026 0.02490312 0.0252 0.01623203 0.01154198 0.0115 0.0115 5.104276 7.576292 7.54653 7.5167 3.844414 1.844494 1.740147 1.693947 1.682066 1.6702 0.6548787 0.08038722 0.03280849 0.01194432 0.004336961 0.002113109 0.001618713 0.001526323 0.001513086 0.0015 0.002457434 0.001677648 0.0009404065 0.0006996943 0.0006303413 0.0006090691 0.0006043945 0.0006 0.02644671 0.03041176 0.02034011 0.01217438 0.006507405 0.003111564 0.001347909 0.0005535013 0.0002436899 0.0001393854 0.0001092291 0.000101804 0.0001002798 0.0001000305 0.0001000017 0.0001 0.0001 0.1494537 0.2241204 0.2241 
0.0001007083 0.0001005793 0.0001004651 0.0001003616 0.0001002839 0.0001001936 0.0001001953 0.0001 0.0001000457 0.0001000457 0.0001 0.0001 0.0001 0.0001518519 0.0002 0.0003 0.0004740741 0.0009259259 0.002155556 0.005809259 0.01413333 0.01875642 0.0001 0.000125 0.0001 0.0001 0.0003 0.0015 0.00425 0.0063 0.0218 0.059 0.1388 0.3224 0.4412 0.77204 0.4999 1.4266 1.0436 0.5641 0.0859 0.1673667 0.0265 0.0635 0.0621 0.2155 2.38955 3.8235 5.74365 8.0222 9.252666 10.49727 10.0649 8.113733 6.98155 4.76885 3.6776 3.6776 2.560313 1.21255 0.0885 4.088928 5.616675 5.0985 4.468091 2.452763 1.077742 0.3884847 0.123485 0.06224375 0.0246 0.2856354 0.1847851 0.06075391 0.0272589 0.02438452 0.02460625 0.0252 0.01660219 0.01162593 0.0115 0.0115 5.19343 7.635816 7.576359 7.5167 4.045182 2.006972 1.808803 1.717708 1.693932 1.6702 0.7327526 0.1509605 0.06560187 0.02459924 0.008224351 0.003009361 0.00177717 0.001552796 0.001526172 0.0015 0.004113642 0.00287554 0.001340555 0.0008168481 0.0006638167 0.0006184181 0.000608789 0.0006 0.03352693 0.04145426 0.03020566 0.01957536 0.01123932 0.005708456 0.002574439 0.001051796 0.0004174911 0.0001912169 0.0001223617 0.0001045776 0.000100748 0.0001000864 0.0001000051 0.0001 0.0001 0.1494741 0.2241407 0.2241 0.09972294 
0.0001015332 0.000101305 0.0001010883 0.0001008903 0.0001007039 0.0001005605 0.0001003855 0.0001003906 0.0001 0.0001001372 0.0001001372 0.0001 0.0001 0.0001 0.0001555556 0.0002 0.0004 0.0008222222 0.001555556 0.004088889 0.01178333 0.02652778 0.03661458 0.0001 0.0002 0.0001 0.0004 0.002983333 0.0024 0.0125 0.0564 0.1538 0.286 0.9713 1.476967 1.3062 1.4741 3.8225 3.1884 1.885 0.6227 3.047317 0.265 0.6232 1.5325 1.6957 2.804 4.843 11.71192 6.6443 9.4001 11.7136 10.3781 8.103 5.8601 7.8094 3.6776 4.13855 2.3366 0.0885 5.033863 6.13485 5.0985 6.235171 4.371031 2.167659 0.8195991 0.2459676 0.0998875 0.0246 0.5974094 0.3960346 0.1244975 0.03382315 0.02394105 0.0240125 0.0252 0.01783099 0.01187778 0.0115 0.0115 5.371472 7.754728 7.636019 7.5167 4.408374 2.312169 1.943485 1.765261 1.717663 1.6702 0.8592266 0.2733271 0.1282568 0.0512978 0.01725101 0.005248916 0.002173124 0.001606044 0.001552344 0.0015 0.007404618 0.005341154 0.002208795 0.001076672 0.0007361958 0.0006376762 0.0006175781 0.0006 0.03902956 0.05239489 0.04208327 0.02988461 0.0186491 0.01019238 0.00487648 0.002056511 0.0007903267 0.0003085505 0.0001535962 0.000111504 0.0001019848 0.0001002439 0.0001000152 0.0001 0.0001 0.1495149 0.2241814 0.2241 0.07485083 0.000217999 
0.0001030721 0.0001027153 0.0001023616 0.000102013 0.000101683 0.0001013576 0.0001011007 0.000100766 0.0001007813 0.0001 0.0001004115 0.0001004115 0.0001 0.0001 0.0001 0.0001666667 0.0002 0.0006 0.001666667 0.0024 0.0082 0.02475 0.04663333 0.074975 0.0001 0.0005 0.0024 0.02136667 0.0109 0.0432 0.1144 0.457 1.5961 2.5109 3.449517 3.3098 3.7016 6.5664 8.3407 7.7275 8.3962 9.176933 8.8876 12.086 16.9723 16.6374 17.4189 16.7644 15.81703 18.596 19.5974 19.179 18.7717 17.346 14.95222 13.4965 8.2034 4.5847 0.0885 7.77725 7.1712 5.0985 8.474584 7.148244 4.219356 1.745494 0.5381278 0.175175 0.0246 1.23178 0.8384092 0.2948481 0.0548463 0.02379815 0.022825 0.0252 0.02199063 0.01263333 0.0115 0.0115 5.726905 7.992146 7.755338 7.5167 5.040745 2.87118 2.204873 1.860456 1.765127 1.6702 1.052067 0.4729305 0.2417091 0.1053416 0.03771974 0.01083206 0.003201239 0.001713444 0.001604688 0.0015 0.0137516 0.01029263 0.004074241 0.001656586 0.0008955587 0.0006778723 0.0006351562 0.0006 0.0410701 0.06033055 0.05411761 0.04273652 0.02939569 0.01752162 0.009029993 0.004025514 0.001573932 0.0005700859 0.0002269624 0.0001286034 0.0001052228 0.0001006859 0.0001000457 0.0001 0.0001 0.1495967 0.2242629 0.2241 0.07486731 0.0002240787 0.0002119194 
0.0001056763 0.000105196 0.0001046959 0.0001041814 0.0001036522 0.0001031309 0.0001025865 0.0001021456 0.0001015168 0.0001015625 0.0001 0.0001012346 0.0001012346 0.0001 0.0001 0.0001 0.0002 0.0002 0.001 0.0038 0.01055 0.0126 0.0369 0.0904 0.1725 0.2044 0.0158 0.4455667 0.0963 0.0673 0.2726 0.8438 2.3887 5.4954 6.91875 7.1035 7.6814 8.441 15.8815 17.5459 15.58478 18.1642 18.7259 19.2083 18.3685 22.2409 23.5686 21.70252 24.4392 23.6153 21.5239 19.9377 20.8081 21.6141 20.11872 23.2936 23.0521 21.5228 16.6781 9.2439 5.0985 11.0018 10.0507 7.747334 3.6467 1.264033 0.32575 0.0246 2.505637 1.656428 0.7404556 0.1183444 0.02574444 0.02045 0.0252 0.0363625 0.0149 0.0115 0.0115 6.436383 8.465764 7.993975 7.5167 6.083856 3.858974 2.703452 2.051113 1.860053 1.6702 1.328106 0.7762581 0.4337044 0.2088289 0.08259398 0.02460185 0.005963383 0.001930958 0.001709375 0.0015 0.02558188 0.01990824 0.00801627 0.002953395 0.001253059 0.0007633045 0.0006703125 0.0006 0.03886767 0.06201277 0.06279998 0.05617891 0.04337394 0.02865671 0.01615642 0.007751745 0.003181817 0.001142981 0.0003969974 0.0001702789 0.0001136107 0.0001019204 0.0001001372 0.0001 0.0001 0.1497612 0.2244258 0.2241 0.07490484 0.0002483973 0.0002160048 0.000207834 
0.0001096576 0.0001091176 0.0001085306 0.0001078932 0.000107209 0.000106468 0.0001057055 0.0001048478 0.0001041388 0.0001029878 0.000103125 0.0001 0.0001037037 0.0001037037 0.0001 0.0001 0.0001 0.0003 0.0013 0.0054 0.0125 0.0204 0.0697 0.2104 0.5373 1.078 1.6924 3.354117 0.8556 2.013 3.2211 4.759 7.3799 10.0652 12.65922 13.0277 13.4396 14.3915 22.0874 21.6742 20.25357 20.0007 19.4991 19.5336 19.6991 20.7864 22.9888 23.21203 25.0352 24.8944 24.0488 22.9052 21.5695 21.9892 24.01573 22.9729 24.007 24.5915 24.49 21.7254 14.9781 19.84246 12.9288 7.1726 3.1406 0.6269 0.0246 5.331666 2.78425 1.882033 0.303 0.03633333 0.0157 0.0252 0.08705 0.0217 0.0115 0.0115 7.853439 9.409341 8.47125 7.5167 7.675033 5.516474 3.627215 2.433233 2.049906 1.6702 1.70575 1.204012 0.7324607 0.3923021 0.1763505 0.05783416 0.01359727 0.002374125 0.00191875 0.0015 0.04694446 0.03774516 0.01613791 0.005841632 0.002069264 0.0009492884 0.000740625 0.0006 0.03483437 0.05628534 0.06375098 0.06600197 0.05864698 0.04388779 0.02758704 0.01449529 0.006386923 0.002373022 0.0007855053 0.0002704161 0.0001350709 0.0001053498 0.0001004115 0.0001 0.0001 0.1500932 0.2247516 0.2241 0.0749849 0.0003021087 0.0002323464 0.0002107366 0.0002049314 
0.0001151239 0.0001146592 0.0001141263 0.0001135171 0.0001128185 0.0001120279 0.0001111121 0.000110123 0.0001088877 0.0001078661 0.0001058385 0.00010625 0.0001 0.0001111111 0.0001111111 0.0001 0.0001 0.0003 0.0015 0.0065 0.01243333 0.0263 0.1005 0.3578 1.1565 2.5803 3.26705 5.7645 11.7001 16.7265 21.3917 24.2548 22.9646 20.8887 18.695 21.5685 24.3567 22.8505 24.31787 23.2351 23.80792 20.9013 19.9535 19.4155 18.0481 19.0863 20.6918 21.16103 22.5486 24.18 25.3532 26.2213 27.0366 27.2774 22.631 26.9472 28.8499 30.5542 32.0331 33.2752 34.4946 24.68327 31.7123 28.2279 24.8601 20.3664 11.2271 10.50904 4.7433 0.8252 0.0776 0.0062 0.0252 0.2694 0.0421 0.0115 0.0115 10.69094 11.28552 9.4258 7.5167 9.833899 8.097389 5.252145 3.199888 2.429612 1.6702 2.22379 1.773486 1.155524 0.683024 0.3588339 0.1350482 0.03516944 0.003284876 0.0023375 0.0015 0.0852407 0.06878169 0.03225545 0.01219835 0.003959928 0.001366615 0.00088125 0.0006 0.03617337 0.04786585 0.05469828 0.06629191 0.07026276 0.06145123 0.04422696 0.02598519 0.01254897 0.004951715 0.001660082 0.0005072702 0.0001891632 0.0001148148 0.0001012346 0.0001 0.0001 0.1507697 0.2254031 0.2241 0.07515561 0.0004160246 0.0002679546 0.000222347 0.0002067377 0.000203125 
0.0001218056 0.000121595 0.0001213208 0.0001209686 0.0001205239 0.0001199595 0.0001192662 0.0001183656 0.0001173425 0.0001158093 0.0001146348 0.0001112654 0.0001125 0.0001 0.0001333333 0.0001333333 0.0001 0.0003 0.0011 0.003583333 0.0037 0.0123 0.0404 0.1251 1.7861 2.8313 4.347383 5.6558 9.8813 15.1441 20.5956 25.7548 29.7382 31.22302 36.4893 36.7917 35.5647 32.0302 27.2716 31.0025 29.2076 26.0337 22.3071 20.2001 18.8452 18.111 17.7671 19.1443 17.9347 18.267 18.2686 17.9356 17.8046 19.7495 17.8751 18.7242 19.9806 21.8813 23.3186 24.7467 26.05687 26.3813 27.6045 27.3458 24.6073 21.0743 20.167 15.80017 16.3832 11.2723 4.9875 0.8426 0.7103 0.0727 15.41173 0.0115 16.41237 15.00497 11.3349 7.5167 12.26717 11.72476 7.826972 4.740439 3.189025 1.6702 2.974226 2.530424 1.720311 1.069724 0.676537 0.3028111 0.0971537 0.00517963 0.003175 0.0015 0.1589955 0.1179586 0.06250864 0.02587778 0.008379938 0.002337346 0.0011625 0.0006 0.05350665 0.04984506 0.04074177 0.0530107 0.07034238 0.07552263 0.06492325 0.04390782 0.02384979 0.01019794 0.003599177 0.001058025 0.0003230453 0.0001407407 0.0001037037 0.0001 0.0001 0.1521725 0.2267063 0.2241 0.07552119 0.0006581733 0.0003430727 0.0002468278 0.0002139632 0.00020625 0.0002 
0.0001289601 0.0001291625 0.0001293379 0.0001294767 0.0001295634 0.0001295842 0.0001295001 0.00012931 0.0001288666 0.0001283522 0.0001269547 0.0001263889 0.0001212963 0.000125 0.0001 0.0002 0.0002 0.0007 0.0022 0.0062 0.0065 0.0159 0.0268 0.7039 1.3106 3.0394 4.24405 6.213 11.1397 17.5403 23.8129 30.555 38.382 34.78845 41.069 41.0784 41.1742 40.8659 37.0429 34.5437 38.4431 35.6299 30.2076 24.4034 22.0068 20.2197 20.18152 18.4794 17.4442 17.1595 16.9295 16.0501 14.6989 15.5212 13.8044 13.9143 14.8525 15.531 16.9064 18.1538 20.57282 19.2896 20.2826 21.0721 21.555 21.7783 21.5746 21.12643 20.7058 18.8276 15.5615 9.9694 17.11163 33.4229 15.6245 28.1398 22.3451 15.1531 7.5167 14.22097 16.4012 10.9298 7.843266 4.70785 1.6702 4.092417 3.560706 2.573583 1.456983 1.130367 0.6218222 0.2774222 0.009188889 0.00485 0.0015 0.3348247 0.1850778 0.1145796 0.05421852 0.01872778 0.004687037 0.001725 0.0006 0.09538585 0.07977778 0.03826296 0.03149445 0.0524679 0.07506976 0.08348951 0.06800864 0.0432716 0.02044321 0.007834568 0.002316049 0.0006469136 0.0002111111 0.0001111111 0.0001 0.0001 0.1551775 0.2293125 0.2241 0.07630886 0.001174691 0.0005012346 0.0002985939 0.0002293896 0.0002125 0.0002 0.0002 
0.0001213954 0.0001361227 0.0001368289 0.0001375685 0.0001383428 0.0001391466 0.0001399861 0.0001408246 0.000141721 0.0001424383 0.0001434671 0.0001432099 0.0001453704 0.0001388889 0.00015 0.0001 0.0004 0.0016 0.0055 0.01106667 0.0182 0.0564 0.1642 0.4457 1.1165 2.5419 3.97305 5.1829 9.3753 16.34 21.0273 24.4909 29.5172 33.4091 33.535 35.8632 37.3776 38.508 38.9584 39.1779 39.55596 38.9951 36.9297 31.9179 27.1543 24.9598 24.27835 21.5521 18.8319 17.4276 17.1766 16.8286 15.4212 14.75847 13.523 12.4296 11.8779 13.3345 15.3875 16.7346 16.4836 18.1309 19.4573 20.641 21.7259 22.6887 23.5371 21.14362 24.3909 25.3379 26.7143 29.0937 45.6698 25.3815 16.1276 15.9725 15.7944 16.0176 16.4579 18.6883 17.16355 14.1141 7.7455 1.6702 5.8034 4.504867 4.3912 1.78605 1.5435 1.0414 0.8062 0.01786667 0.0082 0.0015 0.8918875 0.2542167 0.1916944 0.1093222 0.04272222 0.01061111 0.00285 0.0006 0.1643656 0.1479056 0.06867222 0.02275556 0.02336111 0.04836667 0.08567593 0.09116667 0.07362592 0.03923333 0.01695556 0.005140741 0.001407407 0.0004 0.0001333333 0.0001 0.0001 0.1619852 0.234525 0.2241 0.07801899 0.002283539 0.0008329218 0.0004076132 0.0002631687 0.000225 0.0002 0.0002 0.0002 
0.0001000183 0.0001202779 0.0001422013 0.0001434416 0.0001447992 0.0001462976 0.0001479535 0.0001498238 0.0001518861 0.0001543724 0.000156893 0.0001608025 0.000162963 0.0001722222 0.0001666667 0.0002 0.0007 0.0024 0.0082 0.01695 0.0258 0.0748 0.2001 0.4943 1.1259 1.841 2.3568 4.5043 7.8047 14.0314 22.5209 22.6864 25.21257 26.9869 30.9645 34.5389 37.5208 39.7609 40.9119 41.82748 40.5332 44.1785 43.8929 42.8302 39.5198 32.5969 31.44807 27.8622 22.6144 18.7832 17.5948 17.7472 16.6857 15.52297 14.4176 11.8186 10.7037 10.603 11.1601 12.6226 12.88093 13.9701 15.0534 16.0887 16.864 17.607 18.1889 18.81545 18.4644 18.5178 18.1358 38.9023 17.2483 21.49306 14.4389 14.8127 15.2756 15.9183 16.7477 17.571 17.12862 18.2808 17.7909 10.8804 4.7322 5.9308 2.8516 2.09145 0.7205 2.3665 0.0372 0.0149 0.0015 3.0083 0.2845 0.27325 0.2049 0.09693334 0.02613333 0.0051 0.0006 0.2648125 0.25165 0.1404 0.05166667 0.01395 0.00265 0.05348333 0.08896667 0.1145778 0.06995556 0.03634445 0.0114 0.003122222 0.0009 0.0002 0.0001 0.0001 0.1787906 0.24495 0.2241 0.08175865 0.004691358 0.001525926 0.0006333333 0.0003395062 0.00025 0.0002 0.0002 0.0002 0.0002 
0.0001 0.0001000366 0.0001223226 0.0001455938 0.0001471829 0.0001489534 0.0001509532 0.0001532122 0.0001558642 0.0001588477 0.0001627572 0.0001666667 0.0001740741 0.0001777778 0.0002 0.0002 0.0008 0.0031 0.006116667 0.0106 0.0334 0.0963 0.2534 0.6063 1.3162 1.873517 2.5887 4.6132 7.4598 10.9385 21.6477 21.5848 23.61513 26.0092 30.2752 34.3418 38.1301 41.4633 43.9472 43.54808 44.7867 46.4321 46.9625 46.5475 45.3283 42.9299 40.49182 38.7875 32.9318 26.8245 22.1647 19.3405 17.6471 17.40925 15.4432 12.9457 9.828 8.0455 7.6093 9.34325 7.6195 8.2079 9.5652 11.567 12.1885 12.9018 13.53877 13.791 14.5204 38.9564 20.0258 13.3696 13.9807 14.10378 13.20436 13.1696 13.5191 14.0439 14.7864 15.7702 16.92088 18.3473 21.2762 23.4957 19.0018 4.22 1.6801 3.211367 3.1136 4.1771 3.7329 4.0802 8.7879 0.2355 0.643825 0.3335 0.213 0.0682 0.0096 0.0006 0.418 0.36785 0.2728 0.1143 0.0341 0.0066 0.00115 0.0002 0.1591 0.1076 0.07703333 0.02523333 0.006766667 0.0022 0.0004 0.0001 0.0001 0.2251625 0.2658 0.2241 0.08994202 0.01001482 0.002977778 0.001081481 0.0005185185 0.0003 0.0002 0.0002 0.0002 0.0002 0.0002 
0.0001 0.0001 0.0001000732 0.0001225045 0.0001447992 0.0001462976 0.0001479535 0.0001498238 0.0001518861 0.0001543724 0.000156893 0.0001608025 0.000162963 0.0001722222 0.0001666667 0.0002 0.0007 0.0028 0.005566667 0.0096 0.0309 0.0907 0.2426 0.5888 1.292 1.767133 2.5615 4.5941 7.4926 11.174 15.4199 19.9473 22.02927 24.4762 28.9561 33.3648 37.6653 41.6345 44.7975 45.51275 46.312 48.2956 51.0969 51.8603 51.8895 50.41605 51.2466 49.5278 45.9587 40.4267 33.5674 27.7026 25.59315 21.2953 18.9666 16.2347 12.9732 9.9193 8.6285 8.482467 8.4195 8.1888 7.8258 7.2349 8.1671 8.4006 11.0648 10.3433 18.5145 9.4322 10.2171 11.2789 12.1161 11.74158 12.7349 10.8657 11.4423 12.1643 13.0037 14.3379 15.16915 17.2181 19.6935 23.3419 22.8936 4.0385 4.59815 3.1055 7.7969 9.1438 9.2455 10.9951 20.7598 13.5289 0.8161 1.1902 1.1694 1.0873 0.9651 0.7604 1.1788 0.493 0.2427 0.0827 0.0175 0.0021 0.0002 0.3455667 2.592267 0.1591 0.0561 0.0159 0.0037 0.0007 0.622625 0.0001 0.36895 0.3075 0.2241 0.1075125 0.02206667 0.006088889 0.001888889 0.0009555555 0.0004 0.0002 0.0002 0.0002 0.0002 0.0002 0.0002 
0.0001333333 0.0001 0.0001 0.0001001465 0.0001203937 0.0001391466 0.0001399861 0.0001408246 0.000141721 0.0001424383 0.0001434671 0.0001432099 0.0001453704 0.0001388889 0.00015 0.0001 0.0004 0.0016 0.0038 0.0057 0.0189 0.0578 0.1612 0.4079 0.9293 1.42135 1.9151 3.5705 6.0409 9.3372 13.3233 17.7751 19.87235 22.383 27.067 31.8123 36.6631 41.2899 45.0632 45.89454 48.1699 49.6211 52.9836 54.6113 55.6051 57.74512 55.4969 54.2544 50.754 45.6436 40.5954 35.617 34.94207 31.9564 27.8825 23.9842 19.9377 15.2331 10.4455 12.02525 8.1725 7.5134 6.8476 6.1173 5.7048 14.4024 9.10615 6.5497 5.4059 5.953 7.2438 8.7892 9.5366 9.86045 10.3396 8.397 8.8387 9.3965 10.2882 10.7627 11.6473 13.6941 16.2656 17.307 14.5128 10.1903 8.690434 4.3545 6.097 9.3423 11.3133 13.8171 20.1624 22.44172 30.4117 3.2004 2.9851 2.8205 2.64 2.4331 5.072033 2.2069 1.9712 1.7131 1.4051 1.0436 0.6732 4.02056 0.3633 7.2544 5.4969 3.9962 2.6942 2.028517 1.629 0.8607 0.3909 0.2241 0.14275 0.05 0.0132 0.003 0.002066667 0.0006 0.0002 0.0002 0.0002 0.0002 0.0002 0.0002 0.0002 
0.0002 0.0001333334 0.0001 0.0001 0.000100293 0.0001162312 0.0001295001 0.00012931 0.0001288666 0.0001283522 0.0001269547 0.0001263889 0.0001212963 0.000125 0.0001 0.0002 0.0002 0.0007 0.00205 0.0024 0.008 0.0267 0.083 0.2386 0.575 0.9441333 1.2552 2.4787 4.4351 7.2262 10.8125 12.8058 15.0309 19.6216 24.3673 29.2247 34.2396 39.2038 41.04793 43.6922 47.3324 50.5622 56.2702 60.8356 64.7901 64.45697 67.4425 67.5179 63.9926 58.211 51.7141 47.8317 45.47975 45.2494 41.5468 38.2272 33.065 26.9222 20.9379 17.87765 15.5476 10.8219 8.9067 8.6418 8.3046 8.3591 8.522166 6.5818 6.1435 5.8935 5.5668 5.3285 7.278333 6.5204 7.9151 7.144625 6.2572 6.6322 7.2488 8.05915 8.0503 9.5855 10.7986 20.9866 16.2711 18.832 11.33807 11.6218 6.5846 9.5365 12.2893 15.5956 22.383 25.95057 40.1173 9.0391 9.5045 10.0818 10.8027 11.7075 8.684517 12.8313 13.9017 14.0159 13.5111 12.199 10.3523 8.099133 8.7138 12.7643 10.4645 7.5608 4.9378 2.867067 2.9057 1.4965 0.6658 0.2469 0.0786 0.0214 0.007425 0.005 0.001 0.0002 0.0002 0.0002 0.0002 0.0002 0.0002 0.0002 0.0002 
0.0002400469 0.0002 0.0001333336 0.0001 0.0001 0.0001005859 0.0001110838 0.0001183656 0.0001173425 0.0001158093 0.0001146348 0.0001112654 0.0001125 0.0001 0.0001375 0.00015 0.0001 0.0003 0.0004 0.0015 0.0059 0.0181 0.0479 0.1133 0.2305333 0.2949 0.6953 1.4827 2.8616 5.0163 8.0365 9.902534 11.8565 16.2949 21.0398 25.8705 30.8116 35.9416 38.2406 41.0969 46.1599 51.3416 56.37366 63.3275 69.7612 70.78095 73.646 73.7695 71.933 68.9134 61.5719 58.5176 55.08337 53.7064 49.003 44.6463 40.0433 34.4735 31.63553 29.0098 23.1526 16.2182 14.9498 9.7578 8.4872 8.890083 7.9236 7.3164 7.0933 6.9476 6.8275 6.7558 5.32295 6.7395 5.3051 5.8416 4.2627 4.4812 5.2485 5.91175 5.8718 6.889 9.4278 6.5163 6.4685 11.2584 10.1912 11.7714 6.2742 7.6076 9.5376 12.0891 17.1406 22.67133 25.4884 35.5319 11.3409 10.7162 10.9042 10.38908 11.2558 11.6725 12.2301 13.4499 14.8484 12.6381 12.38675 14.2606 14.2316 9.39375 7.3779 5.3843 3.3404 2.2381 1.6953 0.6875 0.2266 0.0631 0.0145 0.0028 0.00596 0.0005 0.0001 0.0004333333 0.0002 0.0002 0.0002 0.0002 0.0002 0.0002 0.0001625432 
0.0002620198 0.0002581209 0.0002 0.0001333344 0.0001 0.0001 0.0001011719 0.0001065716 0.0001088877 0.0001078661 0.0001058385 0.00010625 0.0001 0.000115625 0.000125 0.0001 0.0001 0.0002 0.0001 0.0003 0.0012 0.0039 0.0133 0.0419 0.1038833 0.1195 0.3088 0.7208 1.5233 2.9352 5.2124 6.790033 8.4664 12.6257 17.2687 22.0302 26.9854 32.1576 34.7233 37.3515 43.0847 49.4918 56.4243 62.7361 63.86417 70.8965 78.1494 76.0393 82.4459 69.9618 67.5507 64.32178 65.0313 60.1638 54.7154 50.216 46.1264 41.9342 47.20543 36.5356 33.9824 50.0727 26.3478 18.9178 12.174 13.89487 8.092 6.8567 6.2582 5.6094 4.8111 3.8454 4.682283 2.7481 3.1749 3.512 3.0067 3.4663 3.7471 4.761233 5.304 6.1771 3.8549 2.711 2.0033 4.2873 3.7177 3.9459 4.193 5.7394 7.3894 9.5309 11.74662 12.6683 18.2304 35.5844 9.442 8.7981 8.7643 9.034284 8.9 8.9474 8.9783 9.1575 9.2867 12.9063 10.03202 11.9642 10.8057 9.1858 1.6064 0.8903 0.3995 0.9756333 0.1499 0.0613 0.0181 0.004 0.0007 0.0001 0.001133333 0.0003 0.0003 0.0001 0.0002444444 0.0002 0.0002 0.0002 0.0002 0.0001498642 0.0001003086 
0.000243111 0.0002809286 0.0003084441 0.0002 0.0001333374 0.0001 0.0001 0.0001023438 0.0001042842 0.0001029878 0.000103125 0.0001 0.0001070313 0.0001125 0.0001 0.0001 0.000125 0.0001 0.0001666667 0.0001 0.0002 0.001 0.0038 0.013 0.04013333 0.0407 0.1141 0.2828 0.6124 1.1759 2.4477 4.397967 4.7207 8.4627 12.8257 17.5411 22.6493 28.073 30.36192 33.7192 39.9567 47.384 55.2786 54.6 60.20318 61.8637 84.3332 74.2433 74.2668 70.9558 68.8998 64.38248 64.3594 60.0524 57.4665 56.2958 55.8414 55.6434 56.04255 85.6361 52.828 39.8535 34.6777 31.2721 26.6827 20.15323 20.0097 11.5132 6.5136 5.469 4.7952 4.209 4.5008 3.7959 3.6178 3.3199 3.77575 4.1445 3.937233 4.3624 4.0336 3.4033 2.5549 0.8964 0.603 2.1576 1.6729 3.4476 4.8651 6.1809 7.5491 8.8207 9.700916 10.2301 13.0759 20.466 33.4179 6.8927 7.5198 8.022317 6.8616 6.0024 5.0574 4.4604 4.6066 4.4332 6.534217 3.9897 3.3089 2.4665 0.826 0.4209 0.1974 0.1824 0.0713 0.0197 0.0044 0.0008 0.0001 0.00025 0.0001 0.0004583333 0.0002333333 0.0002 0.0001 0.0001814815 0.0002 0.0002 0.0001487037 0.0001006173 0.0001 
0.0002295861 0.0002566359 0.0003565638 0.0004205765 0.0002 0.0001333496 0.0001 0.0001 0.0001046875 0.0001058796 0.0001 0.0001033203 0.00010625 0.0001 0.0001 0.000105 0.0001 0.0001166667 0.0001 0.000125 0.0001 0.0003 0.0014 0.0056 0.0185 0.0201 0.0666 0.2009 0.4776 1.1884 1.396917 2.1254 3.4152 5.0455 8.4209 12.6531 17.5372 19.73088 22.674 28.1962 34.0409 40.2769 47.1545 48.16334 49.87058 50.9196 55.79 60.5677 64.2496 64.0175 62.7723 58.1316 57.6814 53.2372 50.7687 49.2674 48.1791 75.2677 51.89968 41.2383 36.1233 34.9594 34.6348 32.1963 28.7486 24.8362 25.2124 22.2244 17.0717 10.4198 8.0339 6.916433 7.8075 4.5989 4.3731 4.1772 4.0811 4.4983 4.080934 3.4048 3.8937 3.4522 3.7766 1.6532 1.779 2.299717 3.1697 4.3978 5.5041 6.6696 7.8821 7.9874 8.722466 8.9681 11.4014 15.3791 41.1387 10.2124 8.4116 6.8556 7.6766 7.0437 6.4248 5.5677 4.242 3.3176 3.74455 2.5943 1.9556 1.3577 1.1304 0.5656 0.2834667 0.2121 0.0642 0.0156 0.0032 0.0005 0.0001 0.0001 0.0001375 0.0001 0.0002383333 0.0001777778 0.00015 0.0001 0.0001842593 0.0001416667 0.0001018519 0.0001 0.0001 
0.0002199444 0.0002392279 0.0003107355 0.0005197278 0.0006518426 0.0002 0.0001333984 0.0001 0.0001 0.000109375 0.0001168981 0.0001261111 0.0001 0.0001 0.000101 0.0001 0.0001 0.000125 0.0001 0.0002 0.0001 0.0006 0.0022 0.008566666 0.0077 0.0239 0.0672 0.1674 0.2343 0.4931 1.991333 0.951 1.6866 2.7612 4.221 7.3445 11.5613 16.56427 15.8905 20.7681 25.542 31.6802 38.4141 45.3695 38.43796 36.6001 40.5184 44.56 47.2747 49.9769 49.777 48.5589 45.2997 39.9412 36.4591 34.0736 57.8991 41.35909 27.7242 25.8884 26.0665 26.0783 25.8103 25.3576 24.90457 24.6647 23.6991 22.5005 20.8883 18.3456 11.8217 9.783733 4.8313 5.3152 5.0353 4.8126 4.6352 4.0777 4.14886 3.9979 4.4079 3.4631 1.6783 1.9361 2.5933 3.13985 3.9804 5.0358 6.0774 7.1748 7.5767 7.731 8.225883 8.5975 10.2979 12.8913 26.1627 30.1893 5.0707 6.47485 5.5933 5.652 5.5752 5.3567 4.9234 4.42455 4.3949 3.7376 2.9178 2.005 1.17 0.2315 0.2193833 0.0733 0.0199 0.0044 0.0007 0.0001 0.0002 0.0001 0.00015 0.0002 0.003617361 0.002875926 0.001005556 0.0003574074 0.0001611111 0.0001055556 0.0001 0.0001 0.0001835069 
0.0002199444 0.0002392279 0.0003107355 0.0005197278 0.0006518426 0.0002 0.0001333984 0.0001 0.0001 0.000109375 0.0001168981 0.0001261111 0.0001 0.0001 0.000101 0.0001 0.0001 0.000125 0.0001 0.0002 0.0001 0.0006 0.0022 0.008566666 0.0077 0.0239 0.0672 0.1674 0.2343 0.4931 1.991333 0.951 1.6866 2.7612 4.221 7.3445 11.5613 16.56427 15.8905 20.7681 25.542 31.6802 38.4141 45.3695 38.43796 36.6001 40.5184 44.56 47.2747 49.9769 49.777 48.5589 45.2997 39.9412 36.4591 34.0736 57.8991 41.35909 27.7242 25.8884 26.0665 26.0783 25.8103 25.3576 24.90457 24.6647 23.6991 22.5005 20.8883 18.3456 11.8217 9.783733 4.8313 5.3152 5.0353 4.8126 4.6352 4.0777 4.14886 3.9979 4.4079 3.4631 1.6783 1.9361 2.5933 3.13985 3.9804 5.0358 6.0774 7.1748 7.5767 7.731 8.225883 8.5975 10.2979 12.8913 26.1627 30.1893 5.0707 6.47485 5.5933 5.652 5.5752 5.3567 4.9234 4.42455 4.3949 3.7376 2.9178 2.005 1.17 0.2315 0.2193833 0.0733 0.0199 0.0044 0.0007 0.0001 0.0002 0.0001 0.00015 0.0002 0.003617361 0.002875926 0.001005556 0.0003574074 0.0001611111 0.0001055556 0.0001 0.0001 0.0001835069 
0.000212679 0.0002272098 0.0002777949 0.0004272019 0.0008541867 0.001125982 0.0002 0.0001335938 0.0001 0.0001 0.00011875 0.0001319444 0.0001736111 0.0002194444 0.00018 0.0001 0.0001 0.0001 0.0002 0.0001 0.0005 0.0021 0.0078 0.02685 0.0267 0.082 0.2251 0.552 1.4118 2.6906 3.517417 4.4995 6.6073 8.726 10.6638 12.3611 14.2066 16.40963 17.516 19.6065 23.1125 25.5552 29.1728 33.1901 32.70362 26.1105 29.0645 31.6165 33.8071 36.6922 38.50597 38.6741 37.1489 31.6416 28.0903 49.5328 19.4544 25.89497 19.63 19.8431 19.9791 19.9909 19.8234 19.4619 20.31733 18.9983 18.3336 17.4972 16.6238 15.4149 14.1342 12.03062 12.0738 8.5121 6.003 5.2688 4.9165 4.6706 4.69952 4.7656 5.4434 4.4091 2.9066 2.0573 2.9522 3.631067 4.3645 5.5062 6.5406 7.0953 7.2339 7.484217 7.6701 8.4012 9.6234 11.5048 18.9878 33.6842 19.81247 6.2346 5.8623 5.6508 5.5013 5.322 5.0411 4.87215 4.6283 4.0384 3.2545 4.1068 0.6411 0.1761 0.13582 0.0577 0.0157 0.0035 0.0007 0.0001 0.00035 0.0002 0.0002 0.009847917 0.005877778 0.002061111 0.0006888889 0.0002666667 0.0001166667 0.0001 0.0001 0.0002477431 0.0002027778 
0.0002078125 0.0002175454 0.0002562714 0.0003595679 0.0006657665 0.001537226 0.002100935 0.0002 0.000134375 0.0001 0.0001 0.0001375 0.0001583333 0.000225 0.000275 0.0002 0.0001 0.0001 0.0001 0.0004 0.0017 0.0073 0.027 0.03953333 0.0897 0.2637 0.6799 1.5282 2.9786 5.0217 4.891817 7.4486 10.0586 12.6202 14.942 16.9623 18.7697 15.50833 20.5137 18.0513 18.8045 18.4652 18.3809 21.64295 22.2479 19.50114 17.7197 20.4407 23.3385 26.404 29.74097 29.5116 32.0665 25.7682 59.2436 14.9739 15.1786 15.82345 15.4835 15.7754 16.0704 16.3576 16.5961 16.6647 17.08472 16.7568 16.7311 16.5127 15.9672 15.3231 14.7977 13.76252 14.525 12.1021 8.6045 6.0343 5.0392 4.6844 5.31702 5.972 7.1844 8.0599 3.3525 2.0013 2.636917 3.2211 4.6749 5.7533 6.354 6.6852 7.0823 7.357367 7.6113 8.2336 9.1443 10.6061 15.8968 36.2814 22.75473 7.4146 6.5807 6.1059 5.8135 5.5823 5.3136 5.150517 4.9316 4.3768 8.8348 0.8437 0.4396 0.46688 0.37602 0.1405 0.0504 0.0158 0.0043 0.001 0.03758 0.0002 0.022925 0.012 0.004266667 0.001366667 0.00055 0.00015 0.0001 0.0001 0.0004854167 0.0002555556 0.00015 
0.0002 0.000215625 0.0002370113 0.000316178 0.0005255144 0.001155607 0.002930555 0.004117578 0.0002 0.0001375 0.0001 0.0001 0.000175 0.0002 0.0003 0.000325 0.000175 0.0001 0.0001 0.0003 0.0013 0.0052 0.0197 0.04961667 0.0663 0.1978 0.5185 1.0418 2.1121 3.41775 3.7728 5.9177 8.2129 10.2417 11.6417 12.174 13.93792 11.72 10.324 11.9053 9.9946 10.9668 13.0988 14.1657 13.7672 15.3031 12.2951 14.6315 17.7354 21.713 30.69995 25.4509 69.4592 49.9258 20.3112 11.9403 12.3897 12.8493 12.8045 13.2228 13.682 14.1944 14.7409 15.1049 15.23585 15.5217 15.7956 15.8042 15.3466 14.7106 13.9521 13.73268 13.0923 12.1786 9.8435 8.2401 5.9469 6.2628 5.6685 5.4946 5.7047 2.8012 3.4713 2.0773 2.738033 3.5123 4.6107 5.3963 6.1529 6.4597 6.9947 7.28905 7.5519 8.0904 8.7876 9.9461 13.8849 26.5543 30.7548 26.3593 4.0802 5.4515 5.8173 5.8214 5.6526 8.029734 5.3359 14.9529 2.3936 1.398 0.7349 0.3427 1.33614 1.1631 0.7523 0.4551 0.2532 0.1281 0.2430167 0.0585 0.0241 0.0089 0.003 0.0009 0.0002 0.0033 0.0001 0.001175 0.0004666667 0.0002 0.0001 
0.0001583333 0.0002 0.00023125 0.0002797839 0.0004375 0.0008592593 0.002170062 0.005762346 0.008337905 0.0002 0.00015 0.0001 0.0001 0.00025 0.00025 0.0004 0.01119611 0.0001 0.0001 0.0003 0.0015 0.006 0.0157 0.0223 0.0727 0.2087 0.5261 1.305 2.4868 3.106133 4.1345 6.1408 8.228 10.0561 11.3511 11.9947 10.51405 12.0068 8.7328 8.0156 7.808 7.7044 8.2716 10.236 9.2278 10.5484 11.0316 12.8738 16.6387 18.959 35.41188 62.1612 42.0453 19.0691 9.4221 9.9227 10.26065 10.4082 10.8313 11.223 11.6481 12.1518 12.7348 12.99492 13.3719 13.9951 14.3667 14.3983 14.2279 13.8604 13.59218 13.3509 12.6781 12.0056 14.1788 11.0582 9.3273 8.6719 6.9105 6.7416 8.6057 3.7344 3.3192 2.1612 2.8932 3.455 4.525 5.4816 6.0862 6.4182 6.9725 7.259666 7.5216 7.9951 8.5439 9.5131 12.5026 22.5051 33.28393 65.4141 17.8052 12.636 10.3384 9.0056 8.541183 8.0797 18.865 6.1506 4.6931 3.4288 2.4505 2.5044 1.7144 3.32 2.4947 1.8014 1.2349 0.7948 0.7540666 0.4755 0.2621 0.1322 0.0607 0.0253 0.0096 0.009 0.0033 0.001 0.0003 0.0001 0.0001333333 
0.00011875 0.00015625 0.0002 0.0002625 0.0003768519 0.0006731481 0.001527778 0.004309259 0.01145 0.01739236 0.0002 0.0002 0.0001 0.0001 0.0004 0.005566667 0.02695 0.03406 0.0001 0.0005 0.0022 0.009 0.6042 0.032 0.0999 0.2731 0.6486 1.3329 2.3763 3.405183 3.7543 5.2988 6.7364 7.7778 8.211 7.9707 9.422183 7.2181 9.0568 9.1581 9.0835 8.8599 8.1628 9.07505 8.8878 9.9192 10.47761 11.5235 16.2862 29.19085 54.0929 30.0943 11.8618 7.0792 7.6055 8.1692 8.536933 8.7338 9.2063 9.5502 9.867 10.2619 10.7566 10.61632 11.2604 11.7003 12.1237 12.4721 12.685 12.7741 11.9408 12.905 12.7876 14.8167 13.5757 14.519 13.7524 8.904166 10.4258 7.383 3.74 3.5342 3.2171 2.4933 3.128617 3.6601 4.7276 5.6795 6.0526 6.4442 6.730883 6.9935 7.5238 7.9524 8.4041 9.2262 11.5275 28.83418 37.5646 21.3062 17.3947 15.1771 13.3914 11.9482 11.41802 10.7396 13.937 11.0895 8.7897 6.9504 5.4841 4.794483 4.2998 4.3725 4.5312 3.5518 2.6542 1.8613 1.535633 1.2062 0.713 0.3808 0.1827 0.0786 0.0303 0.01078333 0.0105 0.0033 0.0009 0.0002 0.0001 
0.0001 0.0001375 0.0001875 0.0002 0.000325 0.0006055555 0.001088889 0.002888889 0.00895 0.02251111 0.03790833 0.0002 0.0004 0.1034833 0.0033 0.44194 0.013 0.0409 0.1162 0.2945 0.6612 1.3046 7.536033 2.2513 3.4051 4.3742 1.0578 1.9345 3.1326 7.146934 4.5466 5.985 7.2348 8.1297 8.6043 8.7199 7.681067 8.6229 7.1862 8.6641 9.2729 9.7516 8.533183 10.1656 9.7347 9.8166 9.8939 8.2139 46.6768 26.66595 22.4915 7.4367 5.7605 5.9366 6.3094 6.7798 6.844617 7.2079 7.4857 7.5742 7.5263 7.4972 7.6395 7.877283 7.9347 8.2941 8.6603 8.9713 9.1297 9.0848 10.29448 9.6696 11.4847 6.8719 7.011 7.101 6.396 7.3266 6.613 5.3703 3.8868 3.3507 3.2916 3.1798 3.0078 3.9943 4.9901 5.8613 6.0734 6.5095 6.7875 7.0474 7.5557 7.9561 8.3552 8.9797 15.5048 34.74075 73.4005 32.1456 23.173 19.4985 16.9786 15.0083 13.72897 13.7267 13.9505 12.7504 11.1379 9.5276 8.0606 7.160767 6.7575 5.5924 6.27 5.1331 4.0019 3.373333 2.9187 1.9573 1.1895 0.6483 0.5057 0.0108 0.05801667 0.0075 0.0035 0.0013 0.0004 0.0001 0.00016 
0.0001125 0.0001 0.000175 0.000275 0.0002 0.00045 0.001166667 0.00165 0.00585 0.01935 0.04233333 0.08975 0.0002 0.0009 0.616 2.48465 1.577 3.6386 7.4338 11.9237 16.1266 19.8221 14.21527 21.7972 21.4857 18.7305 20.2242 17.653 13.5465 15.4532 13.6186 12.2641 10.6452 8.9657 8.1289 7.816733 7.9573 5.5975 6.0818 5.5588 6.3563 6.7694 7.951617 7.4898 8.0386 8.2663 8.3033 16.8026 14.8458 16.86122 5.6025 5.6234 5.6324 5.4997 5.2458 5.0824 5.341383 5.0946 5.205 5.2309 5.0694 4.7976 4.7369 4.94245 4.9356 5.2219 5.5192 5.7607 5.7785 4.688 7.224733 12.6454 4.0185 4.0236 4.0426 3.9813 4.330884 3.7289 3.0435 4.4767 3.9118 3.0891 3.4713 3.525967 3.5977 4.3748 5.2841 5.9828 6.162 6.6039 6.871883 7.1265 7.6122 7.996 8.3715 8.9239 45.4683 32.01245 24.9788 25.652 20.5346 18.6364 17.107 16.1554 15.00755 14.7956 14.2479 13.4183 12.2949 11.0446 9.7875 8.97935 8.5751 7.41 7.5953 6.3648 5.0592 4.292517 3.7447 2.5354 1.5473 0.8422 0.4326 0.1644 0.08123333 0.0565 0.0177 0.005 0.0013 0.0003 0.0001 
0.0001171875 0.000125 0.0001 0.00025 0.00055 0.0002 0.0007 0.0026 0.023075 0.0091 0.0296 0.0883 0.2409 0.5854 1.6572 4.8358 7.8628 11.3425 14.8826 18.5227 19.7606 15.70063 19.9943 20.1221 20.685 22.2277 22.7606 22.2964 18.01387 20.8093 18.6183 15.7936 13.227 10.873 7.7743 8.196134 5.7157 6.8011 6.6174 6.3476 6.1644 6.6094 7.664516 6.9239 7.3194 8.1542 10.819 10.81174 5.8541 7.065333 5.6966 5.5472 5.2983 4.9224 4.4691 4.073 4.16935 3.8106 3.6572 3.507 3.2529 2.6114 3.766067 2.1282 2.2798 2.6141 3.0401 3.5714 4.5983 4.3805 4.702 2.5586 1.9057 1.9097 2.0071 2.1875 3.293283 2.5906 3.6771 4.2142 3.8626 3.044 3.7044 3.943633 4.083 4.7644 5.5971 6.0751 6.2834 6.7193 6.978017 7.2247 7.6888 8.0634 8.4315 19.9896 13.1233 21.74447 19.599 20.395 17.9179 16.8754 16.4474 15.88835 15.6002 14.7591 14.1958 13.5789 12.7947 11.8721 11.21022 10.87 9.8254 8.7412 7.898275 7.2176 5.7667 4.900883 4.2639 2.8668 1.7278 0.9245 0.4404 0.1821 0.1155333 0.0661 0.0213 0.0061 0.0016 0.0004 0.0001 
0.0001 0.00014375 0.00015 0.0001 0.0004 0.0015 0.0055 0.0193 0.02995 0.0613 0.177 0.4517 1.0899 2.2479 2.425 4.87914 4.2712 6.0484 7.3486 7.424 8.6602 12.51272 9.84 11.0086 12.2062 13.4172 14.5373 15.5258 18.09322 16.3455 16.665 16.1279 14.5097 11.7776 10.856 9.87145 8.7446 8.2659 8.311 8.3921 8.5901 8.9219 8.50665 9.2727 9.7063 10.2887 10.964 8.0934 5.95364 5.3072 5.0858 4.9406 4.77 4.4436 3.9917 3.6937 3.6171 3.3384 3.0722 2.7697 3.0633 3.8041 4.09695 4.5182 4.9499 5.4595 6.1207 5.4778 3.7188 4.400167 2.7974 3.094 3.499 3.4905 3.4734 3.5435 3.3279 3.7279 4.0126 4.3157 3.8882 3.852143 4.2118 4.39025 4.5936 5.179 5.934 6.1539 6.426 6.647483 6.8535 7.3402 7.7851 8.1554 8.5259 37.6996 18.3573 10.867 16.4304 17.3623 16.0426 15.7692 15.2454 14.978 14.7747 14.2176 13.7864 13.3659 12.8524 12.2175 11.74385 11.4696 10.6158 9.6423 8.5175 7.6975 6.1122 5.1733 4.4586 2.9377 1.7254 0.8958 0.4101 0.1653 0.10825 0.0588 0.0186 0.0053 0.0013 0.0003 0.0001 
0.0001 0.0001 0.000225 0.0002 0.0006 0.0023 0.0076 0.02075 0.0232 0.0642 0.1585 0.3433 0.6941 1.748 2.60052 2.7079 4.718 5.9501 6.2025 6.7686 7.863 8.4217 8.9582 10.1328 11.5276 13.2715 14.9127 16.3021 15.95232 17.2802 17.8278 18.1259 18.3884 20.466 14.2808 12.61032 11.8573 9.9252 9.3424 9.3761 9.4842 9.6083 10.03817 9.7037 9.733 19.5515 8.9397 5.9321 5.82738 4.5814 4.2849 4.1125 4.0274 3.7318 3.1257 4.005667 2.8856 2.8713 3.5625 4.4328 5.0177 5.5485 5.577667 5.9713 6.271 6.5027 5.5824 5.5965 5.675 4.923183 4.9095 5.0225 4.1425 3.9667 3.9285 3.9568 3.89065 3.9611 4.1734 4.8754 4.9853 3.2687 3.9863 4.6686 5.0801 5.6015 6.1882 6.2967 6.5942 6.80225 7.0085 7.4746 7.9034 8.2741 26.4398 15.2436 17.6437 13.2207 15.8211 16.0742 15.1655 14.3945 14.0316 13.97825 13.7687 13.4804 13.2333 12.9931 12.6902 12.2838 11.95417 11.7501 11.0644 10.1873 9.0721 7.812 6.69398 6.0993 4.3391 2.7687 1.5663 0.7805 0.342 0.2333 0.1321 0.0451 0.0137 0.0037 0.0009 0.0002 0.000175 
0.0001125 0.0001 0.0001 0.0005 0.0018 0.0061 0.0185 0.02568333 0.0504 0.1207 0.2516 0.4749 0.9671 2.5089 2.428867 3.7899 3.3456 3.6751 5.0068 6.2166 7.1698 7.290916 8.039 8.7395 9.1651 11.235 13.1009 14.4878 14.95917 15.7725 16.6012 16.4448 29.1243 17 16.75903 15.4191 14.5041 12.6865 11.3188 10.5638 10.6341 11.43198 11.033 11.6894 11.7897 11.8838 5.8792 5.2228 4.70604 3.8766 3.317 2.7837 3.1456 3.772 4.7535 3.98565 5.6604 4.7114 5.3108 5.9395 6.4354 6.7853 6.3909 6.8386 6.8209 6.3573 6.2462 6.4255 6.7434 5.9483 5.695 5.6667 4.2868 4.1943 4.1365 4.121833 4.098 4.0566 4.5262 4.048 5.3278 3.7453 3.86546 4.0371 5.1038 5.8313 6.2912 6.4384 6.7609 6.955934 7.1704 7.6215 8.0417 16.279 11.449 14.6424 15.46818 14.1889 21.9272 12.6515 13.5288 13.3095 13.0997 13.12832 12.9494 12.8069 12.6836 12.5698 12.422 12.1876 11.97158 11.8164 11.252 10.4277 9.2841 8.58212 6.46816 5.7489 3.9435 2.4097 1.2994 0.6155 0.2562 0.1762167 0.0941 0.0306 0.0089 0.0023 0.0005 0.0001 0.0001333333 
0.0001 0.00015 0.0001 0.0005 0.0018 0.0055 0.0154 0.03436667 0.039 0.0871 0.1694 0.288 0.4486 1.1143 2.477933 2.7042 4.347075 3.7349 4.0446 4.589 7.311633 5.3991 6.3164 7.4593 8.9462 8.9347 9.647 12.99027 11.5417 14.3707 16.6619 18.13 17.4681 16.9968 17.43047 16.3915 16.2723 14.7122 12.5435 9.9194 7.6427 15.80157 20.1896 8.5721 6.28 3.2983 3.7872 4.0118 3.78078 3.7821 3.4176 3.9781 3.9235 3.9012 3.8639 4.516883 3.6248 5.1582 5.6689 6.1716 6.5779 7.252467 6.8468 6.3549 6.0583 5.6347 5.8825 6.2931 6.429683 6.6468 6.0201 5.1513 4.5167 4.4091 4.332 4.260667 4.2792 4.282 5.0268 4.9205 5.1619 3.6076 3.69742 4.34918 4.8658 5.8742 6.2541 6.5213 6.8893 7.08345 7.3123 7.7629 8.1912 23.8252 7.7702 12.7948 16.72673 22.7187 14.3202 13.1889 13.0419 12.7473 12.74503 12.527 12.3935 12.3076 12.2545 12.2191 12.1654 12.11087 12.0355 11.7561 11.2409 10.3993 9.1699 7.5725 5.93724 5.1081 3.3404 1.9343 0.9849 0.44 0.1729 0.12045 0.06 0.0185 0.0051 0.0013 0.0003 0.0001 0.0001 
0.0001333333 0.0001 0.0003 0.001 0.0032 0.0094 0.0248 0.04456666 0.0581 0.1191 0.213 0.3396 0.5312 1.2096 4.271633 3.5407 4.0044 9.9818 9.0621 9.8031 10.4442 10.6922 11.5116 12.2623 12.7858 13.4106 14.1717 13.56428 14.9925 15.6532 15.2095 16.5323 18.1033 19.3732 18.9173 19.4022 18.6724 16.7081 13.6431 10.6494 31.6646 18.58605 13.6454 8.26 5.7494 3.9978 3.4059 2.8697 3.613483 3.0175 4.0551 4.1637 4.1759 4.2565 4.369467 4.4314 4.7673 5.5059 5.842 6.0722 6.0131 7.016267 10.8563 6.5529 6.114 5.8096 6.1652 6.3721 6.067633 6.0972 5.0069 3.1163 9.9363 4.5441 4.4166 4.42335 4.3017 4.4795 6.1865 5.5083 5.1621 3.9094 3.50932 3.1877 4.5515 5.7606 6.1522 6.5328 6.720067 6.9575 7.4103 7.8775 16.421 15.4443 10.6147 14.66647 21.2076 14.808 14.6623 13.5293 12.9709 12.5373 12.45113 12.2494 12.0854 12.0053 11.9803 11.9837 11.9735 11.93723 11.8812 11.6127 11.0572 10.1133 8.7374 7.0006 6.01566 4.2561 2.6247 1.4267 0.6805 0.285 0.1051 0.07463333 0.0344 0.01 0.0026 0.0006 0.0002 0.0002 0.0001 
0.0001 0.0002 0.0007 0.0024 0.007 0.0185 0.02315 0.0417 0.0884 0.1752 0.3575 0.7156 1.2859 4.266383 5.9611 11.0999 11.0302 21.0969 18.1852 16.0473 15.94405 16.1345 17.4133 15.7535 16.2253 15.8804 15.6765 15.8303 15.3563 12.7832 14.8179 16.929 19.3234 20.0752 21.01633 21.2649 21.5076 20.7392 18.9629 40.4906 23.07 20.34195 15.304 12.4998 11.5214 5.1504 4.4247 4.070567 4.029 3.9708 4.1986 4.7014 4.7002 4.8039 5.582366 4.9599 5.3004 5.7338 5.9874 6.1716 6.168 6.3923 5.6355 6.579 6.4339 13.7332 6.1151 5.8194 5.716434 5.1772 3.5772 4.3084 13.9386 4.6927 4.5951 4.523233 4.6155 5.2376 6.1064 5.6994 5.7135 4.0156 3.634 2.8263 4.2971 5.5252 5.9674 6.4637 6.686633 6.9558 7.4504 14.4091 10.9704 15.1892 20.6799 16.2751 14.9316 14.5641 14.5842 13.6516 12.987 12.49 12.3485 12.1558 11.9608 11.8698 11.8485 11.8588 11.8452 11.77928 11.7226 11.3773 10.686 9.558 7.9958 6.141 5.155 2.67004 1.9019 0.9626 0.4275 0.167 0.122 0.0577 0.0177 0.0049 0.0012 0.0003 0.0003666667 0.0002 0.0001666667 
0.000125 0.0001 0.0005 0.0017 0.0051 0.0131 0.02118333 0.0314 0.0646 0.12 0.2026 0.7001 4.271 5.276283 12.3395 20.327 23.7912 23.78654 25.8889 22.9059 22.05997 20.0813 17.4635 18.6229 18.5295 18.5718 18.2857 18.96208 16.4991 19.2158 21.129 23.2973 26.3019 23.96392 23.0856 22.8969 23.1342 23.8775 54.8747 28.7056 26.35523 21.0033 17.3644 13.4932 9.4922 7.9717 4.9175 4.8141 4.7766 4.7469 4.7277 4.2057 3.2337 9.8343 7.715384 5.2082 5.3787 5.4886 5.3555 4.8367 3.4181 4.9579 6.2628 6.9665 7.182 20.5287 6.2241 5.5418 5.675034 5.2909 4.9572 9.1517 10.1357 4.7677 4.6834 4.634 4.5765 5.2756 4.7044 5.9557 8.0115 6.471384 4.6276 3.2374 4.1776 5.2416 5.7122 6.3223 6.58395 6.8877 7.4311 20.8063 7.8831 21.6068 14.6328 16.13895 15.584 14.608 14.4526 13.6627 13.0031 12.5018 12.33832 12.1567 11.9492 11.8489 11.818 11.806 11.7394 11.59977 11.5138 11.002 10.0875 8.7205 6.9772 5.0744 4.1618 3.3029 1.2646 0.5922 0.2438 0.0886 0.06621667 0.0286 0.0082 0.0021 0.0006 0.00055 0.0003 0.0002888889 0.0002 
0.0001 0.0001 0.0002 0.0008 0.0024 0.0065 0.01381667 0.0159 0.0317 0.0535 0.1039 0.2943 1.3956 4.546417 6.4046 18.9957 28.8535 29.3789 32.0675 29.25447 29.9769 27.2139 24.9129 23.6366 22.5268 22.7173 22.40677 22.6313 25.3236 26.0568 26.3744 26.6804 25.2926 28.58253 29.7048 30.8942 31.7004 66.067 37.9025 25.3259 21.31758 19.536 17.3736 14.8014 9.74 7.7784 5.4576 5.2698 5.2792 5.1069 4.7864 2.2691 4.4059 16.1889 10.3722 5.2971 5.2908 5.1572 4.7486 3.8716 3.866667 2.1643 6.0987 7.0865 8.0811 25.9661 6.4305 6.168883 5.8319 6.389 7.242 9.5902 8.6388 4.7895 4.702233 4.6214 4.5328 5.1255 3.7764 5.9496 8.1923 8.013284 8.2678 3.8488 3.6886 4.7558 5.4374 6.1174 7.25265 6.7568 13.3411 13.8944 18.5317 15.9719 15.125 15.50477 15.8804 14.7201 14.3352 13.6278 13.0056 12.5284 12.36375 12.1972 11.9942 11.8887 11.8353 11.7677 11.65295 11.5916 11.186 10.4254 9.2281 7.6174 5.7575 4.833167 3.9193 2.3714 0.7692 0.3319 0.1263 0.0426 0.03275 0.0128 0.0035 0.001 0.0001 0.00035 0.000325 0.0003 0.000262963 
0.0001 0.00015 0.0002 0.0006 0.0018 0.0048 0.008166667 0.0112 0.0231 0.0422 0.0717 0.1398 0.4657 1.8944 2.4021 9.2502 21.368 30.8466 31.8135 30.29208 32.8741 29.9846 28.6137 27.2665 25.4079 25.3833 26.05325 26.8512 27.8353 28.7584 29.2906 29.7119 31.4632 30.94777 35.6471 40.6131 64.3756 40.9859 24.584 18.1009 18.61298 15.2338 11.5988 11.7737 10.0482 7.1768 5.818 5.8572 5.3699 4.8411 3.8906 4.309288 6.5278 12.72342 18.3463 7.3584 5.0217 4.5471 3.5716 5.3316 4.4702 3.5777 6.3667 7.4874 15.0324 20.7965 6.6298 6.470617 6.3552 7.3542 8.3735 10.4229 7.5028 4.7943 4.71375 4.6065 4.5149 5.0881 4.0922 5.0561 7.7207 9.01435 11.2598 5.4903 3.6069 4.7012 5.3215 5.9365 8.147317 11.4952 11.0378 18.9219 13.772 16.7198 16.16998 15.7225 16.0839 14.8385 14.2308 13.5681 12.992 12.76645 12.5517 12.2467 12.0562 11.9424 11.8462 11.6809 11.46132 11.3321 10.6732 9.6052 8.1143 6.3188 4.4592 3.673433 2.8114 1.5677 0.83385 0.1697 0.0596 0.0187 0.01485 0.0052 0.0016 0.0001 0.0004 0.0001 0.000225 0.0002375 0.0003 
0.000125 0.00015 0.0001 0.0003 0.001 0.001883333 0.0029 0.0077 0.0175 0.0345 0.0585 0.0891 0.1679167 0.1575 0.5409 2.841 10.4735 23.147 22.46508 23.15612 24.7284 24.6812 27.9849 28.4613 29.824 29.6471 25.47658 29.0893 27.7073 26.8926 27.4226 29.718 27.7408 26.65427 35.8381 85.0435 43.7782 21.6288 13.8272 15.2177 18.38887 18.2636 12.1891 13.2634 12.0976 10.7256 14.88342 7.9406 5.2779 4.4986 3.2812 1.5626 7.7507 23.17225 23.1209 7.7983 4.9698 4.6159 3.9936 6.6959 5.910483 5.1801 8.1068 10.5478 15.7098 17.5728 6.8141 6.81115 6.7622 7.4939 9.8107 11.5302 6.8346 4.8254 4.760533 4.6454 4.6013 5.2666 4.8643 5.727 7.784 9.337717 10.8615 6.902 3.8155 4.609663 5.1372 5.6395 5.7719 12.8061 16.9916 14.3838 14.6797 17.2107 16.63852 16.27 16.2362 14.9424 14.1265 13.4866 12.9592 12.75622 12.5618 12.2873 12.1078 11.9728 11.8032 11.49 11.14257 10.9056 9.9383 8.5469 6.8132 4.9484 3.2261 2.615667 1.8671 0.953 0.4282 0.0797 0.0258 0.02088333 0.0075 0.0023 0.0002 0.0005 0.0001 0.0002 0.0001 0.0001625 0.0002 
0.000125 0.0001 0.0002 0.0004 0.0002 0.001175 0.0006 0.0022 0.0065 0.0166 0.0356 0.0629 0.0707 0.0925 0.1336 0.3553 1.9711 8.0015 18.5168 13.18995 7.8478 13.6308 18.1743 35.1568 24.0988 22.0902 19.16777 19.7984 17.5416 16.0687 14.0157 9.8543 16.06908 14.0503 15.1861 12.1618 4.9303 5.4271 6.1778 7.44 6.8714 36.6458 16.5883 17.3524 22.5039 28.0261 13.42752 29.6134 22.1495 12.5467 2.2467 2.7235 27.0214 28.45748 56.2664 40.4029 12.0614 7.0854 5.5407 7.6277 8.76705 7.0499 9.8464 12.1642 15.6923 15.8551 7.1122 7.369933 7.1934 7.9417 12.8858 10.4461 6.4569 4.9189 4.874917 4.7727 4.811 5.56 5.6348 6.6467 7.413466 8.3263 10.074 7.6005 5.12 3.9874 5.1876 6.910683 6.4823 19.0787 15.4291 13.4422 14.9935 17.2779 16.91915 16.6302 16.2855 14.9021 14.0363 13.4031 12.915 12.73187 12.5576 12.31 12.1313 11.9525 11.6712 11.1584 10.66918 10.2884 8.9922 7.3167 5.4461 3.6519 2.1801 1.745133 1.1501 0.5347 0.2193 0.1134125 0.0104 0.008666666 0.0033 0.0003 0.0001 0.00015 0.0002125 0.0001 0.0001333333 0.0001 0.00013125 
0.0001 0.00015 0.000225 0.0002 0.0002 0.0004 0.0014 0.00235 0.0001 0.0006 0.002 0.0061 0.0444 0.0161 0.0377 0.078 0.1493 0.3079 1.6668 9.3438 7.168667 7.856517 7.3672 4.4007 4.2894 9.72835 6.3776 8.004 9.1993 9.17 7.9813 7.3382 8.158033 7.7129 6.5315 3.5439 0.8986 0.8691 1.106 3.1758 1.4399 1.8588 1.8919 2.0484 2.1904 2.2585 11.6319 2.0009 1.1497 0.2282 5.8746 9.9259 21.44884 34.4283 28.128 2.6625 2.7217 3.0423 15.6365 13.3392 11.31483 12.7095 14.372 14.9371 15.9806 15.0753 12.42157 7.9083 8.4294 10.1876 13.9348 11.1877 6.2925 5.762933 5.0922 4.9949 5.1215 5.8839 6.342 7.3039 7.935667 8.6929 9.7359 7.9857 5.1774 4.4281 5.765 9.13572 13.1201 16.6437 16.4559 13.451 15.2539 17.275 17.04282 16.8511 16.236 14.7199 13.9023 13.3053 12.8592 12.69303 12.5384 12.3095 12.1153 11.8645 11.4311 11.01293 10.6758 9.4969 7.8973 6.0268 4.1525 2.5503 2.051583 1.3848 0.6626 0.2796 0.1045 0.0348 0.0046 0.003233333 0.0004 0.0001 0.0001666667 0.0001 0.000125 0.000134375 0.0001 0.0001111111 0.0001 
0.000125 0.00016875 0.0002 0.0002 0.0002666667 0.0006666667 0.0010625 0.0001 0.00035 0.0009 0.0029 0.00405 0.0111 0.0269 0.04393333 0.08833333 0.13385 0.53105 0.494 0.5579333 0.009025 0.0274 0.0916 0.2253 0.3631 2.09325 1.151 3.2171 4.3118 4.9369 5.3889 5.2994 5.3207 4.6931 3.3181 1.4332 0.33 0.5463 1.2791 1.467533 2.1806 3.1181 2.8714 3.1115 3.4071 3.7843 3.651617 4.1082 3.6751 6.2467 17.8825 28.4308 39.1426 29.10387 21.5831 6.6267 5.2778 7.1794 16.3826 15.85998 14.6235 12.5392 12.7483 13.2212 14.9976 11.2043 13.96712 17.3742 10.5423 12.066 13.4004 9.2456 6.4504 5.902933 5.3667 5.2921 5.4842 6.1856 6.9259 7.7115 8.27925 8.9327 9.5079 8.1088 5.1685 5.0212 5.82174 11.04152 15.1236 17.7404 17.4525 14.1788 15.5942 16.5215 17.2772 16.9455 15.9949 14.5452 13.7327 13.1848 12.97852 12.7869 12.5011 12.2817 12.0532 11.7012 11.0813 10.53833 10.0598 8.584 6.7487 4.8001 3.0437 1.7039 1.346567 0.8385 0.3629 0.1387 0.0471 0.0143 0.0006 0.001425 0.0001 0.0002 0.0001 0.0001222222 0.0001 0.0001125 0.0001117187 0.0001 0.0001037037 
0.0001645833 0.0002 0.0002 0.0002222222 0.0003777778 0.0005239584 0.0001 0.000225 0.00045 0.001383333 0.002616667 0.006016667 0.01401667 0.02731111 0.05305555 0.05330333 0.0002 0.0002 0.0005 0.0011 0.0059 0.0017 0.0079 0.0313 0.1034 0.3542 0.275 0.5548 1.7594 2.0548 2.357 3.8647 3.557067 3.0159 1.8445 0.6546 0.0823 0.295 0.8872 1.326667 1.9124 3.3875 3.4556 3.8957 4.2406 4.6624 4.8737 5.0954 5.0525 9.6806 22.075 27.4665 28.76783 27.5618 16.50203 8.1019 8.5182 12.0268 17.7742 17.32277 17.4039 14.9241 13.6622 13.8166 15.761 14.7463 15.87818 17.4943 11.6342 12.9032 13.1284 9.1022 6.5386 6.558983 5.6772 5.6331 5.8537 6.4764 7.309 8.0353 8.5067 8.9992 9.2428 8.0861 5.3557 8.043 5.8514 12.00388 15.3475 17.9789 17.6031 15.4251 16.3228 16.90302 17.4059 16.9325 15.697 14.3544 13.5424 13.0412 12.86142 12.6937 12.4414 12.2224 11.9414 11.463 10.6345 9.96915 9.3475 7.6198 5.6428 3.7298 2.1726 1.1078 0.8582333 0.4941 0.1935 0.067 0.0207 0.0068 0.00458 0.0003 0.00015 0.0001 0.0001333333 0.0001 0.0001074074 0.0001 0.00010625 0.0001044922 0.0001 
0.0002 0.0002 0.0002074074 0.0002666667 0.0003059896 0.0001 0.0001625 0.0002583333 0.0006861111 0.001483333 0.003338889 0.00755 0.01578148 0.03146111 0.026814 0.0002 0.0002 0.0002 0.0005 0.0002 0.0008 0.0013 0.0058 0.0222 0.0684 0.1245667 0.1643 0.2945 0.6923 1.7598 2.283 2.37425 2.5829 1.8864 1.0288 0.315 0.0289 0.151 0.3722833 0.5233 1.1774 1.77 3.6664 4.3803 4.7997 5.072583 5.3421 6.2498 7.4477 14.6738 25.0319 26.5304 24.39925 23.4749 17.159 11.0068 12.2623 14.4033 18.6586 18.73975 19.0938 17.0221 14.745 14.8453 16.9876 16.6626 17.41535 17.7874 12.7289 13.9781 14.0344 10.5037 8.1518 7.623734 7.1692 6.7844 6.5306 6.7734 7.589 8.309216 8.2996 9.0619 9.1319 8.3849 7.6751 7.4187 8.189417 8.3808 15.3161 17.7901 17.4595 16.2869 17.315 17.23233 17.503 16.7771 15.3703 14.1347 13.3445 12.8824 12.72645 12.5795 12.3562 12.1281 11.7781 11.1547 10.1104 9.332583 8.5814 6.669 4.648 2.8573 1.5329 0.7148 0.5409333 0.2903 0.1034 0.0325 0.0108 0.001 0.00178 0.0002 0.00015 0.0001333333 0.0001 0.0001111111 0.0001 0.0001024691 0.0001 0.000103125 0.0001019043 
0.0002 0.0002024691 0.0002246914 0.0002200159 0.0001 0.00013125 0.0001736111 0.0003689815 0.0008092592 0.001836111 0.004124074 0.008890123 0.0182642 0.01489132 0.0002 0.0002 0.0002 0.000275 0.0002 0.00035 0.0003 0.00155 0.0027 0.0109 0.02628333 0.0363 0.1 0.2307 0.4676 0.6891 1.598 1.60705 1.5599 1.081 0.5399 0.1468 0.0131 0.0777 0.1984333 0.2995 0.7729 1.4233 2.1914 6.992 5.5238 5.769567 5.8669 7.0431 9.7693 20.3807 23.3011 22.2039 21.30815 19.158 14.4983 13.6715 14.2699 15.4862 19.1749 19.79103 20.3331 18.6702 16.0672 16.0337 18.1803 18.79117 18.3017 19.4998 15.7608 17.5821 17.1816 12.3537 10.4586 9.4375 8.7681 8.8776 9.1489 9.3132 9.3871 9.89945 9.2353 9.3586 9.4629 9.7096 7.4716 8.9323 9.5929 10.5103 14.38036 17.7541 17.6359 16.8127 17.6585 17.3205 17.1888 16.6557 15.09 13.8704 13.1363 12.714 12.57692 12.4479 12.2452 11.9962 11.5618 10.7809 10.1342 9.5264 7.7953 5.7731 3.7922 2.1763 1.0818 0.8113833 0.465 0.1736 0.0567 0.0164 0.0045 0.0008 0.0004333333 0.0001 0.0001333333 0.0001277778 0.0001180556 0.0001 0.0001037037 0.0001 0.000100823 0.0001 0.0001015625 
0.0002012346 0.0002090535 0.0001867941 0.0001 0.000115625 0.0001349537 0.0002246142 0.0004506173 0.001004784 0.002256481 0.004950103 0.01042613 0.008489128 0.0002 0.0002 0.0002 0.00021875 0.0002 0.0002125 0.0002 0.0001 0.0005 0.0009 0.0042 0.01231667 0.0157 0.0491 0.1287 0.2832 0.5122 0.8159 0.9629833 0.8026 0.5396 0.2517 0.0618 0.004 0.0263 0.1065667 0.1128 0.3195 0.6327 1.688 7.3888 6.316 6.422184 6.7689 9.0771 12.504 22.5755 21.987 19.4294 18.64622 17.0523 14.6051 15.06795 15.6482 16.4975 18.53923 19.827 21.6588 20.6262 18.4229 18.4525 20.9143 21.63552 21.7005 23.3525 19.7957 20.7057 18.1357 12.4793 11.1844 9.8256 9.2812 9.4409 9.8347 10.5939 12.0192 11.79018 12.8665 12.9228 12.6606 9.6289 8.4141 10.3233 11.04665 11.992 15.5076 17.7919 17.9235 17.1496 17.3385 17.5413 16.7164 16.3923 14.7999 13.5917 12.9181 12.72627 12.5382 12.2995 12.1058 11.8214 11.2874 10.3413 9.59415 8.8915 7.0063 4.9463 3.0696 1.6526 0.7669 0.5614167 0.3069 0.1065 0.0323 0.0086 0.0021 0.0004 0.00032 0.0001 0.0001 0.0001111111 0.000112963 0.0001086806 0.0001 0.0001012346 0.0001 0.0001002744 0.0001 
0.000205144 0.0001742705 0.0001 0.0001078125 0.0001168596 0.0001583976 0.0002700617 0.0005600051 0.001237294 0.002737123 0.005877572 0.004853073 0.0002 0.0002 0.0002 0.0002046875 0.0002 0.000165625 0.00015 0.0001 0.0002666667 0.0002 0.0003 0.0013 0.004716667 0.0055 0.0195 0.0598 0.16 0.2778 0.5118 0.4381 0.4897 0.2954 0.1001 0.0232 0.005 0.0245 0.08023334 0.0986 0.3262 0.9293 2.4976 6.0469 6.5397 6.937683 7.5178 11.5692 16.5802 21.2666 19.2478 18.80955 17.7582 16.2755 15.4529 15.335 17.0627 18.2018 20.73853 22.048 24.7066 24.3069 22.5243 22.3778 24.7652 25.52862 25.9511 27.5261 22.9998 22.6393 19.3292 12.7445 11.72175 10.2658 9.6899 9.8859 10.3432 11.1605 12.7714 14.5124 14.4616 18.7534 13.6013 12.8625 9.9598 11.4882 12.4015 13.0338 15.8373 17.9369 18.0814 17.4046 17.51113 17.4643 16.5183 15.8029 14.4487 13.2971 12.7013 12.5275 12.3497 12.1258 11.9271 11.5812 10.9355 9.8234 8.983983 8.2014 6.2147 4.1825 2.4572 1.2464 0.5436 0.3896333 0.2043 0.0666 0.019 0.0048 0.0011 0.0002 0.0002 0.0001 0.0001 0.0001 0.0001037037 0.0001055556 0.0001038677 0.0001 0.0001004115 0.0001 0.0001000914 
0.0001598049 0.0001 0.0001039062 0.000108224 0.0001276899 0.000181773 0.0003294882 0.0006891204 0.001511474 0.003283996 0.002773553 0.0002 0.0002 0.0002 0.0002011719 0.0002 0.0001476562 0.000125 0.0001 0.0001888889 0.0002 0.0002 0.00044 0.0003 0.00172 0.0013 0.0044 0.0115 0.0152 0.0659 0.0015 0.1685333 0.0071 0.0314 0.0335 0.0092 0.0116 0.03091667 0.0482 0.171 0.5145 1.3187 2.92 5.4424 6.197484 6.7322 7.7515 15.742 15.1498 21.8835 17.5829 17.4232 16.852 16.1581 16.3679 16.6701 19.9438 21.8286 24.12168 26.0283 28.7032 29.0708 27.6029 27.1773 29.4081 29.51567 30.4325 30.8995 25.4974 24.3051 20.5733 14.2339 12.58867 10.7814 10.1446 10.3998 11.0197 12.1161 14.21487 14.5441 20.4116 13.0988 16.5553 16.0556 14.5513 14.2354 13.6543 13.9174 16.0682 17.38832 18.2458 17.6195 17.73355 17.8875 15.5905 15.4328 14.129 13.0171 12.5031 12.33027 12.1546 11.8952 11.6713 11.2626 10.4851 9.2042 8.28935 7.4421 5.4121 3.4691 1.9307 0.925 0.3809 0.2686167 0.1352 0.0417 0.0113 0.0027 0.0006 0.0001 0.0001333333 0.0001 0.0001 0.0001 0.0001 0.0001012346 0.0001022634 0.0001016356 0.0001 0.0001001372 0.0001 
0.0001 0.0001019531 0.0001040434 0.0001132734 0.000139229 0.0002129837 0.0004001272 0.0008433608 0.001828197 0.001593805 0.0002 0.0002 0.0002 0.000200293 0.0002 0.0001400391 0.0001125 0.0001 0.000162963 0.0002 0.00015 0.0001 0.0001 0.0002 0.0006 0.0002 0.0007 0.0017 0.0021 0.017 0.02253333 0.0002 0.0009 0.0032 0.0099 0.0061 0.0198 0.03573333 0.0764 0.2506 0.6929 1.6143 3.1874 5.317 6.0109 7.1067 8.4902 10.4762 18.9417 23.7881 16.6353 16.68698 16.463 16.4637 17.4156 18.5262 21.36323 26.3211 27.95483 30.3023 32.0929 33.1708 32.0512 31.3473 31.85182 33.0176 33.5195 32.9603 27.282 25.1018 21.2551 17.83612 15.4192 12.0872 10.7223 11.0665 12.0137 14.8762 15.10278 19.8209 12.0669 16.2222 17.9158 17.894 18.0196 17.66378 17.7392 16.3899 16.4758 18.0654 18.3958 17.8234 18.28917 18.202 14.9827 15.0487 13.8276 12.752 12.3049 12.12993 11.968 11.6075 11.316 10.8419 9.8988 8.4632 7.493967 6.6018 4.5927 2.7978 1.474 0.6677 0.4817 0.2601 0.0876 0.0257 0.0066 0.0015 0.0003 0.00026 0.0001 0.0001 0.0001 0.0001 0.0001 0.0001 0.0001004115 0.0001008916 0.0001006661 0.0001 0.0001000457 
0.0001009766 0.0001019988 0.0001064233 0.0001188486 0.000155162 0.0002507799 0.0004854906 0.001023895 0.0009330725 0.0002 0.0002 0.0002 0.0002000732 0.0002 0.0001365723 0.00010625 0.0001 0.000154321 0.0002 0.0001375 0.0001 0.0001 0.0001 0.0001 0.0002 0.0003333333 0.0001 0.0002 0.0003 0.0012 0.0002 0.000325 0.0001 0.0006 0.0029 0.0041 0.0145 0.0301 0.0439 0.0871 0.97 1.9504 3.116 4.7188 5.455667 6.7483 5.5924 10.2885 24.7885 22.8535 16.1318 16.48877 16.4569 17.3632 19.6338 21.9971 24.2557 28.53232 30.1304 33.1183 34.4736 35.9706 35.7019 34.7016 35.04052 35.459 35.2514 33.6306 27.6831 24.5651 20.6056 18.10453 14.9296 11.9632 11.4643 12.3682 14.2532 17.7469 14.74258 11.5125 15.0701 17.7941 18.9275 19.621 20.5613 20.9489 21.457 19.8573 18.9608 18.7856 21.1017 19.529 19.93585 18.6736 14.814 14.7614 13.4906 12.5102 12.29447 12.0904 11.7586 11.3102 10.8527 10.2661 9.1435 8.30705 7.5765 5.676 3.7623 2.1718 1.0813 0.5851 0.3011 0.0714 0.0357 0.012 0.0032 0.0008 0.0002 0.000175 0.0001 0.0001 0.0001 0.0001 0.0001 0.0001 0.0001 0.0001001372 0.0001003429 0.0001002637 0.0001 
0.0001014877 0.0001031329 0.0001090903 0.0001268113 0.0001749302 0.0002971442 0.0005867218 0.0005684916 0.0002 0.0002 0.0002 0.0002000183 0.0002 0.0001349243 0.000103125 0.0001 0.0001514403 0.0002 0.000134375 0.0001 0.0001 0.0001 0.0001 0.0001333333 0.0001833333 0.0001 0.00015 0.0002 0.00025 0.0003 0.0003708333 0.0001 0.0001 0.0002 0.0009 0.0022 0.0073 0.01858333 0.0187 0.0281 0.5515 2.4256 4.2991 4.722 4.573534 4.1212 6.2527 14.6009 26.7457 19.7857 18.20517 15.9798 17.2658 19.6788 23.2826 26.51 28.6577 29.74554 33.2967 34.6598 35.2455 38.5908 39.101 37.9432 37.88206 37.7744 36.9819 34.614 28.7395 25.0481 21.1431 18.28265 15.2746 13.1673 12.8947 14.5782 16.6025 10.3998 13.73052 14.0992 16.4765 18.7358 21.3014 22.3981 23.1043 23.40377 24.812 24.4908 22.753 22.2799 22.32585 23.75298 23.594 21.7931 17.7907 15.8307 13.3263 12.2707 12.3241 11.8386 11.48 10.9393 10.2712 9.5184 8.211 7.372967 6.5493 4.685 2.9452 1.6056 0.9619 0.1699 0.1698667 0.0524 0.0176 0.0054 0.0014 0.0003 0.0001 0.00015 0.000125 0.0001 0.0001 0.0001 0.0001 0.0001 0.0001 0.0001 0.0001000457 0.0001001296 0.0001001021 
0.0001023103 0.0001045703 0.0001130115 0.0001369439 0.0001996286 0.0003529321 0.0003704715 0.0002 0.0002 0.0002 0.0002000046 0.0002 0.0001341217 0.0001015625 0.0001 0.0001504801 0.0002 0.0001335938 0.0001 0.0001 0.0001 0.0001 0.0001111111 0.0001291667 0.0001 0.000125 0.00015 0.0002 0.00025 0.000275 0.0001666667 0.0001 0.0001333333 0.0001 0.0004 0.0014 0.00385 0.0058 0.0213 0.0748 0.2712 0.4032 2.5628 2.601783 2.9547 4.1762 9.4171 19.0615 24.2561 17.7466 17.66717 16.7336 19.5122 23.3975 27.8288 31.0048 32.3872 33.35986 35.8528 37.3366 38.0887 41.1491 42.3471 41.2046 40.36013 40.2096 38.7058 35.5967 29.4842 24.8073 21.0835 18.76228 16.6595 14.5917 14.6427 15.9633 9.2397 12.9297 13.93022 15.695 17.0592 18.8216 20.7737 22.251 22.33655 23.9733 26.5147 29.0836 28.1855 27.0719 25.187 28.78964 29.3532 26.332 21.8037 19.043 16.1499 13.4629 13.40732 11.7718 11.1189 10.4485 9.5868 8.6688 7.2769 7.232167 5.4806 3.6822 2.1867 1.4394 0.2993 0.1079 0.07403333 0.0325 0.0093 0.0025 0.0006 0.0001 0.00015 0.0001 0.000125 0.00011 0.0001 0.0001 0.0001 0.0001 0.0001 0.0001 0.0001 0.0001000152 0.0001000483 
0.0001034403 0.0001066307 0.0001181752 0.0001498613 0.0002298348 0.0002646064 0.0002 0.0002 0.0002 0.0002000011 0.0002 0.0001337257 0.0001007813 0.0001 0.00015016 0.0002 0.0001333984 0.0001 0.0001 0.0001 0.0001 0.0001037037 0.0001100694 0.0001 0.0001125 0.000125 0.0001583333 0.0002 0.0002416667 0.0001979167 0.0001 0.0001111111 0.0001 0.0002 0.0001 0.0013 0.003033333 0.0051 0.0201 0.0668 0.1689 0.2189 0.3264 1.2209 0.7457 3.8358 14.8516 24.3575 21.795 17.2392 18.30098 18.5181 22.9276 27.9007 32.3221 35.0568 36.07 36.20524 36.3877 37.5832 39.96 43.0437 44.7412 43.91102 43.4991 41.5299 39.1976 35.3846 29.3346 24.4614 22.8983 21.1605 17.2525 15.3578 14.2946 8.4891 11.2758 12.28447 14.3027 16.1549 16.9471 18.7107 18.6612 20.0925 21.12092 22.2001 25.4417 29.8792 33.4195 33.133 31.1886 31.34606 34.6254 32.214 27.904 24.4488 20.0221 16.4869 16.01098 14.613 13.2656 12.8407 10.8934 10.5572 8.9462 5.9742 6.929 4.1786 2.2916 0.477 0.1873 0.1320667 0.0631 0.0184 0.0049 0.0012 0.0003 0.0001 0.0001 0.0001125 0.0001 0.0001125 0.0001045 0.0001 0.0001 0.0001 0.0001 0.0001 0.0001 0.0001 0.0001000051 
0.0001050355 0.0001094154 0.0001248891 0.0001659571 0.0002088605 0.0002 0.0002 0.0002 0.0002000003 0.0002 0.0001335291 0.0001003906 0.0001 0.0001500533 0.0002 0.0001333496 0.0001 0.0001 0.0001 0.0001 0.0001012346 0.0001034433 0.0001 0.00010625 0.0001125 0.0001319444 0.0001611111 0.0002 0.0001848958 0.0001 0.0001037037 0.0001 0.0001333333 0.0001 0.000525 0.0003 0.002283333 0.0043 0.0145 0.0461 0.1076 0.1512 0.1249 0.3750833 0.6109 2.8164 18.0521 26.2535 23.9417 18.2097 20.17043 21.3587 26.8523 32.1568 36.2652 38.6921 38.7632 38.00952 37.4181 39.9252 41.6386 44.5819 46.3984 45.47373 45.2757 42.5884 39.6108 35.3869 29.5114 24.9061 22.3193 20.971 17.2129 13.618 7.3481 9.8122 11.9199 12.53793 14.039 15.9833 16.7387 18.2368 17.8343 18.3796 19.1087 19.829 22.5854 26.9893 32.9322 36.4962 36.3761 34.49924 33.29892 34.7859 31.2765 28.4252 24.3269 20.791 21.2659 18.4654 16.3749 15.7322 13.6702 10.3178 6.391167 5.6889 1.5236 0.7579 0.2474 0.2314 0.101 0.07598333 0.0338 0.0096 0.0024 0.0005 0.0001 0.0001666667 0.0001 0.0001 0.000103125 0.0001 0.00010625 0.00010215 0.0001 0.0001 0.0001 0.0001 0.0001 0.0001 0.0001 
0.0001072255 0.0001131133 0.0001334205 0.0001799413 0.0002 0.0002 0.0002 0.0002000001 0.0002 0.0001334311 0.0001001953 0.0001 0.0001500178 0.0002 0.0001333374 0.0001 0.0001 0.0001 0.0001 0.0001004115 0.0001011695 0.0001 0.000103125 0.00010625 0.0001168981 0.0001351852 0.0001643518 0.0001615017 0.0001 0.0001012346 0.0001 0.0001111111 0.0001 0.00034375 0.00035 0.0004 0.001433333 0.0023 0.0084 0.0264 0.0626 0.1037 0.1394 0.2423333 0.3032 1.7917 16.5772 26.2443 33.0116 26.41928 20.8364 24.8605 30.4391 35.872 40.0241 41.6667 40.67137 40.6365 38.7816 40.66063 42.7548 45.1848 47.0374 46.1181 45.8906 42.5539 39.1353 34.3514 27.8307 22.6251 21.07163 19.7917 14.5948 6.9361 6.9272 8.658 10.9069 11.54317 12.7833 14.989 15.8062 17.0259 16.2306 16.8275 16.0585 17.3235 19.1504 22.7972 28.0429 32.1172 34.5181 32.71746 35.788 29.0813 26.4978 24.8855 22.4201 19.19145 20.2241 18.4933 16.1561 11.9202 6.5109 2.0942 3.242233 0.7427 0.2656 0.4241 0.2444 0.1345 0.0536 0.04015 0.0171 0.0047 0.0011 0.0002 0.000225 0.0001 0.0001222222 0.0001 0.0001 0.0001007813 0.0001 0.000103125 0.000101055 0.0001 0.0001 0.0001 0.0001 0.0001 0.0001 
0.0001101694 0.0001179198 0.000165295 0.0002 0.0002 0.0002 0.0002 0.0002 0.0001333822 0.0001000977 0.0001 0.0001500059 0.0002 0.0001333344 0.0001 0.0001 0.0001 0.0001 0.0001001372 0.0001003952 0.0001 0.0001015625 0.000103125 0.0001087577 0.0001194444 0.0001388117 0.0001402597 0.0001 0.0001004115 0.0001 0.0001037037 0.0001 0.0003046875 0.000375 0.0004 0.0002333333 0.0002 0.0011 0.0041 0.013 0.032 0.0603 0.08105 0.0983 0.1773 0.2331 5.6896 32.4969 37.268 31.33458 25.2483 28.5699 33.708 39.0495 42.5686 42.9446 41.16195 41.3251 40.4949 41.2307 43.0411 45.0098 46.593 45.91322 45.5135 41.8734 38.1294 32.8931 26.898 21.6146 17.71587 16.5213 7.2667 5.2451 5.3049 5.4296 7.7303 9.63565 11.8796 13.5017 10.6433 14.3302 15.371 14.00445 12.3156 11.6758 14.0576 17.7653 21.0546 24.9304 27.11078 26.8305 30.0746 23.9698 21.5388 18.6274 15.0563 13.31578 11.8554 9.1992 6.3978 3.2354 0.9033 0.3631 0.6413667 0.2467 0.2272 0.2591 0.16 0.0747 0.0272 0.02043333 0.0082 0.0021 0.0005 0.0001 0.00015 0.00014375 0.0001 0.0001074074 0.0001 0.0001 0.0001001953 0.0001 0.0001015625 0.0001005235 0.0001 0.0001 0.0001 0.0001 0.0001 
0.0001140446 0.0001586768 0.0002 0.0002 0.0002 0.0002 0.0002 0.0001333578 0.0001000488 0.0001 0.000150002 0.0002 0.0001333336 0.0001 0.0001 0.0001 0.0001 0.0001000457 0.0001001331 0.0001 0.0001007813 0.0001015625 0.0001044817 0.0001104424 0.000122338 0.000124629 0.0001 0.0001001372 0.0001 0.0001012346 0.0001 0.0002980469 0.0003875 0.0004 0.0002208333 0.00015 0.0001 0.0005 0.0017 0.0056 0.0145 0.0301 0.04665 0.0545 0.0943 0.117 1.0054 30.6163 40.0356 36.11577 31.6076 30.9458 35.6287 40.0582 42.1392 41.2762 39.82775 39.1226 38.9005 41.4394 43.1593 44.8246 45.816 44.79838 44.6288 40.8203 36.4886 29.8131 22.9559 19.44587 17.9644 7.7781 4.4959 3.0239 2.0492 1.7276 3.9899 5.7939 8.7199 7.7286 2.5722 10.3653 16.9137 10.59055 6.3683 6.6527 8.7154 12.0182 16.4197 19.5589 21.60217 24.7096 24.5835 19.13484 13.0766 9.5469 6.3283 6.477317 4.0105 2.3461 0.9477 0.3266 0.3225 0.2055 0.2234833 0.196 0.1679 0.1476 0.0864 0.0374 0.02906667 0.0128 0.0037 0.0009 0.0002 0.000225 0.0001 0.000125 0.0001171875 0.0001 0.0001024691 0.0001 0.0001 0.0001000488 0.0001 0.0001007813 0.0001002609 0.0001 0.0001 0.0001 0.0001 
0.0001681804 0.0002 0.0002 0.0002 0.0002 0.0002 0.0001333455 0.0001000244 0.0001 0.0001500007 0.0002 0.0001333334 0.0001 0.0001 0.0001 0.0001 0.0001000152 0.0001000447 0.0001 0.0001003906 0.0001007813 0.0001022752 0.0001054955 0.0001124207 0.0001143523 0.0001 0.0001000457 0.0001 0.0001004115 0.0001 0.0002979492 0.00039375 0.0004 0.0002114583 0.000125 0.0001 0.000225 0.0002 0.0007 0.0022 0.0058 0.0129 0.0226 0.0238 0.0334 0.0605 0.2373 18.7332 43.1268 39.28047 39.4083 31.6162 35.1782 37.968 38.4637 37.4295 36.81728 36.8685 38.7523 41.1326 41.6254 43.1825 42.44833 43.8691 42.3699 38.1319 33.1196 25.6413 19.0494 13.70077 8.1929 4.5772 3.3635 4.7891 1.5836 0.2681 2.0061 2.9899 3.9453 2.8913 0.3738 6.2395 10.413 7.002283 2.1617 2.6812 3.7358 5.1529 11.9828 13.7607 15.59977 19.8229 18.4358 16.5918 4.8078 2.5183 3.334883 1.1464 0.467 0.2878 0.2289 0.269 0.1966 0.20205 0.178 0.1516 0.1116 0.0781 0.0415 0.0168 0.0136 0.0055 0.0015 0.0004 0.0001 0.00015 0.00014375 0.0001 0.0001125 0.0001074219 0.0001 0.000100823 0.0001 0.0001 0.0001000122 0.0001 0.0001003906 0.0001001303 0.0001 0.0001 0.0001 
0.0002 0.0002 0.0002 0.0002 0.0002 0.0001333394 0.0001000122 0.0001 0.0001500002 0.0002 0.0001333333 0.0001 0.0001 0.0001 0.0001 0.0001000051 0.000100015 0.0001 0.0001001953 0.0001003906 0.000101149 0.0001028507 0.0001067305 0.0001080671 0.0001 0.0001000152 0.0001 0.0001001372 0.0001 0.0002987061 0.000396875 0.0004 0.0002059896 0.0001125 0.0001 0.00014375 0.00015 0.0001 0.0002 0.0008 0.0021 0.0049 0.009483334 0.0094 0.0146 0.0215 0.1363 5.2514 38.0415 36.63352 43.463 29.7235 30.5117 32.125 31.7859 31.30305 32.1334 34.0735 36.3327 39.2769 41.639 38.3489 38.11433 38.6489 36.7919 32.0396 26.2659 19.7455 8.8871 8.39305 5.1549 2.0787 6.0109 4.24 0.4584 0.2717 0.8814333 0.9854 0.5951 0.2982 0.0846 2.0178 4.6618 3.319617 1.4952 1.869 2.5194 3.4341 4.6327 3.518 8.99045 12.2285 10.1555 7.8752 0.6326 0.2811 0.7306 0.1883 0.2047 0.2162 0.2534 0.1824 0.1697 0.1522 0.14 0.104 0.0662 0.0384 0.0183 0.0069 0.0058 0.0022 0.0006 0.0001 0.0002 0.0001 0.000125 0.0001171875 0.0001 0.00010625 0.000103418 0.0001 0.0001002744 0.0001 0.0001 0.0001000031 0.0001 0.0001001953 0.0001000651 0.0001 0.0001 
0.0002 0.0002 0.0002 0.0002 0.0001333364 0.0001000061 0.0001 0.0001500001 0.0002 0.0001333333 0.0001 0.0001 0.0001 0.0001 0.0001000017 0.000100005 0.0001 0.0001000977 0.0001001953 0.0001005783 0.0001014634 0.0001035767 0.0001044121 0.0001 0.0001000051 0.0001 0.0001000457 0.0001 0.0002992859 0.0003984375 0.0004 0.0002030599 0.00010625 0.0001 0.0001171875 0.000125 0.0001 0.0001333333 0.0001 0.0002 0.0007 0.001733333 0.0018 0.0041 0.0089 0.0233 0.0713 0.5776 11.85763 20.7783 34.9832 22.9732 20.7991 26.5305 23.9186 24.3084 24.0872 25.7607 30.292 33.9452 36.7488 32.2072 32.91686 32.4294 30.1798 24.8583 18.7397 8.803 6.1821 4.768417 2.8919 2.2794 5.5089 1.6759 0.2463 0.3068 0.4462 0.4667 0.1705 0.1085 0.0794 0.3419 1.398517 0.8122 0.3738 0.4504 0.5791 0.7552 0.8278 1.625217 0.475 4.1376 3.2386 1.7875 1.404413 0.1207 0.15935 0.1288 0.1859 0.2591 0.1757 0.1575 0.1318 0.1147333 0.0971 0.0631 0.0353 0.0176 0.0075 0.0026 0.002283333 0.0008 0.0002 0.00025 0.0001 0.0001333333 0.0001 0.0001125 0.0001074219 0.0001 0.000103125 0.0001016357 0.0001 0.0001000914 0.0001 0.0001 0.0001000008 0.0001 0.0001000977 0.0001000326 0.0001 
0.0002 0.0002 0.0002 0.0001333349 0.0001000031 0.0001 0.00015 0.0002 0.0001333333 0.0001 0.0001 0.0001 0.0001 0.0001000006 0.0001000017 0.0001 0.0001000488 0.0001000977 0.0001002904 0.0001007457 0.0001018728 0.0001023631 0.0001 0.0001000017 0.0001 0.0001000152 0.0001 0.0002996261 0.0003992188 0.0004 0.0002015462 0.000103125 0.0001 0.0001074219 0.0001125 0.0001 0.0001111111 0.0001 0.0001333333 0.0001 0.0002 0.0006333333 0.0007 0.0021 0.0062 0.0173 0.0356 0.1705 4.836767 6.3265 21.5674 15.5596 11.8034 21.6239 16.3254 16.19707 17.5999 20.7117 23.821 27.5179 30.5026 28.89006 24.82932 22.9499 20.555 15.9328 9.2263 6.5721 4.989767 3.6773 1.8172 2.7143 2.467 0.4959 0.1576 0.23395 0.2956 0.351 0.1353 0.1258 0.0991 0.2977 0.3579 0.2597 0.2588 0.2177 0.1865 0.1901 0.1776 0.3066 0.1202 0.5741 0.4079 0.2407 0.2083 0.0892 0.1242833 0.148 0.1861 0.1768 0.149 0.121 0.0904 0.0786 0.0594 0.0406 0.0135 0.005 0.0025 0.0009 0.0008333334 0.0003 0.0001 0.00015 0.00015 0.0001 0.0001111111 0.0001 0.00010625 0.000103418 0.0001 0.0001015625 0.0001007996 0.0001 0.0001000305 0.0001 0.0001 0.0001000002 0.0001 0.0001000488 0.0001000203 
0.0002 0.0002 0.0001333341 0.0001000015 0.0001 0.00015 0.0002 0.0001333333 0.0001 0.0001 0.0001 0.0001 0.0001000002 0.0001000006 0.0001 0.0001000244 0.0001000488 0.0001001456 0.0001003779 0.0001009696 0.0001012454 0.0001 0.0001000006 0.0001 0.0001000051 0.0001 0.0002998089 0.0003996094 0.0004 0.0002007772 0.0001015625 0.0001 0.000103418 0.00010625 0.0001 0.0001037037 0.0001 0.0001111111 0.0001 0.0001333333 0.0001 0.00028 0.0003 0.0012 0.0038 0.0099 0.0161 0.1284 1.3239 1.0393 10.7812 7.4169 4.7839 10.6172 6.9775 8.600166 8.2738 12.2687 16.5858 19.7362 21.7924 23.1993 16.1321 13.3608 11.8271 7.5736 6.3715 3.7766 2.67185 0.9275 0.4379 0.9403 0.4005 0.2372 0.157 0.19405 0.2404 0.2599 0.119 0.1426 0.12 0.2667 0.2204667 0.1692 0.2199 0.1539 0.1171 0.1174 0.1183 0.1311333 0.1207 0.1803 0.1408 0.1651 0.2051 0.1168 0.12316 0.1422 0.1598 0.1099 0.1058 0.0811 0.07066666 0.0547 0.0382 0.0159 0.0045 0.0015 0.0006 0.00075 0.0003 0.0001 0.0001666667 0.0001 0.000125 0.00011875 0.0001 0.0001037037 0.0001 0.000103125 0.0001016357 0.0001 0.0001007813 0.0001003952 0.0001 0.0001000102 0.0001 0.0001 0.0001 0.0001 0.0001000244 
0.0002 0.0001333337 0.0001000008 0.0001 0.00015 0.0002 0.0001333333 0.0001 0.0001 0.0001 0.0001 0.0001000001 0.0001000002 0.0001 0.0001000122 0.0001000244 0.000100073 0.0001001908 0.0001004977 0.0001006482 0.0001 0.0001000002 0.0001 0.0001000017 0.0001 0.0002999034 0.0003998047 0.0004 0.0002003896 0.0001007813 0.0001 0.0001016357 0.000103125 0.0001 0.0001012346 0.0001 0.0001037037 0.0001 0.0001111111 0.0001 0.0001 0.0001666667 0.0001 0.0006 0.0023 0.0035 0.0078 0.0909 0.2749167 0.1878 2.4283 2.496 1.0219 2.5303 3.647517 1.1285 1.2959 2.9412 6.2132 10.4265 13.8025 14.01267 14.4602 6.6903 4.3978 3.9317 1.8339 0.9496 1.0155 0.128 0.2546 0.3024 0.2313 0.2182 0.1474 0.1553167 0.1663 0.172 0.0955 0.139 0.1653 0.198 0.1688667 0.1315 0.1791 0.1046 0.0813 0.0923 0.1158 0.1258667 0.1342 0.1461 0.1149 0.1534 0.1874 0.1597 0.11834 0.1196 0.1173 0.0617 0.0644 0.0474 0.04185 0.0294 0.0204 0.0055 0.0013 0.0004 0.0001 0.000275 0.0001 0.0001666667 0.0001 0.0001222222 0.0001 0.0001125 0.0001078125 0.0001 0.0001012346 0.0001 0.0001015625 0.0001007996 0.0001 0.0001003906 0.0001001965 0.0001 0.0001000034 0.0001 0.0001 0.0001 0.0001 
0.0001333335 0.0001000004 0.0001 0.00015 0.0002 0.0001333333 0.0001 0.0001 0.0001 0.0001 0.0001 0.0001000001 0.0001 0.0001000061 0.0001000122 0.0001000365 0.0001000961 0.0001002538 0.0001003342 0.0001 0.0001000001 0.0001 0.0001000006 0.0001 0.0002999514 0.0003999023 0.0004 0.0002001951 0.0001003906 0.0001 0.0001007996 0.0001015625 0.0001 0.0001004115 0.0001 0.0001012346 0.0001 0.0001037037 0.0001 0.0001 0.0001166667 0.0001 0.0002666667 0.0001 0.001366667 0.0013 0.0032 0.03201667 0.0572 0.1459 0.2721 0.3124 0.502 0.3644 0.8011 0.2672 0.2415 0.3053 0.7778 2.1627 4.4202 6.776567 6.4014 4.4289 0.949 0.739 0.155 0.2311 0.25525 0.0802 0.2293 0.1796 0.2245 0.2159 0.122 0.1122167 0.0988 0.0998 0.0672 0.1351 0.143 0.1460333 0.1512 0.0966 0.1398 0.0628 0.0525 0.0701 0.09266666 0.1181 0.1481 0.1331 0.1078 0.1424 0.163 0.14428 0.1262 0.0869 0.0745 0.0312 0.0342 0.0244 0.02168333 0.0141 0.0083 0.0028 0.0004 0.0001 0.0002 0.0001 0.0001 0.0001 0.0001222222 0.0001 0.0001074074 0.0001 0.00010625 0.0001035156 0.0001 0.0001004115 0.0001 0.0001007813 0.0001003952 0.0001 0.0001001953 0.0001000979 0.0001 0.0001000011 0.0001 0.0001 0.0001 
0.0001000002 0.0001 0.00015 0.0002 0.0001333333 0.0001 0.0001 0.0001 0.0001 0.0001 0.0001 0.0001 0.0001000031 0.0001000061 0.0001000183 0.0001000483 0.0001001288 0.000100171 0.0001 0.0001 0.0001 0.0001000002 0.0001 0.0002999757 0.0003999512 0.0004 0.0002000976 0.0001001953 0.0001 0.0001003952 0.0001007813 0.0001 0.0001001372 0.0001 0.0001004115 0.0001 0.0001012346 0.0001 0.0001 0.0001041667 0.0001 0.0001555556 0.0001 0.0001 0.000475 0.0004 0.0011 0.01825 0.0319 0.1043 0.1859 0.2066 0.5243 0.309 0.26945 0.2072 0.18 0.1597 0.187 0.2572 0.5102 2.13565 1.0649 1.227 0.2406 0.1756 0.0687 0.10665 0.0668 0.0758 0.2363 0.1517 0.2314 0.2054 0.1443167 0.0879 0.0509 0.0507 0.0412 0.1071 0.1081 0.1107333 0.1106 0.0739 0.0913 0.033 0.0304 0.0481 0.0783 0.1116 0.1481 0.1256 0.0914 0.1219 0.1478 0.1164167 0.097 0.07235 0.0414 0.0165 0.0162 0.009 0.00975 0.0058 0.0031 0.0011 0.0002 0.0002 0.0001 0.000125 0.0001 0.0001 0.0001 0.0001074074 0.0001 0.0001024691 0.0001 0.000103125 0.0001016602 0.0001 0.0001001372 0.0001 0.0001003906 0.0001001965 0.0001 0.0001000977 0.0001000489 0.0001 0.0001000004 0.0001 0.0001 
0.0001 0.00015 0.0002 0.0001333333 0.0001 0.0001 0.0001 0.0001 0.0001 0.0001 0.0001 0.0001000015 0.0001000031 0.0001000091 0.0001000242 0.0001000651 0.000100087 0.0001 0.0001 0.0001 0.0001000001 0.0001 0.0002999878 0.0003999756 0.0004 0.0002000488 0.0001000977 0.0001 0.0001001965 0.0001003906 0.0001 0.0001000457 0.0001 0.0001001372 0.0001 0.0001004115 0.0001 0.0001 0.0001010417 0.0001 0.0001185185 0.0001 0.0001 0.000205 0.00025 0.0001 0.0003 0.00935 0.0158 0.0653 0.1884 0.2377 0.4403 0.29 0.2278833 0.1789 0.1515 0.1394 0.1519 0.1802 0.1902 0.3785333 0.227 0.2469 0.2279 0.1204 0.0643 0.06443334 0.054 0.0498 0.2499 0.1485 0.2324 0.1794 0.11665 0.0553 0.0229 0.0226 0.0222 0.0678 0.0769 0.0776 0.0746 0.0511 0.0535 0.0151 0.0156 0.0295 0.06073333 0.0924 0.1334 0.1098 0.0722 0.105 0.0959 0.08595 0.0686 0.0638 0.0204 0.0077 0.0068 0.006516667 0.0034 0.0018 0.001 0.0004 0.0001 0.00015 0.0001375 0.0001 0.00010625 0.0001 0.0001 0.0001 0.0001024691 0.0001 0.000100823 0.0001 0.0001015625 0.0001008057 0.0001 0.0001000457 0.0001 0.0001001953 0.0001000979 0.0001 0.0001000488 0.0001000244 0.0001 0.0001000001 0.0001 
0.00015 0.0002 0.0001333333 0.0001 0.0001 0.0001 0.0001 0.0001 0.0001 0.0001 0.0001000008 0.0001000015 0.0001000046 0.0001000121 0.0001000328 0.0001000441 0.0001 0.0001 0.0001 0.0001 0.0001 0.0002999939 0.0003999878 0.0004 0.0002000244 0.0001000488 0.0001 0.0001000979 0.0001001953 0.0001 0.0001000152 0.0001 0.0001000457 0.0001 0.0001001372 0.0001 0.0001 0.0001002604 0.0001 0.0001061728 0.0001 0.0001 0.000136 0.000175 0.0001 0.0001666667 0.0001 0.00516 0.0069 0.0364 0.1626 0.2162 0.3399 0.2863 0.2409 0.1413 0.1186 0.12 0.1397 0.1655 0.1641667 0.1583 0.1206 0.1738 0.1679 0.1299 0.0952 0.06481667 0.0376 0.0608 0.2557 0.1481 0.2197 0.1413 0.08691667 0.0306 0.0091 0.0089 0.0105 0.0358 0.0498 0.04988333 0.0456 0.031 0.0286 0.0061 0.0072 0.0163 0.04243333 0.0665 0.1079 0.087 0.0566 0.0684 0.0629 0.05551667 0.0435 0.0403 0.0112 0.0032 0.0025 0.002516667 0.0012 0.0005 0.0003 0.0001 0.0002 0.0001 0.000125 0.000115625 0.0001 0.0001015625 0.0001 0.0001 0.0001 0.000100823 0.0001 0.0001002744 0.0001 0.0001007813 0.0001003967 0.0001 0.0001000152 0.0001 0.0001000977 0.0001000489 0.0001 0.0001000244 0.0001000122 0.0001 0.0001 
0.0002 0.0001333333 0.0001 0.0001 0.0001 0.0001 0.0001 0.0001 0.0001 0.0001000004 0.0001000008 0.0001000023 0.0001000061 0.0001000165 0.0001000223 0.0001 0.0001 0.0001 0.0001 0.0001 0.000299997 0.0003999939 0.0004 0.0002000122 0.0001000244 0.0001 0.0001000489 0.0001000977 0.0001 0.0001000051 0.0001 0.0001000152 0.0001 0.0001000457 0.0001 0.0001 0.0001000651 0.0001 0.0001020576 0.0001 0.0001 0.0001147 0.0001375 0.0001 0.0001222222 0.0001 0.0001 0.002675 0.0027 0.0182 0.1165 0.1594 0.2327 0.20615 0.174 0.0979 0.0831 0.0942 0.1195 0.1464 0.1429833 0.1444 0.1239 0.1594 0.15 0.1349 0.0959 0.0666 0.0419 0.0688 0.2452 0.1409 0.1916 0.0999 0.05943333 0.015 0.0032 0.0031 0.0044 0.0169 0.0264 0.02891667 0.026 0.0183 0.0134 0.0022 0.0029 0.0065 0.008 0.0419 0.0782 0.0622 0.0399 0.0405 0.04185 0.0373 0.0249 0.0202 0.011425 0.0017 0.0008 0.0008833333 0.0004 0.0001 0.0001 0.0001666667 0.0001 0.0001333333 0.0001 0.0001125 0.0001070313 0.0001 0.0001003906 0.0001 0.0001 0.0001 0.0001002744 0.0001 0.0001000914 0.0001 0.0001003906 0.0001001968 0.0001 0.0001000051 0.0001 0.0001000488 0.0001000244 0.0001 0.0001000122 0.0001000061 0.0001 
0.0001333333 0.0001 0.0001 0.0001 0.0001 0.0001 0.0001 0.0001 0.0001000002 0.0001000004 0.0001000011 0.000100003 0.0001000083 0.0001000112 0.0001 0.0001 0.0001 0.0001 0.0001 0.0002999985 0.0003999969 0.0004 0.0002000061 0.0001000122 0.0001 0.0001000244 0.0001000488 0.0001 0.0001000017 0.0001 0.0001000051 0.0001 0.0001000152 0.0001 0.0001 0.0001000163 0.0001 0.0001006859 0.0001 0.0001 0.00010669 0.00011875 0.0001 0.0001074074 0.0001 0.0001 0.001061667 0.001566667 0.001 0.0142 0.0642 0.0984 0.1399 0.1406 0.1095 0.0595 0.052 0.0664 0.0919 0.1183 0.1199 0.125 0.1201 0.1404 0.1058 0.1256 0.088 0.06003333 0.041 0.0697 0.2168 0.1243 0.1525 0.109 0.0633 0.0065 0.001 0.001 0.0017 0.0072 0.01186667 0.0125 0.0132 0.0094 0.0057 0.0007 0.0011 0.002883333 0.0035 0.0233 0.0507 0.0401 0.0252 0.0236 0.02341667 0.0184 0.0128 0.0093 0.0048 0.0007 0.0003 0.00034 0.0001 0.000175 0.0001 0.0001 0.0001222222 0.0001 0.0001111111 0.0001 0.00010625 0.0001033203 0.0001 0.0001000977 0.0001 0.0001 0.0001 0.0001000914 0.0001 0.0001000305 0.0001 0.0001001953 0.000100098 0.0001 0.0001000017 0.0001 0.0001000244 0.0001000122 0.0001 0.0001000061 0.0001000031 
0.0001 0.0001 0.0001 0.0001 0.0001 0.0001 0.0001 0.0001000001 0.0001000002 0.0001000006 0.0001000015 0.0001000042 0.0001000056 0.0001 0.0001 0.0001 0.0001 0.0001 0.0002999992 0.0003999985 0.0004 0.0002000031 0.0001000061 0.0001 0.0001000122 0.0001000244 0.0001 0.0001000006 0.0001 0.0001000017 0.0001 0.0001000051 0.0001 0.0001 0.0001000041 0.0001 0.0001002286 0.0001 0.0001 0.000103213 0.000109375 0.0001 0.0001024691 0.0001 0.0001 0.000579 0.001022222 0.0008666667 0.001 0.0077 0.0314 0.055 0.1271 0.07798333 0.0604 0.0318 0.0292 0.0419 0.0632 0.0865 0.09011666 0.0988 0.1038 0.1146 0.0756 0.09373333 0.08068 0.058 0.0354 0.0627 0.1754 0.1004 0.1105 0.07568333 0.0362 0.0026 0.0003 0.0003 0.0006 0.0028 0.005166667 0.0054 0.0061 0.0044 0.0022 0.0002 0.0004 0.001166667 0.0014 0.0116 0.0296 0.0233 0.0143 0.0124 0.01205 0.0083 0.0059 0.0039 0.0019 0.0002 0.000325 0.0001 0.0001 0.0001 0.00011875 0.0001 0.0001 0.0001074074 0.0001 0.0001037037 0.0001 0.000103125 0.0001016113 0.0001 0.0001000244 0.0001 0.0001 0.0001 0.0001000305 0.0001 0.0001000102 0.0001 0.0001000977 0.0001000489 0.0001 0.0001000006 0.0001 0.0001000122 0.0001000061 0.0001 0.0001000031 
0.0001 0.0001 0.0001 0.0001 0.0001 0.0001 0.0001 0.0001000001 0.0001000003 0.0001000008 0.0001000021 0.0001000028 0.0001 0.0001 0.0001 0.0001 0.0001 0.0002999996 0.0003999992 0.0004 0.0002000015 0.0001000031 0.0001 0.0001000061 0.0001000122 0.0001 0.0001000002 0.0001 0.0001000006 0.0001 0.0001000017 0.0001 0.0001 0.000100001 0.0001 0.0001000762 0.0001 0.0001 0.0001015801 0.0001046875 0.0001 0.000100823 0.0001 0.0001 0.0003713556 0.0006740741 0.0006111111 0.0006333333 0.0006 0.0036 0.0135 0.023 0.0361 0.0016 0.0294 0.0152 0.0148 0.0237 0.0387 0.04928333 0.055 0.0571 0.0963 0.0892 0.0723 0.0951 0.05598 0.0367 0.0273 0.0503 0.1296 0.0739 0.0729 0.04846667 0.0187 0.0009 0.0001 0.0001 0.0002 0.001 0.00205 0.0021 0.0025 0.0018 0.0008 0.00065 0.0001 0.00052 0.0005 0.0052 0.0155 0.0123 0.0073 0.0059 0.0057 0.0037 0.0023 0.0015 0.0007 0.00062 0.0001333333 0.0001 0.0001 0.0001 0.0001 0.0001046875 0.0001 0.0001 0.0001024691 0.0001 0.0001012346 0.0001 0.0001015625 0.0001007935 0.0001 0.0001000061 0.0001 0.0001 0.0001 0.0001000102 0.0001 0.0001000034 0.0001 0.0001000488 0.0001000244 0.0001 0.0001000002 0.0001 0.0001000061 0.0001000031 0.0001 
0.0001 0.0001 0.0001 0.0001 0.0001 0.0001 0.0001 0.0001000001 0.0001000004 0.000100001 0.0001000014 0.0001 0.0001 0.0001 0.0001 0.0001 0.0002999998 0.0003999996 0.0004 0.0002000008 0.0001000015 0.0001 0.0001000031 0.0001000061 0.0001 0.0001000001 0.0001 0.0001000002 0.0001 0.0001000006 0.0001 0.0001 0.0001000003 0.0001 0.0001000254 0.0001 0.0001 0.0001007848 0.0001023438 0.0001 0.0001002744 0.0001 0.0001 0.0002566168 0.0004425926 0.0004037037 0.0003888889 0.0003333333 0.0003 0.0014 0.0051 0.0087 0.00655 0.0012 0.0127 0.0065 0.0068 0.0121 0.0212 0.02868333 0.0311 0.0304 0.0748 0.064 0.0576 0.0655 0.05274 0.0246 0.0159 0.0362 0.0875 0.0496 0.0438 0.02865 0.0087 0.0003 0.0003 0.0001333333 0.0004 0.0003 0.0007333333 0.0007 0.001 0.0007 0.0002 0.0003 0.0001 0.0002666667 0.0002 0.0021 0.0074 0.0059 0.0034 0.0036 0.0025 0.0014 0.0009 0.0005 0.0002 0.0001 0.0001 0.0001066667 0.0001 0.0001 0.0001 0.0001 0.0001011719 0.0001 0.0001 0.000100823 0.0001 0.0001004115 0.0001 0.0001007813 0.0001003937 0.0001 0.0001000015 0.0001 0.0001 0.0001 0.0001000034 0.0001 0.0001000011 0.0001 0.0001000244 0.0001000122 0.0001 0.0001000001 0.0001 0.0001000031 0.0001000015 
0.0001 0.0001 0.0001 0.0001 0.0001 0.0001 0.0001000001 0.0001000002 0.0001000005 0.0001000007 0.0001 0.0001 0.0001 0.0001 0.0001 0.0002999999 0.0003999998 0.0004 0.0002000004 0.0001000008 0.0001 0.0001000015 0.0001000031 0.0001 0.0001 0.0001 0.0001000001 0.0001 0.0001000002 0.0001 0.0001 0.0001000001 0.0001 0.0001000085 0.0001 0.0001 0.0001003913 0.0001011719 0.0001 0.0001000914 0.0001 0.0001 0.0001886279 0.0002959876 0.0002691358 0.00025 0.0002111111 0.0002 0.0001 0.0005 0.0018 0.0042 0.00298 0.0006 0.0049 0.0025 0.0028 0.0056 0.0104 0.01508333 0.0157 0.0149 0.0504 0.0418 0.04 0.0418 0.03426 0.014 0.0087 0.0234 0.054 0.0304 0.02953333 0.0241 0.0037 0.0001 0.0002 0.0002388889 0.0003 0.0002 0.0001 0.0002 0.0003 0.0002 0.0001 0.00015 0.0001861111 0.0002 0.00085 0.0008 0.0032 0.0025 0.0015 0.001566667 0.001 0.0005 0.0003 0.0002 0.0001 0.0001333333 0.0001 0.0001 0.0001013333 0.0001 0.0001 0.0001 0.0001 0.000100293 0.0001 0.0001 0.0001002744 0.0001 0.0001001372 0.0001 0.0001003906 0.0001001961 0.0001 0.0001000004 0.0001 0.0001 0.0001 0.0001000011 0.0001 0.0001000004 0.0001 0.0001000122 0.0001000061 0.0001 0.0001 0.0001 0.0001000015 
0.0001 0.0001 0.0001 0.0001 0.0001 0.0001 0.0001000001 0.0001000003 0.0001000004 0.0001 0.0001 0.0001 0.0001 0.0001 0.0003 0.0003999999 0.0004 0.0002000002 0.0001000004 0.0001 0.0001000008 0.0001000015 0.0001 0.0001 0.0001 0.0001 0.0001 0.0001000001 0.0001 0.0001 0.0001 0.0001 0.0001000028 0.0001 0.0001 0.0001001955 0.0001005859 0.0001 0.0001000305 0.0001 0.0001 0.0001488333 0.0002082819 0.000190535 0.0001762346 0.0001537037 0.00015 0.0001 0.0002666667 0.0002 0.0005 0.00165 0.001275 0.0002 0.0017 0.0009 0.0011 0.0023 0.0046 0.007233333 0.0075 0.0098 0.0264 0.0247 0.0247 0.0245 0.02058 0.0149 0.0059 0.0122 0.0306 0.0171 0.01636667 0.0122 0.0015 0.00145 0.0001 0.0002 0.0002 0.0001 0.0001333333 0.0001 0.0001 0.0001 0.0001333333 0.0001 0.00015 0.0004125 0.0004 0.0003 0.0013 0.001 0.0006 0.0006333333 0.0004 0.0002 0.0001 0.0001 0.0001333333 0.0001 0.0001111111 0.0001 0.0001 0.0001002667 0.0001 0.0001 0.0001 0.0001 0.0001000732 0.0001 0.0001 0.0001000914 0.0001 0.0001000457 0.0001 0.0001001953 0.0001000978 0.0001 0.0001000001 0.0001 0.0001 0.0001 0.0001000004 0.0001 0.0001000001 0.0001 0.0001000061 0.0001000031 0.0001 0.0001 0.0001 
0.0001 0.0001 0.0001 0.0001 0.0001 0.0001 0.0001000001 0.0001000002 0.0001 0.0001 0.0001 0.0001 0.0001 0.0003 0.0004 0.0004 0.0002000001 0.0001000002 0.0001 0.0001000004 0.0001000008 0.0001 0.0001 0.0001 0.0001 0.0001 0.0001 0.0001 0.0001 0.0001 0.0001 0.0001000009 0.0001 0.0001 0.0001000977 0.000100293 0.0001 0.0001000102 0.0001 0.0001 0.000126267 0.0001582333 0.0001472565 0.000138323 0.0001262346 0.000125 0.0001 0.0001888889 0.0002 0.0002666667 0.0001 0.0003 0.00015 0.0001 0.0005 0.0003 0.0004 0.0009 0.001783333 0.0019 0.0033 0.0053 0.0129 0.0133 0.0138 0.015 0.0133 0.0084 0.0034 0.0059 0.0159 0.0088 0.008383334 0.0056 0.0005 0.0007333333 0.0006375 0.0001 0.0001 0.0001111111 0.0001 0.0001 0.0001 0.0001 0.0001 0.0001111111 0.0001 0.0002333333 0.0002 0.0001 0.0005 0.0004 0.0002 0.00028 0.0001 0.0001 0.000125 0.0001 0.0001 0.0001111111 0.0001 0.0001037037 0.0001 0.0001 0.0001000533 0.0001 0.0001 0.0001 0.0001 0.0001000183 0.0001 0.0001 0.0001000305 0.0001 0.0001000152 0.0001 0.0001000977 0.0001000489 0.0001 0.0001 0.0001 0.0001 0.0001 0.0001000001 0.0001 0.0001 0.0001 0.0001000031 0.0001000015 0.0001 0.0001 
0.0001 0.0001 0.0001 0.0001 0.0001 0.0001000001 0.0001000001 0.0001 0.0001 0.0001 0.0001 0.0001 0.0003 0.0004 0.0004 0.0002000001 0.0001000001 0.0001 0.0001000002 0.0001000004 0.0001 0.0001 0.0001 0.0001 0.0001 0.0001 0.0001 0.0001 0.0001 0.0001 0.0001000003 0.0001 0.0001 0.0001000488 0.0001001465 0.0001 0.0001000034 0.0001 0.0001 0.0001138572 0.0001306865 0.0001242684 0.0001191615 0.0001129115 0.0001125 0.0001 0.000162963 0.0002 0.0001888889 0.0001 0.0001 0.0001 0.0001 0.0002666667 0.0002 0.0001 0.0001 0.0003 0.0006833333 0.0007 0.0014 0.0025 0.0058 0.0065 0.007 0.00785 0.0067 0.0044 0.0037625 0.0027 0.0077 0.0042 0.003966667 0.0024 0.0002 0.0002666667 0.0003833333 0.0002786111 0.0001027778 0.0001 0.0001 0.0001 0.0001 0.0001 0.0001 0.0001 0.0001324074 0.00015 0.0001 0.0002666667 0.0002 0.0001 0.0002 0.0001 0.0001 0.0001 0.0001 0.00010625 0.0001 0.0001 0.0001037037 0.0001 0.0001012346 0.0001 0.0001 0.0001000107 0.0001 0.0001 0.0001 0.0001 0.0001000046 0.0001 0.0001 0.0001000102 0.0001 0.0001000051 0.0001 0.0001000488 0.0001000244 0.0001 0.0001 0.0001 0.0001 0.0001 0.0001 0.0001 0.0001 0.0001 0.0001000015 0.0001000008 0.0001 
0.0001 0.0001 0.0001 0.0001 0.0001 0.0001 0.0001 0.0001 0.0001 0.0001 0.0001 0.0003 0.0004 0.0004 0.0002 0.0001 0.0001 0.0001000001 0.0001000002 0.0001 0.0001 0.0001 0.0001 0.0001 0.0001 0.0001 0.0001 0.0001 0.0001 0.0001000001 0.0001 0.0001 0.0001000244 0.0001000732 0.0001 0.0001000011 0.0001 0.0001 0.0001072019 0.0001159275 0.0001123323 0.0001095579 0.0001063872 0.00010625 0.0001 0.000154321 0.0002 0.000162963 0.0001 0.0001 0.0001 0.0001 0.0001666667 0.0002 0.00015 0.0001333333 0.00015 0.0001 0.00028 0.0002 0.0005 0.0011 0.0024 0.0029 0.0032 0.003783333 0.0031 0.0021 0.0018 0.0014 0.0031 0.00315 0.0018 0.001 0.0001 0.00015 0.0001722222 0.0002268519 0.0001 0.0001 0.0001 0.0001 0.0001 0.0001 0.0001 0.0001 0.0001166667 0.0001 0.0001888889 0.0002 0.00015 0.00015 0.0001 0.0001 0.0001 0.0001 0.0001 0.0001 0.0001015625 0.0001 0.0001 0.0001012346 0.0001 0.0001004115 0.0001 0.0001 0.0001000021 0.0001 0.0001 0.0001 0.0001 0.0001000011 0.0001 0.0001 0.0001000034 0.0001 0.0001000017 0.0001 0.0001000244 0.0001000122 0.0001 0.0001 0.0001 0.0001 0.0001 0.0001 0.0001 0.0001 0.0001 0.0001000008 0.0001000004 
0.0001 0.0001 0.0001 0.0001 0.0001 0.0001 0.0001 0.0001 0.0001 0.0001 0.0003 0.0004 0.0004 0.0002 0.0001 0.0001 0.0001 0.0001000001 0.0001 0.0001 0.0001 0.0001 0.0001 0.0001 0.0001 0.0001 0.0001 0.0001 0.0001 0.0001 0.0001 0.0001000122 0.0001000366 0.0001 0.0001000004 0.0001 0.0001 0.0001037011 0.0001081755 0.0001062246 0.0001047637 0.0001031707 0.000103125 0.0001 0.0001514403 0.0002 0.000154321 0.0001 0.0001 0.0001 0.0001 0.0001416667 0.0002 0.000175 0.0001611111 0.0001333333 0.0001 0.0001 0.0001333333 0.0001 0.0002 0.0004 0.0009 0.0012 0.0014 0.001666667 0.0013 0.0009 0.0008 0.0005 0.0013 0.0013 0.0008 0.0004 0.0004 0.0001 0.000125 0.0001324074 0.0001343519 0.0001 0.0001 0.0001 0.0001 0.0001 0.0001 0.0001041667 0.0001 0.000162963 0.0002 0.000175 0.0001666667 0.0001333333 0.0001166667 0.0001 0.0001 0.0001 0.0001 0.0001 0.0001 0.0001003906 0.0001 0.0001 0.0001004115 0.0001 0.0001001372 0.0001 0.0001 0.0001000004 0.0001 0.0001 0.0001 0.0001 0.0001000003 0.0001 0.0001 0.0001000011 0.0001 0.0001000006 0.0001 0.0001000122 0.0001000061 0.0001 0.0001 0.0001 0.0001 0.0001 0.0001 0.0001 0.0001 0.0001 0.0001000004 
0.0001 0.0001 0.0001 0.0001 0.0001 0.0001 0.0001 0.0001 0.0001 0.0003 0.0004 0.0004 0.0002 0.0001 0.0001 0.0001 0.0001 0.0001 0.0001 0.0001 0.0001 0.0001 0.0001 0.0001 0.0001 0.0001 0.0001 0.0001 0.0001 0.0001 0.0001000061 0.0001000183 0.0001 0.0001000001 0.0001 0.0001 0.0001018994 0.0001041625 0.0001031284 0.0001023742 0.0001015777 0.0001015625 0.0001 0.0001504801 0.0002 0.0001514403 0.0001 0.0001 0.0001 0.0001 0.0001354167 0.0002 0.0001875 0.0001787037 0.0001423611 0.0001 0.0001 0.0001083333 0.0001 0.0001333333 0.0001 0.0001 0.0003 0.0005 0.0006666667 0.0005 0.0005 0.0004 0.0004 0.0005 0.0005 0.0005333333 0.0003 0.0001 0.00025 0.0002125 0.0001 0.0001125 0.0001149691 0.0001111142 0.0001 0.0001 0.0001 0.0001 0.0001010417 0.0001 0.000154321 0.0002 0.0001875 0.0001805556 0.0001583333 0.0001388889 0.0001166667 0.0001055556 0.0001 0.0001 0.0001 0.0001 0.0001 0.0001 0.0001000977 0.0001 0.0001 0.0001001372 0.0001 0.0001000457 0.0001 0.0001 0.0001000001 0.0001 0.0001 0.0001 0.0001 0.0001000001 0.0001 0.0001 0.0001000004 0.0001 0.0001000002 0.0001 0.0001000061 0.0001000031 0.0001 0.0001 0.0001 0.0001 0.0001 0.0001 0.0001 0.0001 0.0001 
0.0001 0.0001 0.0001 0.0001 0.0001 0.0001 0.0001 0.0001 0.0003 0.0004 0.0004 0.0002 0.0001 0.0001 0.0001 0.0001 0.0001 0.0001 0.0001 0.0001 0.0001 0.0001 0.0001 0.0001 0.0001 0.0001 0.0001 0.0001 0.0001 0.0001000031 0.0001000092 0.0001 0.0001 0.0001 0.0001 0.0001010773 0.0001022274 0.0001016335 0.0001011837 0.0001007863 0.0001007813 0.0001 0.00015016 0.0002 0.0001504801 0.0001 0.0001 0.0001 0.0001 0.0001338542 0.0002 0.00019375 0.0001887346 0.0001521412 0.0001 0.0001 0.0001020833 0.0001 0.0001111111 0.0001 0.0001 0.00015 0.0001 0.0002 0.0002666667 0.0002 0.0002 0.0001 0.0001 0.0002 0.0002 0.00024 0.0001 0.0001666667 0.0001 0.000175 0.000146875 0.0001 0.00010625 0.000107073 0.0001042624 0.0001 0.0001 0.0001002604 0.0001 0.0001514403 0.0002 0.00019375 0.0001893518 0.000175463 0.0001592593 0.000137963 0.0001203704 0.0001074074 0.0001018519 0.0001 0.0001 0.0001 0.0001 0.0001 0.0001 0.0001000244 0.0001 0.0001 0.0001000457 0.0001 0.0001000152 0.0001 0.0001 0.0001 0.0001 0.0001 0.0001 0.0001 0.0001 0.0001 0.0001 0.0001000001 0.0001 0.0001000001 0.0001 0.0001000031 0.0001000015 0.0001 0.0001 0.0001 0.0001 0.0001 0.0001 0.0001 0.0001 
0.0001 0.0001 0.0001 0.0001 0.0001 0.0001 0.0001 0.0002666667 0.0004 0.0004 0.0002333333 0.0001 0.0001 0.0001 0.0001 0.0001 0.0001 0.0001 0.0001 0.0001 0.0001 0.0001 0.0001 0.0001 0.0001 0.0001 0.0001 0.0001 0.0001000019 0.0001000046 0.0001 0.0001 0.0001 0.0001 0.0001007052 0.0001017436 0.0001012598 0.0001008861 0.0001005885 0.0001003906 0.0001 0.0001500533 0.0002 0.00015016 0.0001 0.0001 0.0001 0.0001 0.0001334635 0.0002 0.000196875 0.0001941615 0.0001586564 0.0001 0.0001 0.0001005208 0.0001 0.0001037037 0.0001 0.0001 0.0001125 0.0001 0.0001333333 0.0001 0.00015 0.0001 0.0001 0.0001 0.0001 0.0001 0.00015 0.0001 0.0001 0.0001 0.0001222222 0.0001 0.0001375 0.000128125 0.0001 0.000103125 0.000105099 0.0001023404 0.0001000651 0.0001 0.0001504801 0.0002 0.000196875 0.0001943673 0.0001861883 0.0001746914 0.0001575617 0.0001391975 0.0001219136 0.0001098765 0.0001030864 0.0001006173 0.0001 0.0001 0.0001 0.0001 0.0001 0.0001 0.0001000061 0.0001 0.0001 0.0001000152 0.0001 0.0001000051 0.0001 0.0001 0.0001 0.0001 0.0001 0.0001 0.0001 0.0001 0.0001 0.0001 0.0001 0.0001 0.0001 0.0001 0.0001000015 0.000100001 0.0001 0.0001 0.0001 0.0001 0.0001 0.0001 0.0001 
