ncols         174
nrows         104
xllcorner     94.9245847767
yllcorner     29.77098880551
cellsize      0.00033259702734128
NODATA_value  -9999
0.005670312 0.004394341 0.0022125 0.0021 0.00224375 0.002466512 0.003190278 0.003407861 0.002025 0.0001 0.000125 0.0001525 0.0001 0.0001 0.0002 0.0007 0.0028 0.0109 0.0413 0.27515 0.146 0.4329 0.629 0.943 1.3618 1.4478 1.0342 2.74085 0.7336 0.8377 0.407 2.49275 3.7664 2.3519 0.4438 2.0079 0.3788 0.86585 3.110394 2.065889 0.57955 0.09616667 0.03836667 0.03991667 0.0393 0.0393 0.6991828 0.69555 0.2624 0.7477281 0.4213841 0.2062062 0.0304 1.219293 0.9563264 0.3485496 0.09917104 0.03467896 0.04992083 0.07716667 0.0921 0.0921 0.0921 0.0921 0.0921 0.0921 0.0921 0.0921 0.09385625 0.05291198 0.0012 0.004691426 0.003860839 0.002368222 0.001860235 0.001678952 0.001637891 0.0016 0.002298609 0.002028125 0.0008 0.0004055981 0.0002026988 0.0002013672 0.0002 0.1941958 0.2875831 0.2849853 0.2837518 0.2831894 0.2829568 0.2828538 0.2828271 0.2828 0.2828762 0.1206327 0.02324066 0.02321093 0.0232052 0.0232 0.007845084 0.0001380634 0.0001170323 0.0001072896 0.0001030269 0.0001012273 0.0001004875 0.0001001871 0.0001000723 0.0001000244 0.0001000122 0.0001 0.00015 0.0002 0.0002000122 0.0002000122 0.0002 3.060774 4.590881 4.590761 4.59073 4.5907 1.824401 0.4412253 0.4412084 0.4412042 0.4412 0.1492951 0.002434611 0.001565048 0.0009522422 0.000556375 0.0003236596 0.0001997137 0.0001401599 0.0001144857 0.0001046275 0.0001012901 0.0001003076 0.0001000609 0.0001000096 0.0001000011 0.0001000001 0.0001 0.0001 0.0001 0.0002334396 0.0003000756 0.0003000277 0.0003000092 0.0003000046 0.0003 0.0004367342 0.0005022979 0.0005007333 0.0005002397 0.0005000817 0.0005000287 0.0005000106 0.0005000035 0.0005000018 0.0005 0.03555182 0.03630468 0.02159998 0.01225178 0.006628796 0.003430132 0.001710313 0.0008370829 0.0004190278 0.0002311965 0.0001540409 0.0001307589 
0.0056 0.005740625 0.004024238 0.002325 0.0021 0.0023875 0.002912037 0.004271296 0.004423111 0.00395 0.0001 0.00015 0.00026 0.0001 0.0006 0.0028 0.0129 0.0556 0.2174 0.6168166 0.6959 1.2278 1.5181 1.8572 2.9268 3.9522 4.5424 5.2669 4.6532 4.2973 4.6618 10.0054 9.1961 7.7686 5.8561 5.832033 1.3529 5.59076 4.493667 1.4913 0.2127 0.03465 0.04115 0.0393 0.0393 1.366331 1.1287 0.2624 1.49476 0.8517398 0.3820125 0.0304 2.218568 1.869705 0.7584981 0.2407762 0.04637438 0.0103625 0.0473 0.0921 0.0921 0.0921 0.0921 0.0921 0.0921 0.0921 0.0921 0.0956125 0.06367969 0.0012 0.008127037 0.006238925 0.003199743 0.002143851 0.001761073 0.001675781 0.0016 0.003538187 0.00325625 0.0008 0.0004142958 0.0002053621 0.0002027344 0.0002 0.1984283 0.2913454 0.2868096 0.2845942 0.2835521 0.2831089 0.2829072 0.2828543 0.2828 0.2829524 0.1531428 0.02328916 0.0232224 0.0232104 0.0232 0.007879885 0.0001688608 0.0001315912 0.0001137381 0.0001057675 0.0001023631 0.00010095 0.0001003688 0.0001001438 0.0001000486 0.0001000244 0.0001 0.00015 0.0002 0.0002000244 0.0002000244 0.0002 3.061013 4.591062 4.590821 4.590761 4.5907 1.824435 0.4412508 0.4412168 0.4412084 0.4412 0.150153 0.00348683 0.002340573 0.00147643 0.0008781418 0.0005021552 0.000288828 0.0001799956 0.0001303174 0.0001101666 0.0001029729 0.000100743 0.0001001542 0.0001000254 0.0001000031 0.0001000002 0.0001 0.0001 0.0001 0.0002335499 0.000300153 0.0003000555 0.0003000183 0.0003000092 0.0003 0.0004405384 0.0005048602 0.0005015382 0.0005004953 0.0005001663 0.0005000578 0.0005000213 0.0005000071 0.0005000035 0.0005 0.05263511 0.05516487 0.03390729 0.01984188 0.01105076 0.005862684 0.00297294 0.00145477 0.0007032285 0.0003532499 0.000200605 0.0001397346 0.0001217833 
0.005859375 0.0056 0.00588125 0.00421494 0.00255 0.0021 0.002675 0.003961111 0.006177778 0.007926667 0.0078 0.0001 0.0002 0.0008 0.0038 0.0168 0.0663 0.2321 1.59155 0.7128 1.8875 3.8366 5.3218 6.0973 6.4326 7.5553 9.5621 10.07062 11.0759 11.6502 11.3299 13.231 13.281 13.5236 13.03545 13.6507 13.3099 9.0334 3.8788 0.5688 0.0263 0.043 5.166075 0.0393 3.168625 1.995 0.2624 3.191821 1.791194 0.733625 0.0304 3.820462 3.452018 1.571391 0.5857056 0.1183981 0.018225 0.0025 0.4414679 0.0921 0.0921 0.0921 0.0921 0.0921 0.0921 0.0921 0.099125 0.06580625 0.0012 0.01533971 0.0110492 0.004919239 0.002748332 0.001931657 0.001751562 0.0016 0.006040247 0.0057125 0.0008 0.0004410971 0.0002106174 0.0002054688 0.0002 0.2056163 0.2978458 0.2900511 0.2861392 0.2842385 0.283405 0.283013 0.2829086 0.2828 0.2831049 0.153315 0.02340029 0.0232464 0.0232208 0.0232 0.00793871 0.0002227458 0.0001580841 0.0001257525 0.0001109371 0.0001045246 0.0001018408 0.000100724 0.0001002853 0.0001000971 0.0001000488 0.0001 0.0001500001 0.0002 0.0002000488 0.0002000488 0.0002 3.061486 4.591421 4.590942 4.590821 4.5907 1.824504 0.4413021 0.4412336 0.4412167 0.4412 0.1511947 0.004822522 0.003394638 0.002243329 0.001383751 0.0008022087 0.0004484655 0.0002557914 0.0001622272 0.0001219682 0.0001067568 0.000101775 0.000100387 0.000100067 0.0001000086 0.0001000007 0.0001 0.0001 0.0001 0.0002337773 0.0003003108 0.0003001115 0.0003000367 0.0003000183 0.0003 0.0004486025 0.0005103057 0.0005032455 0.0005010296 0.0005003396 0.0005001165 0.0005000426 0.0005000141 0.0005000071 0.0005 0.07606021 0.0818892 0.05209104 0.03151436 0.01811649 0.009894806 0.005140995 0.002552252 0.001225573 0.0005864854 0.0002976273 0.0001756371 0.0001285505 0.000115016 
0.005495088 0.00611875 0.0056 0.0061625 0.0046622 0.003 0.0021 0.00325 0.006533334 0.00875 0.01645 0.0155 0.0312 0.0875 0.2318 0.5747 1.3246 2.8267 4.030733 5.5047 8.6959 11.1061 12.5696 14.8155 16.2958 16.6358 14.60988 15.7697 14.8204 14.0318 16.07655 18.3113 18.0598 18.4305 19.37475 18.9832 20.1781 22.2497 23.3571 22.0229 16.9335 11.9368 13.7281 8.6452 3.7276 0.2624 7.1617 3.906333 1.43685 0.0304 6.299812 5.960628 2.991006 1.404422 0.3187445 0.03395 0.0025 1.064206 0.7910963 0.2574373 0.0921 0.0921 0.0921 0.0921 0.0921 0.10615 0.0708 0.0012 0.03106125 0.02068174 0.008415843 0.004050026 0.002291847 0.001903125 0.0016 0.01113599 0.010625 0.0008 0.000532536 0.0002209148 0.0002109375 0.0002 0.2176518 0.3089015 0.2957118 0.2889239 0.2855176 0.2839762 0.2832217 0.2830172 0.2828 0.2834098 0.153711 0.02366167 0.02329761 0.0232416 0.0232 0.008034594 0.0003146361 0.0002056109 0.0001479904 0.0001206509 0.0001086162 0.0001035441 0.0001014135 0.0001005648 0.0001001936 0.0001000977 0.0001 0.0001500003 0.0002 0.0002000977 0.0002000977 0.0002 3.062426 4.592136 4.591184 4.590943 4.5907 1.824646 0.4414054 0.4412673 0.4412335 0.4412 0.1524145 0.006424093 0.004740122 0.003303351 0.002140441 0.001286194 0.0007246186 0.0003958131 0.0002249648 0.0001465962 0.0001151208 0.0001041875 0.000100962 0.0001001755 0.0001000236 0.000100002 0.0001000001 0.0001 0.0001 0.0002342501 0.0003006348 0.0003002243 0.0003000735 0.0003000366 0.0003 0.0004656481 0.0005218784 0.0005068833 0.0005021555 0.0005006978 0.0005002356 0.0005000855 0.0005000283 0.0005000141 0.0005 0.1070552 0.1185256 0.07816002 0.04898204 0.02913104 0.01643 0.008788422 0.004466 0.002168563 0.001022194 0.0004859617 0.0002513006 0.0001556195 0.0001199912 0.0001100409 
0.0047125 0.0055491 0.0066375 0.0056 0.006725 0.005886 0.0039 0.0021 0.0044 0.0131 0.0443 0.0371 0.101 0.2647 0.6754 1.6691 3.649 6.2742 6.835283 8.6339 10.3028 11.8294 14.9299 16.9015 18.0639 18.776 19.69385 19.3604 19.4319 19.2412 25.1176 23.8136 21.9479 23.1331 26.92233 28.5274 35.8099 40.4894 41.5712 40.4188 38.3885 34.5498 22.79273 27.1545 22.5489 16.6958 8.8453 2.8433 0.0304 10.5465 9.7972 4.82515 3.259533 0.8883333 0.0654 0.0025 2.110319 1.600033 0.5439722 0.2292833 0.1643938 0.0921 0.0921 0.0921 0.1202 0.08375 0.0012 0.06787433 0.03986698 0.0153037 0.006874537 0.00306929 0.00220625 0.0016 0.02169394 0.02045 0.0008 0.0008673997 0.0002408693 0.000221875 0.0002 0.2375521 0.3274276 0.3054275 0.2938494 0.2878586 0.2850636 0.2836306 0.2832344 0.2828 0.2840195 0.1546436 0.02429218 0.02340962 0.0232832 0.0232 0.008183266 0.0004659208 0.0002891912 0.0001887962 0.0001388453 0.0001163298 0.0001067775 0.0001027414 0.0001011135 0.0001003855 0.0001001953 0.0001 0.0001500009 0.0002 0.0002001954 0.0002001953 0.0002 3.06428 4.593556 4.591667 4.591186 4.5907 1.824933 0.4416144 0.4413348 0.441267 0.4412 0.1538576 0.008260455 0.006339886 0.004671939 0.003208541 0.002029575 0.001183208 0.0006458008 0.0003448472 0.0001967915 0.0001332557 0.0001097413 0.0001023654 0.0001004559 0.0001000648 0.0001000059 0.0001000002 0.0001 0.0001 0.000235243 0.0003013049 0.0003004524 0.0003001471 0.0003000732 0.0003 0.000501502 0.0005464285 0.0005146619 0.0005045448 0.000501443 0.0005004784 0.0005001718 0.0005000566 0.0005000283 0.0005 0.1464866 0.166936 0.1142984 0.07434233 0.04583933 0.02676447 0.01478933 0.007736187 0.003839746 0.001822068 0.0008438749 0.000400639 0.0002133712 0.0001398917 0.0001135958 0.000106486 
0.0045 0.004925 0.006083 0.007675 0.0056 0.00785 0.00998 0.0057 0.0128 0.0396 0.1137333 0.1162 0.3209 0.8164 1.8646 3.6774 5.6138 7.7533 8.77205 10.0189 12.1318 14.3825 16.5499 18.8629 20.956 22.923 23.82768 24.6982 25.462 25.6598 32.2565 31.8646 36.6241 33.10233 37.5173 34.9425 29.3385 25.4316 24.2822 24.4404 25.2898 27.54042 26.2162 28.2539 28.1859 27.5345 26.2421 24.1519 19.1308 12.4783 16.71742 7.1161 2.5342 0.1283 0.0025 3.910825 3.40735 1.1206 0.27215 0.2391667 0.1765333 0.149775 0.0921 0.1483 0.1215 0.0012 0.1637122 0.07848518 0.0281 0.01301574 0.00479537 0.0028125 0.0016 0.04427578 0.0401 0.0008 0.002146991 0.000278858 0.00024375 0.0002 0.2701209 0.3580541 0.3218333 0.3023954 0.2920539 0.2870989 0.2844231 0.2836688 0.2828 0.2852391 0.1568883 0.02584768 0.02366244 0.02336641 0.0232 0.00839803 0.0007030096 0.000432026 0.0002627267 0.0001728209 0.0001308409 0.0001128741 0.0001052745 0.0001021837 0.000100766 0.0001003906 0.0001 0.0001500025 0.0002 0.0002003908 0.0002003906 0.0002 3.067921 4.596366 4.592631 4.591671 4.5907 1.825521 0.4420389 0.4414705 0.441334 0.4412 0.1557478 0.01037318 0.008109416 0.006298767 0.004611476 0.003105573 0.001908573 0.001074578 0.0005664718 0.0002963526 0.0001717172 0.0001223046 0.0001057453 0.000101174 0.0001001767 0.0001000169 0.0001000007 0.0001 0.0001 0.0002373522 0.0003027041 0.0003009158 0.000300295 0.0003001465 0.0003 0.0005763734 0.0005983071 0.0005313274 0.000509651 0.0005030073 0.0005009762 0.0005003457 0.0005001132 0.0005000565 0.0005 0.1945711 0.2283392 0.1625363 0.1099324 0.07042652 0.04266806 0.02442339 0.01320195 0.006742653 0.003263962 0.001512622 0.0006896188 0.0003293839 0.0001829143 0.0001278152 0.0001089455 0.0001040266 
0.0045 0.0045 0.00535 0.00729 0.00975 0.0056 0.0101 0.0264 0.0652 0.1102167 0.1511 0.3253 0.6447 1.1677 1.9337 3.0268 5.3289 7.337367 8.4064 11.5456 14.8689 16.8752 19.3392 22.4889 25.8036 25.37588 27.9817 29.2268 30.8413 33.1882 36.7144 41.8397 43.7085 38.62203 35.6831 29.4051 25.1512 22.0245 20.1063 19.7011 20.0031 21.83133 20.7951 21.7299 22.8806 24.0872 25.5187 26.3633 26.0379 19.43337 24.696 22.5793 19.8003 13.9049 8.8261 4.8907 1.924 5.384575 0.3172 0.2271 0.1732 0.1293 0.2045 0.2444 0.0012 0.4444542 0.1599167 0.04927778 0.02626111 0.008761111 0.004025 0.0016 0.09530313 0.0794 0.0008 0.007151389 0.0003490741 0.0002875 0.0002 0.3230776 0.408065 0.3491412 0.3169562 0.2994025 0.2908275 0.2859318 0.2845375 0.2828 0.2876781 0.1623921 0.02975572 0.02425451 0.02353281 0.0232 0.008677125 0.001048945 0.0006660513 0.0003940329 0.0002359939 0.0001581533 0.0001243156 0.0001100537 0.0001042531 0.0001015168 0.0001007813 0.0001 0.0001500076 0.0002 0.0002007821 0.0002007812 0.0002 3.075029 4.601907 4.59455 4.592642 4.5907 1.826736 0.4429054 0.4417435 0.4414679 0.4412 0.1587231 0.01308456 0.009983462 0.008051527 0.006293258 0.004551515 0.002989654 0.001775551 0.0009605147 0.0004876688 0.0002512318 0.0001501573 0.0001137625 0.0001029939 0.0001004795 0.0001000487 0.000100002 0.0001 0.0001 0.0002418883 0.0003056578 0.0003018626 0.0003005918 0.000300293 0.0003 0.0007312011 0.0007072589 0.0005670335 0.0005206288 0.00050632 0.0005020043 0.0005006974 0.0005002269 0.0005001129 0.0005 0.250761 0.3028019 0.2242215 0.1579942 0.1053932 0.06640978 0.03947655 0.02211786 0.01167577 0.005812214 0.002739974 0.0012397 0.0005581921 0.0002709644 0.0001589952 0.0001187834 0.0001056671 0.000102386 
0.003385417 0.0045 0.0045 0.0062 0.0104 0.0139 0.0225 0.0543 0.1241 0.2256167 0.2685 0.5479 1.0527 1.9018 3.2223 5.0865 7.3776 8.20855 9.5442 12.0121 14.9152 19.2448 22.4776 24.3528 26.143 26.59808 28.448 30.9469 32.8798 37.6256 47.1152 44.2468 40.6249 39.3332 37.5743 35.2302 32.6939 29.1824 25.5058 22.5009 20.231 20.35577 18.4528 18.0973 18.2765 18.4209 17.8248 16.8151 17.0442 18.4936 17.213 16.8858 16.5111 17.5523 15.9743 13.7266 11.2077 6.358883 8.0894 4.8917 2.8364 1.8129 0.6798 0.0012 1.350967 0.35015 0.0755 0.0541 0.01823333 0.00645 0.0016 0.2208125 0.158 0.0008 0.02695833 0.0004722222 0.000375 0.0002 0.4092967 0.4887716 0.394042 0.3413815 0.312 0.2974871 0.2887204 0.286275 0.2828 0.2925563 0.1760808 0.03970363 0.02569792 0.02386563 0.0232 0.008981556 0.001501166 0.001025777 0.0006198903 0.0003524863 0.0002097222 0.0001457733 0.0001189643 0.000108209 0.0001029878 0.0001015625 0.0001 0.0001500229 0.0002 0.0002015659 0.0002015625 0.0002 3.088778 4.61277 4.598367 4.594584 4.5907 1.829266 0.4446858 0.4422945 0.4417359 0.4412 0.1641974 0.0173844 0.0121104 0.009758875 0.008081108 0.006314598 0.004484068 0.00285588 0.001629014 0.0008417568 0.0004107728 0.0002104766 0.0001324459 0.0001075494 0.0001012921 0.0001001403 0.0001000059 0.0001 0.0001 0.0002517696 0.0003119715 0.0003038122 0.0003011896 0.0003005859 0.0003 0.001047366 0.0009340777 0.0006433611 0.0005443378 0.0005134018 0.0005041467 0.0005014116 0.0005004548 0.0005002258 0.0005 0.3142363 0.3889668 0.2993409 0.220098 0.1532256 0.100659 0.06229519 0.03627521 0.01985926 0.01021909 0.004948959 0.002268594 0.001002368 0.0004481369 0.0002240713 0.0001406849 0.0001122294 0.0001034358 0.0001013363 
0.0013 0.003241667 0.0045 0.0045 0.0079 0.0201 0.0489 0.1125 0.2445 0.3227167 0.5003 0.9602 1.7235 2.8868 4.5204 6.5883 8.2725 8.599517 10.3217 12.7667 14.867 16.3725 18.491 21.2511 24.2655 26.15415 26.9467 31.0099 32.4812 42.1738 40.1867 38.9872 38.7747 38.45648 39.6337 40.2036 39.2388 37.1346 33.2566 28.1202 22.893 24.6013 19.7596 18.0503 17.9783 17.1092 15.7983 14.3732 13.3324 14.84102 12.6381 12.5222 11.816 11.0665 10.3196 9.5434 8.7337 9.250183 7.8813 6.2994 4.2492 6.9298 5.8628 3.4606 0.5911 3.66225 0.1092 0.0418 0.0113 0.0016 0.56565 0.3152 0.0008 0.1058167 0.0006666667 0.00055 0.0002 0.5524276 0.6174778 0.4670815 0.3817556 0.3332889 0.3091 0.2936111 0.28975 0.2828 0.3023125 0.210468 0.06521713 0.0293625 0.02453125 0.0232 0.009211203 0.001989849 0.001525171 0.0009884774 0.0005636831 0.0003075103 0.0001862654 0.0001353909 0.0001156636 0.0001058385 0.000103125 0.0001 0.0001500686 0.0002 0.0002031387 0.000203125 0.0002 3.115073 4.633909 4.605932 4.598467 4.5907 1.834578 0.4483736 0.4434118 0.4422718 0.4412 0.1748224 0.02552178 0.01524549 0.01138591 0.009699808 0.008190909 0.006352608 0.004400275 0.00269932 0.001468045 0.0007196781 0.0003375476 0.0001750927 0.0001187895 0.0001034556 0.0001004031 0.0001000178 0.0001 0.0001 0.0002735607 0.0003256497 0.0003078679 0.000302397 0.0003011719 0.0003 0.001682908 0.001400828 0.0008057267 0.0005956783 0.0005286782 0.0005086571 0.0005028701 0.0005009128 0.0005004517 0.0005 0.3858823 0.4846657 0.385897 0.2963376 0.215788 0.1481683 0.09572035 0.05808821 0.033077 0.01766043 0.008840369 0.004156472 0.001850037 0.0007992738 0.0003577939 0.000187343 0.000127077 0.0001076348 0.0001019763 0.0001006962 
0.0007666667 0.0013 0.002666667 0.0072 0.0218 0.0336 0.0759 0.156 0.1661833 0.2914 0.5075 1.3343 3.0095 3.7414 5.0769 6.1224 5.853983 7.5896 8.4915 9.3257 10.7364 13.4257 15.9243 17.7051 21.6236 24.77398 29.4981 29.7813 34.72675 32.8132 32.2765 34.4195 33.81358 36.3922 37.7391 38.5124 39.201 39.4882 39.3218 37.9469 36.73167 35.2962 30.9752 26.1591 21.9591 20.0885 19.0315 16.5641 17.74545 14.7025 14.1159 14.0423 13.1572 12.3297 11.6278 10.9336 10.51355 10.188 9.401 8.6252 7.7966 8.916 8.5882 8.3423 5.72325 8.0809 5.8678 4.4588 2.9855 1.6306 0.6296 0.0008 0.4206667 0.0009 0.0009 0.0002 0.8038104 0.8204556 0.5852444 0.4467333 0.3692667 0.3292667 0.3013333 0.2967 0.2828 0.321825 0.2974384 0.1307639 0.039025 0.0258625 0.0232 0.009213537 0.002327984 0.002103292 0.001538272 0.0009339506 0.0004932099 0.0002638889 0.0001654321 0.0001294753 0.0001112654 0.00010625 0.0001 0.0001502058 0.0002 0.0002063049 0.00020625 0.0002 3.164602 4.67463 4.620861 4.606235 4.5907 1.845833 0.4560855 0.4456919 0.4433435 0.4412 0.1949546 0.04175087 0.02138402 0.01343046 0.01092201 0.009805255 0.008372163 0.006395311 0.004290349 0.002515165 0.001292447 0.0005965224 0.0002700655 0.000146055 0.0001091576 0.0001011558 0.0001000533 0.0001 0.0001 0.000322141 0.0003556894 0.0003164125 0.0003048473 0.0003023437 0.0003 0.002936019 0.002347203 0.001148409 0.0007068724 0.0005618983 0.0005182641 0.0005058721 0.0005018351 0.0005009033 0.0005 0.4734751 0.5897342 0.47982 0.3844428 0.2934284 0.2111415 0.1427942 0.09056917 0.05379767 0.0298978 0.01553552 0.007547962 0.003437623 0.001483831 0.0006286565 0.0002853346 0.0001593907 0.0001173037 0.0001045367 0.0001010641 0.0001003282 
0.0003 0.0007 0.0013 0.0022 0.0055 0.0132 0.0298 0.0637 0.1235 0.129 0.2459 0.4288 0.5732 1.1049 2.1161 2.9286 4.253317 3.6225 4.8756 6.1968 7.2079 9.9251 14.4961 20.6668 19.15727 24.9164 21.3936 32.5536 19.0298 19.4494 22.4446 25.4641 27.65822 28.8438 31.7782 34.8793 38.0814 41.24 44.2632 47.0336 42.82635 49.1001 49.2017 46.8907 41.3201 34.7683 28.0805 25.2412 25.41817 22.2593 18.532 15.7279 14.842 13.6352 12.8191 12.1643 11.73493 11.5183 10.7211 9.9704 9.4043 8.7009 7.9327 7.2452 8.29535 6.6194 6.0188 4.6361 3.6791 2.8857 2.0042 1.2596 1.79876 0.0016 0.0002 1.296675 1.136233 0.7821333 0.543 0.4306 0.3666 0.3106 0.3106 0.2828 0.36085 0.5188004 0.2984167 0.06535 0.028525 0.0232 0.008899827 0.002216667 0.002537654 0.00222963 0.001542593 0.0008425926 0.0004166667 0.0002203704 0.0001546296 0.0001212963 0.0001125 0.0001 0.0001506173 0.0002 0.0002127197 0.0002125 0.0002 3.256089 4.752007 4.650113 4.62177 4.5907 1.869862 0.472381 0.4503885 0.4454871 0.4412 0.2309652 0.0730643 0.03458889 0.01759942 0.01196376 0.0107282 0.01007405 0.008613508 0.006428929 0.004143496 0.002298624 0.001103376 0.0004753391 0.000210852 0.0001240055 0.0001033074 0.00010016 0.0001 0.0001 0.0004313498 0.0004225182 0.0003346958 0.0003098543 0.0003046875 0.0003 0.0053495 0.004230981 0.001863594 0.0009470333 0.0006346012 0.0005389826 0.0005121111 0.0005036985 0.0005018066 0.0005 0.6033527 0.7136747 0.576373 0.479155 0.383932 0.2902414 0.2061117 0.1370715 0.08519944 0.04943658 0.026757 0.01349981 0.00634976 0.002794319 0.00116879 0.0004883824 0.0002287972 0.0001388243 0.0001105507 0.000102536 0.0001005232 0.0001001332 
0.0002 0.0003 0.0005 0.0013 0.0031 0.0072 0.016 0.0337 0.06408333 0.0672 0.1228 0.1613 0.3191 0.6058 1.4581 2.1375 2.775383 3.1193 4.2731 6.4125 10.2006 12.8 14.6407 16.0642 16.39072 13.9675 20.2767 19.5075 15.9475 16.406 18.0839 19.5446 20.58665 21.2851 23.8639 26.7376 29.929 33.4499 37.2187 41.4663 40.82443 46.115 48.8585 49.9424 49.5218 46.9879 43.9319 39.4057 35.47392 34.3362 29.3545 20.7508 17.0458 14.8806 13.6114 12.9152 13.83847 12.6902 11.6793 10.5318 11.38895 12.0877 11.1352 10.2375 10.42013 9.2468 8.1576 7.0929 6.3208 5.6525 5.06 4.1623 5.909483 3.5695 2.5456 1.5287 1.1122 0.7678 0.4664 0.3948 1.844275 0.3384 0.2828 0.4389 1.088952 0.7224 0.139 0.03385 0.0232 0.008538194 0.001459259 0.002401852 0.002788889 0.002422222 0.001477778 0.0007277778 0.0003222222 0.0002 0.0001388889 0.000125 0.0001 0.0001518519 0.0002 0.0002258789 0.000225 0.0002 3.420975 4.896383 4.706798 4.652841 4.5907 1.921378 0.5071773 0.4601914 0.4497742 0.4412 0.291194 0.1296334 0.06183336 0.02772612 0.01420718 0.01086494 0.01081916 0.0105005 0.008902503 0.006437517 0.003946765 0.002046205 0.0009029035 0.0003610197 0.0001620942 0.0001094422 0.0001004801 0.0001 0.0001 0.0006780326 0.000572842 0.0003745247 0.0003201878 0.000309375 0.0003 0.009867589 0.0078965 0.003333909 0.001462534 0.0007943381 0.0005842278 0.0005252378 0.0005074823 0.0005036133 0.0005 0.8442846 0.8936169 0.6750094 0.5723977 0.4817119 0.3833553 0.2867287 0.2006403 0.1309661 0.07960811 0.04502415 0.02367749 0.01156935 0.005252587 0.002227347 0.000903024 0.000375999 0.000186124 0.0001242685 0.0001060803 0.0001013034 0.0001002244 0.0001000419 
0.0001 0.0002 0.0005 0.0013 0.0031 0.0072 0.0156 0.0315 0.03393333 0.0594 0.1049 0.2144 0.3022 0.4011 0.826 1.9648 2.070667 2.8796 5.0004 7.1543 8.8908 9.9572 10.1419 9.1683 11.1637 13.5611 13.4507 14.5701 10.0475 12.164 12.6968 13.85837 13.5672 14.8151 16.4988 18.3959 20.5556 23.0339 25.8249 28.56185 29.0222 32.2094 36.0656 40.1252 44.1637 47.855 49.3699 47.5873 42.1407 44.0138 38.8995 35.212 28.5943 24.0434 20.6852 18.4345 16.9416 15.3083 14.9819 14.3385 17.089 16.0701 15.1948 13.64775 14.7947 14.3772 14.0727 14.2443 14.2272 14.9051 15.9664 11.16253 14.0368 12.4271 9.7593 8.7029 8.2426 7.8201 6.0717 4.559866 4.3462 2.2977 0.595 2.60036 1.7734 0.3493 0.0445 0.0232 0.009058333 0.0005222222 0.001372222 0.002483333 0.00335 0.002533333 0.001383333 0.0005166667 0.0002833333 0.0001666667 0.00015 0.0001 0.0001555556 0.0002 0.0002535156 0.00025 0.0002 3.709535 5.159453 4.814713 4.714981 4.5907 2.031631 0.5821579 0.4810257 0.4583484 0.4412 0.3854134 0.2246208 0.1135419 0.05073761 0.02122059 0.01122018 0.01018076 0.0111939 0.01108282 0.009224794 0.006399897 0.00368786 0.001752538 0.0006982167 0.0002579561 0.0001268862 0.0001014403 0.0001 0.0001 0.001235418 0.0009137022 0.0004630106 0.0003418134 0.00031875 0.0003 0.01803871 0.01483332 0.006298321 0.002557855 0.001145551 0.0006841969 0.0005532664 0.0005152203 0.0005072266 0.0005 1.350549 1.233715 0.7923749 0.654761 0.5778924 0.4845398 0.3827035 0.2828225 0.19466 0.1244384 0.07379974 0.04058621 0.02068651 0.009759752 0.004261779 0.001736229 0.0006840319 0.000288811 0.0001551542 0.0001144067 0.0001032448 0.0001005893 0.0001000762 0.0001000076 
0.00015 0.0002666667 0.000525 0.0001 0.0002 0.0005 0.0014 0.013 0.0035 0.0083 0.0182 0.0375 0.0733 0.1392 0.2713 0.92996 0.6053 1.7175 3.647 4.5589 3.602 4.5943 5.0176 7.3048 6.9548 7.2663 8.6992 8.39495 7.5668 8.1189 9.1247 10.24883 10.133 11.1625 12.2421 13.4076 14.7023 16.1792 17.8983 20.1125 19.9407 22.3051 25.0509 28.2428 31.9483 36.1094 40.1362 39.65948 43.1021 44.3991 45.1929 45.2904 42.5498 36.5576 30.1862 26.76108 22.0932 20.2082 18.4103 17.871 17.7605 16.8219 15.3986 14.84307 15.1257 15.2992 15.541 15.4904 15.1617 14.7202 13.5203 13.1115 14.2294 13.6643 13.1277 12.0188 9.9319 8.0831 8.1542 7.10855 7.9259 8.4627 6.8696 4.2955 0.9589 0.0658 0.0232 0.01166667 0.0008 0.0005666667 0.0002 0.00335 0.0039 0.0028 0.0009 0.00045 0.0002 0.0002 0.0001 0.0001666667 0.0002 0.0003140625 0.0003 0.0002 4.198843 5.624921 5.014177 4.839262 4.5907 2.264845 0.7445965 0.5263802 0.4754969 0.4412 0.523917 0.3731323 0.2034044 0.09732565 0.03989568 0.01499149 0.008774589 0.009894445 0.01187325 0.01181399 0.009561214 0.006299177 0.0033393 0.001425103 0.0004932099 0.0001763374 0.000104321 0.0001 0.0001 0.002488505 0.001689575 0.0006635917 0.0003879401 0.0003375 0.0003 0.03220591 0.02752028 0.01212865 0.004851049 0.00191527 0.0009072445 0.0006141384 0.0005312077 0.0005144531 0.0005 2.418877 1.986018 0.9968002 0.7183254 0.6619991 0.5839584 0.4877198 0.3819412 0.2784497 0.1880766 0.1174538 0.06778473 0.03616064 0.01781328 0.008085602 0.003380374 0.001319362 0.0005089519 0.0002237819 0.0001336991 0.0001079815 0.0001015394 0.0001002134 0.0001000152 0.0001 
0.0002083333 0.0002604167 0.0001 0.00015 0.0002666667 0.0007 0.00095 0.00245 0.0059 0.01 0.02133333 0.043 0.08333334 0.202325 0.2453333 0.48086 0.9824 0.5467 0.8808 2.1687 3.787 3.2365 5.435 5.3736 7.1112 8.08 8.002 5.0541 5.8609 6.7324 7.5781 8.15295 8.3932 9.1829 9.9602 10.7451 11.5629 12.4444 13.4278 14.76185 14.5611 15.8761 17.4163 19.2521 21.4703 24.1468 27.2298 30.52623 30.5316 33.7463 36.6184 38.2503 38.4984 38.5651 35.2793 32.25846 33.8881 27.9139 22.4717 20.73625 16.0661 15.4972 15.1216 14.95575 13.423 12.8939 12.6903 11.8235 11.3989 11.0069 10.539 10.66595 10.3771 10.8668 11.5963 11.2947 10.7476 9.818 8.2407 9.031917 7.9126 8.0255 8.0602 7.8653 7.293 4.1604 0.0105 4.11166 0.0013 0.0003 0.0001 3.2682 0.0066 0.0012 0.0006 0.443125 0.0003 0.0001 0.0002 0.0002 0.00045625 0.0004 0.0002 5.008232 6.422933 5.364006 5.087825 4.5907 2.744685 1.095849 0.6281468 0.5097938 0.4412 0.7168184 0.5906547 0.3469948 0.1817473 0.08147088 0.02875875 0.009457408 0.006758333 0.01010802 0.01281697 0.01269475 0.009930247 0.006058642 0.002908642 0.001050617 0.0003160494 0.000112963 0.0001 0.0001 0.005274114 0.003452949 0.001126955 0.0004888203 0.000375 0.0003 0.05551895 0.04976369 0.02324101 0.00955613 0.003588793 0.001408225 0.0007487918 0.0005647169 0.0005289062 0.0005 4.476734 3.693051 1.505222 0.759782 0.7253963 0.6697978 0.5908032 0.491274 0.3810821 0.2734676 0.1807994 0.1099628 0.06159933 0.03179201 0.01509057 0.006557263 0.002608977 0.0009748819 0.0003742265 0.0001777473 0.000119372 0.0001039781 0.0001005944 0.0001000457 0.0001 0.0001 
0.0001895833 0.0001 0.000125 0.0001722222 0.0003722222 0.0006388889 0.001366667 0.0031 0.006116667 0.01305833 0.02859444 0.0537 0.0537 0.1443 0.3255 0.35034 0.2198 0.2597 0.5036 0.751 1.5213 3.1925 3.7432 4.227167 3.9798 4.129 4.1605 4.0815 4.8866 5.6897 6.4716 6.90245 7.2171 7.9196 8.5803 9.2071 9.8134 10.417 11.039 11.79798 11.7042 12.4493 13.3192 14.3791 15.7115 17.4234 19.652 21.47483 22.5057 26.0653 30.0163 33.2882 32.0113 34.1876 36.502 32.16755 35.602 33.0597 28.783 23.3421 23.7201 20.6684 17.3058 16.1818 13.3598 10.1761 8.3945 7.7971 7.97 8.1255 7.5113 7.54485 7.8186 8.2207 8.6995 9.2336 9.819 10.4638 11.1503 8.253933 10.8078 9.455 10.1437 10.8668 11.4992 11.9495 12.3819 7.188083 8.1414 4.7437 3.493 5.4327 7.4086 4.2476 4.1579 1.6969 0.0747 0.0003 0.0002 0.000825 0.0006 0.0002 6.348879 7.767483 5.916367 5.58495 4.5907 3.678882 1.844306 0.8648528 0.5783875 0.4412 0.9735619 0.8930734 0.5594383 0.3194525 0.1620938 0.06369568 0.01862315 0.003957408 0.005791666 0.01052593 0.01400648 0.01391852 0.01015926 0.005712963 0.002303704 0.0007092592 0.0001388889 0.0001 0.0001 0.01135407 0.007427983 0.002214403 0.0007164609 0.00045 0.0003 0.09143896 0.08674609 0.04359076 0.01895424 0.007178043 0.002536111 0.001052225 0.0006363383 0.0005578125 0.0005 7.608998 7.32865 2.968787 0.781716 0.7651641 0.7324659 0.6785588 0.5983688 0.495482 0.3799712 0.2677929 0.1726387 0.1019664 0.0552834 0.02754819 0.01254444 0.005179058 0.001948285 0.0006995885 0.0002767718 0.0001463192 0.0001101509 0.0001016461 0.0001001372 0.0001 0.0001 0.0001 
0.0001 0.0001125 0.0001324074 0.0002231481 0.0003944444 0.0006194445 0.001193519 0.0013 0.001425 0.00583125 0.015 0.02853333 0.0537 0.0537 0.11364 0.0946 0.1294 0.2564 0.347 0.3202 0.563 0.9305 2.2931 2.553333 2.8007 2.6557 3.0307 3.3109 4.0069 4.759 5.13955 5.5122 6.2425 6.9352 7.5829 8.1846 8.745 9.2727 9.626233 9.7793 10.2765 10.7695 11.2661 11.7782 12.3291 12.9713 14.4401 13.8188 15.1111 17.3353 20.8284 31.7457 22.8582 24.377 27.1966 25.575 26.1589 25.9861 25.188 28.0345 26.2616 22.9372 19.1532 20.1705 17.7101 13.6356 9.0571 6.2104 4.9908 4.7545 5.511066 4.5375 4.4856 4.529 4.6781 4.8797 5.1111 5.3676 6.807233 5.6432 5.769 6.0389 6.6413 7.7272 8.4617 9.3981 9.522883 10.5547 12.0387 12.5376 10.7068 8.6336 9.3673 9.6916 7.162783 9.3095 7.8206 4.2481 0.0019 0.001 0.0002 8.672067 10.14405 6.5792 6.5792 4.5907 5.307483 3.379561 1.437783 0.715575 0.4412 1.294609 1.301306 0.8571333 0.5207815 0.3004 0.1371759 0.04870556 0.005205555 0.001958333 0.004708333 0.01070833 0.01616111 0.01515 0.01044444 0.004883333 0.001811111 0.0002166667 0.0001 0.0001 0.02428171 0.01624074 0.004793827 0.001249383 0.0006 0.0003 0.1422938 0.1441852 0.07897685 0.03707623 0.01471919 0.005067284 0.001747659 0.0007933899 0.000615625 0.0005 9.239841 13.8652 7.33045 0.7903 0.7856111 0.769237 0.740644 0.6875167 0.6075158 0.5000739 0.3788564 0.2609833 0.1635391 0.09339382 0.04896626 0.02349012 0.0101882 0.003955007 0.001393964 0.0004958848 0.0002089163 0.0001255144 0.0001045267 0.0001004115 0.0001 0.0001 0.0001 0.0001 
0.00010625 0.0001149691 0.0001560185 0.00025 0.0002874074 0.0001 0.0001 0.0006555556 0.0013 0.00155 0.005475 0.015 0.0169 0.0328 0.04756667 0.0616 0.1359 0.1982 0.2594 0.4825 0.629 0.7773 0.9335667 0.8836 1.6196 2.4823 2.4947 3.0735 3.1684 3.8433 4.199683 4.5615 5.2796 5.977 6.6393 7.2589 7.8349 8.3715 8.617233 8.8779 9.3721 9.8518 10.3134 10.7432 11.1114 11.3641 12.11417 11.411 11.1087 10.2209 29.905 17.4592 18.8738 20.4581 21.06755 22.0799 23.6737 24.6647 22.3584 19.1937 19.0531 17.7301 18.23055 16.1072 14.7772 13.6656 12.4831 10.1651 6.6775 4.278 4.410517 3.8596 3.6779 3.4969 3.5286 3.6604 3.8235 4.0061 4.280433 4.2124 4.454 4.7528 5.3235 5.2263 5.761 6.2085 7.266366 6.6446 7.0751 7.5241 8.0275 7.5493 8.0642 8.6454 8.25925 9.3857 10.4769 11.8075 26.4474 16.4024 14.2956 11.7204 8.69305 8.5677 4.5907 7.4905 6.266533 2.8822 0.98995 0.4412 1.625962 1.832705 1.278567 0.7926444 0.5001889 0.2695111 0.1315 0.01051667 0.0041 0.001 0.000775 0.01235 0.019 0.01713333 0.009316667 0.004883333 0.00045 0.0001 0.0001 0.05085278 0.03524074 0.01093333 0.002548148 0.0009 0.0003 0.2067535 0.2257296 0.136392 0.07043395 0.03010463 0.01069012 0.003362809 0.00114892 0.00073125 0.0005 9.228464 13.8652 13.8652 5.686637 0.7957 0.7849 0.7762333 0.7465778 0.699121 0.6168514 0.5065749 0.3767955 0.2531988 0.1529556 0.08446296 0.04276296 0.01967284 0.008034568 0.002857202 0.000973251 0.0003514403 0.000162963 0.0001123457 0.0001012346 0.0001 0.0001 0.0001 0.0001 0.0001 
0.0001106096 0.0001257459 0.0001736626 0.0001786852 0.0001 0.0001 0.0001 0.0001 0.0005666667 0.0013 0.0018 0.0038 0.0077 0.015 0.02498333 0.0277 0.049 0.0989 0.1856 0.2457 0.2896 0.3019 0.4835333 0.415 0.652 1.5974 1.6301 2.4065 2.4243 2.9325 3.266533 3.5896 4.2777 4.9697 5.6439 6.285 6.8854 7.4433 7.67615 7.9587 8.4721 8.9861 9.5126 10.0604 10.6366 11.2439 11.10312 11.8759 12.5212 13.0802 13.7932 14.5722 15.4457 16.4329 17.55863 17.4824 19.9353 19.7142 16.7655 16.8302 16.7824 16.499 16.6309 15.9393 15.0818 13.9028 12.4032 10.7502 8.9128 5.5153 6.004217 3.5182 3.6317 3.0165 2.8125 2.8935 3.0329 3.1686 3.388817 3.2847 3.3833 3.5167 3.0188 3.7007 4.6179 5.1286 5.145083 5.6637 6.148 6.6091 7.0679 5.5946 5.9448 6.2062 10.3285 6.3171 6.9684 24.7518 5.7214 6.1089 6.5262 6.9854 8.036517 7.4987 8.1104 10.5942 6.6667 1.5387 0.4412 1.8063 2.37515 1.8812 1.241767 0.7127333 0.4234333 0.3644 0.0207 0.0094 0.00145 0.00145 0.0001 0.13054 0.0246 0.0134 0.0134 0.00115 0.0001 0.0001 0.1034333 0.07442223 0.02545555 0.005844445 0.0015 0.0003 0.2776549 0.3282408 0.2208185 0.1281296 0.06022778 0.02294444 0.007141666 0.001984259 0.0009625 0.0005 9.182957 13.8652 13.8652 7.446366 3.802775 2.523143 0.7957 0.7741 0.7589 0.7067333 0.6317296 0.5120913 0.3759037 0.2423914 0.1413012 0.07517407 0.03691358 0.01620124 0.005903704 0.001998765 0.0006691358 0.0002518519 0.0001333333 0.0001037037 0.0001 0.0001 0.0001 0.0001 0.0001 0.0001 
0.0001181777 0.0001366727 0.0001356187 0.0001 0.0001 0.0001 0.0001 0.0001 0.0001 0.0003 0.0005 0.0011 0.0023 0.0045 0.01011667 0.0083 0.0133 0.0284 0.0522 0.0898 0.1444 0.217 0.26635 0.3064 0.4208 0.54175 0.6033 1.3954 2.0963 2.0044 2.0734 2.5989 3.2242 3.8912 4.5683 5.2304 5.8621 6.4418 6.68845 6.9637 7.4652 7.9572 8.4551 8.9658 9.4975 10.0634 10.39823 10.6604 11.252 11.8436 12.4346 13.024 13.6048 14.174 14.93943 14.7245 16.9822 20.8642 16.1799 16.527 16.7763 16.66943 16.8379 16.6719 16.246 15.5384 14.4202 13.0571 11.8483 10.19598 10.5594 8.2948 4.7652 3.3564 2.4048 2.2642 2.4793 2.7501 2.934683 2.911 2.8388 2.7161 2.95 2.8423 2.7027 3.2549 3.751783 3.9702 4.3764 4.8286 4.44355 4.0767 4.5446 5.700716 5.017 26.3996 6.9569 4.6 4.9861 5.3967 5.8498 6.027933 6.3956 7.0513 7.9566 9.676 11.1644 8.9345 2.8663 5.19088 2.1114 2.6389 0.8933 0.1931 1.0518 0.0254 0.016 1.0566 0.0028 0.0001 0.117025 0.2365 0.274475 0.0246 0.0022 0.227775 0.0001 0.2049 0.1496 0.05913333 0.01453333 0.0027 0.0003 0.345275 0.4381444 0.3269 0.2196778 0.1158778 0.04883333 0.01597222 0.004027778 0.001425 0.0005 9.000925 13.8652 13.8652 7.815618 4.314202 3.790444 3.30368 2.202748 0.7957 0.7525 0.7285 0.6392 0.5274889 0.3695852 0.230637 0.1269519 0.06631482 0.03225556 0.01217037 0.004177778 0.001362963 0.0004555556 0.0001888889 0.0001111111 0.0001 0.0001 0.0001 0.0001 0.0001 0.0001 0.0001 
0.0001274252 0.0001180938 0.0001 0.0001 0.0001 0.0001 0.0001 0.0001 0.0001666667 0.0001 0.0003 0.0006 0.0011 0.001833333 0.0019 0.0033 0.0074 0.0129 0.0269 0.0498 0.087 0.1194167 0.1421 0.2157 0.3092 0.3046 0.4183 0.5641 0.8653 1.307433 1.6346 1.6158 2.1055 2.7047 3.3641 4.0426 4.6898 4.941833 5.3874 5.9358 6.4429 6.9231 7.4156 7.9207 8.4299 8.647683 8.9858 9.56 10.1869 10.8103 11.4277 12.0474 12.6506 12.9773 13.1978 13.625 13.679 17.5986 15.3761 15.9186 16.3956 16.46705 16.7254 16.8593 16.7523 16.3834 15.5182 14.1729 12.9199 12.66892 11.4202 9.7247 7.9095 5.91 4.0797 2.9597 2.8347 2.8559 2.7176 2.7761 2.8486 2.9083 2.6042 2.4811 2.3704 2.508233 2.2867 2.2066 2.6708 3.3052 2.088 2.4067 2.9866 4.179783 9.5051 2.844 3.2625 3.7182 4.1167 4.5383 4.9705 5.16455 5.4401 5.9265 6.5593 7.5313 10.1558 11.0876 12.1399 8.5356 8.3956 1.021 0.4473 0.8092 1.4269 1.3774 1.3358 2.30025 2.8718 0.1003 0.1902 0.1775 0.3418 0.554 0.4999 0.4552167 0.4089 0.2765 0.1341 0.0382 0.0051 0.0003 0.4141 0.5441 0.4226 0.3477333 0.2103667 0.1009333 0.03633333 0.009233333 0.00235 0.0005 8.2728 13.8652 13.8652 8.234442 4.871533 4.291295 3.779778 3.300261 2.831 1.884031 0.7957 0.7093 0.6805 0.5278 0.3741667 0.2067889 0.1109556 0.06311111 0.02487778 0.008777778 0.002855556 0.0009 0.0003333333 0.0001333333 0.0001 0.0001 0.0001 0.0001 0.0001 0.0001 0.0001 0.0001 
0.0001113798 0.0001 0.0001 0.0001 0.0001 0.0001 0.0001 0.0001222222 0.0001 0.0001666667 0.0001 0.0002 0.0004 0.0008666667 0.0008 0.0018 0.0034 0.006 0.0103 0.0213 0.043 0.07135 0.083 0.1367 0.2101 0.1915 0.2852 0.3971 0.5185 0.7937833 0.6565 0.8051 0.9505 1.3718 1.9434 2.6804 3.0933 3.73625 4.1766 4.8014 5.3587 5.7904 6.2569 6.7907 7.2145 7.448433 7.695 8.2969 8.9781 9.66 10.3085 10.9929 11.7275 11.90537 12.5091 13.3368 14.0654 13.5065 14.3142 15.035 15.7305 15.88505 16.3366 16.8048 17.0657 16.9544 17.103 15.9577 15.1612 14.27493 14.1045 12.8171 11.3543 9.7844 8.1393 5.7758 3.4998 3.737517 2.8539 1.9402 2.0428 2.2473 2.494 2.3814 2.2718 1.996333 2.1629 2.0515 1.9334 1.7787 0.163 8.4062 1.6369 3.208917 1.3885 1.6709 2.1148 2.804 3.237 3.7091 3.9995 4.124784 4.3318 4.7514 5.3546 6.2979 8.7237 9.4869 12.2568 9.71265 13.4436 0.9476 0.4993 1.9714 2.961 3.0297 2.9149 4.3657 6.6602 0.2228 0.4864 0.5861 0.9664 0.981 0.9458 2.74175 0.8744 0.7851 0.7153 0.6819 0.6687 0.6477 0.5943 2.234125 0.4939 0.3513 0.198 0.0818 0.023 0.0042 0.0005 5.3603 13.8652 13.8652 8.7276 5.513233 4.831733 4.269633 3.772517 3.297183 2.831083 2.364733 1.544606 0.7957 0.6229 0.6229 0.3376 0.162 0.1207667 0.0501 0.01846667 0.006066666 0.0018 0.0007 0.0002 0.0001 0.0001 0.0001 0.0001 0.0001 0.0001 0.0001 0.0001 0.0001 
0.0001 0.0001 0.0001 0.0001 0.0001 0.0001 0.0001074074 0.0001 0.0001222222 0.0001 0.0001333333 0.0001 0.0003 0.00062 0.0007 0.0015 0.003 0.0055 0.0099 0.0171 0.0281 0.04435 0.0449 0.0857 0.1325 0.109 0.179 0.2718 0.3993 1.302317 0.6885 1.5139 1.5205 1.6723 1.7879 1.8921 2.514 3.445267 2.5564 3.3566 4.3266 4.6328 4.8615 5.7787 6.0342 6.309783 6.3312 6.7821 7.5156 8.3578 8.9729 9.6042 10.2982 10.63738 11.049 11.8461 12.6679 11.9728 12.8896 13.7773 14.6443 14.8931 15.4779 16.2557 16.9087 17.2382 17.1258 16.9164 16.4323 16.25553 15.6115 14.4552 13.0179 11.4344 9.8542 8.2341 6.3891 5.682384 4.13 2.6372 2.3521 2.1817 2.0135 1.7974 1.5671 2.045083 1.3191 1.0518 0.7651 1.6164 2.983 3.3699 3.3768 1.8991 1.8373 1.8007 1.7232 1.5636 1.9535 2.6736 2.8794 3.055683 3.1274 3.412 3.917 4.5951 5.6308 6.4223 7.0651 9.419467 4.9749 2.5035 0.6473 1.6074 3.7764 5.1002 5.2067 6.574833 7.2048 16.8243 0.4706 0.844 5.1061 5.9592 3.682333 6.4961 7.2254 7.795 7.4339 6.6953 5.7149 4.7641 4.580517 4.0931 3.7552 3.353 3.0196 2.7484 2.5305 2.3558 2.2152 6.78532 13.8652 9.2017 6.3955 5.448 4.6962 4.351 3.7617 3.20485 2.925 2.3634 1.8058 1.213525 0.7957 0.4501 0.35435 0.2251 0.0989 0.0383 0.0131 0.004 0.0011 0.0003 0.0002 0.0001 0.0001 0.0001 0.0001 0.0001 0.0001 0.0001 0.0001 0.0001 
0.0001 0.0001 0.0001 0.0001 0.0001 0.0001024691 0.0001 0.0001074074 0.0001 0.0001083333 0.0001 0.0002 0.0003333333 0.0007 0.0009 0.0011 0.0022 0.0044 0.0084 0.0151 0.0258 0.05278333 0.0413 0.0629 0.1543 0.3201 0.3912 0.5875 0.6221667 1.5389 4.0122 5.7546 5.2883 4.5664 4.8407 4.0903 3.9399 4.1619 4.1694 4.1258 4.0884 4.9412 5.8679 5.1017 5.495867 5.332 5.2518 4.8959 5.376 7.029 7.6132 8.1535 8.454817 8.7715 9.469 10.2427 11.081 10.1261 11.0846 12.0938 12.40692 13.0882 14.0811 15.1074 16.1078 16.9658 17.5422 17.9791 17.60487 18.1767 18.047 17.5169 16.5187 15.1444 13.8078 11.8616 11.71615 9.5466 7.6749 7.108 6.2211 5.6869 4.5264 3.3492 3.687967 2.4841 2.4655 2.5032 2.5988 2.8556 2.7739 2.6276 2.436917 2.3211 2.2979 2.286 2.2873 2.3258 2.4778 1.7048 1.803267 1.8749 2.1211 2.3069 2.974 3.4953 3.6992 3.4238 5.7691 11.6627 7.1137 9.3194 4.2237 1.6705 4.0572 6.1183 5.287567 7.284 10.1784 24.5453 0.9792 2.76205 2.8931 3.6199 3.98495 4.092 4.3367 4.6305 5.8083 7.3967 6.5139 8.2821 6.316566 9.1018 9.2775 9.1523 8.8987 8.8681 9.0198 8.7307 6.995533 8.704 9.1417 7.5017 6.2982 5.3866 4.6592 4.0428 4.7932 3.4806 2.9291 2.3653 1.7958 1.2563 1.0063 0.5132 0.2998 0.229 0.0901 0.0314 0.0097 0.0027 0.0007 0.0002 0.0002 0.0001 0.0001 0.0001 0.0001 0.0001 0.0001 0.0001 0.0001 0.0001 
0.0001 0.0001 0.0001 0.0001 0.000100823 0.0001 0.0001024691 0.0001 0.0001020833 0.0001 0.0001 0.0001 0.0002666667 0.0006 0.001 0.0023 0.0052 0.0111 0.022 0.0407 0.03613333 0.0691 0.1075 0.1517 0.201 0.2757 0.3436 0.4057 0.6347333 0.5298 1.0907 3.1441 5.0314 4.5907 4.0737 5.3618 4.867784 5.6193 5.744 5.7466 5.6471 5.427 4.3121 5.1257 5.300533 5.6029 6.7092 8.0089 7.6432 6.1609 6.3042 6.7086 6.9831 7.1929 7.771 8.4576 8.18345 7.9444 8.9169 9.9349 10.20777 10.903 11.8807 13.0041 14.1819 15.3629 16.5167 17.5923 17.23997 18.5324 19.2899 19.7933 19.7564 18.5948 18.2828 19.2849 14.69138 14.9806 13.7125 12.2673 11.0953 9.8291 8.7444 7.1737 5.130033 5.7563 4.4209 2.9187 2.8942 2.6573 2.4672 2.2949 2.680583 2.1089 1.9556 1.763 1.5101 1.161 0.681 0.7684 1.21885 0.9185 1.3865 1.4424 2.2605 2.7676 2.9033 3.8089 3.886733 2.2318 2.2743 3.9402 4.1414 1.7712 2.5532 3.5826 4.58165 4.4336 6.4165 13.3822 26.392 0.3565 1.1133 1.7142 2.21135 2.0283 2.1713 2.2286 2.2846 2.3668 5.1151 5.4099 5.382967 6.2484 7.3138 8.7074 10.1226 11.1586 11.8948 10.7198 7.778 9.2477 9.3131 8.9025 8.2977 7.6319 6.9423 6.2187 5.188133 5.4307 4.5534 3.5961 2.6196 1.7245 0.6002 0.272 0.2137333 0.1094 0.0391 0.0125 0.0036 0.0009 0.0002 0.0003 0.0002 0.00015 0.0001 0.0001 0.0001 0.0001 0.0001 0.0001 0.0001 0.000100332 
0.0001 0.0001 0.0001 0.0001 0.000100823 0.0001 0.0001024691 0.0001 0.0001020833 0.0001 0.0001 0.0001 0.0002666667 0.0006 0.001 0.0023 0.0052 0.0111 0.022 0.0407 0.03613333 0.0691 0.1075 0.1517 0.201 0.2757 0.3436 0.4057 0.6347333 0.5298 1.0907 3.1441 5.0314 4.5907 4.0737 5.3618 4.867784 5.6193 5.744 5.7466 5.6471 5.427 4.3121 5.1257 5.300533 5.6029 6.7092 8.0089 7.6432 6.1609 6.3042 6.7086 6.9831 7.1929 7.771 8.4576 8.18345 7.9444 8.9169 9.9349 10.20777 10.903 11.8807 13.0041 14.1819 15.3629 16.5167 17.5923 17.23997 18.5324 19.2899 19.7933 19.7564 18.5948 18.2828 19.2849 14.69138 14.9806 13.7125 12.2673 11.0953 9.8291 8.7444 7.1737 5.130033 5.7563 4.4209 2.9187 2.8942 2.6573 2.4672 2.2949 2.680583 2.1089 1.9556 1.763 1.5101 1.161 0.681 0.7684 1.21885 0.9185 1.3865 1.4424 2.2605 2.7676 2.9033 3.8089 3.886733 2.2318 2.2743 3.9402 4.1414 1.7712 2.5532 3.5826 4.58165 4.4336 6.4165 13.3822 26.392 0.3565 1.1133 1.7142 2.21135 2.0283 2.1713 2.2286 2.2846 2.3668 5.1151 5.4099 5.382967 6.2484 7.3138 8.7074 10.1226 11.1586 11.8948 10.7198 7.778 9.2477 9.3131 8.9025 8.2977 7.6319 6.9423 6.2187 5.188133 5.4307 4.5534 3.5961 2.6196 1.7245 0.6002 0.272 0.2137333 0.1094 0.0391 0.0125 0.0036 0.0009 0.0002 0.0003 0.0002 0.00015 0.0001 0.0001 0.0001 0.0001 0.0001 0.0001 0.0001 0.000100332 
0.0001 0.0001 0.0001 0.0001002744 0.0001 0.000100823 0.0001 0.0001005208 0.0001 0.0001 0.0001 0.0001 0.0002666667 0.0001 0.0003 0.0008 0.002 0.0048 0.0107 0.0223 0.03295 0.0438 0.0795 0.1326 0.0991 0.156 0.2248 0.3063 0.3617833 0.4402 0.8544 2.4131 4.5952 5.0509 4.4241 4.8471 4.596817 5.1263 5.2503 5.2527 5.1469 4.5223 5.3353 5.2441 4.754734 5.3968 4.7404 4.7134 4.7849 4.9509 5.149 5.3896 5.621233 5.6825 6.0397 6.4998 4.493 4.8628 5.8707 7.1786 7.711867 8.0481 8.8706 9.8228 10.9313 12.161 13.483 14.8766 14.32005 16.2827 17.6968 19.3651 21.497 17.0594 24.7503 16.3496 15.5054 16.125 16.3287 15.4054 12.9625 10.3127 8.2586 6.8015 13.44573 5.2154 6.219 20.3157 7.34935 8.7551 6.9553 4.765 4.283467 1.966 1.7608 1.5799 1.3952 1.2232 1.099 1.0615 1.098117 0.985 0.7575 1.2069 1.3504 2.3193 2.9935 1.3955 1.5826 0.7977 0.3591 0.9053 0.7846 1.0455 2.1771 2.7977 3.472983 3.2737 4.3354 8.4439 23.9963 18.6464 0.3891 0.8881 1.17165 0.9256 0.8705 0.8298 1.051 1.2845 1.4571 1.5824 2.809767 1.6732 1.7402 1.7895 1.8242 1.6461 1.5144 3.4525 5.301767 5.8133 7.9217 9.0141 8.6494 8.0165 7.2961 6.4682 5.5759 5.4878 4.3501 3.1478 2.0457 0.89025 0.2809 0.1162 0.097 0.0426 0.0139 0.0041 0.0011 0.0003 0.0001 0.00015 0.0001875 0.0002 0.0001375 0.0001 0.0001 0.0001 0.0001 0.0001 0.0001005469 0.0001007813 
0.0001 0.0001 0.0001000914 0.0001 0.0001002744 0.0001 0.0001001302 0.0001 0.0001 0.0001 0.0001 0.0001 0.0001 0.0002 0.000325 0.0001 0.0004 0.0011 0.0028 0.0067 0.01515 0.0151 0.0309 0.03625 0.0332 0.066 0.1197 0.1635833 0.1964 0.2923 0.4087 0.6045 1.2882 2.9095 3.4947 3.126 4.043233 3.5004 3.7577 3.8713 3.4973 3.9648 3.8376 3.667 4.423183 3.4919 3.8453 3.6249 4.025 4.1349 4.2432 4.3404 4.841967 4.4134 4.447 4.4638 5.2186 5.4797 5.2059 4.948033 4.8759 5.3307 5.5864 5.9519 6.4283 7.0848 7.9294 9.235316 8.8758 9.7605 10.2106 10.0693 26.1331 14.142 13.9595 13.2766 13.29533 13.0157 12.7859 12.6346 12.5372 12.4127 12.3203 12.3232 19.7689 43.4043 14.1288 10.3956 8.4287 8.8082 7.8244 6.4648 7.2202 7.3458 4.6301 2.0958 2.1531 2.5553 1.4148 1.39565 1.4109 1.4444 1.594 2.0766 2.5216 1.4711 1.0184 1.5076 1.0102 0.2515 0.1321 0.3164 1.0934 1.6979 2.5362 3.1716 3.326517 3.5787 4.3128 6.2871 13.2639 24.239 0.1783 2.476117 0.4507 1.023 1.37 1.5249 1.3943 1.2326 1.109 1.30855 1.0113 0.9334 0.8716 0.8229 0.8133 1.2743 1.5919 1.638533 1.42 1.1573 0.9802 1.5141 3.1856 4.5689 5.2812 4.057217 5.2524 4.5976 3.1076 1.9654 1.1457 0.172 0.0783 0.08756667 0.031 0.0108 0.0033 0.0009 0.0002 0.000425 0.0002 0.0001 0.000125 0.000153125 0.0002 0.000134375 0.0001 0.0001 0.0001 0.0001011719 0.0001015625 0.0001 
0.0001 0.0001000305 0.0001 0.0001000686 0.0001 0.0001000326 0.0001 0.0001 0.0001 0.0001 0.0001 0.0001 0.0001333333 0.00018125 0.0001 0.00025 0.000425 0.0001 0.0003 0.00214 0.0008 0.0022 0.0059 0.0038 0.0096 0.0222 0.0466 0.07936667 0.0877 0.147 0.2189 0.3192 0.5151 1.1554 3.0192 3.05745 3.9887 3.6709 4.0813 4.069 4.6875 4.8169 4.8341 4.6552 4.7523 3.987 3.867 3.7227 3.5952 3.8238 4.0945 4.551116 4.4222 4.8037 4.7546 4.68985 4.4059 3.9975 3.5223 4.753783 3.0348 2.5782 2.7002 2.8973 3.2088 3.707 4.5043 6.823733 5.7428 7.5262 8.5274 9.0523 9.887 10.5751 11.3795 11.069 10.6163 10.3888 10.2098 10.2914 10.5648 10.6381 10.817 19.17435 40.2503 10.6187 7.7671 8.0815 5.866 5.9403 5.9823 6.133567 6.0416 6.3471 6.824 7.3007 4.6959 1.2756 1.6767 2.283117 1.711 1.8355 2.1313 2.7075 1.7799 1.8735 1.356 1.093467 1.272 0.4714 0.5478 0.9215 1.5609 2.2333 2.9327 3.137633 3.4093 3.7281 4.1838 5.3818 7.5049 14.0336 12.6021 5.384133 0.3484 0.7478 1.0941 1.3237 1.4056 1.4031 1.3674 1.281283 1.3241 1.2885 1.27 1.2725 1.2905 1.1377 1.0004 1.228 0.852 0.8185 0.6531 0.4331 0.236 0.1033 0.0357 1.76855 0.0097 0.0046 0.4704 0.5072 0.3237 0.0261 0.0135 0.032075 0.0055 0.0018 0.0005 0.0001 0.0004 0.0002 0.00023125 0.00015 0.0001 0.0001125 0.0001320795 0.0001268519 0.0001 0.0001 0.0001027344 0.000103125 0.0001 0.0001001372 
0.0001000102 0.0001 0.0001000171 0.0001 0.0001 0.0001 0.0001 0.0001 0.0001 0.0001 0.0001 0.0001111111 0.0001286458 0.0001 0.000175 0.00021875 0.0001 0.0002 0.0002 0.0004 0.0001 0.0004 0.0013 0.0002 0.0007 0.0024 0.007 0.02848333 0.0188 0.0463 0.1019 0.1846 0.3141 0.5723 1.4224 2.4798 3.2937 4.473 3.9304 4.8359 5.2365 5.4206 5.4473 5.941967 5.3929 5.9161 5.7954 5.5794 5.4663 5.3474 5.1972 5.144333 5.0092 4.7983 5.0396 6.1195 6.0167 5.9491 5.9265 5.957 5.9573 6.0455 6.1907 6.3684 6.5784 6.7904 6.9322 6.95465 6.9579 6.669 6.7162 7.2711 7.7487 8.2811 8.5807 9.32135 8.6014 8.1472 7.4349 6.9629 7.2778 7.1369 33.0041 16.62825 6.3312 5.5517 5.6644 5.3014 4.857 4.8724 4.8739 5.1839 4.859 4.8211 4.7931 4.8369 5.0614 6.1138 4.5208 3.336033 2.9645 2.1192 2.5031 1.9142 2.2537 2.0973 1.4314 1.203833 0.4728 0.4837 0.9403 1.4438 2.0677 2.7057 3.2444 3.343233 3.5316 3.785 3.9716 4.7268 5.5555 9.7556 18.5122 8.892134 0.2131 0.5254 0.8432 1.1046 1.2753 1.373 1.4243 1.421583 1.4516 1.4718 3.343 1.0999 1.3047 1.3733 1.3271 1.147217 1.1766 0.8184 0.5224 0.2934 0.1599 0.0702 0.025 0.01585 0.0073 0.0017 0.0003 0.0001 0.0332 0.099125 0.0198 0.0095 0.002466667 0.0001 0.000625 0.0003 0.0001 0.00019 0.00015 0.0002161706 0.0001666667 0.0001194444 0.0001074074 0.0001 0.0001 0.0001074219 0.00010625 0.0001 0.0001004115 0.0001 
0.0001 0.0001000043 0.0001 0.0001 0.0001 0.0001 0.0001 0.0001 0.0001 0.0001025 0.0001081018 0.000121751 0.0001 0.0001375 0.0001484375 0.0001 0.00015 0.0001666667 0.000225 0.0001 0.00025 0.000475 0.0001 0.0001 0.0002 0.0008 0.0026 0.008833333 0.0082 0.0215 0.0508 0.1082 0.2116 0.369 0.8307 1.952217 2.3241 4.068 5.6917 5.9812 6.8028 7.3128 7.5794 7.624434 7.6458 7.5787 7.3666 6.8565 6.624 6.3954 6.1752 6.398267 5.9677 5.7778 5.6311 8.0635 8.1369 8.2788 8.4972 7.594833 8.8039 9.2188 9.7773 10.5435 11.5677 9.3325 9.642 7.388067 7.9487 5.8416 6.5399 7.0872 7.3413 7.6308 8.163 8.66855 8.5872 8.4696 7.4857 5.6534 6.8526 32.5332 4.6596 9.59 4.7073 4.7555 4.7979 4.5754 4.6092 4.6437 4.6663 4.697717 4.6803 4.643 4.5533 4.4613 4.3779 4.3581 4.7718 4.0508 4.3714 3.2995 1.9885 2.3799 2.6097 2.379 1.7189 1.65255 0.9719 0.503 1.1825 1.8252 2.4728 3.0347 3.3729 3.428883 3.5685 3.7316 3.6627 4.2175 4.887 7.8683 13.17297 21.5578 0.1192 0.3555 0.6489 0.931 1.1574 1.3222 1.4385 2.059033 1.5236 6.0132 1.047 1.1254 1.2673 1.3597 1.3392 1.257367 1.188 0.9071 0.5975 0.3342 0.1386 0.0483 0.014 0.01138333 0.0034 0.0007 0.0001 0.006966667 0.011675 0.01553333 0.00435 0.00255 0.001525 0.0008 0.0004 0.0002333333 0.00015 0.0001 0.0004208333 0.0003055556 0.0001555556 0.0001222222 0.0001 0.0001 0.0001171875 0.0001125 0.0001 0.0001012346 0.0001 0.0001003472 
0.0001000055 0.0001 0.0001 0.0001 0.0001 0.0001 0.0001 0.0001 0.0001003906 0.0001 0.0001125 0.000125 0.000175 0.0002888889 0.0004347222 0.0006188889 0.0008666667 0.001224206 0.0001 0.000175 0.005185 0.0001 0.0001333333 0.0002 0.0005 0.0016 0.001883333 0.0046 0.0118 0.0275 0.0579 0.1124 0.2121 0.4701 0.6172667 1.1122 2.7302 5.5028 7.0856 7.66 8.8979 9.9392 8.777133 10.572 9.1092 9.0373 8.8479 8.9358 8.4413 8.2081 8.167133 8.0658 7.9745 7.9412 8.34325 8.5938 8.4782 8.3724 8.150933 8.2613 8.1228 7.9252 7.6207 7.1362 6.4174 8.0885 6.920467 6.3419 6.5057 7.4204 6.8221 6.7513 7.2817 7.9516 8.309167 8.7904 9.2886 9.566 9.8934 3.1332 41.5962 4.5266 9.146167 4.395 4.4428 4.4976 4.5424 4.3997 4.4078 4.4991 4.471967 4.5569 4.5499 4.5005 4.4394 4.3517 4.2019 3.9448 4.207016 3.7884 3.8879 4.2638 3.2255 3.0734 3.4121 3.7651 2.61645 4.075 1.2453 0.4995 1.3244 2.0641 2.7088 3.1495 3.1957 3.3458 3.5101 3.5081 3.3162 3.6847 4.3886 6.6803 11.4051 14.6636 10.2088 0.2375 0.5454 0.8532 1.1129 1.3143 2.10075 1.4673 5.0489 2.2132 1.7603 1.5488 1.4845 1.4509 1.448533 1.3557 1.1576 0.8695 0.5621 0.3069 0.1373 0.0503 0.0508 0.015 0.0036 0.0007 0.0001 0.01495 0.008 0.0054 0.017925 0.0033 0.0018 0.0009 0.0004 0.0002 0.0001 0.0008333334 0.00055 0.0002 0.0001666667 0.0001 0.0001 0.00014375 0.000125 0.0001 0.0001037037 0.0001 0.0001010417 0.0001 
0.0001000114 0.0001000119 0.0001 0.0001 0.0001 0.0001 0.0001 0.0001 0.0001 0.0001015625 0.0001 0.000125 0.00015 0.00025 0.0004666667 0.0009222222 0.001455556 0.002405555 0.004066667 0.007483333 0.0145625 0.025 0.02273333 0.0239 0.0001 0.0004 0.06028333 0.0013 0.004 0.011 0.0272 0.061 0.1285 0.2741 0.5132167 0.6475 1.9054 4.4485 6.5341 6.8793 7.8408 8.5106 9.431983 8.7488 10.3602 10.4329 10.3629 10.2296 10.2595 10.1311 9.29815 10.0272 9.975 9.9435 8.7489 8.4549 8.1662 7.8847 7.388683 7.6112 7.3523 7.125 6.9695 6.9444 4.9524 4.2311 4.9975 3.8868 3.6123 4.2321 5.1192 6.1811 7.1273 7.9311 8.752234 9.3881 10.0322 10.2507 49.1894 32.1797 11.0442 4.4033 4.5805 4.3593 4.3848 4.4487 4.4359 4.6694 4.2804 4.2224 4.10625 4.2434 4.2851 4.33 4.4038 4.5038 4.5674 4.2413 4.132566 4.1377 5.4878 5.3316 5.7379 5.1099 3.8034 2.8608 3.001633 0.8999 1.3758 0.4907 1.3964 2.1679 2.7493 3.0464 3.10525 3.2249 3.296 3.1163 3.0325 3.2786 3.9892 5.8214 11.64452 11.8392 47.7406 7.3239 4.1193 2.7692 2.1884 1.9569 2.771733 5.1053 2.2443 2.4096 2.2235 2.0133 1.8469 1.692 1.639417 1.4937 1.2258 0.9099 0.604 0.3617 0.2021 0.112 0.12365 0.0652 0.0406 0.0263 0.017 0.0106 0.0539 0.0376 0.05583333 0.0254 0.0164 0.01 0.0058 0.0032 0.0016 0.0008 0.0024 0.0003 0.0001 0.0001 0.000225 0.00015 0.0001 0.0001111111 0.0001 0.0001041667 0.0001 0.0001 
0.0001 0.0001000229 0.0001000365 0.0001 0.0001 0.0001 0.0001 0.0001 0.0001 0.0001 0.00010625 0.0001 0.00015 0.0002 0.0004 0.0008 0.001566667 0.002 0.00365 0.00655 0.01225 0.0289125 0.025 0.043 0.0746 0.13 0.2310667 0.2238 0.3701 0.5718 0.8116 1.0398 0.4088 0.1668 0.98285 0.4086 1.0596 2.8125 5.4264 7.033 7.6982 8.9325 9.176683 9.8888 10.6079 10.7901 10.7563 10.5818 10.3132 9.9219 9.673883 9.4348 8.8664 8.238 7.9642 7.4654 6.9433 6.394 6.31675 5.8085 5.176 4.4846 3.7131 2.8651 3.8882 3.7532 3.972683 3.6835 3.7192 3.0804 4.4715 6.2516 7.192 7.9488 9.452133 10.5034 11.5672 52.1238 30.4467 10.8023 5.2484 4.9669 4.71935 4.8319 4.8095 4.8493 4.53445 4.1533 3.9069 3.5928 3.461083 3.5229 3.6236 3.6573 3.796 4.087 4.6847 4.0681 4.030817 4.6151 4.117 5.6024 6.4353 5.6752 4.2285 4.8842 2.134 1.5248 1.3486 0.5876 1.4485 2.1574 2.6157 2.86 2.92375 3.0049 2.944 2.7939 2.8608 3.0828 3.6635 5.1495 19.16022 25.7131 5.5629 5.6751 4.6987 3.8012 3.1622 2.7475 3.626433 4.0391 3.4638 3.1945 2.9097 2.6184 2.3435 2.0708 1.9639 1.7734 1.4437 1.1061 0.8024 0.5636 0.3958 0.2856 0.2924333 0.2138 0.1646 0.1282 0.0991 0.15805 0.194 0.1508 0.1533333 0.1125 0.0798 0.0536 0.0339 0.0201 0.0111 0.0057 0.005833333 0.0028 0.0012 0.0005 0.0002 0.0001 0.0001333333 0.0001 0.0001166667 0.0001 0.0001 0.0001074074 
0.0001 0.0001 0.0001000686 0.0001001141 0.0001 0.0001 0.0001 0.0001 0.0001 0.0001 0.0001 0.000125 0.0001 0.0002 0.0003 0.0007 0.0014 0.0026 0.006 0.0047 0.0084 0.02365 0.0586 0.1078 0.2021 1.0737 0.3739 0.657 1.0658 1.6169 2.1181 2.3586 1.1174 1.8651 5.155917 2.535 3.6189 5.1453 6.8876 7.9637 8.1697 9.5455 9.314384 9.4339 10.0051 10.2642 10.3129 10.1585 9.8656 9.4795 9.21515 9.0488 8.6246 8.2516 6.8719 6.3327 5.8492 7.484467 5.3676 4.8345 4.3023 3.8709 3.6711 3.7477 2.7946 2.915267 3.7403 4.5412 5.5476 7.0962 7.2067 7.4263 6.8621 7.435 15.04215 13.5064 52.1564 24.9138 7.1798 5.5366 5.3096 5.0268 4.341367 4.7279 4.4602 4.2856 2.1869 2.2018 2.3594 2.34535 2.5957 2.5893 2.6625 2.6399 2.6329 2.7095 4.2577 4.232517 5.1902 1.9325 2.0014 2.0852 2.1754 2.3104 2.5982 2.74845 0.9959 1.6384 1.0935 0.9372 1.5478 2.0964 2.4349 2.6695 2.716367 2.7368 2.6474 2.6071 2.7002 2.9356 3.4033 10.55105 10.2631 56.175 12.1206 8.0415 6.3833 5.2164 4.3645 4.025017 3.8091 4.1007 3.9767 3.7775 3.5162 3.2136 2.8916 2.73205 2.5544 2.1991 1.8335 1.4809 1.17 0.9186 0.7286 0.6961 0.5899 0.4881 0.4102 0.3467 0.2914 0.4505 0.3948 0.4071833 0.3306 0.2631 0.1977 0.1395 0.092 0.0565 0.0322 0.03115 0.017 0.0084 0.0038 0.0016 0.0006 0.0002 0.0001 0.0001666667 0.0001 0.0001 0.0001222222 0.0001 
0.0001 0.0001 0.0001 0.0001002058 0.0001003646 0.0001 0.0001 0.0001 0.0001 0.0001 0.0001 0.0001 0.0002 0.0004 0.0009 0.0017 0.0033 0.005916667 0.006 0.0107 0.0187 0.2862 0.6241 1.2155 2.1362 3.2883 3.5254 5.4285 7.5575 9.5974 11.6282 10.4544 13.586 11.11367 13.5015 12.4585 11.1319 10.2163 9.2344 8.469 8.2899 10.03822 8.0294 10.0562 10.2628 9.8707 9.6629 9.572 9.3147 11.05872 8.9358 8.4701 7.9418 7.9408 7.8033 8.1828 9.3506 11.08465 11.0021 10.4701 6.5498 3.5145 2.9513 1.0668 1.8293 2.643033 1.486 2.0777 2.4924 3.5932 5.0055 5.704 6.1547 7.555883 5.3917 45.4676 14.8445 3.829 3.664 3.7458 3.6543 3.455 3.4201 3.0746 2.6645 2.3323 0.8181 0.7609 0.6962 1.30415 0.9211 1.1069 1.1896 1.371 1.3479 0.9025 6 2.9984 1.1944 1.276 1.3094 1.3421 1.3441 1.2307 2.3061 1.821017 1.4778 1.2584 1.1003 1.3178 1.6993 2.0567 2.3275 2.4383 2.5136 2.5134 2.4602 2.5116 2.5985 2.829 4.8543 11.60668 35.9726 9.1776 9.3502 7.6632 6.77 5.9573 5.3369 4.894917 4.7299 4.5989 4.4676 4.292 4.0576 3.77 3.4435 3.25945 3.0885 2.7146 2.3368 1.9768 1.6559 1.3871 1.1722 1.110933 1.0045 1.658 0.5177 0.5186 0.4934 0.8502 0.7421 0.7176167 0.6308 0.5156 0.4009 0.2941 0.2023 0.1299 0.0777 0.07186667 0.0432 0.0223 0.0107 0.0048 0.002 0.0008 0.0003 0.00034 0.0001 0.0001666667 0.0001 0.0001222222 
0.0001 0.0001 0.0001 0.0001 0.0001006173 0.0001012059 0.0001 0.0001 0.0001 0.0001 0.0001 0.0001 0.0001 0.0003 0.0008 0.0022 0.0059 0.02233333 0.0163 0.0449 0.1181 1.0398 2.0006 3.5006 5.5256 5.868267 7.9666 10.4682 12.9077 15.0676 11.8992 16.0881 17.7383 19.197 18.8737 19.8512 19.5879 17.5818 16.1838 15.3563 14.4752 12.2676 11.7196 13.0704 14.6971 15.8652 15.9308 15.465 14.879 14.653 13.8777 12.3438 10.0803 18.9485 19.4562 19.4221 18.6129 13.54417 16.3255 13.8372 11.6686 7.3059 1.3526 2.4416 2.7631 3.06835 3.2449 3.5988 4.206 4.1257 3.9832 4.7695 7.7612 5.679917 11.7306 4.09 1.7759 1.8612 1.9263 1.8815 1.7495 1.991067 1.5697 1.3555 1.1028 0.72465 0.6169 0.6506 0.6 1.10105 0.6525 0.7296 0.7204 0.6635 0.7649 0.6119 0.8905 1.710667 0.4576 0.4837 0.5357 0.6446 0.9144 1.6863 2.079 1.7658 1.4691 0.8151 1.2724 1.5475 1.82 2.0583 2.2858 2.355217 2.3985 2.384 2.3542 2.4539 2.5587 2.7546 8.4405 13.8979 6.7063 8.1219 8.0123 7.1192 6.6462 6.3074 5.8059 5.456417 5.3232 5.0736 4.905 4.7358 4.5268 4.2668 3.9605 3.76845 3.6182 3.2529 2.8818 2.5246 2.1993 1.9171 1.6814 1.593517 1.489 1.5824 1.2885 1.0988 1.21165 1.3207 1.1791 1.113983 1.0283 0.8668 0.6992 0.535 0.3857 0.2605 0.1644 0.1438833 0.0967 0.0529 0.027 0.0128 0.0057 0.0023 0.0009 0.0007666667 0.0003 0.0001 0.0001666667 0.0001 
0.0001 0.0001 0.0001 0.0001 0.0001 0.0001018519 0.0001041778 0.0001 0.0001 0.0001 0.0001 0.0001 0.0003 0.0009 0.0026 0.0083 0.026 0.0413 0.0765 0.2045 0.4959 1.0861 2.1223 3.8097 6.3063 8.483684 9.7495 14.1045 19.0549 18.0439 24.6482 26.2961 26.2571 23.1815 25.2254 23.2074 20.8496 20.031 19.761 18.2156 15.4982 14.73998 15.5933 16.2844 17.6714 19.6606 21.079 21.4112 20.9827 14.08037 19.9281 18.5912 18.6743 9.5001 10.7503 11.966 12.8094 14.45493 13.1645 12.6855 10.8994 8.6802 7.6365 3.7139 4.1811 4.020534 4.9057 5.7122 6.373 6.6412 6.0369 4.2366 2.1172 4.071383 0.9241 0.917 0.9511 0.9959 0.9972 0.9234 0.8211 1.045583 0.7317 0.6711 0.6126 0.497 0.5464 0.9969 1.7849 1.578283 1.9516 2.3935 2.8459 1.6521 0.5309 0.647 0.6988 1.032933 1.0227 1.1217 1.0979 1.1578 1.387 1.7935 1.8966 1.805467 1.3662 0.6482 1.302 1.6477 1.8809 2.092 2.2707 2.309517 2.3352 2.2845 2.3097 2.42 2.5348 2.7053 9.505767 23.0735 4.3402 6.7104 6.8305 6.5314 6.4908 6.2343 5.9348 5.695567 5.6078 5.3778 5.2147 5.066 4.8915 4.6719 4.4043 4.2193 4.0957 3.7588 3.4101 3.0677 2.7475 2.4606 2.2121 2.10395 2.0019 1.9106 1.76 1.6053 1.9302 1.7893 1.7093 1.6371 1.4665 1.2744 1.0643 0.8468 0.637 0.4506 0.3028667 0.2978 0.1835 0.1051 0.056 0.0277 0.0127 0.0055 0.0022 0.001316667 0.0008 0.0003 0.0001 0.0001 
0.0001 0.0001 0.0001 0.0001 0.0001 0.0001 0.0001055556 0.0001153333 0.0001 0.0001 0.0001 0.0001 0.0003 0.0009 0.0027 0.0091 0.0302 0.05978333 0.0929 0.2521 0.7403 1.5835 3.0892 5.4356 6.677134 8.6257 12.7284 17.5325 18.4238 28.2311 30.002 29.2095 24.65102 27.0003 23.9942 20.6349 18.8063 18.4658 18.9413 18.5448 16.43897 16.4562 14.6974 13.7662 13.0083 11.5268 10.4675 8.8836 7.6964 11.14432 7.1183 7.5447 7.955 9.512 10.9196 11.9588 11.61833 12.6556 13.1617 13.8514 13.4055 10.0826 10.136 8.1813 6.3108 4.3844 4.644 4.8164 4.7436 4.318 3.4951 13.549 3.72005 1.2053 0.6899 0.7033 0.7005 0.7143 0.7584 0.7605 0.8565167 0.7266 0.6749 0.648 0.6811 1.6367 2.185 2.3423 2.11455 2.3111 2.1696 1.8435 0.5421 0.7627 1.0658 0.934 1.291517 1.7129 1.4151 1.5644 1.5889 1.4114 1.3057 1.0488 1.5078 1.8117 2.2102 1.2406 1.5136 1.7596 1.96 2.1365 2.208567 2.2663 2.3006 2.2278 2.2936 2.40255 2.5277 13.9577 9.08345 6.103 5.1408 6.3611 6.3062 6.1402 6.0594 5.9758 5.870217 5.842 5.6597 5.5014 5.3781 5.266 5.1354 4.9655 4.820933 4.7488 4.4883 4.1943 3.8814 3.5656 3.2615 2.9806 2.840467 2.7293 2.51 2.3516 2.2071 2.0677 2.379 2.2411 2.159483 2.0885 1.911 1.7022 1.4626 2.4191 0.5181 0.3826 0.4723667 0.2613 0.1679 0.1015 0.0573 0.03 0.0145 0.0065 0.0053 0.0027 0.001 0.0004 0.0001 0.000125 
0.0001 0.0001 0.0001 0.0001 0.0001 0.0001 0.0001 0.0001166667 0.00016 0.0001 0.0001 0.0001 0.0003 0.0009 0.003 0.0104 0.03183333 0.0336 0.0995 0.2667 1.0625 2.1016 3.8746 6.6049 9.33685 9.2806 11.4556 11.0483 16.3004 16.9144 18.31 19.1715 22.9692 19.9716 20.565 20.5316 18.5838 15.1372 14.6396 16.1724 14.32567 13.7466 12.2286 10.3289 9.0692 6.6542 5.1269 5.4668 6.152 5.6635 5.4769 6.0063 5.7413 8.0018 9.1161 10.089 10.61272 10.2312 8.8952 19.4337 9.5635 8.9882 8.7784 9.0175 6.48135 8.3866 5.0286 4.0054 2.7374 1.6001 1.3717 0.679 2.757233 0.5332 0.6657 0.7041 0.6803 0.6603 0.8089 0.9288 0.9353667 0.9787 0.9007 0.6128 1.67215 2.5652 2.7773 2.7898 2.408783 2.4623 1.9191 1.0712 1.4833 1.3817 1.3545 1.1466 1.724383 2.6098 1.7194 1.923 1.9081 1.8252 1.6478 1.3926 1.58745 1.1036 2.0993 1.6685 1.7661 1.9137 2.0556 2.1838 2.264 2.3021 2.2624 2.2192 2.2962 2.5747 5.3441 3.3334 6.096066 5.3278 5.2226 9.6933 4.2245 5.2184 5.5124 5.614 5.6225 5.6204 5.5605 5.4846 5.4156 5.3486 5.2653 5.148 5.035433 4.9871 4.7822 4.5401 4.2727 3.9936 3.7163 3.4519 3.310683 3.2083 2.9898 2.8085 2.6532 2.72735 2.8093 2.6751 2.594383 2.5258 2.3479 2.1312 1.8718 1.9536 1.3544 0.8878 0.6164 0.5541 0.33 0.1872 0.1005 0.0507 0.024 0.0106 0.007733333 0.0043 0.0017 0.0006 0.0002 0.0001 
0.0001 0.0001 0.0001 0.0001 0.0001 0.0001 0.0001 0.0001 0.00015 0.00035 0.0001 0.0002 0.0008 0.0026 0.0086 0.0276 0.1449833 0.0801 0.2099 1.06355 3.3525 6.2979 9.4923 12.2176 12.41758 13.8567 13.8059 17.1878 17.2688 16.9049 18.332 20.2074 24.1933 22.2549 25.312 26.7047 24.6289 19.6187 13.0926 9.1409 14.4259 11.8931 10.3984 6.4092 2.8062 3.0783 4.0712 4.4516 4.28065 4.7501 4.6444 4.1064 4.9793 4.6195 6.0742 8.3049 9.553984 10.4368 10.6094 10.0552 8.9244 7.5623 6.184 4.9575 5.502934 3.9608 3.028 0.8657 15.0559 0.2123 0.1981 0.2063 0.4433833 0.3706 0.6367 0.7692 0.7587 0.4653 0.6682 0.9321 1.297617 1.2855 1.853 2.1689 2.532 2.6394 2.7171 2.5214 3.15945 2.0258 1.3454 1.7543 1.8946 1.8222 1.8261 1.8435 1.606417 2.0995 1.9189 2.2159 2.2222 2.1503 2.1053 2.1121 2.193717 2.0559 2.1916 1.4562 1.26 1.8104 2.102 2.3036 2.528733 2.3917 2.263 2.2633 2.3765 3.342 11.0869 2.4485 5.687167 5.406 9.485 6.3053 4.8103 4.9838 5.1755 5.306 5.369 5.3768 5.394 5.3839 5.3658 5.3422 5.3031 5.235 5.1563 5.1282 4.9796 4.7927 4.576 4.3407 4.0985 3.8601 3.725333 3.6339 3.4256 3.2424 3.083 3.3452 3.2179 3.0896 3.9979 2.9462 7.7478 0.7341 1.1048 1.3125 1.1995 0.9441 0.77265 0.6685 0.434 0.2604 0.1447 0.0745 0.0356 0.0158 0.0105 0.0065 0.0025 0.0009 0.0003 0.0001 
0.0001 0.0001 0.0001 0.0001 0.0001 0.0001 0.0001 0.0001 0.0002 0.0002 0.001 0.0039 0.0139 0.0443 0.1257 0.2557 0.3414333 0.4625 1.0169 3.7886 6.2298 9.0739 12.1022 11.7638 15.4709 17.0748 21.0578 22.9137 24.3248 23.947 27.1105 30.6413 29.29103 32.9131 32.7299 33.137 34.4464 32.514 27.5303 20.2774 18.22967 15.325 10.0949 5.3609 2.5728 2.1361 1.8663 2.3955 4.615383 2.9564 3.7181 7.2796 10.2654 10.8409 10.9498 8.77795 10.2297 8.0323 9.8603 9.9331 8.7417 6.983 5.2661 4.72845 3.8438 2.8514 2.1976 24.9384 1.0952 0.4102 0.4279 0.4313 0.7763 0.4399 0.4725 0.801 1.3026 2.0656 2.0048 1.8901 1.632267 1.7705 1.7915 2.4307 1.5173 1.4337 1.3999 2.561867 7.668 1.4894 2.5266 2.0796 1.9383 1.9941 1.4782 1.234483 1.1274 0.8117 4.5836 2.8893 2.4316 2.1854 1.6651 3.984 2.78315 2.5141 2.2623 1.4192 0.7269 1.3253 1.9737 2.723 2.4651 3.2682 3.3992 3.2097 3.4394 11.3728 2.3623 6.141833 3.5886 14.0187 5.4636 7.6142 6.0097 5.1843 5.0716 5.336467 5.117 5.1798 5.2243 5.2512 5.2687 5.279 5.2759 5.248034 5.2494 5.1901 5.0934 4.9598 4.7946 4.6064 4.4047 4.1993 4.077017 3.9985 3.8087 3.636 3.4824 3.7171 3.5999 4.623116 3.4814 9.2693 2.7153 1.9577 1.5514 1.3449 1.1455 1.07835 0.9121 0.6693 0.4513 0.2798 0.1595 0.0838 0.0406 0.02801667 0.0182 0.0076 0.0029 0.001 0.0003 0.0001 
0.0001 0.0001 0.0001 0.0001 0.0001 0.0001 0.0001 0.0001 0.0001 0.0004 0.0018 0.0065 0.0217 0.0594 0.1449 0.2344333 0.3734 0.8493 1.7807 3.5837 5.7856 8.0844 10.4933 10.52897 10.8065 15.3896 19.9527 22.6681 24.3306 31.5041 35.2411 28.44142 36.1253 33.6042 31.6685 32.2798 33.5641 32.2146 31.2381 28.33302 28.9586 23.783 19.3237 16.9628 14.8888 9.7793 5.9271 10.78903 6.1825 6.9562 8.7026 21.2763 17.7974 14.0066 11.2395 11.75373 5.8696 7.6926 7.6427 8.8458 8.4423 6.3728 4.6714 4.0789 3.4479 2.8341 23.8465 1.9229 1.8655 2.1275 2.15 1.535183 1.5489 1.6608 1.7828 1.9372 2.1037 2.1979 2.1821 2.015367 2.0606 1.8548 1.7325 1.6219 0.8519 0.7336 0.6128 2.100383 0.452 2.9606 3.856 9.4601 1.6994 1.1428 0.698 0.976 0.4337 1.7261 7.2153 3.6076 2.7814 2.6883 2.7166 2.685383 3.299 2.7338 3.1324 1.4388 0.3391 0.6792 1.1417 1.543967 1.7275 2.3766 2.9121 3.4674 13.6004 1.7999 2.1426 5.76085 15.2221 2.3782 5.3662 8.8088 9.1338 7.6966 6.0874 6.571116 5.2613 5.0973 5.0961 5.1251 5.1579 5.1883 5.2101 5.2051 5.2147 5.1936 5.141 5.0553 4.9388 4.7973 4.6383 4.532883 4.47 4.3003 4.1358 3.9823 3.8429 4.0532 3.9518 5.85635 10.3981 3.462 3.1666 2.612 2.0892 1.6601 1.296 1.178333 0.9729 0.6899 0.4565 0.28 0.1586 0.0829 0.04 0.02876667 0.0179 0.0074 0.0028 0.001 0.0003 0.0001 
0.0001 0.0001 0.0001 0.0001 0.0001 0.0001 0.0001 0.0001 0.0001 0.0002 0.0009 0.0033 0.011 0.0393 0.1282 0.1852167 0.3787 1.0206 1.23625 1.0512 2.0515 3.552 5.3219 6.0981 8.979 11.2182 12.955 16.9901 21.1943 21.5017 20.9533 20.92678 20.577 21.7037 24.3436 26.8427 27.3887 28.2761 30.062 27.83673 31.9317 31.2363 29.9183 29.2556 28.7621 28.2108 25.9941 20.82285 22.3687 24.2325 20.2005 30.4249 27.0832 21.7648 14.555 16.79483 17.6788 16.9898 15.1494 12.2252 7.675 5.404 4.0616 8.2789 3.1826 33.2752 2.031 2.2265 2.5151 2.5248 2.1503 1.839833 2.5027 2.1656 2.2304 2.2972 2.3564 2.305 2.117 2.704983 1.8376 1.4729 1.2135 0.6255 0.1374 0.0575 0.0146 1.209367 2.455 4.2236 4.7718 14.5648 1.6349 1.1992 0.913 1.472933 1.2057 5.9792 6.4521 3.2222 2.982 2.7001 2.0407 2.352817 2.4069 2.784 4.3838 2.8564 0.7596 0.4327 0.6805 0.8728333 1.0174 1.5321 2.1371 2.9027 21.8648 0.1442 9.2659 5.144333 1.9836 2.3226 4.1755 7.4265 9.7921 10.6849 9.8453 8.67945 8.0441 6.373 5.3754 5.0939 5.0693 5.0951 5.128 5.142817 5.1525 5.159 5.1412 5.0955 5.0222 4.9243 4.8073 4.724367 4.6777 4.5424 4.4078 4.2795 4.29935 4.3528 8.758 6.388767 4.9489 4.4736 3.9296 3.3214 2.6993 2.1162 1.5956 1.397033 1.1479 0.7804 0.4971 0.2947 0.1621 0.0825 0.0389 0.02848333 0.017 0.0069 0.0026 0.0009 0.0003 0.0001 
0.0001 0.0001 0.0001 0.0001 0.0001 0.0001 0.0001 0.0001 0.00015 0.000325 0.0001 0.0003 0.0012 0.005 0.0192 0.0991 0.0669 0.1738 0.0082 0.0187 0.0405 0.1162 0.3211 2.552283 0.6668 1.0775 1.3211 1.2272 2.145 3.4677 5.1705 9.371516 7.4935 10.379 13.1816 14.8069 16.2721 18.5973 21.1868 21.27597 23.6432 25.874 28.091 29.1852 29.5096 30.4211 32.1659 28.9121 32.2988 27.5882 32.1381 38.1343 34.4352 28.8127 28.982 20.38617 22.4441 16.1699 11.67 7.3385 5.8193 4.2535 2.9831 11.33145 31.3268 1.5363 1.5388 1.5001 1.4246 1.3932 1.3593 1.641783 1.3278 1.3744 1.2261 1.0272 0.8103 0.5264 0.1987 5.99005 7.8339 0.489 0.351 0.3717 0.2332 0.0178 0.0032 2.24375 3.7186 4.9401 5.4978 19.8597 2.3232 2.3008 2.4696 2.305 3.1176 4.7688 5.6758 3.1243 3.0654 2.8473 2.2498 1.910933 1.4039 2.4269 3.3323 6.6061 1.5862 0.0701 0.2215 0.4196333 0.4484 0.7676 1.3514 6.5533 3.3791 14.828 4.7621 1.0278 1.224 1.7393 3.1385 5.5689 8.3672 10.4778 11.4559 10.59952 11.3827 10.2193 8.4509 6.7763 5.6065 5.1327 5.0681 5.243983 5.0835 5.1044 5.1111 5.0968 5.0595 5.0002 4.9223 4.861933 4.8306 4.7309 4.6289 4.5299 4.6751 7.7118 5.768 5.0832 5.1926 4.9717 4.5447 3.9673 3.3035 2.6196 1.9709 1.68315 1.3989 0.9309 0.5775 0.3327 0.1775 0.0876 0.0401 0.02898333 0.017 0.0067 0.0025 0.0008 0.0003 0.0001 
0.0001 0.0001 0.0001 0.0001 0.0001 0.0001 0.0001 0.000125 0.00016875 0.0001 0.0002 0.0005333333 0.00165 0.0001 0.0004 0.021925 0.0012 0.0033 0.04082 0.01354 0.02518571 0.0001 0.07553333 0.0143 0.0106 0.0239 0.0519 0.1083 0.2166 0.4132 1.656667 0.7489 1.2859 2.0803 3.1603 4.5161 6.0998 7.8108 10.49237 9.5641 11.268 13.0774 15.1468 17.603 20.5202 23.8765 27.7421 28.64072 32.903 39.6026 39.4744 35.6182 30.0591 26.5526 20.35998 21.2086 17.4485 12.4933 7.9393 4.7793 2.9311 2.2348 11.04663 25.0701 1.3645 1.6137 1.8496 1.9612 1.784 1.7359 1.985783 1.4813 1.0293 0.6742 0.7264 0.7322 0.6523 0.4725 3.6214 5.9274 18.0257 0.6227 0.5009 1.447 1.3384 5.7328 3.72755 3.6083 3.6628 4.7303 15.0952 11.4442 2.8692 2.8779 2.556417 2.9625 3.1616 5.2735 4.2888 3.0632 3.2468 2.862 2.608217 2.1361 1.2282 1.7789 2.4539 7.9436 4.485 1.3867 0.68825 0.0314 0.1186 0.2929 0.7089 6.0206 11.51 1.7206 3.613833 1.5861 1.5405 1.8346 2.751 4.391 6.6804 9.0301 9.807016 10.9005 11.9686 12.2121 11.779 10.5649 8.8198 7.1192 7.10315 5.8362 5.1956 5.0755 5.0707 5.0746 5.0651 5.0382 5.00735 4.995 4.9387 4.8739 4.8054 4.738 9.7085 4.0492 5.1423 4.653 5.0044 5.0701 4.8553 4.4018 3.776 3.0578 2.6572 2.3279 1.6577 1.0985 0.6742 0.3824 0.2001 0.0966 0.06966667 0.0431 0.0178 0.0068 0.0024 0.0008 0.0003 0.0001 
0.0001 0.0001 0.0001 0.0001 0.0001 0.0001 0.0001125 0.0001234375 0.0001 0.00015 0.0002777778 0.0006208333 0.0001 0.00025 0.00025 0.0008 0.00225 0.00225 0.0017 0.0001 0.0002 0.0005 0.002716667 0.001 0.0017 0.0028 0.0053 0.011 0.023 0.0468 0.2185833 0.0929 0.1787 0.3304 0.5836 0.9837 1.5798 2.4071 3.994283 3.3881 4.5083 5.8355 7.4708 9.5761 12.3004 15.8245 18.11205 20.4263 26.3082 32.8624 27.9095 22.7367 18.0176 10.8297 11.16305 5.7743 3.818 3.2592 1.7873 0.9647 0.9474 31.0995 9.896116 0.6388 0.9225 1.3368 2.0061 2.9378 2.5612 2.9428 2.973283 3.0022 2.4422 1.1396 0.2726 0.4252 0.5924 0.6854 7.352 13.918 20.3157 5.9534 2.46325 2.8668 3.695 7.441 5.771917 5.5622 6.5971 7.9953 9.759 6.2984 2.7514 2.5241 2.63765 2.2036 4.8707 6.8332 3.3752 2.8537 3.3038 3.0379 2.868567 2.5162 2.0613 2.3567 1.031 6.0829 6.211 1.4195 1.4189 1.0003 0.8829 0.827 9.0649 19.1758 1.298 1.2832 1.034433 1.2373 1.3225 1.6643 2.4224 3.6638 5.4505 7.5076 8.424367 9.4702 11.0734 12.1545 12.6088 12.4411 11.819 10.5934 9.4484 8.8693 7.1804 5.8809 5.2074 5.0722 5.0566 5.0513 5.04285 5.0371 5.0126 4.9808 4.9454 7.6834 4.6981 4.5998 4.6978 4.7568 4.9929 5.1119 5.0087 4.6561 4.0859 3.3693 2.94315 2.5977 1.8626 1.2368 0.7553 0.4251 0.2199 0.1047 0.07403333 0.0459 0.0186 0.007 0.0025 0.0008 0.0002 0.0001 
0.0001 0.0001 0.0001 0.0001 0.0001 0.00010625 0.0001089844 0.0001 0.000125 0.0001759259 0.0002871528 0.0001 0.000175 0.0002 0.0004333333 0.0011 0.001766667 0.001575 0.0001 0.000125 0.0001 0.0001 0.0003666667 0.0003 0.0006 0.0011 0.0019 0.0028 0.0034 0.0038 0.02726667 0.0059 0.0117 0.0241 0.0479 0.0915 0.1676 0.2951 1.100433 0.5005 0.8295 1.3672 2.202 3.4698 5.3825 8.2704 10.34518 12.5325 18.3139 24.3979 16.6084 5.2501 3.2456 1.7217 3.6967 0.8914 0.4723 0.205 0.0389 0.0566 0.0885 0.1428 5.385933 0.1907 0.2391 0.2607 0.2022 4.7758 2.4356 3.6174 2.65085 5.0601 6.6327 8.1627 7.8287 6.0222 4.3452 5.2168 15.25333 17.8919 28.9015 5.9342 4.5994 5.1574 5.2478 6.3212 7.798167 5.966 6.419 6.6349 6.1037 4.0343 2.8288 2.6677 3.950333 2.5901 8.5577 4.7521 3.191 2.8923 3.5163 3.4643 3.397117 3.1949 2.9069 3.0878 3.0946 5.193 5.4153 4.5931 1.52285 0.0824 0.1357 0.1972 12.1541 9.9571 0.4807 0.1588 0.84215 0.2206 0.4129 0.8183 1.5262 2.6056 4.0889 5.8741 6.968667 7.7637 9.5383 10.9945 12.0353 12.6455 12.8083 12.4819 11.62613 11.7904 10.4848 8.6752 7.0056 5.7657 5.1778 5.0725 5.153117 5.063 5.0633 5.0612 5.0575 5.2747 5.1906 5.0587 5.05185 5.0693 5.1701 5.2318 5.1349 4.8138 4.2676 3.5511 3.1185 2.7551 1.9809 1.3152 0.7984 0.4461 0.2285 0.1074 0.07528333 0.0465 0.0186 0.0069 0.0024 0.0008 0.0002 0.0001 
0.0001 0.0001 0.0001 0.0001 0.000103125 0.0001038086 0.0001 0.0001125 0.000133642 0.0001720197 0.0001 0.0001375 0.0001583333 0.0002694445 0.0005777778 0.0011 0.001135417 0.0001 0.00010625 0.0001 0.0001 0.0001 0.0001 0.0002 0.0005 0.0009 0.0015 0.0026 0.0042 0.0061 0.004366667 0.0081 0.0096 0.0099 0.0087 0.0063 0.0041 0.0043 0.1347667 0.0075 0.0163 0.0458 0.1457 0.4132 0.9569 1.8199 4.58145 3.1975 5.2032 9.26895 3.2856 2.7153 2.1285 2.103133 1.6612 1.3019 0.9801 0.5999 0.0878 0.0784 0.0798 0.0909 0.5859833 0.1529 0.2548 0.414 0.6512 0.9458 0.4261 0.5361 2.151683 0.7465 0.9825 1.2475 1.3746 1.1455 49.8322 21.191 17.11467 32.6169 33.7868 5.1447 0.2581 0.1392 43.5653 14.26473 11.2463 10.2523 8.2212 7.1096 5.7624 4.9093 5.1349 8.223666 6.0591 7.6574 9.3308 6.2238 4.21 3.5879 3.7697 4.0831 4.009517 4.0863 3.7665 3.7988 3.9999 4.9325 5.2315 1.0934 1.47565 0.9484 0.8141 0.7151 7.6416 8.4088 1.3217 1.321317 1.1338 1.0192 1.0011 1.1525 1.5585 2.2935 3.3833 4.4508 4.7889 6.4075 8.0913 9.6643 10.9899 12.0053 12.6724 12.62743 13.0298 12.992 12.5131 11.6298 10.0948 8.2054 6.6003 5.5441 5.68175 5.1507 5.1114 5.1264 10.0996 5.4412 5.4513 5.418967 5.4163 5.4102 5.4358 5.4228 5.2762 4.9274 4.3622 4.065917 3.6269 2.8109 2.0163 1.3305 0.7986 0.4407 0.2228 0.1559167 0.1032 0.044 0.0173 0.0063 0.0021 0.0007 0.0002 0.0001 
0.0001 0.0001 0.0001 0.0001015625 0.0001017334 0.0001 0.00010625 0.0001153807 0.0001295404 0.0001 0.00011875 0.0001319444 0.0001884259 0.0003351852 0.0006490741 0.0007282986 0.0001 0.0001015625 0.0001 0.0001 0.0001 0.0001 0.0001 0.0002 0.0003 0.0005 0.0007 0.0009 0.0011 0.002133333 0.0012 0.0011 0.0008 0.0004 0.0002 0.004825 0.0049 0.0022 0.0001 0.0011 0.0068 0.0344 0.1332 0.3309 0.6062 1.05955 0.8275 0.8409 0.5684 2.1175 2.0776 1.9936 1.9391 1.81055 1.9227 1.8988 1.9194 1.9981 2.1105 1.2378 1.3085 1.756967 1.4058 1.5328 1.6944 1.8086 2.0359 2.2754 1.115 2.570033 1.2886 1.6614 2.2221 2.9625 3.825 8.3456 15.7275 22.3682 12.04 13.7314 1.5252 3.31295 7.6159 9.679 15.2296 14.95242 3.9782 3.4095 2.1289 1.813 1.4915 0.9044 24.9241 9.604234 7.7274 4.7901 3.7344 2.5393 2.9115 3.8806 4.3998 4.5145 4.5485 4.68 4.5738 4.1962 4.122 4.0816 4.1798 2.705383 1.1209 1.0157 0.9551 9.9137 4.3413 5.9218 2.487 2.04295 2.3459 2.2912 2.3063 2.3982 2.6468 3.1017 3.806 4.4268 4.7636 5.9473 7.2851 8.6639 9.968 11.1147 12.0302 12.34403 12.742 13.2078 13.3457 13.0675 12.3514 11.0861 9.1637 8.314783 7.2995 5.9607 5.3018 9.8442 5.44275 5.6298 5.6837 5.7104 5.7132 5.7265 5.7178 5.6412 5.4269 5.0255 4.4289 4.671267 4.1588 3.7504 2.5671 1.3036 0.6491 0.3616 0.1862 0.1367167 0.0874 0.0374 0.0147 0.0053 0.0018 0.0005 0.0002 0.00015 
0.0001 0.0001 0.0001007813 0.000100824 0.0001 0.000103125 0.0001072102 0.0001127928 0.0001 0.000109375 0.0001168981 0.0001463735 0.0002185185 0.0003908951 0.0004531395 0.0001 0.0001003906 0.0001 0.0001 0.0001 0.0001 0.0001 0.0001333333 0.0001 0.0001 0.0001 0.0001 0.0001 0.0001 0.000625 0.0001 0.0001 0.0001 0.0001 0.0002333333 0.0002 0.001844048 0.0002333333 0.0003 0.0025 0.0165 0.0673 0.1954 0.4592 0.8481 0.8771 1.2987 1.7843 2.0284 0.8818 0.9885 1.148 1.4109 1.694817 1.8009 1.9108 1.9363 1.8418 2.7066 3.9133 3.6542 3.069033 4.0026 4.3461 4.3614 4.7585 5.0774 5.3876 5.9261 4.839217 6.1283 6.2654 6.3024 6.3678 6.5416 12.96 20.5907 13.67363 14.8278 7.5265 5.0111 5.3055 10.7124 13.0793 10.3076 8.2095 5.3875 4.5339 4.2252 4.6204 5.3536 6.7488 10.089 9.320033 3.6909 3.6977 3.0726 2.7936 3.2509 4.5866 5.0624 5.141567 5.2235 5.3774 5.0126 4.2798 3.8031 2.9584 2.8643 3.752283 1.7424 10.1712 0.0684 1.5206 1.8567 2.3473 2.3332 2.583667 2.6361 2.567 2.843 3.1473 3.5237 3.9816 4.556 4.884417 5.263 6.1191 7.1101 8.1893 9.2897 10.3619 11.35 11.82603 12.2398 12.9508 13.4567 13.6629 13.4582 12.7877 11.597 10.3883 9.6841 7.6903 10.1069 5.7568 6.21 5.9737 5.9776 6.282633 6.0203 6.0518 6.0362 5.9253 6.279 6.4962 6.0147 5.5382 5.4361 4.0642 2.3194 1.121 0.5753 0.3013 0.1508 0.1101167 0.0699 0.0297 0.0115 0.0041 0.0014 0.0004 0.0001 0.0001333333 
0.0001 0.0001003906 0.0001004013 0.0001 0.0001015625 0.0001034451 0.000105782 0.0001 0.0001046875 0.0001087577 0.0001242155 0.0001605967 0.000251929 0.0002906383 0.0001 0.0001000977 0.0001 0.0001 0.0001 0.0001 0.0001 0.0001083333 0.0001 0.0001 0.0001 0.0001 0.0001 0.0001 0.0001 0.0001 0.0001 0.0001 0.0001 0.0001 0.0001 0.0001566667 0.0001 0.00045 0.0003 0.0023 0.0134 0.062 0.1913 0.4288 0.7281 1.132083 0.954 0.6774 1.5939 2.2587 1.9751 1.7074 1.552 2.189617 1.5433 2.1021 2.8574 2.7174 2.8643 3.0801 3.9084 4.819867 4.1347 4.3476 4.8398 4.9722 5.0671 5.2622 7.4592 7.334983 7.1181 6.7045 6.3441 6.2029 6.3954 12.019 12.1023 10.79885 6.7535 4.5218 5.2483 10.5879 13.0073 11.5291 8.3815 7.487333 5.9726 5.5735 5.4128 5.5606 5.754 6.0104 6.0864 5.15565 3.4024 3.229 3.0087 3.1484 4.1585 5.2396 5.6702 5.793 5.945 5.922 5.2379 4.2613 3.8321 2.855 2.4687 5.2758 10.1376 1.7577 1.6737 1.7134 1.7267 1.7715 1.9257 3.157583 3.7741 2.7109 2.9167 3.4684 4.0228 4.573 5.1502 5.367633 5.7677 6.4569 7.2283 8.0703 8.9681 9.8934 10.8406 11.3254 11.7536 12.5531 13.2083 13.677 13.8441 13.6064 12.8941 12.09942 11.6914 11.1918 9.005 7.1954 7.2525 6.5268 7.126167 6.599 7.702 8.1216 8.3237 8.4515 8.913 8.7713 7.5855 5.95995 5.6052 3.3538 1.6913 0.8632 0.4502 0.2321 0.1142 0.08311667 0.0522 0.0219 0.0084 0.003 0.001 0.0003 0.0001 0.0001 
0.0001001953 0.000100198 0.0001 0.0001007813 0.0001016692 0.0001026974 0.0001 0.0001023438 0.0001044817 0.0001125536 0.00013119 0.0001789137 0.000200791 0.0001 0.0001000244 0.0001 0.0001 0.0001 0.0001 0.0001 0.0001020833 0.0001 0.0001 0.0001 0.0001 0.0001 0.0001 0.0001 0.0001 0.0001 0.0001 0.0001 0.0001 0.0001 0.0001 0.0001375 0.00015 0.0001 0.0011 0.0074 0.0379 0.1406 0.4027 0.8894 1.3546 1.505233 1.609 2.2715 3.9238 4.0168 3.8246 3.5602 3.473267 3.4073 3.4233 3.5831 3.9107 5.4102 5.7623 6.1261 5.95875 6.4688 6.7505 6.9468 7.0232 6.9824 6.8487 6.7035 6.587117 6.3467 11.0315 6.1731 5.1143 4.8661 6.7199 14.6906 11.15245 5.9557 4.5631 5.6396 6.0542 12.6163 11.4929 9.5091 9.37645 7.9205 6.9543 6.4269 6.0699 5.7033 5.3503 4.9122 5.020933 4.3037 3.3615 3.19 3.1707 3.4937 4.8888 5.8101 5.952183 6.2855 6.5714 6.305 5.4284 4.3909 4.2871 3.5457 6.27245 12.1989 2.2429 2.7118 2.1571 1.9899 3.2484 3.5893 3.9187 3.79 4.4864 2.1844 2.8877 3.5704 4.2239 4.8388 5.032283 5.4367 6.0322 6.6549 7.3187 8.0158 8.7646 9.5796 9.999666 10.4516 11.3168 12.1103 12.8019 13.3543 13.7228 13.8124 13.76933 13.523 13.2069 12.2148 10.7491 8.7921 9.0203 8.56 9.1072 9.1199 10.38 11.3896 12.056 12.2484 11.7056 9.844 7.394117 6.9775 4.1407 2.1496 1.0998 0.573 0.2997 0.1553 0.1187833 0.0766 0.035 0.0147 0.0056 0.002 0.0006 0.0002 0.00016 0.0001 
0.0001001311 0.0001 0.0001003906 0.0001008168 0.000101287 0.0001 0.0001011719 0.0001022752 0.0001064597 0.0001160751 0.0001408858 0.0001527237 0.0001 0.0001000061 0.0001 0.0001 0.0001 0.0001 0.0001 0.0001005208 0.0001 0.0001 0.0001 0.0001 0.0001 0.0001 0.0001 0.0001 0.0001 0.0001 0.0001 0.0001 0.0001 0.0001 0.0001 0.000165 0.0002 0.0002 0.0019 0.0113 0.0513 0.1786 0.4782 0.9347 1.28895 1.6814 2.7043 3.4563 4.0951 4.5558 4.8429 5.1089 6.380434 5.5038 6.0779 6.7814 7.5123 7.6733 7.548 7.9414 7.9097 8.2277 8.3563 8.1067 7.5428 7.3333 7.0361 6.7755 7.649333 6.9756 10.9937 7.9272 7.005 7.8745 8.7577 15.9545 10.20018 6.1926 7.7098 8.8047 11.24045 12.6004 11.3585 10.0086 9.7819 8.9099 8.063 7.2643 6.6728 5.9516 5.3244 4.7004 4.595083 4.1125 3.6064 3.39 3.3961 3.8412 5.1727 6.1012 6.1802 6.6065 6.8593 6.6916 5.7556 5.351 5.7961 11.3715 7.3825 5.1949 2.2324 2.9596 2.3671 3.4347 5.0637 6.4603 5.91525 5.9754 4.9414 1.7494 2.6425 3.4408 4.1589 4.8014 5.14425 5.3936 5.9692 6.561 7.1767 7.8201 8.4803 9.2216 9.6285 10.0112 10.8141 11.5784 12.2773 12.872 13.3308 13.9039 14.1477 14.8762 13.5771 12.8851 11.905 11.1282 11.3632 11.4006 12.08508 12.4369 13.7137 14.3003 13.965 12.567 10.1088 7.0196 5.6477 4.1668 2.194 1.1172 0.5639 0.2961 0.1635 0.0891 0.07318334 0.0454 0.0211 0.0089 0.0034 0.0012 0.0004 0.0001 0.000125 0.0001 
0.0001 0.0001001953 0.0001004025 0.0001006236 0.0001 0.0001005859 0.000101149 0.0001033022 0.00010827 0.0001211402 0.0001274211 0.0001 0.0001000015 0.0001 0.0001 0.0001 0.0001 0.0001 0.0001001302 0.0001 0.0001 0.0001 0.0001 0.0001 0.0001 0.0001 0.0001 0.0001 0.0001 0.0001 0.0001 0.0001 0.0001 0.0001 0.0001 0.0001 0.000275 0.0003 0.0022 0.0128 0.0567 0.1949 0.4998 1.0877 1.510667 1.7859 2.6042 4.18805 6.4278 7.7526 8.8643 9.8505 6.766716 10.8519 11.9206 12.9592 12.5281 13.0263 12.1752 10.3021 8.6513 8.3921 8.6161 9.0005 9.4562 9.1459 9.3237 9.5466 7.8541 9.5481 9.4318 9.0683 8.7411 11.4532 12.996 8.5917 12.05503 9.816 11.1158 11.8757 14.5444 14.0458 12.987 11.7464 11.15843 10.5969 9.4985 8.3576 7.5206 6.5301 5.7367 5.0537 4.829417 4.488 4.0785 3.8533 3.778 3.9872 4.9001 5.9064 6.108233 6.3715 6.7085 7.3081 7.467 8.779 11.7224 4.9199 6.6706 7.0641 3.4825 3.469 3.47565 4.3308 6.6877 7.9607 7.801583 7.7158 6.7596 4.5727 3.0865 3.7826 4.3974 4.9479 5.387717 5.4471 5.9325 6.4576 7.0168 7.5899 8.1843 8.8848 9.357583 9.6222 10.3735 11.1081 11.8134 12.5238 13.4906 14.8962 14.39547 13.8745 14.0244 13.6376 12.9437 14.9055 15.1149 15.2916 15.06418 15.7015 15.6391 14.6507 12.608 9.6957 6.5484 3.8549 3.285467 2.0234 1.0055 0.4788 0.2434 0.1389 0.0832 0.0477 0.0409 0.025 0.0118 0.005 0.0019 0.0007 0.0002 0.0001 0.0001 0.00010625 
0.0001000977 0.0001001993 0.0001003053 0.0001 0.000100293 0.0001005783 0.0001016791 0.0001042404 0.0001109041 0.0001142078 0.0001 0.0001000004 0.0001 0.0001 0.0001 0.0001 0.0001 0.0001000326 0.0001 0.0001 0.0001 0.0001 0.0001 0.0001 0.0001 0.0001 0.0001 0.0001 0.0001 0.0001 0.0001 0.0001 0.0001 0.0001 0.0001 0.0001 0.0003 0.0005 0.0032 0.0169 0.0705 0.2339 0.6406 1.3113 1.3433 2.263 3.5151 2.4246 3.1319 3.7189 4.1453 5.243834 4.4828 4.8024 5.0797 5.3518 6.9034 6.9045 7.7953 8.3739 8.221383 8.6706 7.7167 7.6973 7.7054 7.8989 7.6735 7.3693 7.958967 6.9095 6.3626 5.9627 6.2042 14.9056 8.2947 18.8768 15.59148 12.8986 13.8913 14.4374 16.7132 16.0207 14.8928 14.05978 13.5332 12.1556 10.8043 9.8239 8.564 7.4054 6.4269 6.0514 5.6241 4.9978 4.5741 4.3022 4.212 4.2188 4.74 5.5508 6.0381 6.113 6.9768 8.7549 11.082 16.7261 5.2518 5.8969 6.058816 5.5763 4.9265 4.4033 5.3432 5.4331 7.8623 8.64045 9.4655 9.2318 11.5924 4.1008 4.1324 4.7303 5.2231 5.7342 5.674 6.0623 6.4123 6.8177 7.2671 7.729 8.2405 8.8699 9.372184 9.5358 10.2128 10.9023 11.7253 12.8593 14.5034 14.0972 14.53137 14.7248 14.8073 14.7232 14.7005 19.0073 19.259 18.63455 18.4467 17.1078 15.126 12.3668 9.1355 5.9943 3.4566 3.0556 1.79 0.8581 0.3854 0.1866 0.1067 0.0679 0.0429 0.03941667 0.025 0.0132 0.0062 0.0026 0.001 0.0003 0.0001 0.0001333333 0.0001 0.0001 
0.0001001485 0.0001001506 0.0001 0.0001001465 0.0001002904 0.0001008501 0.0001021659 0.0001056079 0.0001073381 0.0001 0.0001000001 0.0001 0.0001 0.0001 0.0001 0.0001 0.0001000081 0.0001 0.0001 0.0001 0.0001 0.0001 0.0001 0.0001 0.0001 0.0001 0.0001 0.0001 0.0001 0.0001 0.0001 0.0001 0.0001 0.0001 0.0001 0.0001 0.0003 0.00105 0.0004 0.003 0.0157 0.0667 0.2157 0.50225 0.5437 1.0682 1.7049 1.3062 1.6178 1.8242 1.9718 2.817717 2.1483 2.3835 2.6673 3.0238 3.4228 4.5503 5.9169 6.372016 6.608 6.9816 7.6511 7.6108 7.6076 7.6215 7.535 7.73595 7.3538 7.0265 6.6703 6.4842 6.4548 5.7261 30.0671 25.9414 27.5028 15.863 16.4281 17.7395 18.3448 17.5511 16.3331 15.44055 14.8662 13.3426 11.909 11.1005 9.6003 8.3103 7.1922 6.7033 6.2748 5.5455 5.0354 4.6648 4.5606 4.5851 5.0426 5.401067 5.6795 6.6074 8.5334 12.8385 19.2214 6.9554 6.716 6.762033 6.9015 5.9942 5.8836 5.2832 6.4118 6.8248 9.121 10.21585 10.7455 10.7728 14.4642 6.8507 6.4719 6.7303 6.9486 7.319366 7.2142 7.4701 7.6295 7.8454 8.1698 8.4652 8.8601 9.285933 9.375 9.9454 10.5625 11.356 12.7421 14.6234 14.5502 15.05988 14.4049 15.1906 15.9462 16.7521 19.83605 23.4016 22.9163 20.59377 20.7788 17.7698 13.6709 10.4734 6.8786 3.7366 1.818 1.39625 0.8657 0.4301 0.2465 0.1232 0.0685 0.0408 0.0242 0.02083333 0.0135 0.0069 0.0032 0.0013 0.0005 0.0002 0.0002 0.0001 0.0001111111 0.0001 
0.0001000997 0.0001 0.0001000732 0.0001001456 0.000100429 0.0001011022 0.0001028746 0.000103778 0.0001 0.0001 0.0001 0.0001 0.0001 0.0001 0.0001 0.000100002 0.0001 0.0001 0.0001 0.0001 0.0001 0.0001 0.0001 0.0001 0.0001 0.0001 0.0001 0.0001 0.0001 0.0001 0.0001 0.0001 0.0001 0.0001 0.0001 0.0001666667 0.00035 0.0002 0.0001 0.0005 0.0035 0.0186 0.0747 0.2108167 0.2275 0.5057 0.9111 1.0907 1.4233 1.6923 1.9386 1.939333 2.2195 2.5487 2.9039 2.873 3.2794 3.6715 4.0968 6.040566 5.4412 6.9794 7.1649 7.1755 7.3103 7.5675 8.7079 9.2213 7.7762 7.7111 7.6322 8.737 5.4046 26.5105 42.781 30.57288 28.126 18.3411 18.4645 19.5798 19.2287 18.4637 17.2412 16.2966 15.7768 14.2352 12.6877 11.9176 10.2948 9.0072 7.8259 7.298067 6.8759 6.0612 5.4644 5.0688 4.8576 4.7585 5.2721 5.855067 6.1214 7.7356 11.035 18.0919 8.6336 8.0544 7.9716 7.996984 7.8344 7.3845 6.952 7.3567 7.9992 8.494 11.3892 12.2779 12.7116 13.2574 17.0524 11.1524 10.2274 9.5681 9.4628 9.472067 9.3935 9.3983 9.3911 9.348 9.5117 9.6533 9.9758 10.26118 10.3943 10.8972 11.4957 13.1119 16.88 14.9721 15.7095 15.56633 17.0941 17.5145 18.2167 19.6604 23.3628 24.5923 23.1253 20.55712 19.0365 13.9377 10.0104 5.51 2.3597 0.9335 0.3358 0.5479167 0.1114 0.0367 0.0128 0.0321 0.029 0.0204 0.0125 0.01118333 0.0069 0.0034 0.0015 0.0006 0.0003 0.000275 0.0002 0.0001666667 0.0001 0.0001037037 
0.0001 0.0001000366 0.000100073 0.000100216 0.0001005589 0.0001014686 0.0001019387 0.0001 0.0001 0.0001 0.0001 0.0001 0.0001 0.0001 0.0001000005 0.0001 0.0001 0.0001 0.0001 0.0001 0.0001 0.0001 0.0001 0.0001 0.0001 0.0001 0.0001 0.0001 0.0001 0.0001 0.0001 0.0001 0.0001 0.0001 0.0001222222 0.00017 0.0001333333 0.0001 0.0001 0.0004 0.0028 0.0134 0.051 0.1048667 0.1523 0.3829 0.5788 0.7306 1.0283 1.2787 1.5255 1.8268 1.8323 2.2294 2.7876 3.9505 4.8239 5.766 6.6841 6.723633 7.4964 8.1578 8.5728 8.8666 9.3219 10.0162 11.5216 12.30073 12.4333 12.1484 12.9184 11.4016 21.858 32.7242 35.4646 28.6766 19.4958 19.758 19.7163 20.1637 19.6668 18.7828 17.5233 16.80813 16.039 14.3292 13.3104 12.1351 10.6697 9.4392 8.2861 7.779217 7.3335 6.4878 5.9444 5.4909 5.0832 4.7464 5.7913 6.795583 7.2235 10.2856 16.6767 8.0395 8.6944 8.7428 9.0398 9.38955 9.5186 9.1938 8.5031 10.9941 10.9697 11.7196 14.0572 14.36408 15.6429 17.8488 17.2832 14.8106 13.5642 12.5034 12.07 11.75093 11.7433 11.5343 11.3768 11.092 11.0837 11.0577 11.3001 11.50488 11.6618 12.1483 14.0104 23.5332 14.7402 15.1787 15.5382 16.12383 16.1011 16.9303 18.4112 20.774 23.4556 23.5595 21.0643 18.75517 16.4215 11.0086 6.2279 2.8015 1.1085 0.3922 0.1223 0.1125167 0.0343 0.0092 0.0025 0.0121 0.0118 0.0118 0.0066 0.0054 0.0034 0.0016 0.0007 0.0003 0.0001 0.0002 0.00019375 0.0002 0.0001555556 0.0001 
0.0001000183 0.0001000365 0.0001001085 0.0001002826 0.0001007478 0.0001009916 0.0001 0.0001 0.0001 0.0001 0.0001 0.0001 0.0001 0.0001000001 0.0001 0.0001 0.0001 0.0001 0.0001 0.0001 0.0001 0.0001 0.0001 0.0001 0.0001 0.0001 0.0001 0.0001 0.0001 0.0001 0.0001 0.0001 0.0001 0.0001074074 0.0001206667 0.0001111111 0.0001 0.0001 0.00025 0.0003 0.0019 0.0086 0.0313 0.06818333 0.0924 0.2226 0.3405 0.619 0.949 1.2431 1.349433 1.5392 1.9057 2.3774 3.01 3.8019 4.8098 6.0733 6.763467 7.5417 9.0816 10.5325 11.6336 12.4883 13.5303 14.8318 16.36018 16.2227 17.1427 18.0497 14.0271 22.455 32.6628 33.7762 25.892 24.05733 20.3002 20.7742 20.9122 20.7972 20.1604 19.1762 18.50785 17.8781 16.3904 14.5241 13.6854 12.248 10.9109 9.7533 9.220783 8.6407 7.7132 6.9958 6.4321 5.8877 5.1262 5.509 6.36575 6.774 9.5912 16.1316 6.6908 7.8545 9.0337 9.6267 10.13273 10.5116 11.4613 11.5426 11.1423 13.5683 13.5795 13.9446 14.26152 15.5341 16.8495 18.5761 17.7252 16.2172 15.3113 14.6742 14.1276 14.1317 13.7043 13.3896 13.128 12.8509 12.4706 12.4286 12.48465 12.6758 13.0215 15.0003 29.7921 15.0796 15.5637 15.8026 16.14483 15.9055 16.3946 17.5039 19.3096 21.8117 22.9603 22.0668 20.10357 18.897 13.9864 8.7362 4.2858 1.7339 0.6327 0.1999 0.1427333 0.0563 0.015 0.0041 0.0013 0.0004 0.0031 0.001 0.0037 0.0018 0.0012 0.0007 0.0003 0.0001 0.0001666667 0.0001 0.00015 0.0001609375 0.0002 0.0001518519 
0.0001000274 0.0001000545 0.0001001426 0.0001003797 0.0001005055 0.0001 0.0001 0.0001 0.0001 0.0001 0.0001 0.0001 0.0001 0.0001 0.0001 0.0001 0.0001 0.0001 0.0001 0.0001 0.0001 0.0001 0.0001 0.0001 0.0001 0.0001 0.0001 0.0001 0.0001 0.0001 0.0001 0.0001 0.0001024691 0.0001063556 0.0001037037 0.0001 0.0001 0.0001791667 0.0002 0.0002 0.0013 0.0056 0.01246667 0.0203 0.0618 0.158 0.1828 0.3945 0.7219 1.0963 1.2843 1.4138 1.8223 2.3381 2.8778 3.5899 4.7231 6.2754 7.79845 8.2403 10.5279 12.9205 16.9743 17.1471 19.2082 21.5557 22.18072 24.0131 25.3957 22.7033 27.6952 30.6681 39.9083 38.2335 31.07325 22.0759 21.1155 21.431 22.1107 21.4371 20.6801 19.5599 18.9268 18.1268 16.3391 15.1916 13.9345 12.5175 11.2296 10.1414 9.681933 9.064 8.3001 7.5543 6.9269 6.4031 5.5908 6.5512 8.1277 8.8226 14.4928 6.2415 6.6353 8.0728 9.4415 10.4947 11.37597 12.3808 13.2332 13.7007 13.655 15.1701 14.4712 14.8313 14.7563 15.4823 16.5507 17.1266 17.4389 16.9076 16.3841 15.9208 15.4813 15.4655 15.0621 14.7105 15.6435 14.0182 13.5255 13.5472 14.64128 13.8985 15.8844 33.6154 15.9012 16.3855 16.7614 17.091 17.00343 17.353 17.7838 18.8151 20.3648 20.7517 20.8276 19.258 17.42115 15.7758 11.0084 6.3133 2.9302 1.0713 0.3016 0.0711 0.06765 0.0146 0.0028 0.0005 0.0001 0.000775 0.0008 0.0005 0.0007 0.0005 0.0004 0.0002 0.0001 0.0001666667 0.0001 0.0001222222 0.0001 0.000125 0.0001464844 0.0002 
0.0001000409 0.0001000748 0.0001001922 0.0001002569 0.0001 0.0001 0.0001 0.0001 0.0001 0.0001 0.0001 0.0001 0.0001 0.0001 0.0001 0.0001 0.0001 0.0001 0.0001 0.0001 0.0001 0.0001 0.0001 0.0001 0.0001 0.0001 0.0001 0.0001 0.0001 0.0001 0.0001 0.000100823 0.0001020119 0.0001012346 0.0001 0.0001 0.0001 0.0001604167 0.0001666667 0.0001 0.0004 0.0018 0.007916667 0.0072 0.0247 0.07785 0.1982 0.4078 0.7148 1.051 1.23175 1.3624 1.7621 2.3542 3.306 4.4267 5.7632 7.883 9.054916 10.777 14.3954 18.7335 23.3585 25.1729 25.9147 27.5335 26.06198 28.9275 27.2911 31.681 35.7459 38.7671 39.9178 35.9613 34.1584 30.5006 21.609 22.026 22.9788 22.3846 21.4207 20.1725 19.6436 18.6473 16.7092 16.1119 14.469 12.9825 11.7601 10.7154 10.2853 9.7768 8.9075 8.1135 7.4687 7.0093 6.2533 8.2102 8.855367 12.8992 5.4451 6.0264 6.8937 8.2498 9.9034 11.4549 12.4849 13.7871 14.6732 15.0841 15.8248 15.6594 14.4107 14.4089 14.15495 14.3366 15.4734 16.0751 16.7238 16.7824 16.667 16.5032 16.20093 16.1924 15.8542 15.5882 15.6066 15.4913 14.8295 16.5921 18.66583 18.7055 36.9328 17.7002 17.8048 17.8355 17.8563 17.9165 17.7989 17.952 18.2839 18.8668 19.8381 19.8437 18.7799 16.196 13.99755 12.3333 8.0697 4.4572 2.0541 0.7592 0.2175 0.0522 0.03391667 0.0118 0.0029 0.0008 0.0002 0.0001 0.0002 0.0002 0.0003 0.0002 0.0001 0.0001 0.0001333333 0.0001 0.0001222222 0.0001 0.0001074074 0.0001 0.0001125 0.0001397461 
0.0001000579 0.0001001027 0.000100131 0.0001 0.0001 0.0001 0.0001 0.0001 0.0001 0.0001 0.0001 0.0001 0.0001 0.0001 0.0001 0.0001 0.0001 0.0001 0.0001 0.0001 0.0001 0.0001 0.0001 0.0001 0.0001 0.0001 0.0001 0.0001 0.0001 0.0001 0.0001002744 0.0001006493 0.0001004115 0.0001 0.0001 0.0001 0.0001 0.0001 0.000175 0.0002 0.0007 0.0028 0.00675 0.0098 0.0305 0.1063 0.2382 0.463 0.7706 0.8832667 1.0775 1.3895 1.7945 2.2904 3.0896 4.4207 6.4108 8.9221 9.911517 12.2317 16.2099 19.8688 23.2897 25.7405 27.7053 27.8288 27.88007 26.5133 30.4692 33.4219 35.666 35.5057 36.3218 35.2575 41.837 42.9216 23.0057 24.2885 25.0946 24.0396 22.6589 21.98812 21.3564 19.9987 18.1577 17.1122 15.1742 13.6583 12.5441 12.0498 11.5327 10.4815 9.5021 8.7137 8.3002 6.756 8.0091 11.7105 7.853617 4.9385 5.1312 5.9207 7.1472 8.4765 10.2551 12.112 12.8069 14.6799 15.3965 16.3058 16.9273 15.1589 13.5941 12.68932 12.7074 13.1632 14.1848 14.7402 15.8101 16.3386 16.5885 16.52737 16.6366 16.4871 16.2648 16.0898 16.0322 16.0278 16.8233 35.7022 19.68372 13.5495 17.1202 17.6264 17.9211 18.0603 18.1352 18.2196 17.79023 18.2613 18.6497 19.2193 18.4478 16.2814 14.5082 13.03473 11.8021 8.6201 5.5951 3.1831 1.5517 0.5995 0.1764 0.1133 0.0432 0.0106 0.0032 0.0011 0.0004 0.0001 0.0001 0.0001 0.0001666667 0.00015 0.0001333333 0.0001 0.0001 0.0001111111 0.0001 0.0001074074 0.0001 0.0001024691 0.0001 0.00010625 
0.0001000803 0.0001000729 0.0001 0.0001 0.0001 0.0001 0.0001 0.0001 0.0001 0.0001 0.0001 0.0001 0.0001 0.0001 0.0001 0.0001 0.0001 0.0001 0.0001 0.0001 0.0001 0.0001 0.0001 0.0001 0.0001 0.0001 0.0001 0.0001 0.0001 0.0001000914 0.0001002122 0.0001001372 0.0001 0.0001 0.0001 0.0001 0.0001 0.0001 0.0001 0.0003 0.0012 0.002033333 0.0045 0.0144 0.0417 0.0732 0.1775 0.3732 0.671 0.74135 1.0147 1.3141 1.7321 2.4085 3.2538 4.4286 6.0526 6.863567 8.3573 11.298 14.7057 18.7179 21.7493 23.4856 24.8326 25.86538 26.9252 29.5521 30.7964 31.4063 32.295 32.2248 40.2731 48.35108 63.7159 42.6651 25.3784 26.891 26.8134 25.8919 24.0175 23.34687 22.3027 19.9126 18.7363 17.997 16.0033 14.611 13.4737 12.83342 12.2728 11.1285 9.9998 9.2216 8.9105 7.7373 11.0916 7.356983 4.6179 4.7454 5.3861 5.8246 6.7882 8.8688 11.328 10.91958 11.0768 13.7307 16.3828 18.4623 16.9315 11.4745 10.2011 9.93245 10.8137 11.4649 12.3021 13.5425 14.7767 15.6638 16.2297 16.30448 16.5392 16.5113 16.375 16.315 16.4039 17.2356 33.9921 22.83552 17.1766 16.3764 16.7849 17.077 17.2572 17.3036 17.3335 16.64358 17.1974 17.1946 17.2722 17.323 12.3592 11.1605 9.4736 8.662933 7.4486 5.4176 3.628 2.1983 1.1584 0.4783 0.1512 0.08678333 0.0393 0.0103 0.0034 0.0013 0.0005 0.0002 0.0001 0.0001 0.0001 0.0001375 0.0001277778 0.0001111111 0.0001 0.0001 0.0001037037 0.0001 0.0001024691 0.0001 0.000100823 0.0001 
0.000100051 0.0001 0.0001 0.0001 0.0001 0.0001 0.0001 0.0001 0.0001 0.0001 0.0001 0.0001 0.0001 0.0001 0.0001 0.0001 0.0001 0.0001 0.0001 0.0001 0.0001 0.0001 0.0001 0.0001 0.0001 0.0001 0.0001 0.0001 0.0001000305 0.0001000699 0.0001000457 0.0001 0.0001 0.0001 0.0001 0.0001 0.0001 0.0001 0.0001666667 0.0001 0.0006 0.001533333 0.0024 0.0084 0.016 0.0186 0.0546 0.1402 0.3131 0.5692833 0.6012 0.984 1.3918 1.9064 2.6051 3.5498 4.8362 5.83085 6.6024 8.8818 11.4912 14.6594 20.0235 19.767 22.6004 23.08153 25.3 27.7185 29.0364 30.2062 32.4526 34.5299 47.5766 55.34801 66.9616 46.2404 25.5813 27.9427 28.3113 27.4087 25.6528 24.44182 24.0929 21.3615 20.9253 19.4722 17.5457 15.8189 14.2989 13.78522 12.8783 11.6562 10.4268 10.1632 8.4364 11.3972 4.4945 5.154067 4.2183 4.8492 5.6313 4.6256 6.6187 9.7398 14.7107 10.32763 6.0349 10.6161 18.733 24.8545 13.7445 7.2495 5.3238 6.2903 6.9546 8.4282 9.745 11.5363 13.3649 14.7806 15.6532 15.76587 16.1797 16.316 16.2712 16.3741 17.1155 33.2045 16.6843 19.14738 16.6346 16.3138 16.0552 15.7352 15.4052 15.0319 14.6954 13.98762 14.2804 13.9651 13.6121 13.1247 7.0096 6.0362 4.9355 4.822383 3.8096 2.7877 1.9252 1.2272 0.6511 0.2659 0.0861 0.05711666 0.0245 0.0078 0.0031 0.0013 0.0005 0.0002 0.0001 0.0001 0.0001 0.0001 0.0001152778 0.000112963 0.0001037037 0.0001 0.0001 0.0001012346 0.0001 0.000100823 0.0001 0.0001002744 
0.0001 0.0001 0.0001 0.0001 0.0001 0.0001 0.0001 0.0001 0.0001 0.0001 0.0001 0.0001 0.0001 0.0001 0.0001 0.0001 0.0001 0.0001 0.0001 0.0001 0.0001 0.0001 0.0001 0.0001 0.0001 0.0001 0.0001 0.0001000102 0.0001000231 0.0001000152 0.0001 0.0001 0.0001 0.0001 0.0001 0.0001 0.0001 0.0001222222 0.0001 0.0002666667 0.0001 0.00074 0.0004 0.0015 0.004 0.0141 0.0434 0.1171 0.2727 0.3047833 0.543 0.9101 1.2509 1.6494 2.1824 2.8974 3.8761 4.08865 5.2605 7.1668 9.4956 12.0679 13.9929 16.0763 18.2377 20.61135 20.5933 23.264 26.2079 29.7948 33.9233 38.7963 48.2978 55.71518 65.2631 53.894 29.6761 27.7249 29.3523 28.7114 25.7637 24.73217 24.8213 23.5901 23.1944 21.8055 20.0545 18.1346 16.0031 14.9718 13.7845 12.1505 10.922 11.0546 10.5094 4.699 3.2176 3.454383 3.2845 4.1345 4.803 4.5262 6.5824 9.8966 14.4315 8.751817 4.3839 7.7897 22.0837 24.8637 11.8228 7.1424 2.0189 3.8198 2.4297 3.9716 5.8348 8.0895 10.6709 12.9954 14.564 14.49288 15.4294 15.7524 15.8269 16.0701 31.4297 15.523 15.3154 14.97908 15.0813 14.6359 13.9659 13.1442 12.2638 11.3729 10.5774 10.19102 9.8416 9.2018 8.5519 7.8379 2.9134 2.3699 1.8572 2.133967 1.4098 1.0232 0.6363 0.3513 0.1712 0.0733 0.0293 0.02931667 0.0123 0.0057 0.0026 0.0012 0.0005 0.0002 0.0001 0.0001 0.0001 0.0001 0.0001 0.0001063889 0.0001055556 0.0001012346 0.0001 0.0001 0.0001004115 0.0001 0.0001002744 0.0001 
0.0001 0.0001 0.0001 0.0001 0.0001 0.0001 0.0001 0.0001 0.0001 0.0001 0.0001 0.0001 0.0001 0.0001 0.0001 0.0001 0.0001 0.0001 0.0001 0.0001 0.0001 0.0001 0.0001 0.0001 0.0001 0.0001 0.0001000034 0.0001000077 0.0001000051 0.0001 0.0001 0.0001 0.0001 0.0001 0.0001 0.0001 0.0001074074 0.0001 0.0001555556 0.0001 0.0001 0.0002333333 0.0002 0.001 0.0002 0.0009 0.0034 0.0108 0.07211667 0.0297 0.069 0.1374 0.271 0.4452 0.7219 1.118 1.63965 1.6077 2.349 3.5505 5.2901 7.3479 20.1375 17.4586 16.96632 17.328 19.6087 21.944 24.4321 27.864 32.3371 37.4066 46.5497 51.94233 59.6423 55.1009 32.25685 24.1126 26.9742 32.0641 28.81715 24.9763 23.086 22.1841 22.6762 21.5838 20.3042 18.8861 17.9433 17.2714 15.5946 14.1818 12.8036 15.5949 4.5244 3.8824 3.3486 2.528 2.9834 3.5301 3.8434 3.4926 6.3335 10.0132 8.915867 7.8414 5.1085 5.748 25.5446 20.3255 9.3453 6.1735 3.9756 2.5145 3.6773 0.7044 1.811 3.735 6.3871 9.2529 10.24145 11.7695 13.3615 14.124 14.2129 25.3822 14.3939 13.9124 13.11188 13.384 12.7749 11.9477 10.9001 9.7101 8.4958 7.3345 7.076933 6.3108 5.4405 4.7067 4.0627 2.3294 0.8921 0.6326 0.9312333 0.4572 0.3345 0.2342 0.1512 0.091 0.0517 0.0283 0.02908333 0.0154 0.0083 0.0043 0.0021 0.0009 0.0004 0.0001 0.00012 0.0001 0.0001 0.0001 0.0001 0.0001 0.0001026358 0.0001022634 0.0001004115 0.0001 0.0001 0.0001001372 0.0001 0.0001000914 
0.0001 0.0001 0.0001 0.0001 0.0001 0.0001 0.0001 0.0001 0.0001 0.0001 0.0001 0.0001 0.0001 0.0001 0.0001 0.0001 0.0001 0.0001 0.0001 0.0001 0.0001 0.0001 0.0001 0.0001 0.0001 0.0001000011 0.0001000026 0.0001000017 0.0001 0.0001 0.0001 0.0001 0.0001 0.0001 0.0001 0.0001024691 0.0001 0.0001185185 0.0001 0.0001 0.0001583333 0.0002 0.0006 0.0004666667 0.0007 0.001175 0.0002 0.0006 0.0086 0.0018 0.0052 0.0134 0.026 0.0453 0.0754 0.1252 0.5234666 0.2135 0.411 0.9058 1.9542 4.2088 21.7862 17.3951 14.70042 15.3022 17.9314 20.5702 23.356 26.2851 29.3691 33.5744 35.63447 39.3422 52.5589 48.872 29.03 20.7584 23.9202 34.9749 28.60007 26.4125 23.3545 23.1428 22.7023 21.6022 20.6038 19.4517 18.10677 17.9129 16.6535 15.9454 15.5272 4.9912 3.539 3.0758 2.8709 2.6888 2.976 3.3101 3.1751 2.3572 3.3639 5.8839 5.690434 5.4286 3.3769 6.4052 19.8238 14.6416 5.1268 3.9416 2.820067 2.0627 3.4397 0.0759 0.331 1.0076 2.5197 5.8634 6.905066 7.0035 9.1409 10.2508 23.4597 10.6773 10.8079 10.5482 9.822166 9.9883 9.1856 8.1846 7.0524 5.8856 4.7938 3.833 3.81415 3.033 2.3881 1.8859 1.4972 0.2564 0.1888 0.1481 0.2495667 0.1224 0.1009 0.0794 0.0589 0.0413 0.0276 0.0176 0.01533333 0.0106 0.006 0.0032 0.0015 0.0007 0.0003 0.0001 0.0001 0.0001 0.0001 0.0001 0.0001 0.0001 0.0001 0.0001010621 0.0001008916 0.0001001372 0.0001 0.0001 0.0001000457 0.0001 
0.0001 0.0001 0.0001 0.0001 0.0001 0.0001 0.0001 0.0001 0.0001 0.0001 0.0001 0.0001 0.0001 0.0001 0.0001 0.0001 0.0001 0.0001 0.0001 0.0001 0.0001 0.0001 0.0001 0.0001 0.0001000004 0.0001000008 0.0001000006 0.0001 0.0001 0.0001 0.0001 0.0001 0.0001 0.0001 0.000100823 0.0001 0.0001061728 0.0001 0.0001 0.0001395833 0.0002 0.0004 0.0004222222 0.0005888889 0.0006354167 0.0002 0.0004 0.0004 0.0008333334 0.0001 0.0004 0.0011 0.0022 0.0042 0.0081 0.0188 0.09156667 0.0576 0.2026 0.662 1.7401 4.0225 15.5679 9.6922 10.61042 11.0264 13.6554 16.3111 19.1355 21.9526 24.0369 26.1148 28.78265 30.8191 44.8035 43.4136 27.6159 20.4638 22.3367 28.9541 26.67768 24.2185 23.294 22.4568 22.3498 21.2133 20.2908 18.8148 17.00048 16.3037 14.4312 14.5791 7.4297 3.1531 2.2461 2.5725 2.4986 2.4779 2.9317 3.0114 2.4757 1.8612 1.8523 2.599 3.076933 2.3765 1.5956 5.7638 9.9811 6.3677 1.4692 1.3861 1.456567 0.842 1.7037 0.1554 0.0424 0.1863 0.6002 5.165 3.8353 2.3761 6.9215 16.087 4.4841 5.22 5.6612 5.7094 5.86195 5.3907 5.0357 4.5209 3.2615 2.523 1.8814 1.3752 1.597533 0.9984 0.6919 0.4864 0.3524 0.0822 0.0762 0.0714 0.08525 0.0657 0.0578 0.048 0.0376 0.0277 0.0192 0.0125 0.01038333 0.0076 0.0043 0.0022 0.0011 0.0005 0.0002 0.0001 0.0001 0.0001 0.0001 0.0001 0.0001 0.0001 0.0001 0.0001 0.0001004182 0.0001003429 0.0001000457 0.0001 0.0001 0.0001000152 
0.0001 0.0001 0.0001 0.0001 0.0001 0.0001 0.0001 0.0001 0.0001 0.0001 0.0001 0.0001 0.0001 0.0001 0.0001 0.0001 0.0001 0.0001 0.0001 0.0001 0.0001 0.0001 0.0001 0.0001000001 0.0001000003 0.0001000002 0.0001 0.0001 0.0001 0.0001 0.0001 0.0001 0.0001 0.0001002744 0.0001 0.0001020576 0.0001 0.0001 0.0001348958 0.0002 0.0003 0.0003407407 0.0004703704 0.0004616319 0.0002 0.0003 0.0003333333 0.0004333333 0.0001 0.00025 0.000425 0.0001 0.0005 0.0019 0.0078 0.0304 0.03781667 0.1039 0.3044 0.7454 1.4701 2.721 4.5652 4.4021 5.694533 5.8445 7.8964 10.179 12.5678 14.8524 16.9408 19.6802 20.94133 23.1652 38.48 36.76255 30.6398 22.717 23.1744 24.69098 25.3496 20.1565 18.4409 21.1123 22.0669 21.2439 20.018 17.0703 15.16095 12.4495 11.0368 7.8398 4.9016 1.3367 1.7151 2.0404 2.124433 2.1362 2.4253 2.4035 1.9339 1.4991 1.3191 1.2438 1.3016 0.9298 0.4328 2.8053 3.5925 1.9589 0.2569 0.5918667 0.2945 0.2125 0.4264 0.0704 0.0399 0.0653 0.1285 1.15645 0.8663 1.7375 6.673 3.8909 1.733 1.6844 1.6364 1.5742 2.637067 1.9609 2.4782 0.9203 0.3989 0.1434 0.1927 0.1892 0.46795 0.1564 0.126 0.105 0.07475 0.058 0.0568 0.05853333 0.0542 0.0497 0.0433 0.0357 0.0277 0.0201 0.0137 0.0121 0.0088 0.0052 0.0029 0.0015 0.0007 0.0003 0.0001 0.000125 0.0001 0.0001 0.0001 0.0001 0.0001 0.0001 0.0001 0.0001 0.0001 0.0001001614 0.0001001296 0.0001000152 0.0001 0.0001 
0.0001 0.0001 0.0001 0.0001 0.0001 0.0001 0.0001 0.0001 0.0001 0.0001 0.0001 0.0001 0.0001 0.0001 0.0001 0.0001 0.0001 0.0001 0.0001 0.0001 0.0001 0.0001 0.0001 0.0001000001 0.0001000001 0.0001 0.0001 0.0001 0.0001 0.0001 0.0001 0.0001 0.0001000914 0.0001 0.0001006859 0.0001 0.0001 0.000133724 0.0002 0.00025 0.0002802469 0.0003703704 0.0003681858 0.0002 0.00025 0.0002777778 0.0002916667 0.0001 0.000175 0.00021875 0.0001 0.0002333333 0.0001 0.0003 0.001 0.007266667 0.0037 0.0125 0.0377 0.1012 0.2368 0.4849 0.8754 1.887633 1.2608 1.9412 2.9433 4.2205 5.7213 7.3321 9.494 10.19927 11.3043 14.5644 29.4277 30.597 30.0065 23.6855 23.8295 22.7451 24.5016 20.4623 16.2892 18.9214 20.2272 19.8483 18.6817 16.04563 15.2798 11.0476 6.4267 4.9109 2.0561 1.3856 1.5291 1.50445 1.7266 1.793 1.8096 1.6619 1.3385 1.0979 0.9308 0.73175 0.4776 0.1829 0.1399 0.4515 0.5683 0.5324 0.0684 0.1296167 0.0761 0.0658 0.1126 0.0309 0.0503 0.0436 0.0561 0.2184 0.1226 0.9122 1.554 0.9425 0.1842 0.2908 0.3426 0.67835 0.357 0.8302 0.3623 0.1311 0.0581 0.0278 0.0184 0.08138333 0.038 0.0505 0.056 0.0578 0.0505 0.0499 0.048 0.04656667 0.0446 0.0396 0.0335 0.0268 0.0202 0.0229 0.0119 0.008366667 0.0065 0.0035 0.0019 0.0009 0.0004 0.0002 0.0001 0.0001 0.00010625 0.0001 0.0001 0.0001 0.0001 0.0001 0.0001 0.0001 0.0001 0.0001 0.0001000612 0.0001000483 0.0001000051 0.0001 
0.0001 0.0001 0.0001 0.0001 0.0001 0.0001 0.0001 0.0001 0.0001 0.0001 0.0001 0.0001 0.0001 0.0001 0.0001 0.0001 0.0001 0.0001 0.0001 0.0001 0.0001 0.0001 0.0001 0.0001 0.0001 0.0001 0.0001 0.0001 0.0001 0.0001 0.0001 0.0001000305 0.0001 0.0001002286 0.0001 0.0001 0.000133431 0.0002 0.000225 0.0002434156 0.0003002057 0.0003047007 0.0002 0.000225 0.0002425926 0.0002298611 0.0001 0.0001375 0.0001484375 0.0001 0.0001444444 0.0001 0.0002 0.0004 0.0002 0.0011 0.0005 0.0016 0.0046 0.0113 0.0247 0.0478 0.0836 0.3978833 0.1387 0.2512 0.4249 0.6575 0.8994 0.9922 0.5957 4.150317 3.1806 6.641 23.954 23.7957 21.6583 16.5991 19.0197 18.29773 20.5958 13.2831 14.1882 14.4151 14.0296 13.5515 12.9641 12.28562 12.2599 6.2247 4.4876 2.9808 0.8566 1.0089 1.0141 1.005567 1.0014 1.034 0.9915 0.7743 0.5706 0.4417 0.3049 0.34465 0.1143 0.1112 0.1132 0.1018 0.164 0.134 0.0447 0.05051666 0.0371 0.0328 0.0503 0.0271 0.0354 0.0364 0.0399 0.06708334 0.097 0.2384 0.2993 0.205 0.0205 0.048 0.0725 0.1544833 0.0874 0.1586 0.2189 0.053 0.0159 0.0216 0.0203 0.02758333 0.0297 0.04 0.0464 0.0495 0.0442 0.0428 0.04 0.03705 0.0358 0.0308 0.0251 0.0194 0.0142 0.0042 0.0055 0.005466667 0.0038 0.0021 0.0016 0.0006 0.0004 0.0002 0.0001 0.0001 0.0001 0.0001015625 0.0001 0.0001 0.0001 0.0001 0.0001 0.0001 0.0001 0.0001 0.0001 0.0001000229 0.0001000178 0.0001000025 
0.0001 0.0001 0.0001 0.0001 0.0001 0.0001 0.0001 0.0001 0.0001 0.0001 0.0001 0.0001 0.0001 0.0001 0.0001 0.0001 0.0001 0.0001 0.0001 0.0001 0.0001 0.0001 0.0001 0.0001 0.0001 0.0001 0.0001 0.0001 0.0001 0.0001 0.0001000102 0.0001 0.0001000762 0.0001 0.0001 0.0001333578 0.0002 0.0002125 0.0002228052 0.0002562071 0.0002620805 0.0002 0.0002125 0.0002225309 0.0001993634 0.0001 0.00011875 0.0001214844 0.0001 0.0001148148 0.0001 0.00015 0.000225 0.0002 0.0002 0.000225 0.0001 0.0004 0.0012 0.0029 0.0044 0.0074 0.0114 0.04346666 0.0174 0.0271 0.0409 0.0592 0.0782 0.0807 0.0409 0.6883166 0.2864 0.8589 9.00835 14.767 11.7018 8.8214 10.545 11.40353 11.2948 8.4446 9.8612 10.4172 9.7201 8.9115 8.2236 7.51225 6.3046 3.8687 2.5484 1.4569 0.3805 0.3744 0.3539 0.49335 0.4083 0.4091 0.2416 0.1782 0.1247 0.1508 0.1699 0.1457333 0.0704 0.1491 0.108 0.0825 0.0943 0.0896 0.0432 0.03886667 0.0336 0.0306 0.0354 0.029 0.0341 0.0306 0.0442 0.05065 0.0427 0.072 0.1206 0.0692 0.0149 0.0321 0.0239 0.04765 0.0435 0.0737 0.115 0.0703 0.0356 0.0269 0.0397 0.02848333 0.0194 0.0328 0.0404 0.0408 0.0365 0.0221 0.0276 0.02653333 0.0263 0.0224 0.0179 0.0134 0.0095 0.0043 0.0031 0.002916667 0.002 0.0012 0.0003 0.0003 0.0001 0.0002 0.00015 0.0001 0.0001 0.0001 0.0001003906 0.0001 0.0001 0.0001 0.0001 0.0001 0.0001 0.0001 0.0001 0.0001 0.0001000086 0.0001000102 
0.0001 0.0001 0.0001 0.0001 0.0001 0.0001 0.0001 0.0001 0.0001 0.0001 0.0001 0.0001 0.0001 0.0001 0.0001 0.0001 0.0001 0.0001 0.0001 0.0001 0.0001 0.0001 0.0001 0.0001 0.0001 0.0001 0.0001 0.0001 0.0001 0.0001000034 0.0001 0.0001000254 0.0001 0.0001 0.0001333394 0.0002 0.00020625 0.0002117684 0.0002305041 0.0002352732 0.0002 0.00020625 0.000211677 0.0001835986 0.0001 0.000109375 0.0001100586 0.0001 0.0001049383 0.0001 0.000125 0.00016875 0.0002 0.0002 0.000165 0.0001 0.0001 0.0002 0.0004 0.0005 0.0018 0.003 0.005033333 0.0042 0.0055 0.0069 0.0077 0.0076 0.0066 0.0045 0.002 0.05995 0.0243 0.068 0.3023 3.992 4.1219 2.1658 4.241017 3.2375 3.7284 2.8023 4.0058 4.9409 5.0645 4.565 4.471583 3.2207 2.1006 1.7047 2.1004 0.5219 0.0882 0.0898 0.1534333 0.0717 0.1107 0.1064 0.0821 0.0813 0.0706 0.1273 0.1511 0.1085667 0.0638 0.1714 0.1109 0.0744 0.0606 0.1038 0.06735 0.0416 0.033 0.0318 0.0343 0.0332 0.0376 0.031 0.03588333 0.0393 0.0408 0.0497 0.0897 0.055 0.0202 0.0372 0.03348333 0.03 0.0286 0.0569 0.0884 0.0722 0.046 0.0325 0.0343 0.0363 0.0255 0.0456 0.0368 0.0303 0.0278 0.0165 0.01613333 0.0132 0.0163 0.0149 0.0119 0.0088 0.006 0.0031 0.002733333 0.0024 0.0007 0.0005 0.0002 0.0002 0.0002 0.0001 0.0001375 0.000125 0.0001 0.0001 0.0001 0.0001000977 0.0001 0.0001 0.0001 0.0001 0.0001 0.0001 0.0001 0.0001 0.0001 0.0001000047 
0.0001 0.0001 0.0001 0.0001 0.0001 0.0001 0.0001 0.0001 0.0001 0.0001 0.0001 0.0001 0.0001 0.0001 0.0001 0.0001 0.0001 0.0001 0.0001 0.0001 0.0001 0.0001 0.0001 0.0001 0.0001 0.0001 0.0001 0.0001 0.0001000011 0.0001 0.0001000085 0.0001 0.0001 0.0001333349 0.0002 0.000203125 0.0002060061 0.0002161742 0.0002193864 0.0002 0.000203125 0.0002059757 0.0001753814 0.0001 0.0001046875 0.0001048584 0.0001 0.0001016461 0.0001 0.0001125 0.0001484375 0.0002 0.0002 0.000153 0.0001 0.0001 0.0001333333 0.0001 0.0003 0.0004 0.001 0.0017 0.002833333 0.0025 0.0033 0.0038 0.0037 0.0023 0.0031 0.0014 0.0019 0.0001 0.006 0.0115 0.0507 0.4291 0.6637 0.2511 1.049583 0.4253 0.5338 0.3711 0.6647 1.0391 1.0573 1.0646 1.661033 0.8441 0.578 0.5629 0.4484 0.1601 0.0325 0.0152 0.03533333 0.0156 0.0725 0.0731 0.0725 0.0796 0.0716 0.1269 0.1293167 0.1361 0.0601 0.1624 0.12655 0.0722 0.0743 0.0876 0.06535 0.0383 0.0319 0.0329 0.0366 0.0391 0.0421 0.0326 0.03606667 0.0376 0.0446 0.049 0.0711 0.0796 0.0252 0.0427 0.03828333 0.035 0.0224 0.0488 0.0754 0.0707 0.0514 0.0365 0.03483333 0.0339 0.0267 0.0527 0.0309 0.0224 0.0195 0.0113 0.0094 0.0061 0.0091 0.009 0.0074 0.0054 0.0036 0.0027 0.001783333 0.0008 0.0004 0.0002 0.0001 0.0001333333 0.0001466667 0.00015 0.0001 0.000115625 0.0001125 0.0001 0.0001 0.0001 0.0001000244 0.0001 0.0001 0.0001 0.0001 0.0001 0.0001 0.0001 0.0001 0.0001 
0.0001 0.0001 0.0001 0.0001 0.0001 0.0001 0.0001 0.0001 0.0001 0.0001 0.0001 0.0001 0.0001 0.0001 0.0001 0.0001 0.0001 0.0001 0.0001 0.0001 0.0001 0.0001 0.0001 0.0001 0.0001 0.0001 0.0001 0.0001000004 0.0001 0.0001000028 0.0001 0.0001 0.0001333337 0.0002 0.0002015625 0.0002030437 0.0002084351 0.0002103917 0.0002 0.0002015625 0.0002030335 0.0001711205 0.0001 0.0001023438 0.0001023865 0.0001 0.0001005487 0.0001 0.00010625 0.0001402344 0.0002 0.0002 0.0001506 0.0001 0.0001 0.0001111111 0.0001 0.00015 0.0001 0.0004 0.0013 0.0023 0.00245 0.0033 0.0037 0.0023 0.0017 0.002 0.0027 0.0015 0.0011 0.0037 0.0045 0.0069 0.0312 0.1156 0.1735 0.105 0.2228 0.1128 0.0919 0.0619 0.0758 0.1154 0.1353 0.1473 0.3813167 0.1245 0.1097 0.1035 0.0767 0.0415 0.026 0.0079 0.01185 0.0118 0.0735 0.0675 0.0778 0.0883 0.075 0.1183 0.1151167 0.1162 0.0544 0.1509 0.1134 0.0688 0.0636 0.0875 0.05893333 0.0333 0.0298 0.0333 0.04 0.046 0.0469 0.0345 0.03788333 0.0414 0.0436 0.0512 0.0666 0.0777 0.052 0.0465 0.04466667 0.0383 0.025 0.0361 0.0632 0.0657 0.0523 0.0381 0.03435 0.0317 0.0253 0.0535 0.024 0.0154 0.0127 0.0051 0.005266667 0.0042 0.0051 0.0051 0.0042 0.0041 0.0013 0.0012 0.001016667 0.0005 0.0002 0.0001 0.0001 0.0001 0.0001111111 0.0001215556 0.000125 0.0001 0.0001070313 0.00010625 0.0001 0.0001 0.0001 0.0001000061 0.0001 0.0001 0.0001 0.0001 0.0001 0.0001 0.0001 0.0001 
0.0001 0.0001 0.0001 0.0001 0.0001 0.0001 0.0001 0.0001 0.0001 0.0001 0.0001 0.0001 0.0001 0.0001 0.0001 0.0001 0.0001 0.0001 0.0001 0.0001 0.0001 0.0001 0.0001 0.0001 0.0001 0.0001 0.0001000001 0.0001 0.0001000009 0.0001 0.0001 0.0001333334 0.0002 0.0002007812 0.0002015354 0.0002043471 0.0002054676 0.0002 0.0002007812 0.000201532 0.0001689291 0.0001 0.0001011719 0.0001011826 0.0001 0.0001001829 0.0001 0.000103125 0.0001366211 0.0002 0.0002 0.00015012 0.0001 0.0001 0.0001037037 0.0001 0.0001125 0.0001 0.0001 0.0002 0.00105 0.0018 0.0028 0.0035 0.00234 0.0015 0.0013 0.0016 0.0023 0.0014 0.001366667 0.003425 0.0042 0.0061 0.0528 0.0999 0.1442 0.1400667 0.1424 0.3002 0.0705 0.0491 0.0448 0.0488 0.053 0.0547 0.07703333 0.0527 0.0518 0.0475 0.0264 0.0362 0.0272 0.0081 0.01063333 0.0125 0.0802 0.0659 0.0856 0.0977 0.0738 0.1004 0.0957 0.0928 0.0465 0.1361 0.1026 0.0638 0.0542 0.06625 0.0796 0.0273 0.0265 0.0325 0.0439 0.0528 0.0511 0.0365 0.04035 0.0447 0.0414 0.0523 0.065 0.0759 0.0582 0.0658 0.05195 0.0397 0.0262 0.0367 0.0434 0.0556 0.0488 0.0369 0.03243333 0.029 0.0227 0.0492 0.01445 0.0098 0.0077 0.005716667 0.0031 0.0018 0.0026 0.0027 0.003 0.0015 0.0008 0.0007666667 0.0006 0.0003 0.0001 0.0001 0.0001 0.0001 0.0001 0.0001037037 0.0001100518 0.0001125 0.0001 0.0001033203 0.000103125 0.0001 0.0001 0.0001 0.0001000015 0.0001 0.0001 0.0001 0.0001 0.0001 0.0001 0.0001 
0.0001 0.0001 0.0001 0.0001 0.0001 0.0001 0.0001 0.0001 0.0001 0.0001 0.0001 0.0001 0.0001 0.0001 0.0001 0.0001 0.0001 0.0001 0.0001 0.0001 0.0001 0.0001 0.0001 0.0001 0.0001 0.0001 0.0001 0.0001000003 0.0001 0.0001 0.0001333334 0.0002 0.0002003906 0.0002007722 0.0002022213 0.0002028375 0.0002 0.0002003906 0.0002007711 0.0001678106 0.0001 0.0001005859 0.0001005886 0.0001 0.000100061 0.0001 0.0001015625 0.0001349365 0.0002 0.0002 0.000150024 0.0001 0.0001 0.0001012346 0.0001 0.000103125 0.0001 0.0001 0.00015 0.00015 0.0002 0.0014625 0.0027 0.002034667 0.0009666667 0.0009 0.0009 0.0012 0.0018 0.0015 0.0012 0.0027 0.0038 0.0192 0.0565 0.1051 0.1435 0.1392167 0.1318 0.0579 0.0728 0.0514 0.0467 0.0485 0.05 0.05001667 0.0472 0.0358 0.0656 0.0392 0.0264 0.0309 0.0168 0.01376667 0.0091 0.0144 0.0886 0.0659 0.094 0.1052 0.0673 0.07315 0.0775 0.069 0.0373 0.1076 0.0898 0.0571 0.0454 0.05535 0.0672 0.0211 0.0224 0.0303 0.0475 0.058 0.0543 0.04575 0.0379 0.0471 0.0447 0.0459 0.0621 0.0729 0.0609 0.06676666 0.0822 0.0392 0.0259 0.0257 0.0362 0.0457 0.0426 0.03753333 0.0334 0.0255 0.0194 0.0418 0.0073 0.0059 0.0044 0.003266667 0.0013 0.0011 0.0013 0.0018 0.0011 0.0008 0.0004 0.0004 0.0003 0.0001 0.0001 0.0001 0.0001 0.0001 0.0001 0.0001 0.0001012346 0.0001047573 0.00010625 0.0001 0.0001016113 0.0001015625 0.0001 0.0001 0.0001 0.0001000004 0.0001 0.0001 0.0001 0.0001 0.0001 0.0001 
0.0001 0.0001 0.0001 0.0001 0.0001 0.0001 0.0001 0.0001 0.0001 0.0001 0.0001 0.0001 0.0001 0.0001 0.0001 0.0001 0.0001 0.0001 0.0001 0.0001 0.0001 0.0001 0.0001 0.0001 0.0001 0.0001 0.0001000001 0.0001 0.0001 0.0001333333 0.0002 0.0002001953 0.0002003876 0.000201128 0.0002014577 0.0002 0.0002001953 0.0002003872 0.0001672431 0.0001 0.000100293 0.0001002936 0.0001 0.0001000203 0.0001 0.0001007813 0.0001341248 0.0002 0.0002 0.0001500048 0.0001 0.0001 0.0001004115 0.0001 0.0001007813 0.0001 0.0001 0.000125 0.0001333333 0.0001666667 0.000175 0.0002 0.001225454 0.0006111111 0.0005666667 0.0005 0.0006 0.0008 0.0013 0.00115 0.001 0.002058333 0.0033 0.0156 0.0726 0.1093 0.144 0.2185333 0.1294 0.079 0.0761 0.0542 0.0504 0.052 0.0514 0.04743333 0.0438 0.0266 0.0857 0.038 0.0287 0.0257 0.0107 0.01083333 0.0107 0.0171 0.0977 0.067 0.1023 0.1096 0.0569 0.05898333 0.063 0.0395 0.0281 0.0762 0.0756 0.0534 0.0372 0.0435 0.0485 0.0153 0.0179 0.0269 0.0497 0.0613 0.0562 0.04683333 0.0385 0.0483 0.0394 0.0448 0.0582 0.0683 0.0605 0.0663 0.073 0.058 0.0243 0.0175 0.0284 0.0361 0.0351 0.0316 0.0284 0.0214 0.0158 0.0332 0.0043 0.0033 0.0024 0.001716667 0.0007 0.0004 0.0008 0.0007 0.0005 0.0004 0.0002 0.0002 0.0001 0.0001 0.0001 0.0001 0.0001 0.0001 0.0001 0.0001 0.0001 0.0001004115 0.0001022838 0.000103125 0.0001 0.0001007935 0.0001007813 0.0001 0.0001 0.0001 0.0001000001 0.0001 0.0001 0.0001 0.0001 0.0001 
0.0001 0.0001 0.0001 0.0001 0.0001 0.0001 0.0001 0.0001 0.0001 0.0001 0.0001 0.0001 0.0001 0.0001 0.0001 0.0001 0.0001 0.0001 0.0001 0.0001 0.0001 0.0001 0.0001 0.0001 0.0001 0.0001 0.0001 0.0001 0.0001333333 0.0002 0.0002000977 0.0002001943 0.0002005703 0.0002007434 0.0002 0.0002000977 0.0002001942 0.0001669564 0.0001 0.0001001465 0.0001001467 0.0001 0.0001000068 0.0001 0.0001003906 0.0001337265 0.0002 0.0002 0.000150001 0.0001 0.0001 0.0001001372 0.0001 0.0001001953 0.0001 0.0001 0.0001125 0.0001194444 0.0001416667 0.0001583333 0.0001805556 0.0001875 0.0003361111 0.0003444444 0.0003 0.0003 0.0003 0.0005 0.0009 0.0008333334 0.0007 0.001541667 0.00235 0.0123 0.0854 0.1213 0.2089 0.2031167 0.5536 0.0909 0.077 0.0555 0.0531 0.0546 0.0518 0.04731667 0.0404 0.0206 0.1077 0.0383 0.0294 0.0224 0.0104 0.008966667 0.0073 0.0204 0.1068 0.069 0.1097 0.1101 0.0447 0.04466667 0.0445 0.0217 0.0198 0.0564 0.0661 0.0407 0.0286 0.03205 0.0341 0.0104 0.0136 0.0225 0.0496 0.0623 0.053 0.04656667 0.0411 0.0478 0.0336 0.0419 0.0532 0.0621 0.0573 0.06021667 0.0639 0.069 0.0216 0.0115 0.021 0.0274 0.0274 0.02518333 0.0227 0.0171 0.0163 0.01655 0.0024 0.0018 0.0012 0.0009 0.0003 0.0002 0.0003 0.0003 0.0002 0.0002 0.0001 0.000125 0.0001 0.0001 0.0001 0.0001 0.0001 0.0001 0.0001 0.0001 0.0001 0.0001 0.0001001372 0.0001011092 0.0001015625 0.0001 0.0001003937 0.0001003906 0.0001 0.0001 0.0001 0.0001 0.0001 0.0001 0.0001 0.0001 
0.0001 0.0001 0.0001 0.0001 0.0001 0.0001 0.0001 0.0001 0.0001 0.0001 0.0001 0.0001 0.0001 0.0001 0.0001 0.0001 0.0001 0.0001 0.0001 0.0001 0.0001 0.0001 0.0001 0.0001 0.0001 0.0001 0.0001 0.0001333333 0.0002 0.0002000488 0.0002000973 0.0002002874 0.000200377 0.0002 0.0002000488 0.0002000973 0.0001668121 0.0001 0.0001000732 0.0001000733 0.0001 0.0001000023 0.0001 0.0001001953 0.0001335293 0.0002 0.0002 0.0001500002 0.0001 0.0001 0.0001000457 0.0001 0.0001000488 0.0001 0.0001 0.00010625 0.0001106482 0.000124537 0.0001398148 0.0001601852 0.000175463 0.0002119444 0.0002185185 0.0001888889 0.0001666667 0.0001 0.0002 0.0003 0.0006 0.00055 0.0005 0.001041667 0.0014 0.0092 0.0913 0.1179 0.14095 0.1636 0.0192 0.0945 0.075 0.0549 0.0539 0.0558 0.054 0.0526 0.0439 0.0429 0.0925 0.0389 0.0294 0.0202 0.01541667 0.0096 0.0051 0.0242 0.1155 0.0715 0.1157 0.1063 0.0327 0.03078333 0.0262 0.0134 0.0106 0.0394 0.0536 0.0297 0.03518333 0.0209 0.023 0.0067 0.0097 0.0178 0.0469 0.0607 0.0543 0.0482 0.0424 0.0456 0.0277 0.0374 0.047 0.0547 0.05291667 0.0519 0.0547 0.0726 0.0183 0.0098 0.0129 0.0194 0.0203 0.01903333 0.0172 0.013 0.0144 0.0069 0.0013 0.0009 0.0008666667 0.0006 0.0002 0.0001 0.0001 0.0001 0.0001 0.0001 0.0001333333 0.0001 0.0001 0.0001 0.0001 0.0001 0.0001 0.0001 0.0001 0.0001 0.0001 0.0001 0.0001 0.0001000457 0.0001005435 0.0001007813 0.0001 0.0001001961 0.0001001953 0.0001 0.0001 0.0001 0.0001 0.0001 0.0001 0.0001 
0.0001 0.0001 0.0001 0.0001 0.0001 0.0001 0.0001 0.0001 0.0001 0.0001 0.0001 0.0001 0.0001 0.0001 0.0001 0.0001 0.0001 0.0001 0.0001 0.0001 0.0001 0.0001 0.0001 0.0001 0.0001 0.0001 0.0001333333 0.0002 0.0002000244 0.0002000487 0.0002001445 0.0002001904 0.0002 0.0002000244 0.0002000487 0.0001667395 0.0001 0.0001000366 0.0001000366 0.0001 0.0001000008 0.0001 0.0001000977 0.0001334312 0.0002 0.0002 0.00015 0.0001 0.0001 0.0001000152 0.0001 0.0001000122 0.0001 0.0001 0.000103125 0.0001056327 0.0001138117 0.000125 0.0001415123 0.0001584877 0.0001633457 0.000154321 0.000137037 0.0001222222 0.0001 0.0001 0.0001 0.0002 0.0002833333 0.0003 0.0003 0.0006666667 0.001 0.0066 0.0898 0.1056 0.1173667 0.1284 0.0313 0.0913 0.0702 0.0523 0.0528 0.0555 0.05433333 0.0537 0.0495 0.0561 0.0816 0.0392 0.029 0.0191 0.01518333 0.0108 0.0104 0.0183 0.1232 0.0739 0.1193 0.0983 0.06013333 0.0223 0.0143 0.0077 0.0098 0.0619 0.1164 0.0553 0.02844 0.0359 0.0149 0.004 0.0065 0.0133 0.0417 0.057 0.05025 0.0446 0.0391 0.0371 0.0264 0.0325 0.0402 0.0465 0.0456 0.045 0.0455 0.0698 0.0147 0.0079 0.0077 0.0129 0.01406667 0.0142 0.0124 0.0094 0.0115 0.0054 0.0006 0.0004 0.0004166667 0.0003 0.0001 0.0001166667 0.0001 0.0001 0.0001 0.0001 0.0001 0.0001083333 0.0001 0.0001 0.0001 0.0001 0.0001 0.0001 0.0001 0.0001 0.0001 0.0001 0.0001 0.0001 0.0001000152 0.000100268 0.0001003906 0.0001 0.0001000978 0.0001000977 0.0001 0.0001 0.0001 0.0001 0.0001 0.0001 
0.0001 0.0001 0.0001 0.0001 0.0001 0.0001 0.0001 0.0001 0.0001 0.0001 0.0001 0.0001 0.0001 0.0001 0.0001 0.0001 0.0001 0.0001 0.0001 0.0001 0.0001 0.0001 0.0001 0.0001 0.0001 0.0001333333 0.0002 0.0002000122 0.0002000244 0.0002000726 0.0002000959 0.0002 0.0002000122 0.0002000244 0.0001667032 0.0001 0.0001000183 0.0001000183 0.0001 0.0001000003 0.0001 0.0001000488 0.0001333822 0.0002 0.0002 0.00015 0.0001 0.0001 0.0001000051 0.0001 0.0001000031 0.0001 0.0001 0.0001015625 0.0001029192 0.0001075231 0.0001148148 0.0001267747 0.0001416667 0.0001385951 0.0001238683 0.0001148148 0.0001074074 0.0001 0.0001 0.0001 0.000125 0.0001 0.00018 0.0002 0.0002 0.0004333333 0.0006 0.0045 0.0821 0.089 0.09493333 0.0997 0.0366 0.0827 0.0629 0.0478 0.05 0.054 0.05381666 0.0544 0.0544 0.0626 0.0732 0.039 0.0286 0.0189 0.01566667 0.0125 0.0129 0.0143 0.1293 0.0756 0.1199 0.087 0.05063333 0.0142 0.0072 0.0041 0.01744 0.0627 0.07786667 0.08585 0.023 0.0004 0.0092 0.0023 0.0042 0.0094 0.0349 0.0513 0.04511667 0.0397 0.0346 0.0291 0.0236 0.0273 0.0332 0.0381 0.03781667 0.0374 0.0367 0.0623 0.0112 0.006 0.0044 0.0082 0.00925 0.0094 0.0084 0.0064 0.0057 0.0028 0.0003 0.0002 0.00022 0.0001 0.0001 0.0001 0.0001 0.0001 0.0001 0.0001 0.0001 0.0001 0.0001020833 0.0001 0.0001 0.0001 0.0001 0.0001 0.0001 0.0001 0.0001 0.0001 0.0001 0.0001 0.0001 0.0001000051 0.0001001327 0.0001001953 0.0001 0.0001000489 0.0001000488 0.0001 0.0001 0.0001 0.0001 0.0001 
0.0001 0.0001 0.0001 0.0001 0.0001 0.0001 0.0001 0.0001 0.0001 0.0001 0.0001 0.0001 0.0001 0.0001 0.0001 0.0001 0.0001 0.0001 0.0001 0.0001 0.0001 0.0001 0.0001 0.0001 0.0001333333 0.0002 0.0002000061 0.0002000122 0.0002000364 0.0002000482 0.0002 0.0002000061 0.0002000122 0.0001666849 0.0001 0.0001000092 0.0001000092 0.0001 0.0001000001 0.0001 0.0001000244 0.0001333578 0.0002 0.0002 0.00015 0.0001 0.0001 0.0001000017 0.0001 0.0001000008 0.0001 0.0001 0.0001007813 0.0001014939 0.0001040016 0.0001084191 0.0001163709 0.0001277521 0.0001238764 0.0001101509 0.0001057613 0.0001024691 0.0001 0.0001 0.0001 0.00010625 0.0001 0.0001 0.0001333333 0.0001 0.0001 0.00045 0.0004 0.0123 0.0609 0.06786667 0.071 0.0759 0.0363 0.0706 0.0539 0.0421 0.0458 0.0512 0.05218333 0.0541 0.0571 0.0646 0.0662 0.0383 0.0279 0.0189 0.01653333 0.0138 0.0137 0.0114 0.1329 0.0761 0.1172 0.0735 0.04118333 0.0085 0.0034 0.0037 0.0039 0.03312133 0.07547222 0.03747667 0.0003666667 0.0004 0.0054 0.0012 0.0025 0.0063 0.0274 0.0443 0.03888333 0.0338 0.027 0.0243 0.0201 0.0222 0.0265 0.0301 0.03016667 0.0298 0.0347 0.0461 0.0081 0.0043 0.0025 0.0049 0.0058 0.0059 0.0054 0.0042 0.0032 0.0013 0.0001 0.00016 0.0001 0.0001 0.0001 0.0001 0.0001 0.0001 0.0001 0.0001 0.0001 0.0001 0.0001 0.0001005208 0.0001 0.0001 0.0001 0.0001 0.0001 0.0001 0.0001 0.0001 0.0001 0.0001 0.0001 0.0001 0.0001000017 0.0001000659 0.0001000977 0.0001 0.0001000244 0.0001000244 0.0001 0.0001 0.0001 0.0001 
0.0001 0.0001 0.0001 0.0001 0.0001 0.0001 0.0001 0.0001 0.0001 0.0001 0.0001 0.0001 0.0001 0.0001 0.0001 0.0001 0.0001 0.0001 0.0001 0.0001 0.0001 0.0001 0.0001 0.0001333333 0.0002 0.0002000031 0.0002000061 0.0002000182 0.0002000242 0.0002 0.0002000031 0.0002000061 0.0001666758 0.0001 0.0001000046 0.0001000046 0.0001 0.0001 0.0001 0.0001000122 0.0001333455 0.0002 0.0002 0.00015 0.0001 0.0001 0.0001000006 0.0001 0.0001000002 0.0001 0.0001 0.0001003906 0.0001007584 0.0001020923 0.0001046382 0.0001095972 0.000117514 0.0001146058 0.0001042067 0.0001021948 0.000100823 0.0001 0.0001 0.0001 0.0001015625 0.0001 0.0001 0.0001083333 0.0001 0.0001 0.0001 0.0004333333 0.0013 0.0069 0.0503 0.05231667 0.0539 0.056 0.0321 0.0569 0.0442 0.0357 0.0405 0.0436 0.0472 0.0522 0.0573 0.0632 0.0598 0.0369 0.027 0.02295 0.0191 0.016 0.0199 0.0353 0.0993 0.0749 0.111 0.08466667 0.0592 0.0047 0.0025 0.0032 0.0037 0.0038 0.02201083 0.0002888889 0.0003 0.0003 0.003 0.0006 0.0014 0.0039 0.0203 0.02861667 0.0366 0.0276 0.022 0.0178 0.0162 0.0174 0.0203 0.02191667 0.0229 0.0227 0.0302 0.0324 0.0056 0.0029 0.0013 0.0023 0.0028 0.0036 0.0033 0.0026 0.002 0.0006 0.0001 0.0001 0.0001 0.0001 0.0001 0.0001 0.0001 0.0001 0.0001 0.0001 0.0001 0.0001 0.0001 0.0001 0.0001001302 0.0001 0.0001 0.0001 0.0001 0.0001 0.0001 0.0001 0.0001 0.0001 0.0001 0.0001 0.0001 0.0001000006 0.0001000328 0.0001000488 0.0001 0.0001000122 0.0001000122 0.0001 0.0001 0.0001 
0.0001 0.0001 0.0001 0.0001 0.0001 0.0001 0.0001 0.0001 0.0001 0.0001 0.0001 0.0001 0.0001 0.0001 0.0001 0.0001 0.0001 0.0001 0.0001 0.0001 0.0001 0.0001 0.0001333333 0.0002 0.0002000015 0.0002000031 0.0002000091 0.0002000121 0.0002 0.0002000015 0.0002000031 0.0001666712 0.0001 0.0001000023 0.0001000023 0.0001 0.0001 0.0001 0.0001000061 0.0001333394 0.0002 0.0002 0.00015 0.0001 0.0001 0.0001000002 0.0001 0.0001 0.0001 0.0001 0.0001001953 0.000100383 0.0001010804 0.0001024963 0.0001054426 0.0001105831 0.0001087458 0.0001017071 0.000100823 0.0001002744 0.0001 0.0001 0.0001 0.0001003906 0.0001 0.0001 0.0001020833 0.0001 0.0001 0.0001 0.0001 0.0001 0.0006 0.0044 0.0389 0.03898333 0.0389 0.0398 0.026 0.0434 0.0347 0.0291 0.0347 0.03833333 0.0422 0.0489 0.0551 0.0593 0.0535 0.0348 0.0257 0.02225 0.0191 0.0175 0.0217 0.0264 0.0991 0.0717 0.1016 0.07336666 0.0455 0.0025 0.002725 0.0025 0.003133333 0.0037 0.001631111 0.0002166667 0.0002 0.0002 0.0016 0.0003 0.0008 0.0023 0.0142 0.02185 0.0289 0.0216 0.0172 0.0125 0.0124 0.0131 0.015 0.0162 0.0167 0.0166 0.0245 0.0218 0.0036 0.0019 0.0007 0.0013 0.0016 0.002 0.0019 0.0015 0.0012 0.0003 0.0003 0.0001 0.0001 0.0001 0.0001 0.0001 0.0001 0.0001 0.0001 0.0001 0.0001 0.0001 0.0001 0.0001 0.0001 0.0001000326 0.0001 0.0001 0.0001 0.0001 0.0001 0.0001 0.0001 0.0001 0.0001 0.0001 0.0001 0.0001 0.0001000002 0.0001000164 0.0001000244 0.0001 0.0001000061 0.0001000061 0.0001 0.0001 
0.0001 0.0001 0.0001 0.0001 0.0001 0.0001 0.0001 0.0001 0.0001 0.0001 0.0001 0.0001 0.0001 0.0001 0.0001 0.0001 0.0001 0.0001 0.0001 0.0001 0.0001 0.0001333333 0.0002 0.0002000008 0.0002000015 0.0002000046 0.0002000061 0.0002 0.0002000008 0.0002000015 0.0001666689 0.0001 0.0001000011 0.0001000011 0.0001 0.0001 0.0001 0.0001000031 0.0001333364 0.0002 0.0002 0.00015 0.0001 0.0001 0.0001000001 0.0001 0.0001 0.0001 0.0001 0.0001000977 0.0001001928 0.0001005529 0.0001013199 0.0001030064 0.000106174 0.0001051128 0.0001006808 0.0001003048 0.0001000914 0.0001 0.0001 0.0001 0.0001000977 0.0001 0.0001 0.0001005208 0.0001 0.0001 0.0001 0.0001 0.0001 0.000325 0.0004 0.0058 0.0251 0.02715 0.0268 0.0271 0.0195 0.0314 0.0261 0.0229 0.0288 0.03268333 0.0366 0.0441 0.0507 0.0537 0.0471 0.032 0.024 0.0211 0.0186 0.0179 0.0209 0.0198 0.0958 0.0666 0.0897 0.06155 0.0332 0.0012 0.001433333 0.00183125 0.0025 0.003111111 0.001047917 0.00015 0.00015 0.0001 0.0008 0.0001 0.0004 0.0013 0.0093 0.01588333 0.0218 0.0161 0.0129 0.0085 0.0091 0.0095 0.0106 0.01153333 0.0117 0.0116 0.0186 0.014 0.0023 0.0009 0.0005 0.00075 0.0009 0.0011 0.0011 0.00075 0.0004 0.0002 0.0002 0.0001875 0.0001 0.0001 0.0001 0.0001 0.0001 0.0001 0.0001 0.0001 0.0001 0.0001 0.0001 0.0001 0.0001 0.0001 0.0001000081 0.0001 0.0001 0.0001 0.0001 0.0001 0.0001 0.0001 0.0001 0.0001 0.0001 0.0001 0.0001 0.0001000001 0.0001000082 0.0001000122 0.0001 0.0001000031 0.0001000031 0.0001 
0.0001 0.0001 0.0001 0.0001 0.0001 0.0001 0.0001 0.0001 0.0001 0.0001 0.0001 0.0001 0.0001 0.0001 0.0001 0.0001 0.0001 0.0001 0.0001 0.0001 0.0001333333 0.0002 0.0002000004 0.0002000008 0.0002000023 0.000200003 0.0002 0.0002000004 0.0002000008 0.0001666678 0.0001 0.0001000006 0.0001000006 0.0001 0.0001 0.0001 0.0001000015 0.0001333349 0.0002 0.0002 0.00015 0.0001 0.0001 0.0001 0.0001 0.0001 0.0001 0.0001 0.0001000488 0.0001000968 0.0001002811 0.0001006885 0.0001016264 0.0001035001 0.0001029203 0.0001002676 0.0001001118 0.0001000305 0.0001 0.0001 0.0001 0.0001000244 0.0001 0.0001 0.0001001302 0.0001 0.0001 0.0001 0.0001 0.0001 0.0001979167 0.0002333333 0.0002 0.0053 0.01088333 0.0157 0.0175 0.0176 0.0137 0.0217 0.0188 0.0174 0.02048333 0.0231 0.0307 0.0384 0.0448 0.047 0.0407 0.0286 0.02503333 0.0217 0.0175 0.0172 0.0187 0.0147 0.0897 0.0599 0.0762 0.04996667 0.0231 0.0006 0.0006666667 0.0008 0.001375868 0.0025 0.000125 0.000125 0.0001 0.000375 0.0004 0.0003142857 0.0002 0.0007 0.003466667 0.0058 0.0153 0.0119 0.0092 0.0056 0.0063 0.0066 0.0072 0.0073 0.0079 0.0078 0.0133 0.0086 0.0013 0.0005 0.0003 0.0004333333 0.0005 0.0006 0.0006 0.0002 0.0002 0.0001 0.00015 0.00015 0.000140625 0.0001 0.0001 0.0001 0.0001 0.0001 0.0001 0.0001 0.0001 0.0001 0.0001 0.0001 0.0001 0.0001 0.0001 0.000100002 0.0001 0.0001 0.0001 0.0001 0.0001 0.0001 0.0001 0.0001 0.0001 0.0001 0.0001 0.0001 0.0001 0.0001000041 0.0001000061 0.0001 0.0001000015 0.0001000015 
0.0001 0.0001 0.0001 0.0001 0.0001 0.0001 0.0001 0.0001 0.0001 0.0001 0.0001 0.0001 0.0001 0.0001 0.0001 0.0001 0.0001 0.0001 0.0001 0.0001333333 0.0002 0.0002000002 0.0002000004 0.0002000011 0.0002000015 0.0002 0.0002000002 0.0002000004 0.0001666672 0.0001 0.0001000003 0.0001000003 0.0001 0.0001 0.0001 0.0001000008 0.0001333341 0.0002 0.0002 0.00015 0.0001 0.0001 0.0001 0.0001 0.0001 0.0001 0.0001 0.0001000244 0.0001000485 0.0001001422 0.0001003555 0.0001008654 0.0001019383 0.0001016331 0.0001001039 0.0001000406 0.0001000102 0.0001 0.0001 0.0001 0.0001000061 0.0001 0.0001 0.0001000326 0.0001 0.0001 0.0001 0.0001 0.0001 0.0001411458 0.0001555556 0.0001333333 0.0001 0.004 0.007116667 0.0094 0.0109 0.011 0.0091 0.0142 0.013 0.0128 0.01563333 0.0179 0.0249 0.0322 0.0381 0.0397 0.0343 0.0248 0.02188333 0.0191 0.0158 0.0156 0.0159 0.0109 0.081 0.052 0.05715 0.0623 0.0153 0.0002 0.0003 0.0003722222 0.0004518518 0.0006988674 0.0001125 0.0001 0.0002145833 0.0002333333 0.0002 0.0002 0.0001 0.0003 0.002033333 0.0034 0.0102 0.0084 0.0059 0.0039 0.0043 0.0044 0.004816667 0.0048 0.0051 0.0058 0.0082 0.005 0.0008 0.0002 0.0002333333 0.0002 0.0002 0.0003 0.0004 0.0001 0.0001 0.000125 0.0001 0.000125 0.000125 0.0001195313 0.0001 0.0001 0.0001 0.0001 0.0001 0.0001 0.0001 0.0001 0.0001 0.0001 0.0001 0.0001 0.0001 0.0001 0.0001000005 0.0001 0.0001 0.0001 0.0001 0.0001 0.0001 0.0001 0.0001 0.0001 0.0001 0.0001 0.0001 0.0001 0.000100002 0.0001000031 0.0001 0.000100001 
0.0001 0.0001 0.0001 0.0001 0.0001 0.0001 0.0001 0.0001 0.0001 0.0001 0.0001 0.0001 0.0001 0.0001 0.0001 0.0001 0.0001 0.0001 0.0001333333 0.0002 0.0002000001 0.0002000002 0.0002000006 0.0002000008 0.0002 0.0002000001 0.0002000002 0.000166667 0.0001 0.0001000001 0.0001000001 0.0001 0.0001 0.0001 0.0001000004 0.0001333337 0.0002 0.0002 0.00015 0.0001 0.0001 0.0001 0.0001 0.0001 0.0001 0.0001 0.0001000122 0.0001000243 0.0001000717 0.0001001821 0.0001004544 0.0001010531 0.0001008964 0.0001000399 0.0001000147 0.0001000034 0.0001 0.0001 0.0001 0.0001000015 0.0001 0.0001 0.0001000081 0.0001 0.0001 0.0001 0.0001 0.0001 0.0001167679 0.0001222222 0.0001111111 0.0001 0.0001 0.0028 0.0044 0.0055 0.0065 0.0065 0.0057 0.009 0.0086 0.0091 0.01156667 0.0135 0.0195 0.026 0.0312 0.0325 0.028 0.0208 0.01855 0.0163 0.0138 0.0138 0.015 0.0192 0.0569 0.0435 0.04648333 0.049 0.0097 0.0001 0.00015 0.0001833333 0.0002268519 0.000205463 0.0001 0.0001501736 0.0001611111 0.00015 0.0001 0.0001333333 0.00015 0.0001 0.001133333 0.0019 0.0066 0.0053 0.0039 0.0026 0.0027 0.0028 0.003083333 0.003 0.0036 0.0036 0.0049 0.0028 0.0004 0.0001 0.00014 0.0001 0.0001 0.0002 0.0001 0.0001 0.0001 0.0001 0.00010625 0.0001 0.0001125 0.0001125 0.0001095703 0.0001 0.0001 0.0001 0.0001 0.0001 0.0001 0.0001 0.0001 0.0001 0.0001 0.0001 0.0001 0.0001 0.0001 0.0001000001 0.0001 0.0001 0.0001 0.0001 0.0001 0.0001 0.0001 0.0001 0.0001 0.0001 0.0001 0.0001 0.0001 0.000100001 0.0001000015 0.0001 
0.0001 0.0001 0.0001 0.0001 0.0001 0.0001 0.0001 0.0001 0.0001 0.0001 0.0001 0.0001 0.0001 0.0001 0.0001 0.0001 0.0001 0.0001333333 0.0002 0.0002000001 0.0002000001 0.0002000003 0.0002000004 0.0002 0.0002000001 0.0002000001 0.0001666668 0.0001 0.0001000001 0.0001000001 0.0001 0.0001 0.0001 0.0001000002 0.0001333335 0.0002 0.0002 0.00015 0.0001 0.0001 0.0001 0.0001 0.0001 0.0001 0.0001 0.0001000061 0.0001000122 0.0001000361 0.0001000927 0.0001002361 0.0001005632 0.0001004842 0.0001000152 0.0001000053 0.0001000011 0.0001 0.0001 0.0001 0.0001000004 0.0001 0.0001 0.000100002 0.0001 0.0001 0.0001 0.0001 0.0001 0.0001066611 0.000108642 0.0001037037 0.0001 0.0001 0.00145 0.0014 0.0017 0.003 0.0037 0.0037 0.0034 0.0054 0.0055 0.0063 0.0083 0.0098 0.0147 0.0202 0.0245 0.0256 0.0223 0.0169 0.0152 0.0134 0.0116 0.0118 0.0128 0.0132 0.0484 0.0351 0.03563333 0.037 0.0058 0.004725 0.0001 0.000125 0.0001361111 0.0001438657 0.0001228443 0.0001287037 0.000125 0.0001 0.0001 0.0001 0.0001 0.0001 0.00072 0.001 0.004 0.0033 0.0024 0.0017 0.0017 0.0017 0.0019 0.0018 0.0024 0.0021 0.0028 0.0015 0.0002 0.0002 0.0001 0.0001 0.0001 0.0001 0.000125 0.0001 0.0001 0.0001 0.0001 0.0001015625 0.0001 0.00010625 0.00010625 0.0001047363 0.0001 0.0001 0.0001 0.0001 0.0001 0.0001 0.0001 0.0001 0.0001 0.0001 0.0001 0.0001 0.0001 0.0001 0.0001 0.0001 0.0001 0.0001 0.0001 0.0001 0.0001 0.0001 0.0001 0.0001 0.0001 0.0001 0.0001 0.0001 0.0001000005 0.0001000008 
0.0001 0.0001 0.0001 0.0001 0.0001 0.0001 0.0001 0.0001 0.0001 0.0001 0.0001 0.0001 0.0001 0.0001 0.0001 0.0001 0.0001333333 0.0002 0.0002 0.0002000001 0.0002000001 0.0002000002 0.0002 0.0002 0.0002000001 0.0001666667 0.0001 0.0001 0.0001 0.0001 0.0001 0.0001 0.0001000001 0.0001333334 0.0002 0.0002 0.00015 0.0001 0.0001 0.0001 0.0001 0.0001 0.0001 0.0001 0.0001000031 0.0001000061 0.0001000181 0.000100047 0.0001001216 0.0001002973 0.000100258 0.0001000057 0.0001000019 0.0001000004 0.0001 0.0001 0.0001 0.0001000001 0.0001 0.0001 0.0001000005 0.0001 0.0001 0.0001 0.0001 0.0001 0.0001025912 0.0001032922 0.0001012346 0.0001 0.0001 0.000775 0.0009366667 0.0011 0.001 0.0016 0.002 0.002 0.0019 0.0031 0.0034 0.004016667 0.0042 0.0069 0.0107 0.0151 0.0186 0.0195 0.0171 0.01536667 0.0132 0.0106 0.0093 0.0097 0.0112 0.0154 0.0368 0.03153333 0.026 0.0232 0.0033 0.003633333 0.002614583 0.0001 0.0001125 0.0001162037 0.0001137346 0.0001125 0.0001 0.0001 0.0001 0.0001 0.0001 0.0001 0.000475 0.0005 0.0023 0.0019 0.0015 0.001 0.001 0.0011 0.001 0.0011 0.0013 0.0014 0.0015 0.0008 0.0001 0.0001333333 0.0001 0.0001 0.0001 0.0001 0.0001 0.00010625 0.0001 0.0001 0.0001 0.0001 0.0001003906 0.0001 0.000103125 0.000103125 0.000102356 0.0001 0.0001 0.0001 0.0001 0.0001 0.0001 0.0001 0.0001 0.0001 0.0001 0.0001 0.0001 0.0001 0.0001 0.0001 0.0001 0.0001 0.0001 0.0001 0.0001 0.0001 0.0001 0.0001 0.0001 0.0001 0.0001 0.0001 0.0001 0.0001000003 
0.0001 0.0001 0.0001 0.0001 0.0001 0.0001 0.0001 0.0001 0.0001 0.0001 0.0001 0.0001 0.0001 0.0001 0.0001 0.0001333333 0.0002 0.0002 0.0002 0.0002000001 0.0002000001 0.0002 0.0002 0.0002 0.0001666667 0.0001 0.0001 0.0001 0.0001 0.0001 0.0001 0.0001 0.0001333334 0.0002 0.0002 0.00015 0.0001 0.0001 0.0001 0.0001 0.0001 0.0001 0.0001 0.0001000015 0.000100003 0.0001000091 0.0001000237 0.0001000622 0.0001001553 0.0001001359 0.0001000021 0.0001000007 0.0001000001 0.0001 0.0001 0.0001 0.0001 0.0001 0.0001 0.0001000001 0.0001 0.0001 0.0001 0.0001 0.0001 0.0001009907 0.0001012346 0.0001004115 0.0001 0.0001 0.0004375 0.0005756667 0.0006888889 0.0006333333 0.0006 0.0008 0.001 0.001 0.001 0.0017 0.002 0.002533333 0.0027 0.0046 0.0075 0.0109 0.0136 0.0144 0.0127 0.01156667 0.01 0.0081 0.0073 0.0078 0.0096 0.0144 0.0266 0.02235 0.0163 0.0162 0.0018 0.002 0.002216667 0.001521701 0.0001 0.00010625 0.00010625 0.0001 0.0001 0.0001 0.0001 0.0001 0.0001 0.0002283333 0.0003 0.0003 0.0013 0.0011 0.0008 0.0006 0.0006 0.0006333333 0.0006 0.0006 0.0007 0.0008 0.0008 0.0004 0.0001 0.0001 0.0001066667 0.0001 0.0001 0.0001 0.0001 0.0001 0.0001015625 0.0001 0.0001 0.0001 0.0001 0.0001000977 0.0001 0.0001015625 0.0001015625 0.0001011749 0.0001 0.0001 0.0001 0.0001 0.0001 0.0001 0.0001 0.0001 0.0001 0.0001 0.0001 0.0001 0.0001 0.0001 0.0001 0.0001 0.0001 0.0001 0.0001 0.0001 0.0001 0.0001 0.0001 0.0001 0.0001 0.0001 0.0001 0.0001 
0.0001 0.0001 0.0001 0.0001 0.0001 0.0001 0.0001 0.0001 0.0001 0.0001 0.0001 0.0001 0.0001 0.0001 0.0001333333 0.0002 0.0002 0.0002 0.0002 0.0002000001 0.0002 0.0002 0.0002 0.0001666667 0.0001 0.0001 0.0001 0.0001 0.0001 0.0001 0.0001 0.0001333334 0.0002 0.0002 0.00015 0.0001 0.0001 0.0001 0.0001 0.0001 0.0001 0.0001 0.0001000008 0.0001000015 0.0001000046 0.000100012 0.0001000317 0.0001000804 0.0001000709 0.0001000008 0.0001000002 0.0001 0.0001 0.0001 0.0001 0.0001 0.0001 0.0001 0.0001 0.0001 0.0001 0.0001 0.0001 0.0001 0.0001003734 0.0001004572 0.0001001372 0.0001 0.0001 0.00026875 0.0003537445 0.0004222222 0.0003777778 0.0003333333 0.0003 0.0004 0.0005 0.0005 0.0005 0.0009 0.0012 0.00155 0.0017 0.003 0.0051 0.0075 0.0096 0.0102 0.0091 0.008416667 0.0073 0.006 0.0055 0.0061 0.0079 0.012 0.0184 0.01491667 0.01 0.0109 0.0009 0.001016667 0.001155556 0.001312037 0.0008982494 0.0001 0.0001 0.0001 0.0001 0.0001 0.0001 0.0001 0.0001478889 0.0001888889 0.0001666667 0.0001 0.0007 0.0006 0.0005 0.0003 0.0003 0.0003666667 0.0003 0.0003 0.0004 0.0005 0.0004 0.0002 0.0002 0.0001 0.0001 0.0001013333 0.0001 0.0001 0.0001 0.0001 0.0001 0.0001003906 0.0001 0.0001 0.0001 0.0001 0.0001000244 0.0001 0.0001007813 0.0001007813 0.0001005867 0.0001 0.0001 0.0001 0.0001 0.0001 0.0001 0.0001 0.0001 0.0001 0.0001 0.0001 0.0001 0.0001 0.0001 0.0001 0.0001 0.0001 0.0001 0.0001 0.0001 0.0001 0.0001 0.0001 0.0001 0.0001 0.0001 0.0001 
0.0001 0.0001 0.0001 0.0001 0.0001 0.0001 0.0001 0.0001 0.0001 0.0001 0.0001 0.0001 0.0001 0.0001333333 0.0002 0.0002 0.0002 0.0002 0.0002 0.0002 0.0002 0.0002 0.0001666667 0.0001 0.0001 0.0001 0.0001 0.0001 0.0001 0.0001 0.0001333333 0.0002 0.0002 0.00015 0.0001 0.0001 0.0001 0.0001 0.0001 0.0001 0.0001 0.0001000004 0.0001000008 0.0001000023 0.000100006 0.0001000161 0.0001000414 0.0001000367 0.0001000003 0.0001000001 0.0001 0.0001 0.0001 0.0001 0.0001 0.0001 0.0001 0.0001 0.0001 0.0001 0.0001 0.0001 0.0001 0.0001001391 0.0001001677 0.0001000457 0.0001 0.0001 0.000184375 0.0002296841 0.0002654321 0.0002333333 0.0002 0.0001666667 0.0001 0.0002 0.0002 0.0002 0.0003 0.0005 0.00065 0.0007 0.001 0.0019 0.0033 0.005 0.0065 0.007 0.0069 0.0063 0.0051 0.0042 0.0039 0.0036 0.0072 0.0092 0.0122 0.00965 0.006 0.0071 0.00035 0.00045 0.0005638889 0.0006592593 0.0007665124 0.0004503598 0.0001 0.0001 0.0001 0.0001 0.0001 0.0001184667 0.000137037 0.0001222222 0.0001 0.0001 0.0003 0.0003 0.0002 0.0002 0.0002 0.0002 0.0002 0.0002 0.0002 0.0003 0.0002 0.0001 0.00015 0.0001375 0.0001 0.0001 0.0001002667 0.0001 0.0001 0.0001 0.0001 0.0001 0.0001000977 0.0001 0.0001 0.0001 0.0001 0.0001000061 0.0001 0.0001003906 0.0001003906 0.0001002932 0.0001 0.0001 0.0001 0.0001 0.0001 0.0001 0.0001 0.0001 0.0001 0.0001 0.0001 0.0001 0.0001 0.0001 0.0001 0.0001 0.0001 0.0001 0.0001 0.0001 0.0001 0.0001 0.0001 0.0001 0.0001 0.0001 
0.0001 0.0001 0.0001 0.0001 0.0001 0.0001 0.0001 0.0001 0.0001 0.0001 0.0001 0.0001 0.0001333333 0.0002 0.0002 0.0002 0.0002 0.0002 0.0002 0.0002 0.0002 0.0001666667 0.0001 0.0001 0.0001 0.0001 0.0001 0.0001 0.0001 0.0001333333 0.0002 0.0002 0.00015 0.0001 0.0001 0.0001 0.0001 0.0001 0.0001 0.0001 0.0001000002 0.0001000004 0.0001000011 0.000100003 0.0001000081 0.0001000211 0.0001000188 0.0001000001 0.0001 0.0001 0.0001 0.0001 0.0001 0.0001 0.0001 0.0001 0.0001 0.0001 0.0001 0.0001 0.0001 0.0001 0.0001000513 0.000100061 0.0001000152 0.0001 0.0001 0.0001421875 0.000164211 0.0001806584 0.0001604938 0.0001407407 0.0001222222 0.0001 0.0001 0.0001 0.0001 0.0001 0.0001 0.0002 0.00035 0.0004 0.0006 0.0012 0.0021 0.0032 0.0042 0.0046 0.004633334 0.0042 0.0035 0.0029 0.0027 0.0029 0.0051 0.0066 0.007466667 0.0078 0.0035 0.0044 0.0001 0.000225 0.0002583333 0.0003282407 0.000387037 0.0004548611 0.0002699125 0.0001 0.0001 0.0001 0.0001071501 0.0001148148 0.0001074074 0.0001 0.0001 0.000175 0.0002 0.0002 0.0001 0.0001 0.00015 0.0001 0.0001 0.0001 0.0001 0.0001 0.0001 0.0001333333 0.0001 0.000125 0.000115625 0.0001 0.0001 0.0001000533 0.0001 0.0001 0.0001 0.0001 0.0001 0.0001000244 0.0001 0.0001 0.0001 0.0001 0.0001000015 0.0001 0.0001001953 0.0001001953 0.0001001465 0.0001 0.0001 0.0001 0.0001 0.0001 0.0001 0.0001 0.0001 0.0001 0.0001 0.0001 0.0001 0.0001 0.0001 0.0001 0.0001 0.0001 0.0001 0.0001 0.0001 0.0001 0.0001 0.0001 0.0001 0.0001 
0.0001 0.0001 0.0001 0.0001 0.0001 0.0001 0.0001 0.0001 0.0001 0.0001 0.0001 0.0001333333 0.0002 0.0002 0.0002 0.0002 0.0002 0.0002 0.0002 0.0002 0.0001666667 0.0001 0.0001 0.0001 0.0001 0.0001 0.0001 0.0001 0.0001333333 0.0002 0.0002 0.00015 0.0001 0.0001 0.0001 0.0001 0.0001 0.0001 0.0001 0.0001000001 0.0001000002 0.0001000006 0.0001000015 0.0001000041 0.0001000108 0.0001000096 0.0001 0.0001 0.0001 0.0001 0.0001 0.0001 0.0001 0.0001 0.0001 0.0001 0.0001 0.0001 0.0001 0.0001 0.0001 0.0001000187 0.000100022 0.0001000051 0.0001 0.0001 0.0001210937 0.0001310465 0.0001377229 0.0001263374 0.0001160494 0.0001074074 0.0001 0.0001 0.0001 0.0001 0.0001 0.0001 0.0001 0.0001 0.0001833333 0.0002 0.0003 0.0007 0.0013 0.002 0.0027 0.003 0.003 0.0027 0.0023 0.0019 0.0017 0.0016 0.0041 0.0044 0.004816667 0.0046 0.0026 0.0023 0.001925 0.0001 0.0001625 0.0001736111 0.000211034 0.0002443416 0.0002843578 0.0001 0.0001 0.0001027469 0.0001057613 0.0001024691 0.0001 0.0001 0.00013125 0.00015 0.0001 0.0001 0.0001 0.0001 0.0001 0.0001 0.0001 0.0001 0.0001 0.0001 0.0001 0.0001 0.0001111111 0.0001 0.0001125 0.0001070313 0.0001 0.0001 0.0001000107 0.0001 0.0001 0.0001 0.0001 0.0001 0.0001000061 0.0001 0.0001 0.0001 0.0001 0.0001000004 0.0001 0.0001000977 0.0001000977 0.0001000733 0.0001 0.0001 0.0001 0.0001 0.0001 0.0001 0.0001 0.0001 0.0001 0.0001 0.0001 0.0001 0.0001 0.0001 0.0001 0.0001 0.0001 0.0001 0.0001 0.0001 0.0001 0.0001 0.0001 0.0001 
0.0001 0.0001 0.0001 0.0001 0.0001 0.0001 0.0001 0.0001 0.0001 0.0001 0.0001333333 0.0002 0.0002 0.0002 0.0002 0.0002 0.0002 0.0002 0.0002 0.0001666667 0.0001 0.0001 0.0001 0.0001 0.0001 0.0001 0.0001 0.0001333333 0.0002 0.0002 0.00015 0.0001 0.0001 0.0001 0.0001 0.0001 0.0001 0.0001 0.0001 0.0001000001 0.0001000003 0.0001000008 0.0001000021 0.0001000055 0.0001000049 0.0001 0.0001 0.0001 0.0001 0.0001 0.0001 0.0001 0.0001 0.0001 0.0001 0.0001 0.0001 0.0001 0.0001 0.0001 0.0001000068 0.0001000079 0.0001000017 0.0001 0.0001 0.0001105469 0.0001147536 0.0001170553 0.0001111111 0.0001061728 0.0001024691 0.0001 0.0001 0.0001 0.0001 0.0001 0.0001 0.0001 0.0001 0.0001 0.000125 0.0001 0.0002 0.0004 0.0008 0.0012 0.0016 0.0018 0.001883333 0.0017 0.0014 0.0012 0.0011 0.0012 0.0025 0.0025 0.00295 0.003 0.0018 0.0009 0.001166667 0.00090625 0.0001 0.00013125 0.0001349537 0.0001538709 0.0001716907 0.0001564459 0.0001010432 0.0001021948 0.000100823 0.0001 0.0001 0.0001140625 0.000125 0.0001 0.0001 0.0001 0.0001 0.0001 0.0001 0.0001 0.0001 0.0001 0.0001 0.0001 0.0001 0.0001 0.0001 0.0001037037 0.0001 0.00010625 0.0001033203 0.0001 0.0001 0.0001000021 0.0001 0.0001 0.0001 0.0001 0.0001 0.0001000015 0.0001 0.0001 0.0001 0.0001 0.0001000001 0.0001 0.0001000488 0.0001000488 0.0001000366 0.0001 0.0001 0.0001 0.0001 0.0001 0.0001 0.0001 0.0001 0.0001 0.0001 0.0001 0.0001 0.0001 0.0001 0.0001 0.0001 0.0001 0.0001 0.0001 0.0001 0.0001 0.0001 0.0001 
0.0001 0.0001 0.0001 0.0001 0.0001 0.0001 0.0001 0.0001 0.0001 0.0001333333 0.0002 0.0002 0.0002 0.0002 0.0002 0.0002 0.0002 0.0002 0.0001666667 0.0001 0.0001 0.0001 0.0001 0.0001 0.0001 0.0001 0.0001333333 0.0002 0.0002 0.00015 0.0001 0.0001 0.0001 0.0001 0.0001 0.0001 0.0001 0.0001 0.0001 0.0001000001 0.0001000004 0.000100001 0.0001000028 0.0001000025 0.0001 0.0001 0.0001 0.0001 0.0001 0.0001 0.0001 0.0001 0.0001 0.0001 0.0001 0.0001 0.0001 0.0001 0.0001 0.0001000025 0.0001000028 0.0001000006 0.0001 0.0001 0.0001052734 0.0001069287 0.0001074989 0.0001045725 0.000102332 0.000100823 0.0001 0.0001 0.0001 0.0001 0.0001 0.0001 0.0001 0.0001 0.0001 0.0001 0.0001 0.000125 0.0001 0.0002 0.0004 0.0007 0.001 0.0011 0.0011 0.001 0.0009 0.0007 0.0007 0.0008 0.0015 0.001566667 0.0013 0.0019 0.0011 0.0003 0.0004333333 0.0005888889 0.0004571181 0.0001 0.000115625 0.0001168596 0.000126181 0.0001353652 0.000100823 0.0001002744 0.0001 0.0001 0.0001066406 0.0001125 0.0001 0.0001 0.0001 0.0001 0.0001 0.0001 0.0001 0.0001 0.0001 0.0001 0.0001 0.0001 0.0001 0.0001 0.0001 0.0001 0.0001012346 0.0001 0.000103125 0.0001016113 0.0001 0.0001 0.0001000004 0.0001 0.0001 0.0001 0.0001 0.0001 0.0001000004 0.0001 0.0001 0.0001 0.0001 0.0001 0.0001 0.0001000244 0.0001000244 0.0001000183 0.0001 0.0001 0.0001 0.0001 0.0001 0.0001 0.0001 0.0001 0.0001 0.0001 0.0001 0.0001 0.0001 0.0001 0.0001 0.0001 0.0001 0.0001 0.0001 0.0001 0.0001 0.0001 
0.0001 0.0001 0.0001 0.0001 0.0001 0.0001 0.0001 0.0001 0.0001333333 0.0002 0.0002 0.0002 0.0002 0.0002 0.0002 0.0002 0.0002 0.0001666667 0.0001 0.0001 0.0001 0.0001 0.0001 0.0001 0.0001 0.0001333333 0.0002 0.0002 0.00015 0.0001 0.0001 0.0001 0.0001 0.0001 0.0001 0.0001 0.0001 0.0001 0.0001000001 0.0001000002 0.0001000005 0.0001000014 0.0001000013 0.0001 0.0001 0.0001 0.0001 0.0001 0.0001 0.0001 0.0001 0.0001 0.0001 0.0001 0.0001 0.0001 0.0001 0.0001 0.0001000009 0.000100001 0.0001000002 0.0001 0.0001 0.0001026367 0.000103231 0.0001032211 0.0001018442 0.0001008688 0.0001002744 0.0001 0.0001 0.0001 0.0001 0.0001 0.0001 0.0001 0.0001 0.0001 0.0001 0.0001 0.000105 0.0001 0.0001 0.0001 0.0002 0.0004 0.0005 0.0006333333 0.0006 0.0006 0.0005 0.0004 0.0004 0.0005 0.0008 0.0008833333 0.0008 0.0012 0.0007 0.0001 0.0001666667 0.0002333333 0.0003148148 0.0002559462 0.0001 0.0001078125 0.000108224 0.0001127704 0.0001000914 0.0001 0.0001 0.0001032227 0.00010625 0.0001 0.0001 0.0001 0.0001 0.0001 0.0001 0.0001 0.0001 0.0001 0.0001 0.0001 0.0001 0.0001 0.0001 0.0001 0.0001 0.0001 0.0001 0.0001004115 0.0001 0.0001015625 0.0001007935 0.0001 0.0001 0.0001000001 0.0001 0.0001 0.0001 0.0001 0.0001 0.0001000001 0.0001 0.0001 0.0001 0.0001 0.0001 0.0001 0.0001000122 0.0001000122 0.0001000092 0.0001 0.0001 0.0001 0.0001 0.0001 0.0001 0.0001 0.0001 0.0001 0.0001 0.0001 0.0001 0.0001 0.0001 0.0001 0.0001 0.0001 0.0001 0.0001 0.0001 0.0001 
0.0001 0.0001 0.0001 0.0001 0.0001 0.0001 0.0001 0.0001333333 0.0002 0.0002 0.0002 0.0002 0.0002 0.0002 0.0002 0.0002 0.0001666667 0.0001 0.0001 0.0001 0.0001 0.0001 0.0001 0.0001 0.0001333333 0.0002 0.0002 0.00015 0.0001 0.0001 0.0001 0.0001 0.0001 0.0001 0.0001 0.0001 0.0001 0.0001 0.0001000001 0.0001000003 0.0001000007 0.0001000006 0.0001 0.0001 0.0001 0.0001 0.0001 0.0001 0.0001 0.0001 0.0001 0.0001 0.0001 0.0001 0.0001 0.0001 0.0001 0.0001000003 0.0001000004 0.0001000001 0.0001 0.0001 0.0001013184 0.0001015021 0.0001013565 0.0001007316 0.0001003201 0.0001000914 0.0001 0.0001 0.0001 0.0001 0.0001 0.0001 0.0001 0.0001 0.0001 0.0001 0.0001 0.000101 0.0001 0.0001 0.0001 0.0001 0.0001 0.0002 0.0003 0.00035 0.0003 0.0003 0.0003 0.0003 0.0002 0.0003 0.0004 0.0005 0.0005 0.0007 0.0003 0.0001 0.0001 0.0001222222 0.0001518519 0.000191358 0.0001667643 0.0001 0.0001039062 0.0001040434 0.0001 0.0001 0.0001015869 0.000103125 0.0001 0.0001 0.0001 0.0001 0.0001 0.0001 0.0001 0.0001 0.0001 0.0001 0.0001 0.0001 0.0001 0.0001 0.0001 0.0001 0.0001 0.0001 0.0001 0.0001 0.0001001372 0.0001 0.0001007813 0.0001003937 0.0001 0.0001 0.0001 0.0001 0.0001 0.0001 0.0001 0.0001 0.0001 0.0001 0.0001 0.0001 0.0001 0.0001 0.0001 0.0001000061 0.0001000061 0.0001000046 0.0001 0.0001 0.0001 0.0001 0.0001 0.0001 0.0001 0.0001 0.0001 0.0001 0.0001 0.0001 0.0001 0.0001 0.0001 0.0001 0.0001 0.0001 0.0001 0.0001 
0.0001 0.0001 0.0001 0.0001 0.0001 0.0001 0.0001333333 0.0002 0.0002 0.0002 0.0002 0.0002 0.0002 0.0002 0.0002 0.0001666667 0.0001 0.0001 0.0001 0.0001 0.0001 0.0001 0.0001 0.0001333333 0.0002 0.0002 0.00015 0.0001 0.0001 0.0001 0.0001 0.0001 0.0001 0.0001 0.0001 0.0001 0.0001 0.0001 0.0001000001 0.0001000004 0.0001000003 0.0001 0.0001 0.0001 0.0001 0.0001 0.0001 0.0001 0.0001 0.0001 0.0001 0.0001 0.0001 0.0001 0.0001 0.0001 0.0001000001 0.0001000001 0.0001 0.0001 0.0001 0.0001006592 0.0001006987 0.0001005617 0.0001002862 0.0001001168 0.0001000305 0.0001 0.0001 0.0001 0.0001 0.0001 0.0001 0.0001 0.0001 0.0001 0.0001 0.0001 0.0001002 0.0001 0.0001 0.0001 0.0001 0.0001 0.0001 0.0001 0.0002 0.0002 0.0002 0.0002 0.0002 0.0001 0.0001 0.0002 0.0002 0.0002666667 0.0003 0.0004 0.0001 0.00015 0.0001 0.0001 0.0001074074 0.0001197531 0.0001378601 0.000128008 0.0001 0.0001019531 0.0001 0.0001007874 0.0001015625 0.0001 0.0001 0.0001 0.0001 0.0001 0.0001 0.0001 0.0001 0.0001 0.0001 0.0001 0.0001 0.0001 0.0001 0.0001 0.0001 0.0001 0.0001 0.0001 0.0001 0.0001 0.0001 0.0001000457 0.0001 0.0001003906 0.0001001961 0.0001 0.0001 0.0001 0.0001 0.0001 0.0001 0.0001 0.0001 0.0001 0.0001 0.0001 0.0001 0.0001 0.0001 0.0001 0.0001000031 0.0001000031 0.0001000023 0.0001 0.0001 0.0001 0.0001 0.0001 0.0001 0.0001 0.0001 0.0001 0.0001 0.0001 0.0001 0.0001 0.0001 0.0001 0.0001 0.0001 0.0001 0.0001 
0.0001 0.0001 0.0001 0.0001 0.0001 0.0001333333 0.0002 0.0002 0.0002 0.0002 0.0002 0.0002 0.0002 0.0002 0.0001666667 0.0001 0.0001 0.0001 0.0001 0.0001 0.0001 0.0001 0.0001333333 0.0002 0.0002 0.00015 0.0001 0.0001 0.0001 0.0001 0.0001 0.0001 0.0001 0.0001 0.0001 0.0001 0.0001 0.0001000001 0.0001000002 0.0001000002 0.0001 0.0001 0.0001 0.0001 0.0001 0.0001 0.0001 0.0001 0.0001 0.0001 0.0001 0.0001 0.0001 0.0001 0.0001 0.0001 0.0001 0.0001 0.0001 0.0001 0.0001003296 0.0001003315 0.0001002322 0.0001001112 0.0001000423 0.0001000102 0.0001 0.0001 0.0001 0.0001 0.0001 0.0001 0.0001 0.0001 0.0001 0.0001 0.0001 0.00010004 0.0001 0.0001 0.0001 0.0001 0.0001 0.0001 0.0001 0.0001 0.000125 0.0001 0.0001 0.0001 0.0001 0.0001 0.0001 0.0001 0.00014 0.0001 0.0001 0.0002 0.0001 0.0001 0.0001125 0.0001 0.0001 0.0001024691 0.0001074074 0.0001155007 0.0001119574 0.0001 0.000100587 0.0001007813 0.0001 0.0001 0.0001 0.0001 0.0001 0.0001 0.0001 0.0001 0.0001 0.0001 0.0001 0.0001 0.0001 0.0001 0.0001 0.0001 0.0001 0.0001 0.0001 0.0001 0.0001 0.0001 0.0001 0.0001 0.0001000152 0.0001 0.0001001953 0.0001000978 0.0001 0.0001 0.0001 0.0001 0.0001 0.0001 0.0001 0.0001 0.0001 0.0001 0.0001 0.0001 0.0001 0.0001 0.0001 0.0001000015 0.0001000015 0.0001000011 0.0001 0.0001 0.0001 0.0001 0.0001 0.0001 0.0001 0.0001 0.0001 0.0001 0.0001 0.0001 0.0001 0.0001 0.0001 0.0001 0.0001 0.0001 
0.0001 0.0001 0.0001 0.0001 0.0001333333 0.0002 0.0002 0.0002 0.0002 0.0002 0.0002 0.0002 0.0002 0.0001666667 0.0001 0.0001 0.0001 0.0001 0.0001 0.0001 0.0001 0.0001333333 0.0002 0.0002 0.0001625 0.0001 0.0001 0.0001 0.0001 0.0001 0.0001 0.0001 0.0001 0.0001 0.0001 0.0001 0.0001 0.0001000001 0.0001000001 0.0001 0.0001 0.0001 0.0001 0.0001 0.0001 0.0001 0.0001 0.0001 0.0001 0.0001 0.0001 0.0001 0.0001 0.0001 0.0001 0.0001 0.0001 0.0001 0.0001 0.0001001648 0.0001002027 0.0001001498 0.0001000675 0.0001000237 0.0001000051 0.0001 0.0001 0.0001 0.0001 0.0001 0.0001 0.0001 0.0001 0.0001 0.0001 0.0001 0.00010001 0.0001 0.0001 0.0001 0.0001 0.0001 0.0001 0.0001 0.0001 0.0001 0.0001 0.0001 0.0001 0.0001 0.0001 0.0001 0.0001 0.0001 0.0001 0.0001 0.0001 0.0001 0.0001333333 0.0001 0.0001 0.0001041667 0.0001 0.0001 0.0001012346 0.000104321 0.0001099108 0.0001072894 0.0001002604 0.0001 0.0001 0.0001 0.0001 0.0001 0.0001 0.0001 0.0001 0.0001 0.0001 0.0001 0.0001 0.0001 0.0001 0.0001 0.0001 0.0001 0.0001 0.0001 0.0001 0.0001 0.0001 0.0001 0.0001 0.0001 0.0001 0.0001000051 0.0001 0.0001000977 0.0001000652 0.0001 0.0001 0.0001 0.0001 0.0001 0.0001 0.0001 0.0001 0.0001 0.0001 0.0001 0.0001 0.0001 0.0001 0.0001 0.0001000008 0.0001000011 0.0001000008 0.0001 0.0001 0.0001 0.0001 0.0001 0.0001 0.0001 0.0001 0.0001 0.0001 0.0001 0.0001 0.0001 0.0001 0.0001 0.0001 0.0001 
