ncols         96
nrows         55
xllcorner     94.940975509701
yllcorner     29.783882304962
cellsize      0.00030740404508759
NODATA_value  -9999
0.0001 0.0001000061 0.0001000122 0.0001666849 0.0003 0.0001889052 0.0001000244 0.0001 0.0001000488 0.0001000732 0.0001 0.0001001305 0.0001001953 0.0001 0.0001018205 0.0001027344 0.0001 0.0001004572 0.0001 0.0001 0.000100823 0.0001057613 0.0001222222 0.0001592593 0.0002209877 0.0002962963 0.0003051264 0.0002 0.000154321 0.0001 0.0001530864 0.0002 0.0002166667 0.000175 0.0001 0.0001 0.0003333333 0.0001 0.0006 0.0021 0.03713333 0.09275 0.1008 0.4473 1.6186 4.7063 3.5428 12.42663 4.2465 3.6348 1.7932 0.0046 6.6599 4.4413 4.4413 6.896119 6.304825 4.5319 28.50778 36.27256 31.75734 30.52883 28.3175 24.08979 17.9883 14.97662 13.01955 12.46307 11.6723 9.420028 5.857126 3.555072 1.87253 0.8186744 0.2554789 0.05315494 0.002271528 0.001168904 0.000915625 0.0006 0.04057596 0.02449984 0.008729861 0.002820542 0.0009572488 0.0004323431 0.0003515625 0.0003 0.0006620742 0.0005979424 0.0004572702 0.000425 0.0004 0.0002189225 0.0001136281 0.0001068255 
0.0001 0.0001 0.0001000122 0.0001000244 0.0001667032 0.0003 0.0001666911 0.0001000488 0.0001 0.0001000733 0.0001001465 0.0001 0.0001001961 0.0001003906 0.0001 0.0001027273 0.0001054688 0.0001 0.0001013717 0.0001 0.0001 0.0001024691 0.0001148148 0.0001493827 0.0002135802 0.0003 0.0003753086 0.0003451967 0.0002 0.000162963 0.0001 0.0001592593 0.0002 0.000275 0.00025 0.0001 0.00102 0.0008 0.005 0.0246 0.0847 0.669075 1.831575 3.013767 9.1377 12.7171 13.2157 19.6594 22.2578 22.455 20.37 15.5338 15.0094 4.4413 10.53353 8.07775 4.5319 33.42169 41.86317 34.21437 32.74015 28.3175 28.20925 22.28889 17.54352 14.13249 13.25385 11.6723 11.75188 8.599655 5.656274 3.315448 1.693494 0.6086472 0.1538815 0.003907871 0.001675463 0.00123125 0.0006 0.0941973 0.04918467 0.01832186 0.005993004 0.001874717 0.0005939043 0.000403125 0.0003 0.00100447 0.0008220164 0.0005218107 0.00045 0.0004 0.0002394932 0.0001272334 0.0001089635 0.0001046875 
0.0001 0.0001 0.0001 0.0001000244 0.0001000487 0.0001667396 0.0003 0.0001667155 0.0001000977 0.0001 0.0001001467 0.000100293 0.0001 0.0001003937 0.0001007813 0.0001 0.0001054403 0.0001109375 0.0001 0.0001041152 0.0001 0.0001 0.0001074074 0.000137037 0.0002037037 0.0003 0.0003962963 0.0004296296 0.0003548611 0.0002 0.0001888889 0.0001 0.0001777778 0.0002 0.00055 0.0004 0.002783333 0.0037 0.0238 0.1251 0.5424 1.25532 1.9484 4.8298 10.4885 12.9615 19.0453 25.4529 30.9515 34.0041 34.791 33.53 35.82313 21.5373 11.6236 4.5319 40.72817 51.2639 37.1628 37.1628 28.3175 33.5426 29.07153 21.90538 15.88977 14.8354 11.6723 14.8539 12.09198 8.389338 5.317645 3.261839 1.366861 0.4517833 0.007297222 0.002563889 0.0018625 0.0006 0.2414963 0.09673087 0.03796204 0.01286111 0.004142438 0.000975463 0.00050625 0.0003 0.00175183 0.001300617 0.0006654321 0.0005 0.0004 0.0002856475 0.0001548097 0.0001175154 0.000109375 0.0001 
0.0001 0.0001 0.0001000001 0.0001 0.0001000488 0.0001000973 0.0001668121 0.0003 0.0001667645 0.0001001953 0.0001 0.000100294 0.0001005859 0.0001 0.0001007935 0.0001015625 0.0001 0.0001108236 0.000121875 0.0001 0.0001123457 0.0001 0.0001 0.0001222222 0.0001888889 0.0003 0.0004111111 0.0004777778 0.0004 0.0003416667 0.0002 0.0002666667 0.0001 0.0002333333 0.0002 0.0015 0.0066 0.0102 0.058 0.2644 0.9581 1.980717 2.743 6.2552 11.6394 18.3518 23.90765 30.53742 36.2009 42.4358 48.6963 51.16358 58.7377 81.1587 69.9075 61.1329 56.5197 47.20687 46.0081 28.3175 36.6368 39.49695 29.71915 17.9985 17.9985 11.6723 18.97135 16.80767 11.96428 7.504 5.699733 2.7492 1.336583 0.0148 0.003966667 0.003125 0.0006 0.7020611 0.1861074 0.07721667 0.02686852 0.009800926 0.001913889 0.0007125 0.0003 0.003405469 0.002305556 0.0009962963 0.0006 0.0004 0.0003969112 0.0002118827 0.0001337963 0.00011875 0.0001 0.0001116862 
0.0001 0.0001000001 0.0001 0.0001000003 0.0001 0.0001000977 0.0001001942 0.0001669567 0.0003 0.0001668626 0.0001003906 0.0001 0.0001005901 0.0001011719 0.0001 0.0001016113 0.000103125 0.0001 0.0001214193 0.00014375 0.0001 0.000137037 0.0001 0.0001 0.0001666667 0.0003 0.0004333333 0.0005 0.0005 0.0002 0.0004666667 0.0002 0.0005 0.0001 0.0004 0.003 0.01336667 0.0208 0.1182 0.4874 1.5915 2.81285 4.1009 8.5552 14.9213 22.2815 23.91172 29.5444 35.30545 42.15738 49.8968 59.66513 81.3297 57.3849 52.9739 48.9581 48.2421 44.7572 41.5425 39.2358 43.8803 35.1136 35.51448 24.3247 11.6723 23.1739 23.41485 17.62435 9.3838 8.8847 4.2435 3.971 0.0331 0.00565 0.00565 0.0006 2.30165 0.3506333 0.1553611 0.05232778 0.02396111 0.004316667 0.001125 0.0003 0.007205208 0.004327778 0.001788889 0.0008 0.0004 0.0006894965 0.0003342593 0.0001638889 0.0001375 0.0001 0.0001194336 0.000115625 
0.0001000001 0.0001 0.0001000004 0.0001 0.0001000009 0.0001 0.0001001953 0.0001003872 0.0001672441 0.0003 0.0001670599 0.0001007813 0.0001 0.0001011887 0.0001023438 0.0001 0.0001033203 0.00010625 0.0001 0.0001419271 0.0001875 0.0001 0.0002111111 0.0001 0.0001 0.0003 0.0005 0.0005 0.01245208 0.02983333 0.0002 0.001 0.0002 0.0012 0.0009 0.01845 0.0067 0.038 0.1746 0.6936 2.2207 3.510583 5.2629 10.0917 15.5675 21.4438 23.77992 27.9371 34.0749 41.6396 53.1168 56.8597 56.75642 44.1945 41.4788 36.5401 41.5922 41.5446 42.5763 43.4761 45.1633 42.7976 38.61061 39.822 34.1936 25.5601 21.2696 17.56063 13.9791 4.7885 7.8865 0.0555 10.9752 0.0107 0.0006 8.24115 0.64505 0.3198 0.08705 0.05923333 0.0107 0.00195 0.0003 0.0167375 0.008016666 0.003766667 0.0012 0.0004 0.001530208 0.0006111111 0.0002166667 0.000175 0.0001 0.0001464844 0.00013125 0.0001 
0.0001 0.0001000004 0.0001 0.0001000013 0.0001 0.0001000028 0.0001 0.0001003906 0.0001007711 0.0001678145 0.0003 0.0001674583 0.0001015625 0.0001 0.0001024109 0.0001046875 0.0001 0.0001070313 0.0001125 0.0001 0.0001802083 0.000275 0.0001 0.0004333333 0.0001 0.001875 0.0005 0.008075 0.02063333 0.0206 0.0779 0.0002 0.0026 0.0187 0.0809 0.2136 0.0188 0.0911 0.3536 1.0753 2.5497 4.08325 5.3378 9.9613 13.7043 17.8637 20.4117 23.609 29.4164 68.8351 52.0957 39.59552 44.1166 39.81517 38.1068 37.7493 38.57832 40.0039 40.9599 41.8397 43 43.15123 43.5815 46.0243 50.6162 46.1635 19.9784 18.67508 15.0154 20.4823 21.4964 20.6532 18.99488 23.1814 31.6739 0.7964 0.4937 1.800075 0.1459 0.0282 0.0036 0.0003 0.0446 0.01315 0.0089 0.002 0.0004 0.0041375 0.001283333 0.0003 0.00025 0.0001 0.0002234375 0.0001625 0.0001 0.0001125 
0.0001 0.0001 0.0001000011 0.0001 0.0001000039 0.0001 0.0001000085 0.0001 0.0001007813 0.000101532 0.0001689449 0.0003 0.0001682709 0.000103125 0.0001 0.0001049561 0.000109375 0.0001 0.000115625 0.000125 0.0001 0.0002458333 0.00045 0.0001 0.0011 0.008616666 0.0058 0.0207 0.0053 0.0359 0.56474 0.1976 0.0138 0.1319 0.7551 3.263383 0.4192 0.2056 0.6558 1.6675 3.12515 3.4172 5.7112 7.7202 10.9804 12.0338 20.81783 19.5828 40.5844 31.7573 28.8965 34.61862 33.2733 37.721 35.21095 35.72358 37.62955 37.0537 37.693 38.7854 41.3947 41.00207 42.9703 45.448 52.5 53.134 36.00507 21.2555 20.5525 27.7001 30.8541 32.8587 31.70348 37.2098 48.055 7.8603 4.1999 5.636416 2.3608 1.1159 0.4074 0.1108 0.43568 0.0227 0.0036 0.0004 0.0127 0.00305 0.0004 0.0004 0.0001 0.00046875 0.000225 0.0001 0.000125 0.0001200617 
0.0001 0.0001 0.0001 0.0001000034 0.0001 0.0001000119 0.0001 0.0001000254 0.0001 0.0001015625 0.0001030335 0.0001711836 0.0003 0.0001699585 0.00010625 0.0001 0.0001104492 0.00011875 0.0001 0.0001375 0.00015 0.0001 0.0003333333 0.0008 0.002075 0.0063 0.0379 0.1792 0.6315 1.1468 2.483083 1.4432 1.7389 4.9591 8.0988 13.84245 10.2075 9.1422 5.6341 4.2588 11.26645 5.7824 8.0372 10.122 13.1836 17.73648 27.6059 24.2118 22.8799 20.1548 21.989 25.15435 27.3406 30.6504 31.3269 35.7113 33.3921 34.124 34.803 33.5366 36.6359 36.57504 38.43 41.0431 45.0145 42.8018 39.10837 32.6972 23.6972 26.4492 31.6477 32.9175 35.7438 40.574 47.7425 54.9296 16.7124 12.55653 9.9058 6.0525 3.2744 1.5003 2.623817 0.5443 0.1515 0.0323 0.0054 0.04525 0.0007 0.0001 0.001325 0.00035 0.0001 0.00015 0.0001351852 0.0001404321 
0.0001 0.0001 0.0001 0.0001 0.0001000102 0.0001 0.0001000356 0.0001 0.0001000762 0.0001 0.000103125 0.0001059757 0.0001756337 0.0003 0.000173584 0.0001125 0.0001 0.0001230469 0.0001375 0.0001 0.0002 0.0002 0.0001 0.0011 0.0083 0.050075 0.1332 0.6423 2.3599 4.727533 4.4573 7.6177 13.8704 21.3968 29.1719 29.62872 34.4022 35.9538 33.2725 29.4626 26.42653 23.0102 18.9582 17.2017 19.6045 23.495 23.0107 21.6275 20.5301 18.4207 21.1056 18.5048 20.9219 26.2749 28.3027 30.1965 28.97568 30.6069 31.1424 30.45277 29.5082 33.7713 30.5111 31.8987 47.095 42.2476 36.60555 42.5141 33.0955 27.042 30.7392 31.81535 35.6615 40.9337 48.7673 61.9494 21.3996 26.23495 20.7607 17.3077 13.2953 8.8256 4.943783 4.7392 1.9468 0.6159 0.1467 0.08991667 0.0282 0.0045 0.0006 0.0001 0.0002 0.0001555556 0.0001611111 0.0001518519 
0.0001 0.0001 0.0001 0.0001 0.0001 0.0001000305 0.0001 0.0001001067 0.0001 0.0001002286 0.0001 0.00010625 0.000111677 0.0001846077 0.0003 0.0001818359 0.000125 0.0001 0.0001546875 0.000175 0.0001 0.0004 0.0003 0.0032 0.0234 0.0229 0.4201 1.3828 7.4261 9.2297 12.3436 21.0328 30.0098 38.1168 44.5948 46.67285 51.2971 55.6984 55.516 51.4444 54.68095 44.6008 47.412 37.6225 29.7119 35.00617 27.8534 26.6859 26.26 24.3406 22.86262 23.2237 23.8318 27.7524 21.695 24.0536 24.75315 24.3101 24.5203 27.3732 26.46983 27.69465 29.52183 29.9405 27.6978 26.8591 29.83212 32.5135 31.6839 25.0239 26.6187 28.79382 30.4812 34.3338 39.5547 44.8514 46.95088 62.1355 26.4957 18.0656 13.3628 8.9863 6.423717 5.067 2.3871 0.915 0.2872 0.117 0.0713 0.0145 0.0024 0.0003 0.0001666667 0.0001777778 0.0001592593 0.0001387731 
0.0001000023 0.0001 0.0001 0.0001000001 0.0001 0.0001 0.0001000914 0.0001 0.0001003201 0.0001 0.0001006859 0.0001 0.0001125 0.0001225309 0.0002033999 0.0003 0.0002023438 0.00015 0.0001 0.00024375 0.00025 0.0001 0.0011 0.009 0.05005 0.0585 0.2809 4.300833 6.271525 12.44945 19.5616 31.2058 42.3186 49.6666 51.83065 56.1878 64.3833 74.5674 77.4943 78.5833 81.47148 100.9844 78.0879 68.8986 59.1237 56.3656 50.7328 41.0497 33.1949 28.066 29.09635 24.6199 19.7921 13.0423 17.3023 20.13818 19.2493 20.1025 21.6809 23.9756 25.0223 24.31022 25.737 22.75637 21.57838 14.8469 21.88504 20.0115 20.8439 19.9518 22.9802 26.13868 26.2821 29.1066 31.9864 33.9431 46.53831 57.4263 22.0822 15.9785 11.2729 9.883833 7.1249 3.7993 1.6321 0.5456 0.1402 0.1286333 0.0284 0.0045 0.0006 0.0001 0.0001666667 0.0001444444 0.0001347222 0.0001 
0.0001 0.0001000068 0.0001 0.0001 0.0001000004 0.0001 0.0001 0.0001002744 0.0001 0.0001009602 0.0001 0.0001020576 0.0001 0.000125 0.0001425926 0.0002460069 0.0003 0.000259375 0.0002 0.0001 0.000525 0.0004 0.0035 0.0267 0.1904 0.18 0.438 5.8107 10.4665 16.65932 26.67085 32.00832 43.0479 55.1332 60.17705 67.2847 81.2813 100.5959 149.8371 103.7336 114.3325 98.8835 100.3289 96.262 88.444 79.00175 82.3278 72.6211 57.7536 42.2407 42.4375 32.0872 26.4881 18.8766 20.1733 20.57793 18.3556 17.8805 21.1769 22.5102 23.30038 23.4447 23.0369 18.4252 11.7008 11.1819 15.17515 15.1942 17.7244 20.7906 23.9311 25.80737 26.5388 28.251 29.1518 34.5699 41.06563 46.3037 59.5984 19.8401 11.7665 8.689683 6.7896 3.5359 1.6496 0.6574 0.3375333 0.1986 0.0461 0.0084 0.0012 0.0001 0.0001 0.0001166667 0.0001 0.000175 
0.0001021129 0.0001 0.0001000203 0.0001 0.0001 0.0001000021 0.0001 0.0001 0.000100823 0.0001 0.0001028807 0.0001 0.0001061728 0.0001 0.00015 0.0001777778 0.00035625 0.0003 0.0004375 0.0003 0.0001 0.0015 0.0111 0.0434 0.4713167 0.8248 2.5388 6.9215 13.7262 18.25068 22.883 33.033 45.43835 59.5251 63.80198 73.2649 92.21 142.6381 110.5482 102.2696 91.606 95.4251 112.6318 108.0487 97.28815 98.127 95.2552 96.2056 88.1451 70.8853 59.36833 56.7259 49.655 27.0837 25.2491 25.00597 23.138 22.4265 22.8116 23.3811 22.24715 21.4684 18.4241 14.0529 7.5319 10.56574 10.648 15.60845 19.00722 23.4004 26.5931 27.15648 28.5189 29.325 29.0102 32.679 36.71148 41.4718 59.4112 17.0197 9.5304 8.862267 5.6538 3.064 1.3047 0.3927 0.3591333 0.0907 0.016 0.0022 0.0002 0.00044 0.0001 0.0001 0.00025 0.0002166667 
0.0001030821 0.0001032566 0.0001 0.000100061 0.0001 0.0001 0.0001000107 0.0001 0.0001 0.0001024691 0.0001 0.000108642 0.0001 0.0001185185 0.0001 0.0002 0.0002333333 0.0006916667 0.0003 0.00105 0.0005 0.0067 0.0667 0.2636 0.3572 1.3958 4.1071 10.1753 17.4455 21.97477 26.7322 36.3237 45.5672 53.83377 67.77457 89.37265 116.1735 86.114 73.93 74.22575 73.3638 89.574 101.5995 99.2392 94.84167 93.608 95.6607 101.6037 100.1147 87.9138 72.0379 66.3571 43.3208 41.4575 33.4563 32.2102 29.6635 27.7161 26.1763 21.5255 22.3532 21.153 17.922 15.0632 9.7976 11.59543 13.1504 17.1677 19.766 23.53366 26.06797 28.48585 30.2005 30.2163 28.0396 29.7353 33.97402 35.5092 43.4522 44.452 12.082 10.4165 7.3513 4.0649 1.8403 0.6454 0.5366667 0.17 0.0337 0.0051 0.0006 0.00126 0.0001 0.0004 0.0003 0.0003166667 
0.0001019531 0.0001042111 0.0001068624 0.0001 0.0001001829 0.0001 0.0001 0.0001000533 0.0001 0.0001 0.0001074074 0.0001 0.0001259259 0.0001 0.0001555556 0.0001 0.0003 0.0003 0.001866667 0.0003 0.0033 0.0316 0.19 0.6583167 0.9132 2.9153 6.9179 13.1702 20.9696 25.64082 30.0921 39.6239 47.7767 62.4661 76.69335 75.8422 81.45735 71.64163 45.2895 56.49224 50.617 61.9143 76.6601 83.914 82.63987 86.1131 90.1397 93.5694 90.889 83.4701 80.2894 70.0559 61.8543 56.2695 45.3254 39.29497 36.4289 31.5809 24.3311 24.1598 23.30498 22.4314 17.7 11.7096 12.6891 13.90372 15.7556 19.6256 22.2613 25.6475 27.73532 28.6309 29.88278 29.7938 29.5787 29.78546 30.235 34.2138 40.3942 53.8915 17.4121 13.84115 10.4694 6.2989 3.3106 1.4299 1.048033 0.4913 0.132 0.0279 0.0047 0.0053 0.0007 0.0004 0.0004 0.0002791667 
0.0001 0.0001039062 0.000108727 0.0001148162 0.0001 0.0001005487 0.0001 0.0001 0.0001002667 0.0001 0.0001 0.0001222222 0.0001 0.0001777778 0.0001 0.0002666667 0.0001 0.0005 0.00746 0.0048 0.0223 0.0553 0.3808 1.733033 2.042 5.3687 10.5007 17.3036 21.73577 24.6782 33.9273 45.4258 52.7573 66.1935 79.15855 102.2716 61.4041 46.9387 41.09568 42.74905 39.2609 47.7914 60.3409 65.1713 63.88123 67.7936 73.338 77.1074 74.7848 71.4696 66.8289 64.7547 67.6812 61.5446 54.28325 49.7602 41.1355 31.4721 27.5122 26.4538 25.01387 24.1064 19.7718 13.9163 14.7224 15.82672 17.3072 21.3033 24.0071 27.0103 28.1784 29.6526 30.8026 30.0636 29.66095 30.22955 31.3387 35.4902 42.7821 61.676 45.38582 22.2974 13.4347 8.6687 5.0769 2.5277 2.601883 1.0239 0.3296 0.084 0.0204 0.00538 0.0004 0.0004 0.0003166667 0.0001 
0.0001000868 0.0001 0.0001078125 0.0001183685 0.000133084 0.0001 0.0001016461 0.0001 0.0001 0.0001013333 0.0001 0.0001 0.0001666667 0.0001 0.0003333333 0.0001 0.0006 0.0052 0.02415 0.0265 0.1423 0.6951 2.1774 3.373267 4.6948 8.9043 15.0543 22.7606 27.74852 31.5324 42.0764 52.0671 55.6801 72.6134 104.202 63.9759 37.6987 36.3257 35.8288 34.18945 37.17622 43.10638 42.2884 39.5553 48.69492 40.7401 47.3301 54.169 57.7006 58.10168 58.3249 62.5013 65.1667 61.986 55.9413 50.8138 43.8617 37.179 31.3629 28.84878 27.7919 25.1399 23.6103 15.2087 15.97 17.31218 18.516 22.4339 25.2403 27.9571 29.15308 30.172 30.9352 29.5055 29.7658 30.9851 34.59647 37.784 45.536 55.2455 58.89995 61.7924 24.8165 16.3323 10.8233 6.6262 5.06465 3.5123 1.5127 0.6847 0.001 0.00572 0.0001 0.0003666667 0.0001 0.0008916667 
0.0001 0.0001002604 0.0001 0.000115625 0.0001394805 0.0001772304 0.0001 0.0001049383 0.0001 0.0001 0.0001066667 0.0001 0.0001 0.0003 0.0001 0.0008 0.0036 0.03166667 0.0236 0.0843 0.2598 1.2123 3.4665 5.803884 7.4781 13.012 20.1156 29.8167 34.51502 40.3996 51.3436 101.5608 88.6567 69.81075 68.1908 37.9874 31.3921 30.0932 30.63933 29.8721 31.796 37.1607 34.47057 35.09485 34.74982 30.2143 34.1704 38.542 43.2838 46.59868 47.6871 53.0691 57.2217 57.8299 54.97643 53.7133 45.2596 39.4764 32.8014 29.76372 27.1705 22.4429 15.4165 17.4526 17.3641 18.5412 19.9934 23.6449 26.5341 29.11 30.0406 31.0165 31.555 29.8393 29.8095 31.99152 33.0264 38.5306 47.42823 59.8921 67.35658 92.4963 39.9225 24.4783 16.4711 11.86217 10.6188 6.079 4.4599 0.0324 0.0062 0.04063333 0.0009 0.0001 0.002025 0.00055 
0.0001 0.0001002604 0.0001 0.000115625 0.0001394805 0.0001772304 0.0001 0.0001049383 0.0001 0.0001 0.0001066667 0.0001 0.0001 0.0003 0.0001 0.0008 0.0036 0.03166667 0.0236 0.0843 0.2598 1.2123 3.4665 5.803884 7.4781 13.012 20.1156 29.8167 34.51502 40.3996 51.3436 101.5608 88.6567 69.81075 68.1908 37.9874 31.3921 30.0932 30.63933 29.8721 31.796 37.1607 34.47057 35.09485 34.74982 30.2143 34.1704 38.542 43.2838 46.59868 47.6871 53.0691 57.2217 57.8299 54.97643 53.7133 45.2596 39.4764 32.8014 29.76372 27.1705 22.4429 15.4165 17.4526 17.3641 18.5412 19.9934 23.6449 26.5341 29.11 30.0406 31.0165 31.555 29.8393 29.8095 31.99152 33.0264 38.5306 47.42823 59.8921 67.35658 92.4963 39.9225 24.4783 16.4711 11.86217 10.6188 6.079 4.4599 0.0324 0.0062 0.04063333 0.0009 0.0001 0.002025 0.00055 
0.0001 0.0001 0.0001010417 0.0001 0.00013125 0.0001871914 0.0002904803 0.0001 0.0001148148 0.0001 0.0001 0.0001333333 0.0001 0.0001 0.0007 0.0052 0.0332 0.1222333 0.1238 0.3995 1.079 2.0618 5.7643 9.18475 11.2422 17.4785 24.7312 35.8636 47.26392 46.7172 97.27 74.4678 60.7477 54.84162 41.3872 29.714 27.4717 26.059 26.37132 25.6572 26.62 29.2833 30.0461 28.4896 26.64202 27.84654 30.78638 30.2741 34.0475 37.16908 38.5482 47.3094 54.1346 56.5388 48.32762 48.9768 45.6074 40.6615 32.9902 27.89358 26.4654 24.2522 15.7333 18.342 18.30883 18.2899 21.1138 24.7597 27.6419 30.1351 30.88492 31.8529 31.6498 30.8496 32.0852 33.70462 35.2707 40.1295 45.2357 57.68592 70.1238 52.98397 33.7629 23.2016 16.3448 12.73383 10.2888 5.4536 2.4583 0.7675 0.2746167 0.1952 0.0404 0.0069 0.001 0.0001 
0.0001028807 0.0001 0.0001 0.0001041667 0.0001 0.0001625 0.0002990741 0.0006003472 0.0001 0.0001444444 0.0001 0.0001 0.0002666667 0.00145 0.0044 0.0253 0.1037 0.2884 0.4455 1.3657 3.4872 7.4185 8.1501 11.1845 15.9729 20.931 28.6693 41.4068 58.37687 89.3796 65.5196 49.6409 39.8462 38.2955 30.2211 26.4562 24.8226 23.4445 23.28515 23.1019 23.4433 24.0809 23.4928 23.69645 23.3305 24.5337 26.9838 27.1848 28.78345 27.1288 32.3191 42.003 46.8222 37.4575 37.28012 35.4494 34.4456 30.1901 26.2162 24.53122 21.7178 16.2741 17.007 19.1198 19.12983 19.2846 22.0296 25.5226 28.274 29.36687 30.7401 32.4549 32.2435 32.6312 35.0512 35.43983 36.9847 38.3851 43.2633 82.3526 67.54435 45.7542 32.80188 23.08257 14.2306 10.97974 8.4489 4.187 1.669 0.5192 0.3155667 0.1272 0.025 0.004 0.0005 0.0001 
0.0001 0.000108642 0.0001 0.0001 0.0001166667 0.0001 0.000225 0.0005722222 0.001504167 0.0001 0.0002333333 0.0001 0.001075 0.0006 0.01796667 0.0581 0.2444 0.911 0.7798 2.1926 4.7802 8.762 11.78147 13.7095 18.4145 22.586 25.7746 44.91096 78.4906 58.4034 44.0842 36.9841 31.4709 29.50093 26.0999 24.1449 22.7499 20.9567 20.48873 20.4916 19.8064 19.137 18.5395 18.57202 18.2802 19.0784 20.9352 23.6834 22.26063 26.48223 31.39235 40.4222 27.0326 30.0005 23.1926 22.0656 21.104 20.0629 20.0371 21.37897 19.7606 16.1793 17.6357 19.6557 19.82657 20.087 22.6647 25.8538 28.5124 29.49728 30.8977 32.5713 32.38 33.1718 34.5974 36.3738 36.8734 35.8703 51.2413 98.9335 57.3676 43.1371 29.8102 21.1453 15.3915 9.62555 5.5856 2.4556 0.8549 0.2337 0.1710833 0.0506 0.0088 0.0013 0.0002 0.0002666667 
0.0001098765 0.0001 0.0001259259 0.0001 0.0001 0.0001666667 0.0001 0.00035 0.001266667 0.0043 0.0001 0.0005 0.02203333 0.0031 0.0163 0.4016167 0.5571 1.349275 2.9816 5.3295 8.4453 12.3193 15.7296 17.295 23.0159 31.2844 49.0568 44.65491 46.0677 39.0763 34.329 30.2041 28.76978 26.1362 23.2313 21.3661 19.5579 17.6622 17.9565 17.2755 16.0688 14.9903 14.1839 13.67287 13.6052 14.2509 15.8183 17.3227 19.17352 20.9076 25.5734 26.19247 26.57533 20.68888 15.4976 14.5156 15.1767 18.5737 20.5572 20.13277 19.9849 16.8708 18.026 20.0221 20.5558 20.7902 23.1829 25.915 28.2409 29.44972 30.3186 31.2426 31.9269 34.0797 35.32952 36.2767 36.2872 40.0376 76.3914 40.5577 45.08072 33.4705 22.5627 15.953 10.2371 6.352725 3.0742 2.24955 0.3456 0.0807 0.07678 0.0151 0.0023 0.0003 0.000475 0.0002 
0.0001 0.0001296296 0.0001 0.0001777778 0.0001 0.0001 0.0003666667 0.0001 0.0006 0.0031 0.0134 0.09688333 0.0432 0.0847 0.165 0.5346 1.3913 3.4865 6.0688 7.804567 14.1069 18.9166 21.04978 23.3752 25.5468 36.5726 35.3887 36.54818 33.1511 30.5079 27.9481 25.3091 24.15882 22.5143 20.3959 18.8009 17.6215 16.7491 15.24737 14.6039 12.6288 10.8173 9.3144 11.91315 8.114 9.096 13.2886 15.5777 18.04262 18.3762 25.2801 21.8138 17.0327 15.943 14.83625 14.3237 15.0208 18.1229 18.65283 20.8804 19.5764 19.1707 19.1795 20.8979 21.55883 21.8819 24.0315 26.4395 28.4735 29.43443 30.2552 30.9766 32.0712 35.2046 36.2931 36.8705 38.7191 59.0786 36.5205 39.95047 30.4096 23.9759 16.498 11.1119 6.4992 5.03078 3.089 1.1666 0.3698 0.142375 0.0308 0.0038 0.0005 0.0001 0.0002 0.00024375 
0.0001222222 0.0001 0.0001888889 0.0001 0.0003333333 0.0001 0.00132 0.0009 0.0053 0.0268 0.1153 0.6285333 0.4088 0.661 0.8198 1.6136 3.4081 5.97504 6.165 9.7991 16.85927 24.5539 24.1711 29.8387 51.1906 33.1068 29.2585 28.47205 26.3663 24.6052 23.3175 21.664 21.18595 19.1252 17.2512 16.2091 12.4528 14.05077 13.0168 12.1767 13.1748 13.4711 13.0417 13.30758 13.2197 14.4261 18.2163 18.9091 17.1557 17.1624 19.169 18.6874 16.2336 17.3061 15.0081 15.94988 16.38003 17.1998 18.19653 16.583 20.3854 21.7454 20.6329 21.27855 22.5209 23.24 25.0566 27.3386 29.1345 29.75427 30.1839 31.701 34.0785 36.7344 38.62307 38.5927 45.4593 74.2125 30.6591 29.2137 25.1645 18.3883 12.3842 7.551 6.021966 3.7993 1.5293 0.4827 0.1196 0.0236 0.0087 0.001325 0.0001 0.0002333333 0.0001 0.00015 
0.0001 0.0001666667 0.0001 0.0003666667 0.0001 0.0008 0.006533334 0.0047 0.0222 0.0905 0.3324 2.432433 2.8581 4.1886 6.8403 7.7961 11.62752 8.2553 10.6555 14.5286 19.2505 25.10082 30.8698 38.81118 43.94 26.3371 24.4152 23.20423 22.2525 20.3676 19.0112 19.5129 19.33575 18.9902 17.5011 16.0925 12.0334 14.10822 12.431 13.9895 16.4769 19.0428 18.63798 18.3993 17.7564 19.0172 14.6277 15.7982 18.09245 17.1106 22.0854 24.8575 20.5224 19.01662 17.7337 16.7734 16.8396 17.6504 16.96667 17.55187 17.0302 21.4166 20.9511 21.57827 23.489 24.085 25.6333 27.9523 29.7677 30.0885 30.7108 32.2232 36.1946 39.0721 44.698 45.2641 68.2527 43.0984 30.1908 26.8485 22.3377 15.2146 9.4777 5.0185 3.665017 2.1519 0.7234 0.1895 0.0391 0.0065 0.00658 0.0009 0.0004 0.0001 0.0001444444 0.0001 
0.000125 0.0001 0.0003 0.0001 0.0009 0.0057 0.0413 0.027 0.0942 0.1932 4.1894 5.2743 6.6906 11.9654 17.3574 22.5131 21.85698 26.1789 25.8525 25.3349 25.1686 35.32926 31.4303 37.6563 28.12933 25.52314 22.15718 18.6712 18.2617 16.676 15.733 17.6229 19.56035 19.0993 18.8768 19.9031 16.7802 17.09225 17.9351 18.7616 21.07 24.1737 23.72943 23.6993 22.3917 17.6858 17.5203 18.7925 19.90633 20.7819 26.3073 30.03 24.2755 22.2961 20.3264 18.9628 18.6872 17.875 17.89268 16.2089 18.8012 21.4093 20.5797 20.91922 21.296 23.4966 26.0319 27.8408 28.74948 29.7648 30.9693 32.6713 38.4411 45.0675 51.99792 63.4572 41.7844 35.7117 27.0227 24.81248 25.7162 7.7443 4.9859 2.5041 2.028883 0.9653 0.2843 0.0647 0.0116 0.01038333 0.0017 0.0002 0.00055 0.0003125 0.0001 0.0001148148 
0.0001722222 0.00015 0.0001 0.0007 0.0052 0.02166667 0.0332 0.1764 0.7668 2.407 5.9381 8.807834 11.6372 17.9394 24.675 30.6484 32.26385 35.7501 40.6904 45.1023 60.4932 43.70687 40.3037 27.9192 13.7182 19.2052 17.04523 15.98602 13.2275 14.6931 18.9805 21.0682 21.38463 21.0686 19.1479 17.0615 20.8869 20.77083 22.4869 23.3649 25.7173 29.6455 28.12937 27.416 22.9455 20.7033 21.9762 22.07878 22.56 24.3948 28.3513 30.9212 28.1054 26.44478 22.8132 20.8266 20.6915 19.9282 19.21895 17.5586 19.1836 21.67757 21.67895 20.02793 18.2803 23.05 26.7785 27.9965 28.62265 29.1748 31.0715 34.4744 40.793 48.45192 50.643 68.4836 32.5141 29.7092 31.1046 20.30387 12.5029 5.7418 2.7986 1.1562 0.9460667 0.3773 0.0957 0.0191 0.003 0.002916667 0.0004 0.0006 0.0002 0.000375 0.000246875 0.0001 
0.0002354167 0.0002666667 0.0002 0.0017 0.0124 0.04733333 0.0726 0.3419 1.1604 3.6796 8.6387 11.82862 15.753 22.9729 30.3359 36.4831 40.49235 42.0095 50.3827 87.1077 58.0368 52.125 46.8086 36.3839 17.5055 16.5208 17.0478 13.7837 15.0999 16.84218 21.4015 21.46697 24.4177 25.0311 22.5093 21.208 22.8211 23.13928 23.7148 25.8804 29.0772 34.5897 29.53283 29.252 26.8942 23.3084 24.7924 24.9332 26.8313 25.611 27.1034 29.1356 33.79222 36.7301 26.4181 21.1565 20.6844 19.9769 20.98153 23.7661 24.166 24.7711 19.9557 20.50178 21.51255 23.31917 27.0863 28.3906 28.3833 28.5684 31.0214 36.1229 46.8256 54.5286 68.9413 49.8833 34.7402 38.3765 25.35608 16.6923 8.7845 3.9961 1.6044 0.5319 0.4178833 0.1416 0.0301 0.0052 0.0007 0.00088 0.0001 0.00025 0.0002875 0.0002 0.0002875 0.0002085937 
0.0001 0.000425 0.0005 0.0037 0.0251 0.08846667 0.1355 0.5183 1.8051 4.6136 8.617167 10.3696 18.6351 26.8002 35.4157 44.1295 54.36143 53.9335 91.712 72.0635 56.95 52.28017 50.1577 47.2665 25.7385 19.5847 18.31307 16.1446 15.5407 17.2098 20.67628 24.3878 27.0177 30.7139 25.6241 23.4387 23.63547 24.1039 24.8221 27.538 29.4483 28.0384 29.63075 28.2554 29.6925 38.9216 26.7155 28.37045 26.7238 26.5805 27.7504 33.5172 38.26197 44.3438 30.6167 21.9635 21.2853 20.41135 20.5012 24.1582 25.6684 26.7138 22.9435 23.20496 20.8276 23.8923 26.63242 28.258 28.28213 27.9115 30.9022 39.717 65.9677 58.84633 54.001 47.0395 45.8081 22.931 20.11697 13.3229 6.4155 2.6686 0.9072 0.2466 0.1847167 0.0537 0.0095 0.0014 0.0002 0.0003333333 0.0001 0.0001 0.000175 0.000190625 0.0002 0.00024375 
0.0001 0.0001 0.0009 0.0076 0.0498 0.1841833 0.2354 1.0205 3.2291 8.035 10.87205 16.3665 21.1 28.1479 36.6491 50.86248 49.9615 99.6515 73.2661 64.9529 56.2442 50.74508 45.4837 27.7311 32.1301 23.4657 22.20695 20.3789 19.0694 20.2699 23.8239 26.7604 27.9081 30.15083 27.9791 25.1964 24.9303 25.0447 25.7609 25.6607 21.5973 28.0413 28.46573 29.6077 32.2571 51.2957 37.6849 32.6253 27.4748 29.0869 33.4305 41.5415 42.44265 44.3036 30.0208 22.3832 20.9589 20.1501 19.0614 22.316 26.6892 30.8258 27.1539 27.18143 25.1441 25.3968 26.7705 26.64235 27.7019 29.49795 31.1786 43.1086 71.809 57.86803 45.5334 52.4904 29.2023 19.2503 14.71143 10.1288 4.6241 1.7125 0.4984 0.3470333 0.1138 0.0207 0.0031 0.0004 0.000525 0.0002 0.0001833333 0.0001 0.0001 0.0001375 0.0001570312 0.0002 
0.0002333333 0.00106 0.0037 0.0245 0.1213 0.4429833 0.538 1.7718 4.5999 9.7102 14.1178 16.1374 25.6483 34.1939 43.4637 62.61353 95.5554 79.643 63.1772 56.8179 50.0897 43.2984 45.5452 34.5736 32.3814 28.6646 26.63513 25.0032 22.3577 22.135 25.3578 27.86173 29.9518 38.728 33.16108 27.78732 25.95012 26.8678 26.7898 24.2551 20.622 25.41473 26.3138 30.5378 38.3135 59.122 44.9339 38.75302 32.2189 34.9057 39.4922 45.2934 46.01602 45.6564 30.3155 23.3332 21.0672 20.31937 18.0266 18.4243 27.8288 34.459 33.88733 36.5967 30.4228 24.1121 24.9023 26.6386 26.858 27.9995 38.58237 49.91305 53.0918 53.03264 56.8053 36.4345 24.7379 15.0429 11.45197 7.5927 3.1928 1.0481 0.2644 0.1808833 0.0518 0.0081 0.001 0.0001 0.00025 0.00026875 0.0002 0.0001458333 0.0001 0.0001 0.00011875 0.0001439453 
0.0001 0.0005 0.02295 0.0897 0.3915 0.70744 1.3219 3.5889 7.7054 13.9176 14.4921 20.5401 28.6078 41.081 81.1798 65.59642 68.8717 58.2432 47.5572 42.8991 41.00733 33.0167 29.4109 32.6016 33.5966 33.0195 30.7533 29.2789 24.6519 23.1562 25.4855 30.26055 34.6433 49.0892 31.2822 26.6916 27.154 26.37435 26.03685 26.4686 26.7121 28.253 29.2019 34.0426 46.7286 59.5681 53.30882 50.4806 39.725 41.2228 45.2743 51.1789 49.9366 48.1223 31.6382 25.6103 23.2763 21.45562 19.5258 20.384 26.542 33.3331 36.11572 40.9555 34.9337 25.5722 24.3934 24.50558 23.8767 28.9172 39.3107 60.9796 53.34792 50.61055 37.9237 30.7379 20.4643 11.2656 8.528133 5.4315 2.0742 0.6043 0.1339 0.09101667 0.023 0.0032 0.0004 0.0004 0.0001 0.000175 0.0001859375 0.0002 0.0001364583 0.0001 0.0001 0.000109375 
0.0003 0.0025 0.0168 0.11644 0.220475 0.8017 1.1645 3.1269 6.6423 10.9952 10.90227 15.6521 26.5484 80.7514 60.335 43.55448 44.1729 32.6641 30.1779 36.394 34.73603 26.8266 23.7001 28.9199 36.0961 38.48178 36.6908 31.8628 26.8504 24.2631 25.8885 33.56935 40.2364 55.3317 43.632 28.1113 29.34774 26.9453 24.8945 27.79248 32.2142 30.64555 34.454 38.4736 47.8606 54.5002 52.50425 51.2481 46.3014 47.4913 52.4791 54.39455 58.0045 51.3641 33.4538 26.8533 24.1534 23.38187 22.6844 23.9943 28.0292 33.3632 36.16058 37.9868 34.0726 26.9808 22.2704 22.16358 24.9521 38.5038 62.7429 44.6989 51.4369 54.6214 35.84767 26.86913 15.8408 8.1995 6.1475 3.6366 1.2451 0.322 0.0633 0.04345 0.0097 0.0012 0.0001 0.00025 0.0002125 0.0001 0.0001375 0.0001558594 0.0002 0.0001341146 0.0001 0.0001 
0.0002 0.0017 0.0124 0.0718 0.1006 0.3289 0.7850167 1.899883 0.3773 3.86944 1.1158 3.1928 6.0511 6.0468 2.6178 18.62288 4.1497 6.2253 9.5707 43.4663 22.26247 25.8135 23.1363 33.5507 43.5606 30.42002 47.9271 45.3143 39.0181 26.8386 31.77527 29.7091 45.4533 67.8053 61.0341 38.2193 34.80658 26.7712 25.692 30.7735 33.18512 35.31453 38.16255 41.1726 44.7123 49.9588 51.35542 49.2697 47.9341 50.3494 58.8361 59.18987 60.5944 52.8711 35.9279 27.9429 25.3018 24.61317 25.3495 26.9753 30.3395 34.4999 35.61806 36.825 35.387 34.6831 14.5565 20.73943 22.9324 43.2438 64.8147 61.3297 45.1504 35.5549 31.1844 25.0637 15.94478 10.20302 4.889225 2.2043 0.6705 0.1539 0.0271 0.01921667 0.0037 0.0004 0.00045 0.0001 0.000175 0.000146875 0.0001 0.00011875 0.0001436523 0.0002 0.0001335287 0.0001 
0.00095 0.004766667 0.021525 0.0002 0.0805 0.0015 0.012 0.0763 0.1268 0.438925 0.2166 0.6111 1.0504 0.5207 0.1167 1.212383 0.3452 0.5445 0.7904 0.7151 11.7846 0.3593 1.4399 3.1216 6.6936 20.18845 11.5519 15.4445 12.501 38.6563 38.82328 45.296 70.7233 110.3125 110.8953 56.9539 35.12592 31.8385 29.8441 33.7129 36.0399 42.02945 38.55 44.28803 46.7837 50.8747 50.59605 52.281 52.4428 55.1145 61.9439 64.35284 63.2812 53.5866 36.7454 28.3294 26.43082 25.3267 24.8632 27.7646 31.3565 34.9085 34.54045 36.125 33.8202 27.9792 16.4527 20.17353 23.2725 40.3072 60.2828 44.0969 38.86798 30.6006 25.1387 19.3646 11.2553 6.844325 5.5165 2.195617 0.3144 0.0642 0.05174 0.0102 0.0013 0.0001 0.00025 0.000225 0.0001 0.0001375 0.0001210937 0.0001 0.000109375 0.0001382568 0.0002 0.0001445096 
0.002858333 0.006860417 0.0002 0.0002 0.0006 0.0001 0.001 0.0076 0.046 0.0752 0.238525 0.35915 0.1504 0.0461 0.13862 0.009 0.0359 0.0976 0.1673 0.2388 0.2404 0.1146 0.7399 1.9438 4.2588 5.97375 7.1387 9.7103 14.9613 36.2315 42.01178 56.2082 75.5378 74.6785 49.3846 53.12309 36.3693 20.6033 48.2492 44.8546 46.2184 46.76686 47.3095 47.3639 46.6199 50.01015 57.62587 62.39238 67.4533 62.1684 71.1345 63.22289 70.3269 60.7502 40.1746 27.8205 24.98535 23.8636 23.1492 25.781 29.1637 30.32703 32.1853 32.699 29.7041 21.6682 18.1928 20.69025 25.6343 45.9193 39.9864 36.453 31.19175 25.1728 19.7517 13.8216 7.3074 5.557333 3.2981 1.1699 0.37155 0.131925 0.025175 0.0033 0.0004 0.0006 0.0001 0.000175 0.00015 0.0001 0.00011875 0.0001099609 0.0001 0.0001046875 0.0001357361 0.0002 
0.00330625 0.0002 0.0002 0.000275 0.0001 0.0004 0.0001 0.0007 0.0053 0.01762 0.0329 0.0935 0.05325 0.053925 0.014625 0.0006 0.0028 0.0091 0.0156 0.08464 0.0003 0.0143 0.1776 0.7231 2.045 3.395833 4.1545 5.5124 11.6031 30.2287 39.74068 45.45 52.4011 47.228 36.2643 33.87634 28.8711 26.6614 43.4414 49.658 44.91488 54.5816 57.9018 57.1208 52.5906 49.9554 63.0581 77.3924 66.30515 53.8905 56.6071 60.28254 56.0437 49.1949 33.1446 23.6935 22.38248 20.8784 20.7522 22.9922 25.9426 27.02633 28.4056 28.5004 25.5261 18.8322 18.98717 22.6861 17.9031 36.5584 34.5609 30.4934 25.44705 20.3338 14.5537 8.8396 4.2587 3.24675 1.708 0.5317 0.1261 0.023 0.00855 0.001175 0.001175 0.00025 0.0002625 0.0001 0.0001375 0.000121875 0.0001 0.000109375 0.000104834 0.0001 0.0001023438 0.00013452 
0.0002 0.0002 0.00019375 0.0001 0.0002 0.0001 0.0004 0.001625 0.0004 0.00848 0.0035 0.0103 0.0164 0.0028 0.001166667 0.0012 0.0002 0.0006 0.0012 0.0043 0.005233333 0.0011 0.0278 0.1991 0.6655667 0.775 2.003 3.2284 10.9714 27.9553 33.03688 42.3704 38.4322 34.4462 27.8626 26.71123 24.5061 24.5915 30.7772 35.0081 40.19208 39.1686 41.9343 44.4143 47.6722 48.60548 53.7337 71.1509 65.7754 53.80022 51.3854 52.00518 47.3005 40.6421 27.4036 20.1073 18.93742 17.9316 17.8603 19.7318 22.2137 23.10787 24.2471 24.1761 21.726 19.0599 15.97422 13.4838 14.8836 26.5074 28.1138 24.0777 20.09038 16.1516 10.0499 5.0406 2.1554 1.6618 0.7529 0.2047 0.0429 0.007 0.00658 0.0009 0.0001 0.0001 0.00015 0.000153125 0.0001 0.00011875 0.0001101563 0.0001 0.0001046875 0.0001023804 0.0001 0.0001011719 
0.0002 0.0001734375 0.0001 0.0001333333 0.0001 0.00025 0.00063125 0.0004 0.0004 0.0014 0.0003 0.0008 0.0013 0.0001 0.00145 0.0002 0.0004 0.000525 0.0001 0.00065 0.0011 0.007625 0.0015 0.0392 0.2106167 0.212 0.634 1.3881 10.5325 23.107 26.48097 29.1099 29.4506 25.5763 22.1773 21.20012 20.586 20.6883 25.4995 29.4138 31.69028 33.3224 36.3616 38.2111 41.5727 43.60587 46.1083 52.9253 51.4843 46.9746 48.0694 43.92985 40.24778 35.02718 22.2172 16.4086 15.40388 14.6051 14.4475 15.9986 18.0409 18.83047 19.7973 19.8868 19.0138 12.0625 11.44228 9.7208 10.6244 18.7911 21.5413 19.91933 17.8299 11.6559 6.3974 2.3553 0.8291 0.7250333 0.2667 0.0654 0.0124 0.0018 0.00206 0.0002 0.0004 0.0001 0.0001 0.0001166667 0.0001174479 0.0001 0.000109375 0.0001048828 0.0001 0.0001023438 0.000101181 0.0001 
0.0001578125 0.0001 0.0001111111 0.0001 0.000175 0.0003453125 0.0004 0.0004 0.000625 0.0003 0.00055 0.000625 0.0001 0.0005 0.0001 0.0005375 0.00030625 0.0001 0.0001 0.0001 0.001729167 0.0008 0.0001 0.0034 0.04896666 0.035 0.1671 0.4838 7.8513 11.93525 15.997 20.3462 22.1764 19.3841 16.7553 15.9391 15.3134 15.7505 20.7261 24.7314 26.50517 28.4974 30.7749 32.4837 34.747 36.17098 37.8013 42.0942 42.4847 40.2999 40.36713 40.6966 39.6529 32.9468 22.85714 17.0487 12.4504 10.9203 10.6158 11.9284 13.5735 14.39877 15.1103 15.9979 12.7419 8.18 7.388733 6.1467 6.4841 12.5599 15.5882 14.18125 12.3651 7.1401 3.1762 0.7202 0.7382833 0.2679 0.0782 0.0175 0.003 0.0004 0.000625 0.0002 0.0002 0.0002333333 0.0001 0.0001 0.0001055556 0.0001057509 0.0001 0.0001046875 0.0001023926 0.0001 0.0001011719 0.0001005882 
0.0001 0.0001037037 0.0001 0.0001375 0.0002550781 0.0004 0.0004 0.00043125 0.0003 0.000425 0.00039375 0.0001 0.0001 0.0001 0.0002333333 0.0001 0.0001 0.0001 0.0001 0.0001 0.0003333333 0.0001 0.001266667 0.0003 0.00858 0.0039 0.0324 0.463 4.0981 7.529233 10.0256 13.076 15.6761 13.7012 12.5691 11.0206 9.782 10.9945 15.9156 19.8126 21.3982 23.2534 24.7635 26.0844 27.348 28.39443 29.4486 32.7276 33.9234 32.9682 32.84532 33.1941 31.7888 25.5945 17.1186 12.55787 9.78385 9.4325 6.8438 7.8922 9.60956 9.1799 10.6907 10.3977 8.5075 4.9135 4.430417 3.3089 3.4114 7.6951 10.2496 9.219816 7.5134 3.3706 1.1279 0.1859 0.2170667 0.0713 0.0193 0.004 0.0006 0.0001 0.00025 0.000275 0.0002 0.0002 0.0001777778 0.0001 0.0001 0.0001018519 0.0001019007 0.0001 0.0001023438 0.0001011841 0.0001 0.0001005859 
0.0001012346 0.0001 0.00011875 0.0002231445 0.0004 0.0004 0.0003828125 0.0003 0.0003625 0.0003046875 0.0001 0.0001 0.0001 0.0001 0.0001 0.0001333333 0.0001 0.0001 0.0001 0.0001583333 0.0001 0.0005555556 0.0003 0.0003 0.0015 0.0003 0.0094 0.1074 1.874 4.062483 5.3294 7.7569 9.9538 8.5634 7.735717 5.99 5.2595 6.8775 11.1946 13.04042 14.6107 17.4837 18.324 19.2009 19.7407 20.74357 21.281 24.0113 25.2505 24.7969 24.94703 25.1162 23.688 18.5876 12.1673 10.11976 8.4952 7.2695 5.743283 5.751025 6.754575 5.4738 6.2491 6.2576 4.8096 2.6066 2.3209 1.4268 1.574 4.2645 5.9513 5.303017 3.6513 1.3014 0.3355 0.0439 0.05421667 0.0132 0.0039 0.0008 0.0001 0.0002666667 0.0001 0.000175 0.00019 0.0002 0.0002 0.0001592593 0.0001 0.0001 0.0001006173 0.0001006295 0.0001 0.0001011719 0.000100589 0.0001 
0.0001 0.000109375 0.0002104736 0.0004 0.0004 0.0003707031 0.0003 0.00033125 0.0002667969 0.0001 0.0001 0.0001 0.0001 0.0001 0.0001 0.0001 0.0001083333 0.0001 0.0001145833 0.0001 0.0003185185 0.0003 0.0003 0.0006 0.0003 0.0036 0.02776 0.0206 0.6582 1.887267 2.3896 3.9949 5.5013 4.5447 4.099583 2.5944 2.336 3.7183 7.0031 8.618283 9.7059 11.4339 12.2474 12.5823 12.6988 13.80115 13.9443 16.1529 16.9724 16.5638 17.18507 17.043 15.9575 12.2243 7.7508 6.728 5.0669 4.1861 3.7957 4.4724 3.705425 4.396025 3.2318 3.2133 2.3604 2.061317 1.1598 0.5098 0.5881 2.0473 2.9412 2.63995 1.5113 0.4204 0.0846 0.0088 0.01165 0.0022 0.0007 0.0001 0.0003333333 0.0001 0.0001555556 0.0001 0.0001375 0.0001655 0.0002 0.0002 0.0001530864 0.0001 0.0001 0.0001002058 0.0001002088 0.0001 0.0001005859 0.0001002937 
0.0001046875 0.0002049622 0.0004 0.0004 0.0003676758 0.0003 0.000315625 0.0002495117 0.0001 0.0001 0.0001 0.0001 0.0001 0.0001 0.0001 0.0001 0.0001 0.0001045833 0.0001 0.0002395062 0.0003 0.0003 0.000375 0.0003 0.001275 0.0006 0.0011 0.14405 0.1812 1.03005 0.8912 1.7185 2.5862 1.9945 1.8395 0.9105 0.8505 1.6225 3.7354 5.0195 5.46 6.6639 7.0942 7.1467 7.7134 7.0703 8.0718 9.7282 10.0235 9.5247 10.47567 10.0658 9.4127 7.0904 4.3119 3.823517 2.5759 1.9443 1.7939 2.2461 2.25614 2.6294 2.164733 2.104167 0.9878 1.237925 0.4437 0.1522 0.1764 0.8153 1.2981 1.255 0.5296 0.1145 0.0183 0.0015 0.0026 0.0003 0.0001 0.0003 0.0001 0.0001777778 0.0001 0.0001185185 0.0001 0.00011875 0.00015685 0.0002 0.0002 0.0001510288 0.0001 0.0001 0.0001000686 0.0001000694 0.0001 0.000100293 
0.0002365499 0.0004 0.0004 0.0003669189 0.0003 0.0003078125 0.0002412842 0.0001 0.0001 0.0001 0.0001 0.0001 0.0001 0.0001 0.0001 0.0001 0.0001 0.0001 0.0002131687 0.0003 0.0003 0.00031875 0.0003 0.0005895834 0.0004333333 0.0006 0.0001 0.0031 0.0561 0.3454 0.70536 0.6079 1.0193 0.7329 0.6972333 0.26 0.2532 0.5687 1.6338 2.501367 2.5788 3.3104 3.5202 3.461 3.951633 3.3213 3.9705 5.1375 5.0994 5.558983 4.6188 5.0379 4.6786 3.4874 2.09 1.909033 1.1456 0.7942 0.7586 0.8506 1.246267 1.0822 1.4483 1.3834 0.8091 0.4817 0.19475 0.0384 0.0441 0.272 0.5033166 0.4578 0.1568 0.0266 0.0034 0.0002 0.0006666667 0.0002 0.0002 0.0001 0.0001666667 0.0001 0.0001259259 0.0001 0.0001061728 0.0001 0.000109375 0.000153245 0.0002 0.0002 0.0001503429 0.0001 0.0001 0.0001000229 0.0001000231 0.0001 
0.0004 0.0004 0.0003667297 0.0003 0.0003039062 0.0002372742 0.0001 0.0001 0.0001 0.0001 0.0001 0.0001 0.0001 0.0001 0.0001 0.0001 0.0001 0.0001782922 0.0003 0.0003 0.0003046875 0.0003 0.0003522569 0.0002944444 0.00035 0.0001 0.0011 0.001 0.01008 0.0391 0.2701 0.4132333 0.57494 0.578075 0.2244 0.0611 0.0622 0.1637 0.5849 1.053517 1.0153 1.3814 1.4709 1.4044 1.7332 1.3061 1.6132 2.3141 2.2258 2.541 1.8617 2.1017 1.8693 1.5197 0.9029 0.8375167 0.4279 0.2854 0.2332 0.2914 0.4664333 0.3779 0.5194 0.5146 0.3506 0.1603 0.1447 0.04756667 0.0096 0.0776 0.19752 0.1422 0.0397 0.0054 0.0006 0.001075 0.0002 0.0003166667 0.0001666667 0.00015 0.0001 0.0001222222 0.0001 0.000108642 0.0001 0.0001020576 0.0001 0.0001046875 0.0001515865 0.0002 0.0002 0.0001501143 0.0001 0.0001 0.0001000076 0.0001000077 
0.0004 0.0003666824 0.0003 0.0003019531 0.0002352951 0.0001 0.0001 0.0001 0.0001 0.0001 0.0001 0.0001 0.0001 0.0001 0.0001 0.0001 0.000169573 0.0003 0.0003 0.0003011719 0.0003 0.0002553096 0.0002064815 0.000225 0.0001 0.0005 0.0006 0.0002 0.00966 0.007 0.0675 0.1789 0.3357 0.17765 0.088725 0.012 0.0128 0.0395 0.1744 0.3741333 0.3339 0.481 0.5144 0.4773 0.6454 0.4291 0.5497 0.8763 0.819 0.9923834 0.6213 0.7278 0.6341 0.5583 0.5952167 0.3223 0.1364 0.0786 0.0655 0.0845 0.1525667 0.112 0.1579 0.1605 0.1056 0.1130167 0.0403 0.0083 0.0197 0.027075 0.06925 0.038 0.0087 0.0009 0.0001 0.00035 0.00043125 0.0002 0.0002083333 0.0001388889 0.000125 0.0001 0.0001074074 0.0001 0.0001028807 0.0001 0.0001006859 0.0001 0.0001023438 0.000150786 0.0002 0.0002 0.0001500381 0.0001 0.0001 0.0001000025 
0.0003555608 0.0003 0.0003009766 0.0002343121 0.0001 0.0001 0.0001 0.0001 0.0001 0.0001 0.0001 0.0001 0.0001 0.0001 0.0001 0.0001673933 0.0003 0.0003 0.000300293 0.0003 0.0002107217 0.0001563272 0.0001625 0.0001 0.0003 0.0004 0.0002 0.0002 0.002075 0.001 0.0142 0.0447 0.0931 0.10412 0.0574 0.0165 0.01278333 0.0081 0.06645 0.0438 0.0925 0.1408 0.1516 0.1369 0.2039167 0.1186 0.1583 0.2799 0.2537 0.32905 0.1728 0.2112 0.1841 0.1702 0.2028667 0.0979 0.0344 0.0193 0.0159 0.0325 0.0211 0.0285 0.0418 0.0419 0.0272 0.03181667 0.0097 0.0016 0.0019 0.0192 0.01755 0.0143 0.0097 0.0001 0.0003666667 0.0001 0.000225 0.0002390625 0.0002 0.0001680556 0.0001212963 0.0001125 0.0001 0.0001024691 0.0001 0.0001009602 0.0001 0.0001002286 0.0001 0.0001011719 0.0001503916 0.0002 0.0002 0.0001500127 0.0001 0.0001 
0.0003 0.0003004883 0.0002338222 0.0001 0.0001 0.0001 0.0001 0.0001 0.0001 0.0001 0.0001 0.0001 0.0001 0.0001 0.0001668483 0.0003 0.0003 0.0003000732 0.0003 0.0001888848 0.0001291924 0.00013125 0.0001 0.000225 0.0003 0.0002 0.0002 0.000625 0.00055 0.0001 0.0026 0.0097 0.0219 0.03193333 0.0125 0.002 0.0023 0.003025 0.015675 0.041875 0.0218 0.035 0.0381 0.0626 0.0336 0.028 0.0389 0.076 0.0669 0.0929 0.0406 0.0518 0.0459 0.0449 0.05853333 0.0236 0.0078 0.0041 0.0034 0.00775 0.0046 0.0063 0.0095 0.0095 0.01463333 0.0061 0.002 0.0003 0.0003 0.0042 0.00696 0.0088 0.0017 0.0007 0.0001 0.0001888889 0.0001 0.0001625 0.0001753906 0.0002 0.000150463 0.0001112654 0.00010625 0.0001 0.000100823 0.0001 0.0001003201 0.0001 0.0001000762 0.0001 0.0001005859 0.0001501955 0.0002 0.0002 0.0001500042 0.0001 
0.0003002441 0.0002335776 0.0001 0.0001 0.0001 0.0001 0.0001 0.0001 0.0001 0.0001 0.0001 0.0001 0.0001 0.0001667121 0.0003 0.0003 0.0003000183 0.0003 0.0001779091 0.0001149391 0.000115625 0.0001 0.00019375 0.00025 0.0002 0.0002 0.00029 0.000325 0.0001 0.0008 0.0004 0.0019 0.0044 0.00705 0.0023 0.0003 0.0003 0.0014 0.0032 0.0094 0.01331667 0.0075 0.0083 0.01768 0.0071 0.0057 0.0082 0.0178 0.0152 0.02255 0.0082 0.0109 0.0103 0.0094 0.01431667 0.0052 0.0016 0.0008 0.0006 0.001633333 0.0009 0.0012 0.0019 0.0019 0.0032 0.0012 0.0004 0.0005333333 0.0001 0.0008 0.002666667 0.0018 0.0003 0.0007 0.000425 0.0001 0.0001296296 0.0001 0.00013125 0.0001516602 0.0002 0.0001419946 0.0001058385 0.000103125 0.0001 0.0001002744 0.0001 0.0001001067 0.0001 0.0001000254 0.0001 0.000100293 0.0001500977 0.0002 0.0002 0.0001500014 
0.0002112739 0.0001 0.0001 0.0001 0.0001 0.0001 0.0001 0.0001 0.0001 0.0001 0.0001 0.0001 0.000166678 0.0003 0.0003 0.0003000046 0.0003 0.0001723498 0.0001075839 0.0001078125 0.0001 0.0001796875 0.000225 0.0002 0.0002 0.0002005 0.0002125 0.0001 0.0003125 0.00025 0.0001 0.0003 0.0008 0.00135 0.0004 0.00068 0.00055 0.0002 0.00262 0.0018 0.0044 0.004 0.0047 0.004575 0.0013 0.001 0.0015 0.0036 0.006783333 0.003 0.0014 0.002 0.0019 0.0018 0.002983333 0.001 0.0003 0.0001 0.0001 0.00045 0.0002 0.0002 0.0003 0.0003 0.00074 0.0002 0.0001 0.0002 0.00045 0.0003333333 0.0001 0.0003 0.0001 0.0002 0.0003333333 0.0002520833 0.0001 0.0001098765 0.0001 0.000115625 0.0001418213 0.0002 0.0001377395 0.0001029878 0.0001015625 0.0001 0.0001000914 0.0001 0.0001000356 0.0001 0.0001000085 0.0001 0.0001001465 0.0001500488 0.0002 0.0002 
0.0001 0.0001 0.0001 0.0001 0.0001 0.0001 0.0001 0.0001 0.0001 0.0001 0.0001 0.0001666695 0.0003 0.0003 0.0003000011 0.0003 0.0001695332 0.00010383 0.0001039062 0.0001 0.0001730469 0.0002125 0.0002 0.0002 0.00017135 0.00015625 0.0001 0.000171875 0.000175 0.0001 0.0001666667 0.0001 0.0001 0.00035 0.0001 0.00025 0.0002 0.0002 0.0007666667 0.0003 0.0008 0.0014 0.0016 0.00085 0.000675 0.00075 0.0003 0.0006 0.001316667 0.0005 0.0002 0.0003 0.0003 0.001075 0.0003 0.0002 0.0004 0.0001666667 0.0001 0.00015 0.0002 0.0002 0.0001 0.0001 0.0002 0.00015 0.00015 0.0001 0.0002366667 0.0001 0.0001666667 0.0001 0.0001666667 0.0001 0.00015 0.0001944444 0.0001678819 0.0001 0.0001032922 0.0001 0.0001078125 0.0001374085 0.0002 0.0001355725 0.0001015168 0.0001007813 0.0001 0.0001000305 0.0001 0.0001000119 0.0001 0.0001000028 0.0001 0.0001000732 0.0001500244 0.0002 
0.0001 0.0001 0.0001 0.0001 0.0001 0.0001 0.0001 0.0001 0.0001 0.0001 0.0001666674 0.0003 0.0003 0.0003000003 0.0003 0.0001908083 0.0001028916 0.0001019531 0.0001 0.0001597656 0.00020625 0.0002 0.0002 0.0001748688 0.000128125 0.0001 0.0001364583 0.0001375 0.0001 0.0001222222 0.0001 0.0001 0.0001 0.0001 0.0001 0.0001 0.0001875 0.0003666667 0.0003 0.0004 0.0001 0.0002 0.0003 0.0007 0.0002 0.0002 0.0003 0.0001 0.000325 0.0001 0.000275 0.0002666667 0.0003 0.0003 0.00025 0.00025 0.0002 0.0002166667 0.0001388889 0.00015 0.0001625 0.0001 0.0001 0.0001 0.0001 0.00015 0.0001333333 0.000125 0.0001 0.0001222222 0.0001 0.0001 0.0001 0.0001222222 0.0001 0.000125 0.0001597222 0.0001425347 0.0001 0.0001010974 0.0001 0.0001039062 0.0001471049 0.0002 0.0001344676 0.000100766 0.0001003906 0.0001 0.0001000102 0.0001 0.0001000039 0.0001 0.0001000009 0.0001 0.0001000366 0.0001500204 
