ncols         108
nrows         63
xllcorner     94.939036842181
yllcorner     29.781587176441
cellsize      0.00030877856258845
NODATA_value  -9999
0.0001 0.0001 0.0001 0.0001 0.0001 0.0001 0.0001 0.0001 0.0001 0.0001 0.0001000815 0.0001001953 0.0001 0.0001010498 0.0001015625 0.0001 0.0001005487 0.0001 0.000109375 0.0005091797 0.0013 0.0013 0.0008942708 0.0001 0.0001111111 0.0001 0.000225 0.000375 0.0003 0.0005 0.0005 0.0005666667 0.0001 0.001575 0.003175 0.0001 0.0005 0.00695 0.0033 0.0183 0.0865 0.2133 0.79015 0.329 0.0045 0.0334 0.1845 1.349533 2.3623 2.5411 3.1832 2.7001 0.481 15.37867 19.5904 13.0244 6.472533 3.1507 0.451 2.990825 2.8193 2.8193 2.340859 1.62815 1.0764 16.92394 22.08111 19.49414 18.74491 17.6802 13.99739 9.917701 8.304944 7.359375 7.089725 6.7537 4.28644 2.064464 1.16195 0.5603923 0.220091 0.06302942 0.01267232 0.001853459 0.001241551 0.001082813 0.0009 0.02056392 0.01452923 0.005396428 0.001875583 0.0007779464 0.0004828332 0.000434375 0.0004 0.001191319 0.0008014134 0.0003690796 0.0002449787 0.0002112079 0.0002050781 0.0002 0.0001730968 0.0001240988 0.0001064047 0.0001016743 0.0001007813 0.0001 
0.0001 0.0001 0.0001 0.0001 0.0001 0.0001 0.0001 0.0001 0.0001 0.0001 0.0001 0.0001001306 0.0001003906 0.0001 0.0001015869 0.000103125 0.0001 0.0001016461 0.0001 0.00011875 0.0005179687 0.0013 0.0013 0.0008770833 0.0001 0.0001333333 0.0001 0.00035 0.00075 0.0003 0.0007 0.00224 0.0009 0.0016 0.0037 0.0073 0.0106 0.02146667 0.0134 0.0641 0.26 0.7745 1.472417 1.8438 3.6389 4.1535 1.6806 10.99046 2.1835 15.93808 16.4807 30.2396 14.74228 25.5484 20.1066 13.1162 5.8504 0.451 5.8737 2.8193 2.8193 3.287838 2.1799 1.0764 20.18564 25.44111 20.99262 19.80961 17.6802 16.45494 12.26402 9.590407 7.898674 7.42575 6.7537 5.253296 3.18146 1.957305 1.054626 0.4739205 0.1526303 0.03372222 0.002735725 0.001559028 0.001265625 0.0009 0.04152965 0.02868374 0.01114228 0.00376166 0.001285339 0.0005797496 0.00046875 0.0004 0.002262346 0.001520469 0.0005824589 0.0003013125 0.0002234675 0.0002101563 0.0002 0.0002235509 0.0001546449 0.0001141913 0.0001034603 0.0001015625 0.0001 0.0001154545 
0.0001 0.0001 0.0001 0.0001 0.0001 0.0001 0.0001 0.0001 0.0001 0.0001 0.0001 0.0001 0.0001002622 0.0001007813 0.0001 0.0001032227 0.00010625 0.0001 0.0001049383 0.0001 0.0001375 0.000534375 0.0013 0.0013 0.0008083333 0.0001 0.0002 0.0001 0.0006 0.002 0.0043 0.01146667 0.0052 0.0064 0.0146 0.031 0.07656667 0.0495 0.0515 0.2061 0.5079 1.6683 2.584733 4.0056 8.0786 14.412 23.4032 17.15715 27.5005 29.6274 30.5928 30.74162 29.55848 27.03608 30.3648 27.2665 22.3787 14.3508 12.07606 2.8193 5.97225 3.2834 1.0764 25.28185 31.02567 23.35863 21.93903 17.6802 20.19201 16.11864 11.8289 8.844522 8.0978 6.7537 6.551811 4.640767 3.066906 1.836707 0.9683006 0.3588701 0.09459074 0.004430092 0.002145833 0.00163125 0.0009 0.08713381 0.05514115 0.02294362 0.007966461 0.00251677 0.0008017489 0.0005375 0.0004 0.004521513 0.00306412 0.001063752 0.0004335348 0.00025009 0.0002203125 0.0002 0.0003375249 0.0002244856 0.0001321931 0.0001072559 0.000103125 0.0001 0.0001235384 0.000122825 
0.0001000031 0.0001 0.0001 0.0001 0.0001 0.0001 0.0001 0.0001 0.0001 0.0001 0.0001 0.0001 0.0001 0.0001005299 0.0001015625 0.0001 0.0001066406 0.0001125 0.0001 0.0001148148 0.0001 0.000175 0.0005625 0.0013 0.0013 0.0005333333 0.0001 0.0004 0.0028 0.0116 0.0274 0.06395 0.0303 0.0279 0.056 0.1279 0.2609167 0.2331 0.3514 0.3947 0.7847 1.50545 2.0499 5.1663 9.4049 14.8631 20.9687 23.28925 27.2064 31.4248 31.8127 30.3214 32.71503 32.1245 32.90722 31.07453 33.9933 24.74478 28.2563 14.5029 5.4904 1.0764 33.17183 40.6813 26.19785 26.19785 17.6802 25.0699 22.31112 15.70683 10.33797 9.4419 6.7537 8.409307 6.557628 4.486609 2.878065 1.836044 0.7960129 0.2728444 0.007752778 0.003175 0.0023625 0.0009 0.1992359 0.1021377 0.04626173 0.01702407 0.005545062 0.001330247 0.000675 0.0004 0.009244025 0.006310751 0.002131276 0.0007503344 0.0003096451 0.000240625 0.0002 0.0005921606 0.0003831276 0.0001748114 0.0001155178 0.00010625 0.0001 0.0001485034 0.0001320109 0.0001136392 
0.0001333364 0.0001000061 0.0001 0.0001 0.0001 0.0001 0.0001 0.0001 0.0001 0.0001 0.0001 0.0001 0.0001 0.0001 0.000101087 0.000103125 0.0001 0.0001140625 0.000125 0.0001 0.0001444444 0.0001 0.00025 0.0006 0.0013 0.009875 0.0002 0.0015 0.0092 0.0534 0.1524 0.3116667 0.1641 0.1188 0.173 0.4014 0.76635 0.7226 0.8869 0.8913 1.1805 1.8043 2.8414 5.0079 8.7949 13.3307 18.0717 21.42565 22.585 26.7381 30.4031 33.1706 33.77807 35.2436 36.3546 36.0893 40.87608 41.11497 41.71758 70.5038 58.6357 51.792 46.6471 36.30247 34.7155 17.6802 27.79615 31.94295 22.8603 12.1301 12.1301 6.7537 11.13581 9.347783 6.399939 3.925161 3.134728 1.574306 0.7991 0.01463333 0.0048 0.003825 0.0009 0.5250176 0.1806722 0.0903537 0.03538704 0.01304444 0.002640741 0.00095 0.0004 0.01916591 0.01298611 0.004424074 0.001522068 0.0004476852 0.00028125 0.0002 0.001153313 0.0007374486 0.0002778807 0.0001340535 0.0001125 0.0001 0.0002057933 0.0001687543 0.0001194659 0.0001078125 
0.0002 0.0001333394 0.0001000122 0.0001 0.0001 0.0001 0.0001 0.0001 0.0001 0.0001 0.0001 0.0001 0.0001 0.0001 0.0001 0.00010231 0.00010625 0.0001 0.00013125 0.00015 0.0001 0.0002333333 0.0001 0.0004 0.003825 0.0126 0.0379 0.0805 0.035 0.1609 0.9789166 0.7082 0.7876 0.531 0.4743 1.0659 1.912083 2.0472 2.4618 2.1824 1.9678 2.206167 2.0015 4.3486 8.2518 12.6945 14.34773 17.5349 22.1872 26.4237 30.1347 34.0763 33.9255 37.732 41.3487 44.8187 48.603 53.89022 53.6073 55.27378 49.75342 36.6117 42.07993 33.2689 30.5784 29.6185 35.6718 28.2141 27.2318 17.5065 6.7537 14.47762 13.5552 9.7567 4.73145 4.711667 2.332367 2.36015 0.0304 0.00675 0.00675 0.0009 1.625681 0.3025667 0.1709222 0.06852778 0.03161111 0.006022222 0.0015 0.0004 0.04072847 0.02646667 0.009068519 0.003423148 0.0007805555 0.0003625 0.0002 0.002378067 0.001503704 0.0005314815 0.0001771605 0.000125 0.0001 0.0003325352 0.0002478652 0.0001427726 0.000115625 0.0001 
0.0002000001 0.0002 0.0001333455 0.0001000244 0.0001 0.0001000001 0.0001 0.0001 0.0001 0.0001 0.0001 0.0001 0.0001 0.0001 0.0001 0.0001 0.0001053 0.0001125 0.0001 0.000175 0.0002 0.0001 0.0005 0.0026 0.011 0.058225 0.17595 0.3232167 1.2005 2.1572 2.75924 2.6414 3.1808 2.3817 1.422 2.3549 5.55485 4.8805 5.908 5.1744 3.2636 4.360583 1.9822 3.8117 6.1861 10.1624 11.82357 14.2922 18.2977 22.1219 25.5736 29.5978 30.93855 33.7327 37.5162 41.249 45.432 48.08645 67.9186 42.3807 38.5966 33.39103 32.30568 31.4588 31.2182 32.0674 33.371 32.20645 32.5914 30.6152 24.0464 14.7831 12.3273 9.453425 7.1861 2.2768 4.6721 0.0482 6.29715 0.0126 0.0009 5.707475 0.4721 0.32225 0.11335 0.07716667 0.01506667 0.0026 0.0004 0.09124167 0.05381111 0.01746111 0.008127778 0.001616667 0.000525 0.0002 0.005082639 0.003066667 0.001162963 0.0002814815 0.00015 0.0001 0.0006177952 0.0004152778 0.0001970679 0.00013125 0.0001 0.000103125 
0.0002 0.0002000002 0.0002 0.0001333578 0.0001000488 0.0001 0.0001000002 0.0001 0.0001 0.0001 0.0001 0.0001 0.0001 0.0001 0.0001 0.0001 0.0001 0.000114 0.000125 0.0001 0.0003 0.0003 0.0018 0.0092 0.0409 0.13586 0.1431 0.4423 2.048783 2.69975 4.467125 8.1285 10.7631 12.0709 11.7037 14.41998 11.3386 11.642 12.2486 11.9438 10.4913 9.758767 6.4571 3.08 5.0452 6.9025 9.508017 9.3549 12.9434 17.5728 19.9497 21.31862 23.2185 27.274 30.8849 61.6116 41.1776 38.95175 31.7802 30.4797 29.7834 28.5724 29.13905 30.7697 30.22723 30.88455 30.1761 32.3382 33.2143 35.6531 38.832 33.1442 11.2255 10.26072 7.0748 11.5874 12.002 11.4186 12.12947 13.7092 21.8848 0.4864 0.4578 1.54855 0.1867 0.04 0.0048 0.0004 0.2228667 0.11285 0.02885 0.01973333 0.0038 0.00085 0.0002 0.011475 0.005911111 0.002744444 0.0005444444 0.0002 0.0001 0.001287847 0.0007546296 0.0003287037 0.0001625 0.0001 0.00010625 0.0001056327 
0.0001500002 0.0002 0.0002000006 0.0002 0.0001333822 0.0001000977 0.0001 0.0001000009 0.0001 0.0001 0.0001 0.0001 0.0001 0.0001 0.0001 0.0001 0.0001 0.0001 0.000145 0.00015 0.0001 0.0007 0.0041 0.0224 0.1155 0.2899 0.3688 1.0514 2.4999 4.9414 9.361025 13.83485 15.82268 27.5258 30.5988 24.34208 29.1019 26.3367 21.1149 21.2984 20.0489 21.31852 16.3095 9.9329 5.4856 7.2065 9.3935 9.1296 10.3399 11.1338 14.3022 19.01937 15.2699 20.9562 34.7172 23.7388 22.5432 26.07515 24.8589 26.948 28.2464 28.3806 27.9568 28.8335 29.0196 29.455 28.75402 31.10355 33.9963 34.649 39.8341 38.7999 24.53812 12.234 11.5166 17.8984 20.0156 21.5859 21.00525 26.0023 38.0128 4.3029 3.1405 4.4633 2.4092 1.7064 1.0257 0.4905 0.1777 1.026825 0.048 0.0097 0.0015 0.0002 0.0292 0.0098 0.0067 0.001233333 0.0003 0.0001 0.0030125 0.001377778 0.0006611111 0.000225 0.0001 0.0001125 0.0001106482 0.0001138117 
0.0001 0.0001500005 0.0002 0.0002000017 0.0002 0.0001334313 0.0001001953 0.0001 0.0001000036 0.0001 0.0001 0.0001 0.0001 0.0001 0.0001 0.0001 0.0001 0.0001 0.0001 0.000275 0.0002 0.0012 0.0052 0.0142 0.1599833 0.2925 0.7786 2.1349 4.8712 9.2973 12.89476 15.0769 21.3709 30.22443 32.8187 34.21605 38.9674 37.3574 38.7448 38.7828 41.1483 38.4885 36.1158 29.6189 20.6492 13.0478 17.74037 10.7197 11.1841 12.1016 14.5463 17.7604 26.8296 19.5271 15.2549 14.1976 16.93673 16.439 19.652 21.8486 23.1651 25.4287 24.83075 25.7559 26.2221 26.83 28.555 28.49115 32.4688 33.15795 34.48387 29.9272 26.898 21.8979 13.9351 16.4499 20.6612 24.2591 25.91567 29.0564 36.9542 44.9112 12.0773 10.44015 8.5083 6.8747 5.3264 3.7966 6.686917 2.4793 1.4023 0.654 0.2425 0.0709 0.70642 0.0165 0.0031 0.0005 0.0001 0.008166667 0.00225 0.001533333 0.00035 0.0001 0.000125 0.0001194444 0.000124537 0.000125 
0.0001500008 0.0001 0.0001500014 0.0002 0.0002000051 0.0002 0.0001335299 0.0001003906 0.0001 0.0001000142 0.0001 0.0001 0.0001 0.0001 0.0001 0.0001 0.0001 0.0001 0.0001 0.0004 0.0007 0.0044 0.0234 0.1065 0.2540667 0.4088 1.3081 3.4631 7.5789 13.8186 17.59342 21.3396 28.7009 34.9541 38.1961 46.04557 47.16618 48.08897 61.1243 62.9409 56.77302 65.3303 63.1584 55.3163 45.7214 37.7387 32.15278 28.5999 21.1924 16.3434 17.4249 20.839 18.1895 15.2291 13.4676 12.2666 14.46138 12.4352 13.554 17.2633 19.1144 20.0468 20.3382 20.539 21.3335 22.6363 24.638 25.68378 28.3028 30.578 33.115 32.36345 28.5159 31.631 22.9907 17.224 20.2973 21.28325 24.6717 29.9186 38.6155 54.3733 18.3123 21.7102 18.1933 18.0304 17.8994 17.3105 11.47123 15.8669 13.231 9.2814 5.1929 2.4546 1.257683 0.9899 0.3306 0.0907 0.0205 0.01296 0.0039 0.0006 0.0001 0.00015 0.0001333333 0.0001416667 0.0001398148 0.0001415123 
0.0002 0.0001500023 0.0001 0.0001500042 0.0002 0.0002000152 0.0002 0.0001337292 0.0001007813 0.0001 0.000100057 0.0001 0.0001 0.0001 0.0001 0.0001 0.0001 0.0001 0.0001 0.0004833333 0.0009 0.0059 0.0318 0.1455 0.3294833 0.5569 1.7661 4.6163 9.9777 13.4436 18.0702 27.9579 37.8785 47.2374 52.5372 55.30898 54.4816 57.8583 68.1508 69.2643 70.89088 78.3226 78.0172 72.5008 63.7314 60.55548 55.7853 47.0253 46.2193 35.9915 26.408 29.54767 21.6357 18.3297 16.1715 15.5327 14.25183 15.8972 16.5637 16.9326 13.6613 14.68437 14.8787 15.3801 15.7713 17.2987 18.6708 20.85005 21.4673 22.6578 35.8041 30.6075 25.62305 24.9193 22.14015 15.9397 17.1986 20.0033 20.6116 24.581 30.8792 37.9928 50.1209 29.65143 23.0491 18.6665 17.1178 15.6918 14.33477 13.6823 10.9937 8.0834 5.4017 3.342317 2.7713 1.2429 0.4506 0.1343 0.0333 0.01211667 0.007 0.0012 0.0002 0.00015 0.0001666667 0.0001583333 0.0001601852 0.0001584877 
0.0004497161 0.0002 0.0001500071 0.0001 0.0001500127 0.0002 0.0002000457 0.0002 0.0001341354 0.0001015625 0.0001 0.0001002279 0.0001 0.0001 0.0001 0.0001 0.0001 0.0001 0.0001 0.0005333333 0.001 0.0062 0.0339 0.1565 0.36495 0.6027 1.9178 5.0283 10.9554 14.80937 20.2608 32.4588 43.7514 56.1187 64.1224 63.39087 67.2076 73.9893 76.0223 76.9697 83.3085 84.2617 83.16438 89.4387 81.3491 76.9589 79.007 96.6973 71.0627 60.5339 51.5462 46.99562 42.0817 29.4391 19.8504 15.8751 16.67195 13.5042 11.1021 7.5094 9.5388 11.5369 10.8662 11.7863 12.7396 14.0693 14.8962 16.4969 17.1252 20.359 17.8926 17.4355 17.96492 22.8182 22.2373 15.563 14.73855 17.32587 17.2373 20.36 24.5193 28.1711 37.41035 48.4498 19.7832 16.5675 14.8459 12.9457 11.91302 10.5114 7.6669 4.9257 2.7637 2.582033 1.4697 0.5307 0.1542 0.0361 0.04175 0.0069 0.0011 0.0001 0.000425 0.0002 0.000175 0.0001805556 0.000175463 0.000175 
0.0005637808 0.0005853673 0.0002 0.0001500212 0.0001 0.0001500381 0.0002 0.0002001372 0.0002 0.0001349792 0.000103125 0.0001 0.0001009115 0.0001 0.0001 0.0001 0.0001 0.0001 0.0001333333 0.0001 0.001 0.0062 0.0333 0.1517 0.3787333 0.5764 1.8093 4.6844 10.1494 13.7647 19.4427 34.9919 43.6139 63.9762 60.3573 65.9313 76.0651 84.0041 87.3796 88.2342 90.0189 89.7075 90.9995 103.5397 105.8833 101.6565 104.9217 91.4129 87.2886 79.9476 71.3468 73.6301 66.672 53.7269 36.2401 22.5811 24.33308 16.6414 13.3442 11.0016 10.8254 11.0489 9.451 9.5128 11.3472 11.9225 12.8379 13.0301 13.7918 10.0387 6.4676 7.3924 11.69638 11.571 12.1865 11.5599 14.256 15.73407 18.4111 19.96262 21.612 24.4178 33.71734 35.3097 51.5106 19.2483 14.4913 10.9562 9.93655 7.6907 4.9352 3.3076 2.056 1.598533 1.0298 0.4119 0.131 0.0332 0.01588333 0.0067 0.0011 0.0002 0.00015 0.00024375 0.0002 0.0001875 0.0001893518 0.0001861883 
0.0004031857 0.000724376 0.001013907 0.0002 0.0001500635 0.0001 0.0001501143 0.0002 0.0002004115 0.0002 0.000136792 0.00010625 0.0001 0.0001036458 0.0001 0.0001 0.0001 0.0001625 0.0001666667 0.0002 0.0012 0.0074 0.0382 0.168 0.3899 0.6171 1.8632 4.5294 8.4348 13.18978 13.3451 36.5226 37.8354 50.2972 55.70542 61.698 75.0087 83.2673 88.7029 94.6833 95.8362 100.4998 106.7054 111.3973 141.3481 107.3412 93.27213 92.22456 92.9703 84.34 78.01615 78.083 75.56 72.3795 59.7435 47.03693 43.8295 33.5672 28.8234 14.1997 13.3249 13.10612 12.2871 11.9734 11.8628 12.0228 11.47228 11.0865 9.4869 6.9108 2.9955 3.9151 7.518767 7.0461 9.2616 11.9928 14.5495 15.89728 16.8935 19.1536 21.44243 22.49018 28.78423 32.2383 56.9211 18.6319 12.9175 11.9048 9.9328 7.5825 5.4677 3.2991 1.613 1.372233 0.659 0.2139 0.0541 0.0107 0.01073333 0.0017 0.0002 0.0004 0.0002 0.000175 0.0002046875 0.0002 0.00019375 0.0001537616 
0.000291618 0.0005147533 0.001366757 0.00197412 0.0002 0.0001501905 0.0001 0.0001503429 0.0002 0.0002012346 0.0002 0.000140918 0.0001125 0.0001 0.0001145833 0.0001 0.0001 0.0001 0.000375 0.0002 0.0011 0.0069 0.0368 0.20105 0.168 0.6582 2.211 6.4052 11.4006 13.23203 16.3661 22.3545 30.2253 40.4812 46.03365 51.8486 66.7055 78.0722 86.596 89.23785 97.016 104.8764 110.4282 138.508 96.3186 95.01206 86.7764 89.9775 85.31171 77.2447 78.6298 74.8515 75.7036 74.7589 66.1305 54.95408 53.6969 39.2058 22.0015 20.6954 17.1601 16.67508 15.5882 14.5744 13.6652 10.2856 11.20897 10.4862 9.1324 8.106 4.8139 5.252767 6.2503 8.9377 10.8032 13.5805 15.926 16.89075 17.8614 19.5403 20.7598 23.1711 26.15083 39.5479 36.38842 41.507 12.8148 11.59186 10.3162 8.2583 6.1306 3.91 2.0375 1.606417 0.8381 0.2632 0.0617 0.0107 0.01908 0.0014 0.0001 0.00015 0.0002125 0.0002 0.0001916667 0.0001772164 0.0001319444 0.0001 
0.0002189511 0.0003642849 0.000961024 0.002774961 0.003960495 0.0002 0.0001505716 0.0001 0.0001510288 0.0002 0.0002037037 0.0002 0.0001511719 0.000125 0.0001 0.0001583333 0.0001 0.0001 0.0004333333 0.001 0.0067 0.0367 0.1676 0.6025167 0.6277 1.9017 4.6499 8.8571 12.7474 15.08152 17.0982 21.1202 25.7008 31.2505 37.72703 40.6264 53.3463 66.6508 77.2749 82.11142 91.154 99.0707 120.8074 81.8547 73.6379 74.77548 76.9793 84.3372 83.0006 74.99947 72.85315 72.33388 69.0265 64.726 56.8984 53.3077 49.4257 44.5857 36.9637 30.9704 25.80638 23.2404 18.4498 16.0442 12.3183 11.7808 11.79003 11.5919 9.0576 5.587 5.7953 6.712584 7.7465 10.545 12.4631 14.8387 17.1177 17.94963 18.9964 20.2516 20.3903 21.3556 23.09062 27.8383 41.1939 32.12932 29.83425 12.85402 11.978 9.3506 7.0933 4.9135 4.047767 2.9742 1.5167 0.6326 0.2118 0.0709 0.01758 0.000575 0.000575 0.0001 0.0002291667 0.0002 0.0002391667 0.0001277778 0.0001 0.0001 
0.0001728545 0.0002650477 0.0006549525 0.001963072 0.005706859 0.00797205 0.0002 0.0001517147 0.0001 0.0001530864 0.0002 0.0002111111 0.0002 0.0001796875 0.00015 0.0001 0.0003333333 0.0003333333 0.0019 0.0121 0.035 0.1772 0.7305 1.295783 1.8845 5.1548 8.2391 9.4426 12.7376 14.3122 18.5646 21.848 24.887 28.2797 32.98675 33.8758 43.221 54.1117 61.8076 75.19337 78.82 105.4457 58.4752 50.0056 55.0432 54.2145 60.7262 67.4707 70.1901 69.5625 63.04335 69.7539 61.30055 57.8841 48.6062 50.0047 45.0885 42.8083 41.9015 35.3726 30.28147 27.3994 21.3258 16.0948 14.2005 13.3828 13.32368 13.2129 10.644 7.5586 6.9055 7.777233 8.764 11.7057 13.6311 15.831 16.7375 18.0165 19.7798 20.5263 19.349 19.6537 22.2604 23.4344 32.245 48.7081 16.3071 15.23105 11.47017 10.23482 8.4349 6.2355 5.25806 4.2159 2.5189 1.2887 0.814 0.0042 0.02152 0.0007 0.0001 0.0004666667 0.0002 0.0005125 0.0001833333 0.0001 0.0001 0.0007270834 
0.0001449974 0.0002007116 0.0004494342 0.001314712 0.004125068 0.0116808 0.01588234 0.0002 0.000155144 0.0001 0.0001592593 0.0002 0.0002333333 0.0002 0.00026875 0.0002 0.0001 0.0008 0.006 0.0057 0.10355 0.3959833 1.0448 1.74485 3.3196 5.4889 9.4376 14.4543 13.69362 16.612 18.8099 21.6627 24.8684 28.7159 32.87812 35.1722 41.7677 48.0654 48.9294 65.66924 93.1743 47.2166 27.4749 32.1311 36.2345 38.4154 45.4945 52.1758 56.7233 56.6076 53.8727 56.2494 55.3157 52.7318 46.55415 45.15735 43.89748 43.9543 41.4823 36.0994 32.39882 28.6066 24.3321 19.5583 16.6292 15.41012 14.9523 15.0214 14.5769 8.4156 7.7972 8.684167 9.6549 12.5785 14.4828 16.3681 17.2127 18.253 19.7188 20.123 18.9963 19.199 19.2618 22.0186 29.146 53.1696 18.9013 23.28262 13.7378 10.8143 10.61232 9.355175 7.142425 7.9512 5.861 7.9813 0.0957 0.3865833 0.026 0.0058 0.0011 0.0002 0.0014 0.00035 0.0001 0.0001 0.00138125 0.0007 
0.0001267747 0.0001632202 0.0003121399 0.0008729424 0.002759054 0.00874321 0.02354012 0.03104602 0.0002 0.0001654321 0.0001 0.0001777778 0.0002 0.0003 0.0002 0.000575 0.0003 0.002633333 0.0025 0.015 0.0756 0.3128 1.002175 2.441725 4.580725 5.9557 8.6936 11.9887 14.86362 15.3519 18.7666 22.3799 26.2251 28.90427 32.3034 38.9217 44.6953 88.4537 68.8061 50.13357 42.478 17.5608 18.1444 19.873 24.16243 22.7674 26.4979 30.4384 33.3378 37.96477 34.4839 36.5789 39.5292 41.6827 43.1959 40.51195 43.7388 40.857 38.79052 34.0343 32.90522 32.8806 27.0973 23.2675 18.5546 16.9736 14.7413 13.1356 8.6376 9.4877 8.6083 9.375383 10.3751 12.8257 14.7503 16.5727 17.53443 18.2349 19.3174 19.5648 18.6139 19.23993 19.3193 22.0217 28.7807 43.7599 48.1005 37.88754 19.3664 15.4389 12.5832 10.1671 12.34665 12.72435 10.3442 3.1865 1.0743 0.87082 0.3053 0.0759 0.0169 0.0034 0.0006 0.0163 0.0001 0.004025 0.0011 0.0003 
0.0001125 0.0001410494 0.0002361111 0.0005592593 0.001823457 0.005894444 0.01851173 0.0462142 0.05925816 0.0002 0.0001962963 0.0001 0.0002333333 0.0002 0.0005 0.0002 0.0017 0.009216666 0.0104 0.0533 0.2288 0.8073 1.8438 3.545725 3.5587 7.330667 10.11183 13.7644 15.39954 17.0104 20.0666 23.0513 26.6672 30.59022 34.6456 40.7355 83.9977 54.6326 46.81956 31.3897 16.0239 14.9053 14.7866 15.2715 16.88138 16.5162 18.3365 20.4473 22.2881 25.28305 24.3479 27.1279 30.2498 33.2778 36.3193 37.36122 38.7938 39.4109 37.7619 36.12735 33.69262 30.35827 29.9476 26.9462 20.9215 16.58742 16.0427 15.8676 9.5341 10.0704 9.5121 8.9999 10.8169 13.3367 15.3082 17.1285 17.89783 18.6494 19.5929 19.3565 19.0249 19.87112 20.2234 23.6919 29.9206 45.5253 57.32112 87.3623 39.8569 28.175 22.0013 17.4341 15.32332 13.8342 23.251 9.669817 4.819375 2.425075 2.8528 1.3166 0.525 0.1786 0.0858 0.0517 0.0128 0.0027 0.0005 0.0001 
0.0001 0.000125 0.0001981481 0.0003851852 0.001094444 0.003990741 0.01259815 0.0389463 0.08709815 0.1107882 0.0002 0.0002888889 0.0001 0.0004 0.0002 0.0011 0.0068 0.03158333 0.0336 0.1393 0.4723 1.2908 2.279283 3.273 5.5074 8.585 11.6836 14.3518 16.79675 18.8823 20.5614 22.2536 26.5777 35.67607 37.1223 77.0448 45.5378 22.1047 25.4763 15.5306 14.033 13.4554 13.079 13.115 13.77597 13.7452 14.8391 16.2222 17.7055 18.59188 19.5351 21.7083 23.913 26.2795 27.8736 29.2455 32.874 36.6562 36.3652 36.348 28.19213 31.5076 25.42755 22.61185 15.9978 16.55715 13.2666 10.2647 9.7144 10.3053 9.977233 9.601 11.4347 13.9014 15.8687 17.6987 18.37845 19.1028 20.0841 19.549 20.0684 20.92898 21.9768 25.038 29.266 71.9636 66.45734 47.2151 37.3597 29.3126 23.5899 19.3723 17.30577 15.8089 15.4904 9.5488 5.4679 4.5816 2.349425 1.6726 0.6619 0.2194 0.1182833 0.0611 0.0144 0.0029 0.0005 0.0001 
0.0001 0.0001 0.00015 0.0003444444 0.0006611111 0.002277778 0.009033334 0.02648333 0.08132222 0.1534889 0.2081417 0.0002 0.0005666667 0.0001 0.0009 0.0054 0.0267 0.1287333 0.1103 0.3774 1.0577 2.4091 3.044767 4.0517 7.5596 11.0395 14.4293 17.5299 17.13943 18.1231 19.6991 20.233 20.5979 36.53224 68.4457 38.6938 19.3051 15.3092 15.64988 13.891 13.0981 12.649 12.2005 11.87515 11.9453 12.0626 12.2701 12.6806 13.3363 13.90178 14.3384 15.8433 17.6066 19.599 21.09942 22.5205 26.3039 30.5862 30.704 22.607 22.89043 22.3059 22.6014 19.2566 14.25552 13.16208 11.53232 10.2225 9.8718 10.5539 10.46363 10.3329 12.1357 14.4194 16.3803 17.20998 18.1666 19.5247 20.5592 19.8778 21.116 21.98855 23.1644 24.1679 36.8265 97.4634 58.48272 49.2143 36.8601 29.1501 24.1988 21.47952 20.2847 17.1004 14.2184 10.1909 6.45 4.85452 3.5557 1.80475 0.7650833 0.1579 0.11985 0.041 0.009 0.0017 0.0003 0.00025 
0.0001055556 0.0001 0.0001 0.0002 0.0007333333 0.00105 0.00505 0.021 0.0534 0.1695667 0.2375 0.4253 0.0002 0.0014 0.0101 0.0659 0.3319 2.066017 0.2631 0.7217 1.636 2.5997 4.466084 4.6443 6.514 9.6529 12.198 14.45708 14.9075 17.238 19.0263 24.06185 26.15537 39.19223 29.9176 17.5604 14.8174 13.8196 13.58967 13.2442 12.7309 11.9151 10.8488 10.44883 10.0623 9.552 9.2051 9.01 9.0369 9.293834 9.4585 10.595 12.0136 13.0054 15.62582 15.9466 18.331 27.8178 14.253 15.7599 12.4503 12.1238 11.5539 10.7593 11.0084 11.71142 12.3755 10.64968 10.1961 10.9254 10.71887 11.0633 12.8051 14.8824 16.7615 17.56912 18.3841 19.6705 20.4079 20.3384 21.8582 22.79787 23.7475 26.8471 69.8242 44.9397 49.07508 40.1002 29.445 25.176 21.9604 20.5569 19.471 16.1601 12.872 9.1966 5.7394 4.228117 3.0596 1.369 0.5097 0.2638 0.07615 0.0186 0.0041 0.0007 0.0001 0.0002 
0.0001239583 0.0001166667 0.0001 0.0001 0.0003 0.0018 0.009925 0.0083 0.0337 0.1182 0.3568 0.75136 0.9189 1.9985 3.6178 5.3225 6.0419 5.717583 5.6222 4.2318 3.4078 5.5697 6.797717 7.522 9.2528 10.5422 12.7872 15.01742 14.8906 17.4213 20.7233 25.9829 37.8077 26.73192 20.26708 17.95442 13.7736 13.0783 12.5832 12.1957 11.333 10.3642 9.1362 8.682067 8.4999 7.3773 6.6808 5.5996 7.2567 4.8567 4.7362 5.9466 8.2449 10.0389 12.65063 12.6445 15.8623 10.51 7.4177 9.77365 7.1274 6.9423 7.7987 10.1852 11.16468 11.6365 11.8253 9.7877 9.8153 10.57755 11.29222 12.2894 13.4687 15.4025 17.1808 17.87905 18.5414 19.7771 20.195 20.8925 21.7978 22.5683 24.3328 45.2359 32.2349 32.949 33.69472 29.7839 24.3695 21.7851 20.0237 18.67323 17.4028 14.3768 11.0105 7.4958 5.8874 4.3948 2.1692 0.8897 0.3022 0.0854 0.037825 0.0203 0.005816667 0.00132 0.0003333333 0.0001 
0.0001 0.0001791667 0.00015 0.00045 0.0012 0.0057 0.02096 0.0239 0.0873 0.2762 0.7482 1.464517 1.7327 3.4405 5.8557 8.5566 10.89738 10.737 11.3094 10.701 10.01 9.3768 11.28305 11.0738 13.1578 14.9958 16.7379 17.27273 18.5833 20.56 21.0414 25.9206 25.02737 22.1999 17.0025 14.655 12.99565 12.5739 11.81122 10.5782 9.5558 8.6303 7.0617 7.509617 6.4835 5.9582 6.1923 7.037 7.763683 8 9.0075 10.2455 12.3766 12.6862 11.81553 11.5822 10.5126 8.9794 8.6865 8.95085 8.707 8.9437 9.7488 11.0299 11.3289 12.3688 11.6818 10.7017 10.2098 11.3597 12.05497 11.8205 13.93112 15.64695 17.6435 18.23538 18.763 19.793 20.4754 21.6768 22.92703 23.4526 28.0542 64.0304 30.3151 29.008 28.1081 25.3875 21.8194 20.136 17.8883 16.56015 15.2932 12.1915 8.7987 5.5401 4.30685 2.9577 1.3149 0.4833 0.1472 0.0375 0.02796667 0.0081 0.0015 0.0002 0.00015 0.0001833333 
0.0001333333 0.0001 0.0003666667 0.0002 0.00236 0.006925 0.0279 0.0651 0.2191 0.6455 1.6151 2.615733 3.4154 6.2978 10.2171 14.822 17.69478 19.9043 23.2515 20.488 19.9068 18.90045 18.0576 16.0984 16.2877 17.641 19.3739 20.3626 21.2635 23.0927 36.212 21.3551 19.43447 16.898 14.1587 13.0233 12.051 11.3927 10.4015 9.81584 9.323183 8.3432 6.5846 7.63542 7.2918 8.3983 9.4297 10.417 10.5439 10.6718 11.3268 12.5655 10.4302 12.0332 11.0386 12.9028 14.4687 13.2906 11.1146 10.38982 10.6519 10.4941 10.5635 11.1648 11.24638 11.5882 12.5112 12.5904 10.9764 11.56488 12.3309 12.7088 14.1689 16.0173 17.06478 18.35995 19.0482 19.8729 21.0844 22.7585 27.45957 26.2135 52.6072 39.9524 31.9912 30.50715 27.6878 23.8324 20.9188 18.1518 15.7564 14.31727 12.9965 9.7913 6.5062 3.6964 2.843567 1.7563 0.6903 0.2243 0.0607 0.04751667 0.0138 0.0027 0.0004 0.0001 0.00015 0.0001333333 
0.0001 0.0002 0.0001 0.0008 0.0039 0.017325 0.0169 0.1392833 0.367 1.0914 2.8007 4.048467 5.3823 9.1673 13.8613 18.2196 22.54163 33.9292 25.8566 26.5462 28.0759 26.64508 27.9756 26.3687 22.8276 21.4995 21.76 24.35557 24.457 25.5985 27.4988 15.9746 15.16355 14.2586 12.6208 11.2851 10.4176 10.05738 10.1136 9.5215 9.3101 9.5876 9.334075 8.72925 10.7555 11.4874 12.5813 13.9725 13.40042 13.1651 13.3372 12.2843 12.4394 12.42727 13.2282 16.0549 18.5933 16.7226 12.1202 11.53617 11.0587 10.489 10.2557 10.6881 11.11698 10.6385 10.0946 12.6381 11.3394 11.7959 13.1731 13.4744 14.7483 16.6132 17.9851 18.55198 19.21288 20.16087 21.8168 24.865 34.92052 45.791 33.8194 35.9786 30.7514 30.96588 33.2894 20.3043 18.4527 16.0622 13.4776 11.92888 10.4916 7.2851 4.3623 2.1956 1.688183 0.9153 0.315 0.0899 0.0215 0.01803333 0.0044 0.0008 0.0001 0.0002 0.0001 0.000125 
0.00015 0.0001 0.0004 0.0022 0.0099 0.0293 0.0386 0.129 0.7901167 1.42386 2.432275 3.8442 7.2331 12.4248 18.229 22.6719 24.96713 25.7028 28.0128 30.4961 32.5817 32.40442 33.2729 33.3865 32.1467 27.9853 34.72535 37.4876 21.7914 15.1993 8.003 11.2663 11.71922 11.2287 10.6848 9.2246 7.9396 10.01918 8.4298 9.7578 10.8792 12.1234 10.2851 11.17755 11.71054 12.27 14.2385 17.1792 15.62646 14.9969 14.4309 13.4215 13.6582 13.993 13.769 15.6042 17.5804 16.4345 15.6791 12.8617 11.4099 11.0593 11.1465 11.3461 11.72108 11.2762 11.157 12.4047 11.1296 11.3143 11.826 13.3676 15.1796 16.8481 17.38737 18.0004 19.1742 19.9687 23.08112 24.60567 38.71105 54.9746 28.6686 31.7394 36.7584 29.28845 25.3171 19.2683 16.547 13.8731 12.39765 10.9779 7.8733 4.9266 2.6099 1.1486 0.8955 0.4169 0.1252 0.0314 0.0066 0.005966667 0.0012 0.0002 0.0003666667 0.0001 0.0001333333 0.0001 
0.000225 0.0002 0.001 0.0047 0.0214 0.06745 0.0851 0.2931 0.8674 1.9928 3.9464 6.99305 9.190233 14.7444 17.4745 22.3784 24.62043 26.9009 30.686 33.736 35.9051 36.8933 36.6153 37.5207 40.542 64.4892 42.04037 35.1305 25.7219 18.3108 9.9698 9.5296 10.72545 8.0575 8.0737 9.3267 11.4834 11.4225 11.7311 11.476 11.2151 10.3152 11.42277 11.7525 11.9171 12.6402 14.79148 17.17237 18.0639 18.8186 14.6973 13.9291 15.8803 15.00105 14.9829 15.1836 16.1411 15.9724 18.17147 19.9632 12.0074 11.3167 11.4592 12.2739 12.81608 14.1037 13.4376 13.8281 10.9125 10.86437 9.5052 12.9201 15.327 17.0611 17.47193 17.8163 19.0557 20.0953 22.5273 29.2136 43.4222 41.10896 38.30083 41.5607 27.0024 26.4409 22.612 17.6953 14.5811 11.5574 10.0585 8.4377 5.4505 3.0112 1.3898 1.0947 0.5298 0.1668 0.0437 0.0096 0.0018 0.001733333 0.0003 0.00045 0.0002 0.0002222222 0.0001 0.0001111111 
0.0001 0.0005 0.0026 0.0126 0.0536 0.1089 0.1961 0.6095 1.5924 3.4796 4.50434 6.469 10.4259 13.65802 16.6593 19.70595 22.1966 27.872 31.5573 35.8518 39.8892 41.14093 43.0956 47.3298 74.929 51.8408 44.482 35.3088 29.8941 29.3825 15.1858 13.80368 12.6563 11.6143 11.7524 13.0227 14.5479 14.1007 14.4032 13.0215 11.6268 11.4762 12.08713 12.5842 12.9315 13.8886 16.0109 17.59685 21.2609 17.72662 17.90247 25.5858 16.4507 16.35703 15.2652 14.5796 15.6351 18.0364 21.2567 25.7606 13.3702 11.6366 11.9814 12.24753 13.2829 14.6137 14.5962 14.9082 11.7951 11.45357 10.0178 12.8067 15.336 17.2703 17.58348 17.8354 18.7367 20.1505 24.4723 34.49593 49.0399 40.4607 32.401 33.9321 31.47437 24.06925 20.5146 16.143 12.6803 9.3389 7.878817 6.166 3.5171 1.6869 0.6702 0.5332667 0.2199 0.0599 0.0137 0.0027 0.0004 0.00054 0.0001 0.0002 0.0002375 0.0002 0.0001740741 0.0001 
0.0001 0.0005 0.003 0.0148 0.0638 0.1444167 0.2334 0.682 1.7442 3.7521 5.6511 6.8282 10.6041 11.9249 16.7743 22.49417 27.99985 29.49197 33.3951 36.4975 41.5704 53.19302 49.77 87.6561 57.833 45.494 39.57675 34.6287 27.25 18.4605 20.6436 16.60238 14.837 13.9678 13.7349 14.4892 15.8941 15.97068 16.5445 15.1139 12.8899 12.8897 13.0097 13.505 13.8898 14.8995 15.9167 16.6242 17.1989 17.3409 17.0431 23.08994 24.80735 19.881 15.6821 16.1155 18.2127 23.9517 23.46902 23.8559 13.6336 11.6375 11.882 12.18243 12.6058 13.3805 15.7534 18.2995 14.1943 14.32577 12.2965 13.4721 15.4281 17.4248 17.67093 18.093 18.4142 20.336 43.2447 40.57347 38.4778 41.0662 45.2941 31.1864 26.148 22.64027 19.0567 15.6671 10.9534 7.4077 6.06628 4.3652 2.1717 0.8954 0.3043 0.2416667 0.0856 0.0201 0.004 0.0007 0.00082 0.0001 0.0001 0.0001 0.00015 0.000171875 0.0002 0.0001580247 
0.0001 0.0005 0.0029 0.0152 0.04495 0.0678 0.2518 0.8369 2.1937 4.7561 6.485483 8.6216 11.7823 17.9963 23.0147 24.92784 27.9911 33.9397 35.93762 38.50474 42.5673 49.3057 95.5272 67.2855 48.9624 38.9176 33.76092 31.2706 28.8075 23.3404 20.3066 18.91042 15.985 14.2652 14.0086 14.7616 15.54045 16.6805 17.7539 21.4137 13.9896 13.7472 13.83233 13.8559 13.7522 13.3056 11.4094 14.92068 17.9484 17.9469 19.0582 37.3119 31.02838 19.02832 18.54233 19.0252 21.733 25.954 24.7394 23.2555 13.727 11.6134 11.6922 11.998 11.6503 9.9596 16.9014 21.2185 20.2153 21.2886 16.3623 12.7925 14.9486 17.1909 17.57718 18.2112 18.3283 21.9252 52.9865 43.15375 35.2196 49.3651 34.5548 30.3422 27.48267 24.9146 18.9839 14.7274 10.28375 8.396075 5.1616 3.0536 1.3244 0.4701 0.1369 0.1061833 0.0331 0.0067 0.0012 0.0002 0.0003333333 0.0001 0.0001 0.0001 0.0001 0.000125 0.0001492187 0.0002 
0.0001 0.0005 0.0035 0.0192 0.06035 0.0889 0.3437 1.0577 2.6068 5.6136 7.874367 9.3413 16.2472 22.0056 26.7504 27.65958 30.1087 30.7327 38.1651 42.8956 57.22475 74.8534 69.37457 49.5483 37.155 30.1616 28.61875 22.093 22.0618 22.9231 21.9971 21.82412 19.6932 16.2173 14.5302 14.6334 15.66067 16.7839 21.1289 29.4633 15.038 14.5743 14.41908 14.4219 13.9309 13.5652 10.943 14.63498 16.1077 18.2714 24.1417 43.7595 34.54712 23.1611 17.3891 20.80848 22.6672 25.23845 28.6685 22.7508 14.1365 12.1193 12.2577 12.30337 11.9 10.8818 15.5413 20.3137 22.34492 25.9772 20.5112 13.7426 14.6906 16.4823 17.8394 18.0609 20.5578 41.5943 39.0347 43.70255 49.9592 38.499 33.147 29.0393 26.0781 23.2655 17.6647 13.3908 9.4033 5.8199 3.8854 2.37226 1.341433 0.2523 0.0638 0.0506 0.0134 0.0024 0.0004 0.000475 0.0002 0.0001833333 0.0001 0.0001 0.0001 0.0001 0.0001125 0.0001404297 
0.0001 0.001 0.0061 0.0319 0.0564 0.1391 0.4975 1.4533 3.4847 4.439 6.6754 12.2382 18.035 23.6446 27.6693 27.3277 30.4233 34.341 41.4612 51.6529 68.22566 85.0448 69.5359 42.88485 34.28588 30.74305 29.6025 19.6672 20.0657 22.4519 27.2193 29.81175 25.7435 18.9242 15.2096 14.7535 16.05182 16.3511 26.1083 34.5416 19.5961 18.38568 15.1616 14.7536 14.9288 15.9324 14.2188 16.4179 17.1826 20.8156 32.2575 41.9681 34.17387 26.535 20.0798 22.0255 24.5983 28.39848 26.6112 22.58328 14.9184 13.1057 13.3543 13.28015 12.9657 12.82 16.0558 20.3819 22.72528 24.8896 21.5058 15.5853 14.3574 14.8346 16.7217 20.3694 41.1732 32.1039 47.2907 40.74487 37.7246 36.7064 31.7014 27.5276 24.39845 21.3794 16.3314 12.0453 7.9839 6.312733 4.5351 2.133 0.8152 0.3016667 0.1218 0.0286 0.0058 0.0009 0.0001 0.00025 0.00025625 0.0002 0.0001458333 0.0001 0.0001 0.0001 0.0001 0.00010625 
0.0004333333 0.0002 0.0013 0.009 0.057575 0.0503 0.2265 0.8227 2.4859 3.111817 5.7676 10.0935 14.5133 18.3922 22.1989 20.10318 26.8156 27.9985 38.9704 93.8358 52.72105 67.6992 46.5054 28.5114 26.0531 27.21148 28.32223 25.9936 22.607 30.3724 25.58358 40.7628 43.4546 38.8227 29.6325 15.9785 21.19672 17.8105 29.3698 44.8426 29.2767 32.72737 16.6674 16.8529 16.4685 19.6072 18.7474 20.0124 21.3079 25.8056 34.6092 39.6507 34.65638 29.9688 23.8308 24.746 28.3456 30.46028 31.9815 23.044 17.56933 14.3581 13.88877 14.6972 14.506 14.7477 17.3259 21.0243 22.49253 23.765 22.2501 20.5391 10.9086 14.59908 15.847 26.7604 49.4292 49.5812 39.62607 34.8343 35.6257 34.5385 30.0805 25.5995 22.51917 19.5794 14.8981 10.6372 6.651 5.107533 3.4832 1.4838 0.5076 0.1397 0.0314 0.013975 0.00516 0.00198 0.0004666667 0.0001 0.000175 0.0001828125 0.0002 0.0001364583 0.0001 0.0001 0.0001 0.0001 
0.0002 0.00075 0.0035 0.00515 0.02965 0.1384 0.22518 0.0263 0.0462 1.419833 0.2111 0.7611 2.1937 4.8662 9.102517 6.9655 6.5465 11.4369 14.3345 13.1627 30.53585 4.9309 5.1728 7.5177 10.602 16.1764 42.5883 21.4309 13.89028 15.0879 20.67365 7.1115 11.0216 13.3178 9.5715 30.5427 32.22793 31.744 54.058 90.5565 82.6997 36.65308 32.9627 20.4924 19.5015 22.7616 24.88485 23.235 25.3827 28.9152 33.9261 37.9039 35.2234 31.9118 27.367 27.9658 34.0842 33.6106 33.2918 23.9358 16.0142 14.3979 15.13243 15.23127 15.35552 16.4603 18.6294 21.5582 22.39543 23.3362 22.2092 18.9773 12.3116 16.03858 17.4482 33.9718 55.476 40.7959 37.94843 33.1504 33.1137 32.1578 28.1976 23.3183 20.46547 17.7108 13.3562 9.1608 5.3854 4.029467 2.6066 1.0143 0.315 0.0786 0.0529 0.016 0.0027 0.0004 0.0003 0.000275 0.0001 0.0001375 0.0001550781 0.0002 0.0001341146 0.0001 0.0001 0.0001 
0.000475 0.001483333 0.003133333 0.01276667 0.05773333 0.081306 0.0132 0.0001 0.001 0.04436667 0.0072 0.04 0.1757 0.6007 2.429817 1.5916 3.2755 4.7633 4.9536 3.1744 3.773917 0.4121 0.5592 0.6529 0.701 9.26115 0.9376 1.5592 2.9243 4.4479 5.57445 8.4608 9.4105 12.9465 19.0597 26.22263 41.5913 55.7006 69.8912 63.3443 35.4326 37.83315 22.8794 12.8138 36.9387 32.6437 34.27987 32.3142 32.5324 32.9776 34.4781 37.6785 38.41683 34.2267 31.259 32.6352 37.7017 38.04028 36.2588 25.2228 17.2128 15.6954 15.92134 15.7392 15.9827 17.53852 18.77974 20.40505 21.8656 22.8233 21.4489 16.4617 14.986 19.5795 24.7301 45.3171 41.0734 38.1711 34.84855 31.1577 31.1336 29.9373 26.1605 23.43545 20.8365 15.7483 11.6249 7.6018 4.1812 3.061183 1.8694 0.6675 0.19 0.0435 0.02888333 0.0082 0.0013 0.0002 0.0002333333 0.0002277778 0.0001909722 0.0001 0.00011875 0.000143457 0.0002 0.0001335287 0.0001 0.0001 
0.0009791667 0.001697222 0.005794445 0.02454444 0.0317112 0.00665 0.0001 0.0004 0.0001 0.002225 0.0006 0.0046 0.0266 0.1214 0.4742 0.4335 1.1967 1.7132 1.6772 1.89785 0.9047 0.0587 0.1128 0.1892 0.2221 0.4132333 0.5159 1.2138 2.8908 4.4388 4.79396 6.2996 8.922883 13.38157 19.3718 29.3054 37.1988 46.5596 49.6786 43.0635 29.4539 26.88942 23.5706 24.0094 42.8984 47.3385 39.52627 47.3862 43.0975 38.3228 36.6051 38.2404 34.1869 54.5932 40.2009 41.0318 45.2299 41.0999 41.6753 30.7164 19.4625 17.1514 16.57047 16.6228 16.9079 17.6838 19.567 20.80277 22.12362 21.76113 20.6234 16.6487 25.1751 21.9826 22.826 42.5367 39.0593 36.0604 32.9291 29.7558 29.2861 27.7594 23.9119 21.00445 18.1879 13.7179 9.7402 6.0011 3.0637 2.206933 1.2608 0.4135 0.1084 0.023 0.0153 0.004 0.0006 0.0001 0.00015 0.0001611111 0.0001712963 0.000147743 0.0001 0.000109375 0.000138208 0.0002 0.0001333822 0.0001 
0.001338194 0.002823611 0.0106787 0.01310502 0.003375 0.0001 0.0002 0.0001 0.0001 0.00035 0.001425 0.0004 0.003 0.0175 0.1129 0.0805 0.3303 0.4914 0.4653 0.5658333 0.2119 0.0045 0.0121 0.0258 0.0341 0.14345 0.0687 0.5096 1.7208 3.4037 4.3466 5.3798 8.2643 11.2366 16.19362 29.29988 41.63358 44.84 40.0532 33.5088 30.73593 25.7832 24.2168 26.43 33.7426 37.228 40.9431 40.247 41.428 39.9503 40.9255 41.47927 45.5683 60.8396 48.9988 42.5018 44.6232 42.70397 41.1105 31.1405 19.5953 17.4349 16.9948 16.7791 17.2695 18.3721 20.0276 20.57028 21.7509 22.0547 20.56757 21.0195 20.86337 19.637 24.5414 35.7069 36.002 33.4296 31.1325 29 27.9303 25.6164 21.4286 18.38705 15.5013 11.5057 7.7416 4.435 3.314167 2.082 0.7845 0.2361 0.0571 0.0113 0.00765 0.0018 0.0003 0.000275 0.0001 0.000125 0.0001287037 0.0001375 0.0001247444 0.0001 0.0001046875 0.0001357239 0.0002 0.0001444607 
0.002080903 0.004946836 0.005688967 0.0017375 0.0001 0.0001333333 0.0001 0.0001 0.0001833333 0.000445 0.00025 0.0001 0.0005 0.0036 0.02101667 0.0209 0.0658 0.1043 0.098 0.13895 0.0379 0.0003 0.001 0.0025 0.01115 0.004 0.0159 0.1795 0.8422 2.2343 3.296867 4.3234 7.5161 11.4731 22.693 30.97607 37.9359 37.92818 35.84972 27.7956 27.97455 24.8106 25.3415 27.0094 31.6189 35.0842 37.03483 38.3747 40.6095 41.2144 43.6168 45.0311 47.973 55.4977 48.0756 42.63 42.89072 43.4153 40.1696 30.382 19.4463 17.3245 16.9256 16.6561 17.2248 18.6066 20.0791 20.70377 21.4268 21.4283 20.6576 21.9927 19.60877 21.83808 25.6839 31.0442 32.6845 30.7556 29.2553 27.7936 26.5865 23.1812 18.4488 15.58062 12.8438 9.1341 5.7303 3.0137 2.231683 1.2895 0.4429 0.1221 0.0273 0.005 0.003533333 0.0008 0.0001 0.0002 0.00016875 0.0001 0.0001125 0.0001137346 0.0001191615 0.0001126419 0.0001 0.0001023438 0.0001345169 0.0002 
0.00351387 0.002747091 0.00091875 0.0001 0.0001111111 0.0001 0.0001 0.0001277778 0.0002006667 0.000175 0.0001 0.0002333333 0.0001 0.00094 0.0004 0.0032 0.0096 0.0163 0.0155 0.02648333 0.0051 0.007483333 0.0001 0.0002 0.00175 0.0003 0.0019 0.0169 0.2024 1.3697 2.208917 3.0703 6.3202 12.1622 27.4361 30.7924 35.8393 36.1274 32.7733 28.6259 25.67175 25.05478 25.4299 26.5483 30.3022 32.12738 33.8939 37.3812 39.9367 41.7953 44.4336 45.7869 47.6694 52.2261 47.2511 42.2165 42.06861 41.9575 38.8856 29.2884 19.0962 17.9644 16.9818 16.3772 16.9075 18.4907 19.8475 20.48973 21.0907 21.4217 23.0656 17.4438 18.59858 19.3616 23.8123 27.81217 29.7678 30.45635 28.6175 25.9355 24.173 19.8775 15.094 12.56962 10.1672 6.7434 3.8797 1.8522 1.374067 0.7177 0.2241 0.0566 0.0117 0.008533333 0.002 0.0003 0.000325 0.0001 0.00015 0.0001296875 0.0001 0.00010625 0.0001066615 0.0001096494 0.0001063883 0.0001 0.0001011719 0.0001339222 
0.001717584 0.000509375 0.0001 0.0001037037 0.0001 0.0001 0.0001092593 0.0001331889 0.0001375 0.0001 0.0001444444 0.0001 0.0001 0.0002 0.0001 0.0003 0.001 0.0019 0.0019 0.00464 0.0005 0.0019 0.00015 0.00015 0.00025 0.0007666667 0.0001 0.0011 0.0212 0.34945 0.3725 1.8833 6.0586 13.149 28.8048 29.49085 32.0453 30.6582 28.491 25.4437 24.54428 24.6371 25.19077 26.96218 29.0453 31.5153 32.8198 36.4325 39.1852 41.7044 44.2764 45.48262 46.7522 49.9471 46.4465 41.6754 41.12808 40.517 37.1227 28.0873 18.5123 17.36317 16.4253 15.9146 16.3593 18.0914 19.4912 20.39518 21.0031 23.0135 19.2402 16.1102 16.91545 18.0846 21.9724 27.5918 27.2083 27.94575 26.13408 23.567 20.9493 15.846 11.4414 9.404366 7.4225 4.529 2.3612 1.0159 0.7648833 0.3554 0.1009 0.0234 0.0045 0.003433333 0.0007 0.0001 0.0002 0.00018125 0.0001 0.000125 0.0001136719 0.0001 0.000103125 0.0001032622 0.0001048247 0.0001032053 0.0001 0.0001005859 
0.0003046875 0.0001 0.0001012346 0.0001 0.0001 0.0001030864 0.0001122396 0.00011875 0.0001 0.0001148148 0.0001 0.0001 0.000125 0.0001 0.0002 0.000375 0.0001 0.0002 0.00105 0.0002 0.00035 0.0005 0.000675 0.0001833333 0.0003166667 0.0001 0.000425 0.0004 0.0088 0.09118333 0.1221 0.771 5.6525 14.9656 25.3934 26.79937 27.4262 26.6884 25.7023 24.0144 23.95918 24.0819 24.7971 25.6503 26.58315 30.25982 34.0561 35.3562 38.3386 41.2926 42.20198 43.8228 45.9413 48.4383 45.8417 41.2254 39.98023 39.1767 35.2147 26.7248 17.6335 16.45233 15.5299 15.1409 15.5334 17.4175 18.28485 19.1882 21.7504 19.9396 17.793 14.489 15.11857 16.0035 19.3048 24.4922 26.9814 25.31415 26.4163 22.11485 18.36932 11.8314 11.66088 7.5247 4.7764 2.6904 1.27 0.4923 0.3816167 0.1558 0.0403 0.0086 0.0015 0.00125 0.0002 0.000275 0.0001 0.00015 0.0001328125 0.0001 0.0001125 0.000106543 0.0001 0.0001015625 0.0001016082 0.0001024047 0.0001016016 0.0001 
0.0001 0.0001004115 0.0001 0.0001 0.0001010288 0.0001049402 0.000109375 0.0001 0.0001049383 0.0001 0.0001 0.00010625 0.0001 0.00015 0.00019375 0.0001 0.00015 0.00015 0.0002 0.0002 0.0002 0.00035 0.0005 0.000355 0.0001 0.0002229167 0.0002333333 0.0001 0.0014 0.03183333 0.0211 0.1282 5.2573 10.6013 17.25645 23.5285 23.598 23.8528 23.4526 22.6009 22.56633 22.9771 23.3902 24.0787 27.5583 28.65078 31.6159 34.20483 37.49397 39.8191 41.80777 42.2966 44.2422 46.3027 44.3868 40.0337 38.39542 37.2532 32.8474 24.9359 16.4689 15.11127 14.1441 13.92 14.3438 16.5255 17.27145 18.9953 19.0986 18.2071 15.6185 12.745 12.84135 13.2791 16.0744 21.2212 24.1246 23.79465 23.7343 20.6876 17.3346 12.53213 7.726425 4.84895 2.676 1.3921 0.5977 0.2099 0.1695 0.0604 0.0143 0.0028 0.0005 0.00048 0.0001 0.00015 0.00015625 0.0001 0.000125 0.0001144531 0.0001 0.00010625 0.0001031982 0.0001 0.0001007813 0.0001007965 0.0001011973 0.0001007987 
0.0001001372 0.0001 0.0001 0.0001003429 0.0001021313 0.0001046875 0.0001 0.0001016461 0.0001 0.0001 0.0001015625 0.0001 0.000125 0.0001359375 0.0001 0.000125 0.0001333333 0.0001666667 0.0001833333 0.0002 0.0002 0.0002 0.00035 0.0003 0.0001557292 0.0001722222 0.0001333333 0.0002 0.0033 0.01251667 0.0343 0.2763 1.7222 6.7244 14.16052 22.3255 19.9938 21.1878 21.2176 20.7568 20.55698 20.9669 20.9362 21.7683 25.6679 27.47372 29.761 33.3812 36.7761 36.99017 39.7337 41.9157 41.5092 43.316 41.9495 39.5854 37.9556 34.7279 30.0327 22.6166 14.7549 13.23483 12.1363 11.9722 12.784 15.1792 15.45038 16.323 16.9122 16.0478 13.3493 11.80173 10.4469 10.0846 12.5596 17.7181 20.9312 20.60167 20.5801 17.2149 13.8316 7.1309 4.367 4.4187 2.088817 1.128483 0.2406 0.28155 0.078 0.0206 0.0045 0.0008 0.0001 0.0002333333 0.0001 0.0001 0.000125 0.0001203125 0.0001 0.0001125 0.0001067383 0.0001 0.000103125 0.0001015808 0.0001 0.0001003906 0.0001003957 0.0001005961 
0.0001 0.0001 0.0001001143 0.0001009636 0.0001023438 0.0001 0.0001005487 0.0001 0.0001 0.0001003906 0.0001 0.0001125 0.0001152344 0.0001 0.0001125 0.0001194444 0.0001416667 0.0001611111 0.0001833333 0.0001944444 0.0002 0.0002 0.0002 0.0002108314 0.0001416667 0.0001277778 0.00015 0.0001 0.0005 0.0092 0.0145 0.065 0.5671 4.1868 10.87482 17.5966 16.3883 18.1846 18.5861 18.1728 18.1913 17.8489 17.393 18.7984 23.1556 24.89495 27.0836 30.4545 34.1612 37.2043 36.49088 39.6148 39.51008 40.34235 38.374 36.72758 34.8128 31.451 26.5873 19.517 12.3293 10.8739 9.5755 9.6221 10.7496 12.1347 12.7775 13.5446 14.4335 13.4069 10.8625 9.295067 7.7882 6.8557 9.0294 14.0882 17.3696 17.02282 16.8702 13.2754 9.8026 3.7368 3.367733 2.1816 1.266 0.5985 0.2851 0.10675 0.0325 0.0062 0.0013 0.0002 0.0003 0.0001 0.0001333333 0.0001 0.0001 0.0001125 0.0001082031 0.0001 0.00010625 0.0001032471 0.0001 0.0001015625 0.0001007858 0.0001 0.0001001953 0.000100197 
0.0001 0.0001000381 0.00010045 0.0001011719 0.0001 0.0001001829 0.0001 0.0001 0.0001000977 0.0001 0.00010625 0.0001069336 0.0001 0.00010625 0.0001106482 0.000124537 0.0001407407 0.000162037 0.0001796296 0.0001925926 0.0001981481 0.0002 0.0002 0.0001429398 0.0001175926 0.000125 0.0001 0.0003 0.0002666667 0.0002 0.0024 0.0145 0.1546 3.4054 7.424716 11.0102 12.6349 14.7154 15.4621 14.99633 14.8229 13.7553 13.1337 15.2916 17.46183 19.9719 23.7297 26.8632 30.5392 33.4293 34.17852 35.7151 37.6034 39.302 36.363 34.33415 30.546 27.3006 22.3922 15.927 12.65977 9.4583 6.9891 7.2969 7.3992 8.9775 9.7865 10.506 11.4542 10.6715 8.1646 6.751517 5.1589 4.0766 5.8874 10.4427 12.07082 13.6162 12.7696 9.2729 5.8779 1.8252 1.63075 0.9132 0.4383 0.2181 0.0832 0.035125 0.0252 0.006983333 0.001633333 0.0001 0.00015 0.0001625 0.0001 0.0001083333 0.0001 0.0001 0.00010625 0.0001036133 0.0001 0.000103125 0.000101593 0.0001 0.0001007813 0.0001003918 0.0001 0.0001000977 
0.0001000191 0.0001002148 0.0001005859 0.0001 0.000100061 0.0001 0.0001 0.0001000244 0.0001 0.000103125 0.0001032959 0.0001 0.000103125 0.0001056327 0.0001138117 0.0001253086 0.0001424383 0.0001608025 0.0001780864 0.0001901235 0.0001969136 0.0001993827 0.0001518441 0.0001100309 0.0001125 0.0001 0.0002 0.0002166667 0.0002 0.001 0.0004 0.0027 0.0479 2.1211 4.473317 6.2282 8.8177 10.9685 11.887 11.4696 11.0286 9.3195 8.8918 11.4228 13.72333 16.1307 19.6604 22.7178 25.9515 28.5133 29.27513 30.5943 32.5033 34.1722 33.6038 29.42275 26.46173 24.38108 18.0474 12.1119 9.71094 6.6151 4.8663 4.0586 4.7079 6.1348 6.874617 7.4214 8.3758 7.7842 5.5431 4.44155 2.9918 2.0505 3.4898 7.1148 8.626034 9.7934 8.8174 5.8278 2.8364 0.8073 0.7078 0.3204 0.1239 0.0673 0.0249 0.02481667 0.0072 0.0017 0.0003 0.0001666667 0.0001 0.000125 0.000121875 0.0001 0.0001020833 0.0001 0.0001 0.000103125 0.0001016846 0.0001 0.0001015625 0.0001007889 0.0001 0.0001003906 0.0001001956 0.0001 
0.0001001317 0.000100293 0.0001 0.0001000203 0.0001 0.0001 0.0001000061 0.0001 0.0001015625 0.0001016052 0.0001 0.0001015625 0.0001029192 0.0001075231 0.0001149177 0.0001271862 0.0001428498 0.0001604424 0.0001763374 0.0001883745 0.0001954733 0.0001513385 0.000105427 0.00010625 0.0001 0.00015 0.0001791667 0.0002 0.0005333333 0.0004 0.0009 0.0004 0.1004 0.6099833 0.9657 3.1093 5.389 7.3811 8.274 7.995533 7.343 5.4299 5.2954 7.6689 9.896267 11.8541 15.1605 17.9296 20.6201 21.57498 22.7744 24.6244 26.6065 28.3275 28.0733 25.82024 25.4679 22.5324 15.39318 13.06775 7.92325 4.4424 2.4437 2.1765 2.5492 3.319917 3.5953 4.6127 5.6898 5.0055 3.3225 2.611117 1.4684 0.8594 1.8451 4.391 5.647067 6.3981 5.4443 3.1082 1.2037 0.9577 0.2912 0.0895 0.0395 0.0186 0.0066 0.007066667 0.0018 0.0004 0.0001 0.0002 0.0001416667 0.0001 0.0001125 0.0001085937 0.0001 0.0001005208 0.0001 0.0001 0.0001015625 0.0001008118 0.0001 0.0001007813 0.0001003925 0.0001 0.0001001953 0.0001000977 
0.0001001465 0.0001 0.0001000068 0.0001 0.0001 0.0001000015 0.0001 0.0001007813 0.0001007919 0.0001 0.0001007813 0.0001014939 0.0001040016 0.0001084534 0.0001165424 0.0001283179 0.0001434928 0.0001598765 0.0001750514 0.0001867284 0.0001479199 0.0001028507 0.000103125 0.0001 0.000125 0.0001572917 0.0002 0.0003777778 0.0004 0.0004125 0.00025 0.0001 0.023 0.2716333 0.4018 1.337 2.8043 4.4092 5.1322 5.016033 4.3084 2.6917 2.7206 4.5193 6.43035 7.7818 10.5778 12.8855 14.9626 15.9116 16.628 18.1661 20.2004 22.0226 22.0507 20.94552 19.9055 17.5557 13.5881 8.5236 5.2217 2.6221 2.276983 0.997 1.1888 1.96304 1.7435 2.4802 3.4012 2.8402 1.7187 1.35665 0.6222 0.302 0.8153 2.4559 3.346233 3.7292 2.9568 1.3385 0.4892 0.3877167 0.1184 0.0312 0.0114 0.0047 0.0015 0.001783333 0.0004 0.0001 0.0002 0.0001 0.00015 0.0001229167 0.0001 0.00010625 0.0001037109 0.0001 0.0001001302 0.0001 0.0001 0.0001007813 0.0001003983 0.0001 0.0001003906 0.0001001958 0.0001 0.0001000977 
0.0001 0.0001000023 0.0001 0.0001 0.0001000004 0.0001 0.0001003906 0.0001003933 0.0001 0.0001003906 0.0001007584 0.0001020923 0.0001046496 0.0001096658 0.0001177712 0.000129451 0.0001438957 0.0001594736 0.0001738855 0.0001423904 0.0001014711 0.0001015625 0.0001 0.0001125 0.0001455729 0.0002 0.0003259259 0.0004 0.000271875 0.000175 0.0001 0.007125 0.0046 0.10025 0.1343 0.4891 1.2435 2.2453 2.820583 2.8179 2.2207 1.13 1.1917 2.2955 3.7096 4.4625 6.5326 8.2507 9.6748 10.61032 10.8097 11.9874 13.7744 15.6272 15.94705 15.9043 14.2714 12.6385 9.3872 5.5556 4.15764 2.3652 1.2371 0.80375 0.7632 1.03715 0.7384 1.1344 1.7387 1.4004 1.27685 0.7751 0.233 0.0888 0.2972 1.1964 1.776017 1.9068 1.3971 0.5417 0.1809 0.1510333 0.0429 0.01 0.003 0.0011 0.001316667 0.0003 0.0001 0.0002 0.0001 0.0001333333 0.0001 0.000125 0.0001119792 0.0001 0.000103125 0.000101709 0.0001 0.0001000326 0.0001 0.0001 0.0001003906 0.0001001972 0.0001 0.0001001953 0.0001000978 0.0001 
0.0001000008 0.0001 0.0001 0.0001000001 0.0001 0.0001001953 0.000100196 0.0001 0.0001001953 0.000100383 0.0001010804 0.0001025001 0.0001054692 0.0001106955 0.0001189627 0.0001303727 0.0001442735 0.0001590849 0.0001353782 0.0001007508 0.0001007813 0.0001 0.00010625 0.0001395182 0.0002 0.000308642 0.0004 0.0002273438 0.0001375 0.0001 0.00259375 0.0027 0.0008 0.044175 0.037 0.1517 0.4673 0.9741 1.3835 1.3448 1.004 0.4028 0.4437 0.9951 1.875867 2.2034 3.5119 4.6233 5.4658 6.285817 6.121 6.9076 8.2678 9.8465 10.45977 10.231 9.2109 8.1968 5.8237 3.0649 2.399083 1.2789 0.5326 0.3891 0.4779 0.41965 0.649075 0.8448667 0.7342 0.6197 0.64172 0.307 0.0768 0.0222 0.0888 0.3754833 0.4802 0.8876 0.5765 0.2004 0.0609 0.05355 0.0139 0.0029 0.0007 0.0002 0.000425 0.0001 0.0001666667 0.0001 0.0001333333 0.0001 0.0001111111 0.0001 0.0001125 0.0001061198 0.0001 0.0001015625 0.0001008179 0.0001 0.0001000081 0.0001 0.0001 0.0001001953 0.0001000981 0.0001 0.0001000977 0.0001000489 
0.0001 0.0001 0.0001 0.0001 0.0001000977 0.0001000978 0.0001 0.0001000977 0.0001001928 0.0001005529 0.0001013212 0.0001030166 0.0001062216 0.0001117091 0.0001200103 0.0001312029 0.000144577 0.0001278625 0.0001003805 0.0001003906 0.0001 0.000103125 0.0001364421 0.0002 0.0003028807 0.0004 0.0002115234 0.00011875 0.0001 0.0009984375 0.001083333 0.00045 0.00045 0.011625 0.059325 0.04 0.149 0.3636 0.5922833 0.5553 0.3943 0.1229 0.141 0.3504167 0.3677 0.931 1.6288 2.2436 2.6666 3.264367 2.977 3.4156 4.2796 5.39 6.091583 5.7596 5.2589 4.6851 3.1822 2.6334 1.5245 0.6054 0.1982 0.1297 0.1663 0.21846 0.296 0.4275 0.4049167 0.465075 0.317325 0.1064 0.0222 0.0049 0.0215 0.1359667 0.1688 0.3599 0.2106 0.0675 0.0187 0.0173 0.004 0.0008 0.0002 0.0003666667 0.00015 0.0001 0.0001 0.0001222222 0.0001 0.0001111111 0.0001 0.0001037037 0.0001 0.00010625 0.0001030924 0.0001 0.0001007813 0.0001003998 0.0001 0.000100002 0.0001 0.0001 0.0001000977 0.000100049 0.0001 0.0001000488 
0.0001 0.0001 0.0001 0.0001000488 0.0001000489 0.0001 0.0001000488 0.0001000968 0.0001002811 0.000100689 0.0001016302 0.0001035198 0.0001069825 0.000112647 0.0001209741 0.0001319301 0.0001207864 0.0001001919 0.0001001953 0.0001 0.0001015625 0.0001348918 0.0002 0.0003009602 0.0004 0.0002052246 0.000109375 0.0001 0.0004259983 0.0004666667 0.0002166667 0.0001 0.0001 0.003366667 0.0086 0.04148333 0.11995 0.1172 0.3087 0.1987 0.1351 0.0325 0.0386 0.11745 0.1164 0.337 0.6505 0.9398 1.119 1.474017 1.2368 1.4372 1.8876 2.5258 3.106867 2.7966 2.617 2.3393 1.4681 1.311867 0.737 0.2511 0.0602 0.0373 0.0504 0.1097 0.1017 0.1417 0.2702 0.2362 0.113425 0.041675 0.02876667 0.001 0.0045 0.05226 0.052 0.1278 0.0687 0.0206 0.01983333 0.0052 0.0011 0.0002 0.0004 0.0002 0.0002041667 0.0001166667 0.0001 0.0001 0.0001074074 0.0001 0.0001037037 0.0001 0.0001012346 0.0001 0.000103125 0.0001015544 0.0001 0.0001003906 0.0001001976 0.0001 0.0001000005 0.0001 0.0001 0.0001000488 0.0001000244 0.0001 
0.0001 0.0001 0.0001000244 0.0001000244 0.0001 0.0001000244 0.0001000485 0.0001001422 0.0001003556 0.0001008668 0.0001019463 0.0001040442 0.0001077164 0.0001135345 0.0001218504 0.0001147672 0.0001000965 0.0001000977 0.0001 0.0001007813 0.0001341136 0.0002 0.0003003201 0.0004 0.000202478 0.0001046875 0.0001 0.0002185366 0.0002351852 0.0001388889 0.0001 0.0001 0.0001 0.002575 0.0014 0.0093 0.0406 0.050025 0.10265 0.1091 0.0407 0.0075 0.0092 0.03425 0.0318 0.1051 0.2246 0.3407 0.5065833 0.405 0.4397 0.5145 0.7072 1.0067 1.394583 1.1625 1.1243 0.9702 0.65 0.5881833 0.3094 0.0888 0.0172 0.0093 0.01933333 0.0135 0.0303 0.0415 0.0869 0.0787 0.07584 0.0324 0.0057 0.00225 0.001625 0.01795 0.0145 0.0398 0.0201 0.0057 0.00575 0.0013 0.0003 0.000425 0.0002 0.0002666667 0.0002 0.0001552083 0.0001055556 0.0001 0.0001 0.0001024691 0.0001 0.0001012346 0.0001 0.0001004115 0.0001 0.0001015625 0.0001007792 0.0001 0.0001001953 0.0001000982 0.0001 0.0001000001 0.0001 0.0001 0.0001000244 0.0001000122 
0.0001 0.0001000122 0.0001000122 0.0001 0.0001000122 0.0001000243 0.0001000717 0.0001001821 0.0001004549 0.0001010562 0.0001022857 0.000104569 0.0001084317 0.0001143671 0.000110045 0.0001000485 0.0001000488 0.0001 0.0001003906 0.0001337237 0.0002 0.0003001067 0.0004 0.0002012054 0.0001023438 0.0001 0.0001430601 0.0001493827 0.000112963 0.0001 0.0001 0.0001 0.000755 0.0008 0.0002 0.0018 0.0095 0.0328 0.029875 0.0619 0.02326667 0.01196667 0.0019 0.012625 0.0076 0.0285 0.0675 0.1077 0.1742833 0.1273 0.1348 0.1578 0.2307 0.4120333 0.4624 0.4135 0.4172 0.3546 0.2518 0.24095 0.1128 0.0276 0.0043 0.0022 0.0049 0.0033 0.0072 0.0112 0.0246 0.0231 0.02518333 0.0088 0.0013 0.0002 0.0008 0.00475 0.01725 0.01573333 0.0053 0.0014 0.001516667 0.0003 0.0001 0.0002 0.00023125 0.0002 0.0002222222 0.0002 0.000140191 0.0001018519 0.0001 0.0001 0.000100823 0.0001 0.0001004115 0.0001 0.0001001372 0.0001 0.0001007813 0.0001003901 0.0001 0.0001000977 0.000100049 0.0001 0.0001 0.0001 0.0001 0.0001000122 
0.0001000061 0.0001000061 0.0001 0.0001000061 0.0001000122 0.0001000361 0.0001000927 0.0001002363 0.0001005644 0.0001012656 0.000102637 0.0001050955 0.0001091226 0.0001065761 0.0001000243 0.0001000244 0.0001 0.0001001953 0.0001335286 0.0002 0.0003000356 0.0004 0.0002005943 0.0001011719 0.0001 0.0001156004 0.0001179012 0.000104321 0.0001 0.0001 0.0001 0.000331 0.0005 0.0002 0.0007666667 0.0003 0.0019 0.009 0.0078 0.017 0.011 0.0015 0.001025 0.002875 0.011125 0.0068 0.0178 0.0299 0.05266667 0.0351 0.0359 0.0416 0.059 0.1290333 0.0062 0.126 0.1271 0.1222 0.0858 0.08703333 0.0359 0.0076 0.001 0.0004 0.001133333 0.0007 0.0016 0.0027 0.0062 0.01045 0.006 0.0021 0.0003 0.00054 0.0001 0.001325 0.0036 0.0111 0.0037 0.0003 0.000525 0.0001 0.0001666667 0.0001 0.00015 0.0001703125 0.0002 0.0002074074 0.0002 0.0001355107 0.0001006173 0.0001 0.0001 0.0001002744 0.0001 0.0001001372 0.0001 0.0001000457 0.0001 0.0001003906 0.0001001952 0.0001 0.0001000488 0.0001000245 0.0001 0.0001 0.0001 0.0001 
0.0001000041 0.0001 0.0001000031 0.0001000061 0.0001000181 0.000100047 0.0001001217 0.0001002978 0.0001006888 0.000101489 0.0001029994 0.0001056184 0.0001041625 0.0001000122 0.0001000122 0.0001 0.0001000977 0.000133431 0.0002 0.0003000119 0.0004 0.0002002951 0.0001005859 0.0001 0.0001056319 0.0001064472 0.0001014403 0.0001 0.0001 0.0001 0.0002162 0.00035 0.0002 0.0004222222 0.0003 0.00065 0.0003 0.002016667 0.0017 0.0041 0.0026 0.0003 0.0004 0.0006 0.0016 0.00535 0.01125 0.0074 0.02025 0.0086 0.0084 0.0096 0.0133 0.01405 0.0026 0.0314 0.036 0.0368 0.04788333 0.0258 0.0101 0.0019 0.0002 0.0001 0.000325 0.0001 0.0003 0.0006 0.0014 0.0026 0.0014 0.0005 0.00075 0.0002 0.0001 0.001175 0.0008 0.0028 0.0013 0.0005 0.0001666667 0.0001 0.0001 0.0001222222 0.0001 0.000125 0.0001488281 0.0002 0.0002024691 0.0002 0.000134032 0.0001002058 0.0001 0.0001 0.0001000914 0.0001 0.0001000457 0.0001 0.0001000152 0.0001 0.0001001953 0.0001000976 0.0001 0.0001000244 0.0001000122 0.0001 0.0001 0.0001 
0.0001 0.0001000015 0.000100003 0.0001000091 0.0001000237 0.0001000623 0.0001001555 0.0001003694 0.0001008252 0.0001017257 0.0001033689 0.0001025579 0.0001000061 0.0001000061 0.0001 0.0001000488 0.0001333822 0.0002 0.0003000039 0.0004 0.000200147 0.000100293 0.0001 0.0001020253 0.0001023091 0.0001004801 0.0001 0.0001 0.0001 0.00017824 0.000275 0.0002 0.0003074074 0.0003 0.0003125 0.0002 0.0001 0.0005 0.0003 0.0009 0.0006 0.0008 0.0002666667 0.0001 0.0003 0.0014 0.0042 0.003525 0.004875 0.005175 0.0018 0.0019 0.0027 0.003283333 0.0005 0.0071 0.0089 0.0098 0.01388333 0.0069 0.0025 0.0004 0.00054 0.00015 0.0001 0.0001666667 0.0001 0.0001 0.0003 0.0006 0.0003 0.0001 0.0003 0.00029 0.000435 0.0005 0.0002 0.0006 0.0003 0.0001 0.0001 0.0001133333 0.0001 0.0001 0.0001074074 0.0001 0.0001125 0.000140332 0.0002 0.0002008231 0.0002 0.0001335594 0.0001000686 0.0001 0.0001 0.0001000305 0.0001 0.0001000152 0.0001 0.0001000051 0.0001 0.0001000977 0.0001000488 0.0001 0.0001000122 0.0001000061 0.0001 0.0001 
0.0001000008 0.0001000015 0.0001000046 0.000100012 0.0001000317 0.0001000805 0.0001001957 0.00010045 0.0001009734 0.0001019733 0.0001015314 0.000100003 0.0001000031 0.0001 0.0001000244 0.0001333578 0.0002 0.0003000013 0.0004 0.0002000734 0.0001001465 0.0001 0.0001007254 0.000100823 0.00010016 0.0001 0.0001 0.0001 0.000163148 0.0002375 0.0002 0.0002691358 0.0003 0.000215625 0.00015 0.0001 0.0001 0.0001666667 0.0001 0.0002 0.0001 0.00035 0.0001 0.0002 0.000525 0.0003 0.0009 0.0016 0.00105 0.0019 0.0011 0.00125 0.0005 0.00095 0.0001 0.0014 0.0019 0.0023 0.0036 0.0017 0.0006 0.0001 0.00025 0.000228 0.0001291667 0.0001 0.0001 0.00015 0.0001 0.0002 0.0001 0.0001666667 0.0001 0.0002 0.00035 0.0002 0.0003 0.0001 0.0001 0.0001666667 0.0001 0.0001 0.0001026667 0.0001 0.0001 0.0001024691 0.0001 0.00010625 0.0001366455 0.0002 0.0002002743 0.0002 0.000133407 0.0001000229 0.0001 0.0001 0.0001000102 0.0001 0.0001000051 0.0001 0.0001000017 0.0001 0.0001000488 0.0001000244 0.0001 0.0001000061 0.0001000031 0.0001 
0.0001000011 0.0001000023 0.000100006 0.0001000161 0.0001000414 0.0001001026 0.0001002421 0.0001005397 0.0001011322 0.0001008961 0.0001000015 0.0001000015 0.0001 0.0001000122 0.0001333455 0.0002 0.0003000005 0.0004 0.0002000367 0.0001000732 0.0001 0.0001002611 0.0001002921 0.0001000533 0.0001 0.0001 0.0001 0.0001563796 0.00021875 0.0002 0.0002563786 0.0003 0.0001851563 0.000125 0.0001 0.0001 0.0001166667 0.0001 0.00015 0.0001333333 0.00015 0.0001 0.0001875 0.00028125 0.0003 0.0004666667 0.0002 0.00062 0.0003 0.0004 0.0003 0.0003 0.00025 0.0002333333 0.0005666667 0.0002 0.0004 0.0005 0.00085 0.0004 0.0001 0.0002666667 0.0001 0.000175 0.0001 0.0001 0.0001125 0.0001 0.0001 0.0001 0.0001 0.0001 0.0001222222 0.0001 0.0002 0.0002 0.0001 0.0001 0.0001 0.0001 0.0001222222 0.0001 0.0001 0.0001005333 0.0001 0.0001 0.000100823 0.0001 0.000103125 0.0001349426 0.0002 0.0002000915 0.0002 0.0001333575 0.0001000076 0.0001 0.0001 0.0001000034 0.0001 0.0001000017 0.0001 0.0001000006 0.0001 0.0001000244 0.0001000122 0.0001 0.0001000031 0.0001000015 
0.0001000017 0.0001000031 0.0001000081 0.0001000212 0.0001000534 0.0001001287 0.0001002948 0.000100638 0.0001006423 0.0001000011 0.0001000008 0.0001 0.0001000061 0.0001333394 0.0002 0.0003000002 0.0004 0.0002333578 0.0001000366 0.0001 0.0001001402 0.0001001594 0.0001000267 0.0001 0.0001 0.0001 0.0001414386 0.000209375 0.0002 0.0002521262 0.0003 0.0001992187 0.0001125 0.0001 0.0001 0.0001041667 0.0001 0.000125 0.0001277778 0.0001444444 0.0001277778 0.000125 0.0001 0.0003 0.0003222222 0.0002 0.0002 0.0002 0.0001 0.0001 0.0001 0.0001 0.0001 0.0001 0.0002 0.0002333333 0.0001 0.0001 0.000275 0.0001 0.0002 0.0001 0.0001555556 0.0001 0.00011875 0.000103125 0.0001 0.0001 0.0001 0.0001 0.0001 0.0001 0.0001 0.0001305555 0.00015 0.0001 0.0001 0.0001 0.0001 0.0001 0.0001 0.0001074074 0.0001 0.0001 0.0001001333 0.0001 0.0001 0.0001002744 0.0001 0.0001015625 0.0001455017 0.0002 0.0002000305 0.0002 0.0001333413 0.0001000025 0.0001 0.0001 0.0001000011 0.0001 0.0001000006 0.0001 0.0001000002 0.0001 0.0001000122 0.0001000081 0.0001 0.0001000015 
