ncols         114
nrows         67
xllcorner     94.937884343835
yllcorner     29.780250752501
cellsize      0.00030953159543264
NODATA_value  -9999
0.0001 0.0001 0.0001 0.0001 0.0001 0.0001 0.0001 0.0001 0.0001 0.0001000229 0.0001000229 0.0001 0.0001 0.0001002744 0.0001 0.0001 0.000104321 0.0001477937 0.0002 0.000275 0.002771875 0.0077 0.005225926 0.0003 0.0003 0.000325 0.0001 0.0004 0.001433333 0.004825 0.0001 0.0007 0.066425 0.0031 0.0125 0.0436 0.0012 0.15565 0.0061 0.0285 0.116 0.4113 1.23295 1.2579 3.263 4.8992 5.5938 4.1985 10.17145 2.9119 3.6241 10.0697 11.1807 10.07085 8.961 5.7083 1.5433 16.0576 15.7285 7.70645 5.183 2.04395 0.1361 1.504144 0.8881 1.093706 0.6458389 0.522075 0.2993 11.59993 14.90951 13.64376 13.3802 13.3802 9.65619 6.4023 5.332781 5.031741 4.7306 3.635183 2.188313 1.345959 0.7483853 0.3545319 0.1349865 0.03767544 0.007430264 0.001413837 0.00119375 0.001 0.03027264 0.02293242 0.008964315 0.003139548 0.001179304 0.0006404128 0.0004791774 0.0004414062 0.0004 0.001278938 0.0007831862 0.0002897022 0.0001522453 0.0001155215 0.000104394 0.0001019531 0.0001 0.0001369534 0.0001221498 0.0001050805 0.0001008675 0.00010008 0.0001 0.0001 
0.0001 0.0001 0.0001 0.0001 0.0001 0.0001 0.0001 0.0001 0.0001 0.0001 0.0001000457 0.0001000457 0.0001 0.0001 0.000100823 0.0001 0.0001 0.000112963 0.0001782118 0.0002 0.00035 0.0028375 0.0077 0.007677778 0.0003 0.0003 0.0006 0.0001 0.0007 0.0035 0.015 0.09478334 0.0592 0.2027 0.2313 0.1932 0.2628 0.3331167 0.3525 0.4881 0.6633 0.9214 2.046067 2.3412 4.9974 8.4909 12.542 16.4891 16.15388 17.0863 12.0102 13.4638 24.49035 22.51323 20.25225 32.2441 26.6336 19.9959 21.07038 11.4611 3.9518 0.1361 3.488233 0.8881 1.848508 0.8933667 0.74485 0.2993 14.75209 17.17744 14.17088 13.3802 13.3802 11.37054 7.939158 5.934861 5.332881 4.7306 4.518879 3.204745 2.086509 1.273683 0.6776854 0.2937872 0.09212305 0.01904928 0.001854012 0.0013875 0.001 0.05772876 0.04400379 0.01835801 0.006435451 0.002099486 0.0008837063 0.0005547196 0.0004828125 0.0004 0.00258027 0.001613835 0.0005216464 0.0002140775 0.0001333826 0.0001092757 0.0001039062 0.0001 0.0001837267 0.000151448 0.0001126391 0.0001023624 0.0001002401 0.0001 0.0001 0.0001 
0.0001 0.0001 0.0001 0.0001 0.0001 0.0001 0.0001 0.0001 0.0001 0.0001 0.0001 0.0001001372 0.0001001372 0.0001 0.0001 0.0001024691 0.0001 0.0001 0.0001388889 0.0002739583 0.0002 0.0005 0.00295 0.0077 0.01503333 0.0003 0.02132 0.0014 0.0065 0.0281 0.1106 0.2925167 0.3831 0.5218 0.6291 0.592 0.6086 0.9128333 0.7675 1.0669 1.5779 2.7333 3.074083 4.6113 7.0149 12.0629 18.2203 17.98692 24.9037 31.3338 37.4944 37.5013 35.8156 34.47745 34.0956 31.31475 28.15645 28.4412 21.07038 24.3833 18.3544 9.4405 0.8881 4.125134 1.1904 1.1904 0.2993 20.55694 22.3999 15.75223 13.3802 13.3802 14.21966 10.74349 7.138821 5.935163 4.7306 5.739672 4.558987 3.046259 2.00899 1.20428 0.6077796 0.2209963 0.0525858 0.002787037 0.001775 0.001 0.1116101 0.08115031 0.03715463 0.01370643 0.004212963 0.00138696 0.000698534 0.000565625 0.0004 0.005429475 0.003448885 0.001042721 0.0003498971 0.0001723208 0.0001200146 0.0001078125 0.0001 0.0002869303 0.0002171468 0.0001308299 0.0001063672 0.0001007202 0.0001 0.0001 0.0001 0.0001 
0.0001000015 0.0001 0.0001 0.0001 0.0001 0.0001 0.0001 0.0001 0.0001 0.0001 0.0001 0.0001 0.0001004115 0.0001004115 0.0001 0.0001 0.0001074074 0.0001 0.0001 0.0002166667 0.0005791667 0.0002 0.0008 0.0031 0.0077 0.0371 0.09272 0.0677 0.019 0.0761 0.2797 0.8587667 0.9075 1.5039 1.8474 1.7091 2.110633 1.6336 1.852 2.308 2.8173 3.4711 4.3465 4.3662 6.5923 10.5614 15.6089 18.04343 20.1575 24.6206 28.8472 32.8096 34.7073 33.01317 33.2913 30.5003 31.1236 31.8163 29.81185 26.12545 29.2311 22.4186 9.4058 25.63612 2.0815 0.2993 28.10895 33.3232 20.4963 13.3802 13.3802 18.40768 15.54461 9.546139 7.139725 4.7306 7.473034 6.478083 4.276968 2.921909 1.939898 1.165161 0.5077815 0.1503963 0.004811111 0.00255 0.001 0.2314343 0.1411963 0.07280988 0.02944475 0.009209259 0.002465278 0.0009643519 0.00073125 0.0004 0.0116196 0.007475412 0.002222891 0.0006483539 0.0002569187 0.0001444187 0.000115625 0.0001 0.000513222 0.0003611111 0.0001733882 0.000116941 0.0001021605 0.0001 0.0001 0.0001 0.0001 0.0001 
0.0001000015 0.0001000031 0.0001 0.0001 0.0001 0.0001 0.0001 0.0001 0.0001 0.0001 0.0001 0.0001 0.0001 0.0001012346 0.0001012346 0.0001 0.0001 0.0001222222 0.0001 0.0001 0.00045 0.001566667 0.0002 0.0014 0.0219 0.05645 0.14855 0.3571 0.8357 1.2032 1.1094 3.201117 2.3623 3.6849 4.6327 4.2731 4.807066 3.8474 3.9046 4.45 4.9513 5.2058 5.733883 5.6913 6.905 9.7905 12.7799 15.0874 16.5903 20.0598 23.2249 26.1838 29.29908 28.9159 31.2533 32.803 33.8105 33.8899 36.63173 32.533 35.9876 47.0402 63.611 31.80174 52.1942 45.4901 39.034 27.6124 23.03685 13.3802 23.16555 22.726 14.35897 9.54885 4.7306 9.749575 9.365311 6.04665 4.022289 2.761967 1.981472 1.076256 0.4377556 0.009333333 0.0041 0.001 0.5632854 0.2264537 0.1349981 0.06213704 0.02129444 0.004902778 0.001430556 0.0010625 0.0004 0.02495771 0.01619506 0.004925617 0.001305556 0.0004375 0.0002020062 0.00013125 0.0001 0.001013896 0.0006696502 0.0002693416 0.0001443416 0.0001064815 0.0001 0.0001 0.0001 0.0001 0.0001 0.0001 
0.0001 0.0001000031 0.0001000061 0.0001 0.0001 0.0001 0.0001 0.0001 0.0001 0.0001 0.0001 0.0001 0.0001 0.0001 0.0001037037 0.0001037037 0.0001 0.0001 0.0001666667 0.0001 0.000725 0.0008 0.0037 0.0146 0.0487 0.1616 0.1323 0.7968 1.627583 4.2662 7.1448 7.918016 7.403 7.6598 9.944 9.2988 9.833417 8.0804 7.3869 7.7749 8.3564 8.774333 8.1294 7.5395 7.2693 6.7996 10.4339 12.41655 14.9539 18.5805 21.9888 25.1361 25.34993 28.0418 30.8109 33.9242 36.5366 38.9669 36.1548 41.1371 43.5656 47.6421 51.02542 45.52312 31.7162 30.0275 27.2637 25.6837 24.24555 25.4711 29.8317 23.9792 14.3671 4.7306 11.87543 13.58373 8.808534 5.703667 3.62775 2.73545 1.9227 1.286267 0.0198 0.0072 0.001 1.697475 0.3252667 0.2294 0.1246944 0.0509 0.01081667 0.002166667 0.001725 0.0004 0.05361233 0.03461482 0.0112037 0.002766667 0.0008064815 0.0003435185 0.0001625 0.0001 0.002160214 0.00132037 0.000475 0.0002135802 0.0001194444 0.0001 0.0001 0.0001 0.0001 0.0001 0.0001 0.0001 
0.0001000061 0.0001 0.0001000061 0.0001000122 0.0001 0.0001000001 0.0001 0.0001 0.0001 0.0001 0.0001 0.0001 0.0001 0.0001 0.0001 0.0001111111 0.0001111111 0.0001 0.0001 0.0003 0.0012 0.0017 0.0077 0.0314 0.113 0.2635167 0.3524 0.9435 2.1598 4.9898 7.7108 12.0534 17.4352 20.6096 18.5434 17.9853 18.87318 15.5155 12.8288 12.2539 13.2221 13.972 12.781 11.1254 8.9486 7.8781 8.7299 10.04098 11.0114 14.3204 17.4741 20.4745 21.63475 23.3475 25.9717 29.0448 31.9543 32.20643 34.2396 36.1623 38.1853 58.8794 34.5711 29.02465 27.75215 27.32138 25.656 26.2311 25.77128 27.0948 28.0134 27.7391 26.5397 21.76073 19.9106 10.9851 9.8555 5.585 1.6705 5.75445 3.8004 0.045 0.0134 0.001 6.037533 0.4109 0.3404667 0.2244333 0.1233 0.02635 0.00305 0.00305 0.0004 0.1163104 0.07172222 0.02601667 0.006105556 0.001488889 0.0007055555 0.000225 0.0001 0.004962153 0.002694444 0.0008842592 0.0003824074 0.0001583333 0.0001 0.0001 0.0001 0.0001 0.0001 0.0001 0.0001 0.0001006173 
0.0001666728 0.0001000122 0.0001 0.0001000122 0.0001000244 0.0001 0.0001000002 0.0001 0.0001 0.0001 0.0001 0.0001 0.0001 0.0001 0.0001 0.0001 0.0001333333 0.0001333333 0.0001 0.0007 0.00235 0.0036 0.0162 0.0654 0.2308 0.4893 0.7039 1.828 3.9994 7.3788 11.54152 16.89683 19.1783 26.8729 30.3923 31.7213 31.03217 30.6378 27.1864 23.5569 21.2296 21.99032 20.1135 18.2892 15.7651 11.2543 11.60543 7.0469 8.0699 9.411 11.4171 14.5329 16.53427 18.2757 19.9147 22.2143 24.8569 27.76058 26.6843 54.7512 33.8837 25.1246 24.9142 25.98992 24.8971 24.3678 24.56198 24.88042 25.4101 24.3757 25.0215 28.2726 31.1109 29.31867 33.9055 28.3984 8.5566 4.9002 8.6045 8.9796 8.9424 8.3401 10.1175 17.7165 10.79972 0.3951 0.4267 0.1996 0.047 0.70795 0.0057 0.0004 0.263875 0.1395667 0.0614 0.0142 0.00245 0.001666667 0.00035 0.0001 0.0124375 0.005705555 0.001605556 0.0007722222 0.000275 0.0001 0.0001 0.0001 0.0001 0.0001 0.0001 0.0001 0.0001018519 0.0001037037 
0.0003 0.0001666789 0.0001000244 0.0001 0.0001000244 0.0001000488 0.0001 0.0001000009 0.0001 0.0001 0.0001 0.0001 0.0001 0.0001 0.0001 0.0001 0.0001 0.0002 0.0002 0.0008166667 0.0013 0.0065 0.0289 0.113 0.3874 0.7709 1.1483 2.9014 6.1771 10.5595 13.77274 16.1744 21.9243 30.20815 32.61174 36.42617 43.9119 46.4212 45.0807 40.2632 35.554 33.21795 29.0417 27.4663 24.6303 20.118 19.9861 14.6054 9.6809 9.8681 10.7942 11.0916 13.16498 11.4834 13.8967 14.2935 18.5898 21.21478 30.2386 19.3044 19.0097 20.8086 21.2562 22.2827 23.2845 23.4824 23.6958 23.9388 22.9226 23.68292 23.3711 27.5206 29.9381 30.60655 34.5072 33.3708 9.5251 8.4188 9.95075 14.5626 16.2972 17.4511 21.38 33.3121 21.0451 2.5739 2.4042 2.0395 1.6336 2.24215 1.1455 0.6605 0.2959 0.0987 0.0241 0.472975 0.0043 0.0006 0.0001 0.0343 0.01275 0.0026 0.001766667 0.00045 0.0001 0.0114875 0.003829167 0.0001 0.0001 0.0001 0.0001 0.0001055556 0.0001092593 0.0001123457 
0.0001889109 0.0003 0.0001666911 0.0001000488 0.0001 0.0001000489 0.0001000977 0.0001 0.0001000036 0.0001 0.0001 0.0001 0.0001 0.0001 0.0001 0.0001 0.0001 0.0001 0.0004 0.001316667 0.0022 0.0108 0.0461 0.1729 0.5648 1.08525 1.5902 3.8234 8.6082 13.8951 16.88495 20.8559 27.9872 34.393 39.6792 44.6461 48.05687 48.07103 51.118 49.2132 46.7485 48.62795 46.6204 44.6931 42.0395 37.2002 35.55639 29.6918 21.7851 15.057 12.2109 15.266 11.7161 11.8902 13.2071 23.8414 15.291 16.52115 11.6281 11.6063 13.7132 16.3376 17.00073 18.0695 19.2226 20.5401 20.8675 21.4125 20.5881 21.9634 22.44402 25.06897 26.0691 29.65573 28.1085 24.8667 17.9356 10.3029 13.16157 12.9155 16.7425 19.8926 24.2294 32.036 32.0555 40.237 9.3785 6.8374 5.7736 7.6374 4.8475 3.8846 2.9518 2.0491 1.2391 4.420883 0.6244 0.2531 0.0817 0.0211 0.65385 0.0044 0.0008 0.0001 0.0322 0.01135 0.0023 0.001566667 0.0001 0.0001 0.0001166667 0.0001222222 0.0001259259 0.0001283951 
0.0001000248 0.0001667078 0.0003 0.0001667156 0.0001000977 0.0001 0.000100098 0.0001001953 0.0001 0.0001000145 0.0001 0.0001 0.0001 0.0001 0.0001 0.0001 0.0001 0.0001 0.0006 0.001616667 0.0032 0.0153 0.0646 0.2385 0.4487167 0.7585 2.0623 4.7725 9.4143 15.9956 19.43962 23.8292 31.8515 39.1357 45.1499 50.00924 49.8434 52.051 58.80562 56.11308 57.01522 66.4134 67.3897 66.7135 65.9986 60.5252 52.81557 51.1977 42.2466 35.0367 26.3981 25.19357 19.3851 15.4021 15.3349 15.0618 12.2294 12.86487 11.15 10.2299 10.2269 10.8853 14.19623 13.6207 15.2608 15.9698 16.5464 16.77567 17.3317 18.2941 19.9527 23.5622 21.48505 25.98853 27.46735 25.8805 27.4025 19.135 14.55953 13.6346 16.496 20.4775 25.308 33.8892 36.26647 50.2848 15.841 15.6845 15.9521 12.6632 16.4721 16.9661 17.1419 16.501 10.03553 14.1417 10.4917 6.6015 3.6931 1.8244 1.0106 0.7655 0.2677 0.0777 0.0188 0.01365 0.0039 0.0007 0.0005 0.00015 0.00015 0.00015 0.00015 0.00015 
0.0001000038 0.0001000457 0.0001667817 0.0003 0.0001667646 0.0001001953 0.0001 0.0001001968 0.0001003906 0.0001 0.0001000579 0.0001 0.0001 0.0001 0.0001 0.0001 0.0001 0.0001 0.0005 0.001533333 0.0028 0.0137 0.0596 0.2252 0.45065 0.7324 2.0322 4.7908 9.6245 16.6697 20.23047 25.3922 34.9135 44.5525 53.7687 56.14195 61.605 66.9658 67.7999 65.6858 72.93247 74.0614 80.8817 79.179 77.2125 72.9824 68.98082 65.2961 57.1939 49.8701 41.4136 45.6635 40.0376 30.0496 21.0812 16.5954 18.15303 13.8954 12.9953 12.7775 12.9764 13.1902 10.84083 13.0741 10.6444 11.59 12.116 12.82925 12.3799 13.6412 14.8364 17.5461 18.7628 20.13355 31.0137 21.82405 20.63248 18.7434 16.0347 12.6258 13.7573 16.8675 20.5159 24.04122 26.7896 34.3622 45.0729 19.8408 16.8335 15.66257 16.1004 15.6628 14.9963 13.8402 12.48673 12.4421 10.5864 7.0145 4.6147 2.4158 1.21105 1.0324 0.3598 0.1059 0.0263 0.009866667 0.0056 0.001 0.0002 0.0002 0.0001833333 0.0001777778 0.0001740741 0.0001716049 
0.0001 0.0001000076 0.0001001296 0.0001669896 0.0003 0.0001668631 0.0001003906 0.0001 0.0001003967 0.0001007813 0.0001 0.0001002315 0.0001 0.0001 0.0001 0.0001 0.0001 0.0003 0.0003 0.0011 0.0018 0.0095 0.0435 0.1711 0.3729667 0.5782 1.6663 4.0789 8.5075 11.54397 15.2979 24.1982 34.6315 46.348 58.6253 62.27508 67.8594 75.5743 78.9336 78.0699 80.75048 81.5608 85.73962 84.27197 87.1845 80.38855 84.1748 79.7087 72.4781 70.1987 86.3752 63.4167 60.3714 50.6263 41.4291 31.0695 28.79963 20.0667 13.8956 11.7497 10.3291 8.4345 9.71745 5.8402 7.1683 8.0842 8.9145 9.720634 9.687 10.8525 11.644 13.5788 14.23145 16.7436 14.0141 13.5437 19.0898 13.94948 12.29055 11.51787 11.1422 13.9381 16.8067 19.75798 20.9379 25.1387 44.1839 16.9649 14.751 15.29957 13.8663 13.0445 11.7901 10.0948 9.160283 7.9006 5.4654 4.3796 2.1809 1.9837 0.9138 0.3144 0.0924 0.0214 0.004 0.00655 0.0006 0.0001 0.0004333333 0.0002 0.0002 0.0001944444 0.0001907407 0.0001876543 
0.0001 0.0001 0.0001000229 0.0001003658 0.0001675698 0.0003 0.0001670616 0.0001007813 0.0001 0.0001008057 0.0001015625 0.0001 0.0001009259 0.0001 0.0001 0.0001 0.0002333333 0.0003 0.0002333333 0.0002 0.001 0.0058 0.0297 0.1191 0.2784667 0.4118 1.2198 3.0832 6.6708 9.565634 12.4934 20.6422 31.1621 45.1264 62.7528 62.56165 69.0393 84.6885 80.601 86.7938 86.55442 91.6421 91.7309 89.4432 92.15447 91.40357 90.12038 98.8323 128.7881 93.536 78.908 75.20488 73.3944 67.1469 60.7575 52.3118 42.87765 38.859 24.0971 14.8516 11.349 14.10095 9.4829 8.2828 7.983 7.0822 7.0367 8.5381 8.1897 8.7347 9.8808 11.007 10.21862 7.7504 5.0091 5.3119 8.7179 9.2468 8.471525 8.5462 11.2963 13.5814 15.5489 17.62264 17.9489 20.7246 30.0159 46.0412 27.55083 16.6964 13.5498 11.0081 8.5691 6.1513 6.761283 4.5327 3.4861 2.2739 1.232 0.98875 0.545 0.1948 0.0559 0.0129 0.0024 0.00135 0.0004 0.0003 0.0001 0.0002444444 0.0002 0.0002 0.0001981481 0.0001962963 
0.0005599609 0.0001 0.0001 0.0001000686 0.0001010288 0.0001691817 0.0003 0.0001674652 0.0001015625 0.0001 0.0001016602 0.000103125 0.0001 0.0001037037 0.0001 0.0001666667 0.0003 0.0002833333 0.0002 0.0002 0.0011 0.0053 0.0225 0.0884 0.1923833 0.3022 0.8928 2.2719 4.9835 7.690717 9.4407 15.2538 21.9526 30.4766 42.34095 57.3782 59.7149 71.9148 79.7746 88.7509 88.59848 92.509 93.9081 95.5009 96.4893 96.9415 97.7657 104.5717 100.3982 75.6267 78.41036 75.8703 76.31 69.8264 64.2226 60.1152 53.56267 54.8437 43.6327 31.5497 23.926 17.92435 21.0842 10.2731 9.6722 9.0284 8.7754 8.823584 8.6253 8.8335 8.1841 7.0919 7.357316 5.14 2.073 2.2223 4.7653 6.9246 8.7675 9.1685 11.4014 13.81817 14.71895 16.47087 16.8708 19.4774 26.9851 53.2971 35.14335 17.5544 12.7025 10.4147 8.6144 6.9109 5.928216 4.9774 3.0115 1.6565 0.7712 0.6938834 0.2896 0.0859 0.0201 0.0038 0.003833333 0.0006 0.0001 0.00025 0.0001875 0.0001 0.0001814815 0.0002 0.0002 0.0001585648 
0.0008138624 0.0007660202 0.0001 0.0001 0.0001002058 0.0001028807 0.0001736404 0.0003 0.0001682983 0.000103125 0.0001 0.0001035156 0.00010625 0.0001 0.0001148148 0.0001 0.0001 0.0002333333 0.0004 0.0002 0.0008 0.0034 0.013 0.09941667 0.0517 0.1811 0.5615 1.5491 3.8457 8.346434 8.7102 14.5814 19.6698 25.07 32.15628 33.2417 44.5325 57.9608 70.1255 83.0053 83.3396 88.8898 92.3026 96.7155 97.0726 96.47726 96.4384 122.0789 83.527 71.77185 71.10562 68.1108 66.0391 62.5043 60.4098 59.2086 54.6671 56.0377 48.651 39.8346 28.0923 24.47408 13.6117 13.6215 11.8233 10.9095 10.3537 9.6678 9.9607 7.2225 7.6535 6.8036 6.022 6.351 3.5792 4.3654 6.5947 7.317266 8.2941 10.4248 12.6318 14.2306 15.5149 16.17933 17.69685 20.11108 22.894 38.1702 38.49344 39.1008 11.4147 9.8433 8.6096 8.0536 7.3186 5.6784 3.8194 2.1521 0.9783 0.7670333 0.3472 0.0939 0.0192 0.003 0.00158 0.0003 0.0003333333 0.0001 0.000175 0.0001425 0.0001 0.0001664738 0.0001361111 0.0001 
0.0006040043 0.00102372 0.001336356 0.0001 0.0001 0.0001006173 0.0001080247 0.0001859196 0.0003 0.0001700684 0.00010625 0.0001 0.0001078125 0.0001125 0.0001 0.0001444444 0.0001 0.0001 0.0003666667 0.0008 0.0046 0.0223 0.0925 0.3246833 0.3284 0.988 2.5063 5.3887 9.9438 10.98832 13.1547 15.394 17.9442 21.3252 24.5796 25.446 31.6906 40.3752 53.5639 60.17015 68.1852 78.6974 84.1954 90.0852 86.2922 88.2577 104.8054 68.5342 63.119 64.8147 59.88085 61.02523 60.20802 54.6429 53.5843 51.1872 48.60883 46.6102 41.2794 36.7781 33.476 27.37935 26.6543 21.4652 15.7248 12.8413 11.97973 11.3859 8.9058 8.5317 8.586 6.7794 6.30785 3.9661 4.1898 5.5428 7.8518 8.593833 9.4731 11.6019 13.4746 14.8732 15.7912 15.93074 16.5404 17.8988 23.78567 27.1073 37.37265 44.3447 14.0647 11.0071 9.1895 8.596916 7.6786 6.1025 4.4236 2.8201 1.5293 1.354017 0.6866 0.3445 0.0007 0.0002 0.00098 0.00025 0.00025 0.0002888889 0.00015 0.0001 0.0002729167 0.0001444444 0.0001 0.0001 
0.0004620017 0.000746007 0.001863153 0.002636264 0.0001 0.0001 0.0001018519 0.0001222222 0.0002196045 0.0003 0.0001740234 0.0001125 0.0001 0.00011875 0.000125 0.0001 0.0002333333 0.0001 0.0012 0.006875 0.0228 0.087 0.3419 0.593 1.1206 3.0435 6.8463 10.2392 10.30287 14.9042 15.3713 14.5101 17.4866 20.0952 21.30825 22.2995 25.1106 29.3296 37.0327 46.2535 49.1083 60.968 68.129 78.7455 93.9424 67.80855 50.9952 46.6389 49.2031 52.0685 50.72954 54.5294 55.4216 48.40333 48.51436 46.38435 39.9335 38.6758 36.6398 34.206 31.3717 31.09952 31.0701 26.1587 19.7499 14.9078 13.73388 11.4802 10.2558 9.7832 9.9951 8.1823 7.21155 5.7647 4.7595 6.284 8.8412 9.52655 10.5081 12.3522 13.8828 15.1215 15.41063 15.979 15.8282 16.386 19.4901 27.8749 36.08228 30.48425 15.9566 12.2719 10.2101 9.89715 8.5751 6.9899 5.3653 3.7762 4.845233 2.3737 2.209 0.0303 0.0067 0.0012 0.00268 0.0002 0.0007 0.00025 0.0001 0.0006583334 0.0002333333 0.0001 0.0001 0.0009770833 
0.000370081 0.0005539223 0.001314017 0.003721519 0.00540952 0.0001 0.0001 0.0001055556 0.0001611111 0.0003117513 0.0003 0.0001835937 0.000125 0.0001 0.00015 0.00015 0.0001 0.0005 0.00236 0.0034 0.0187 0.1743167 0.4379 0.784275 1.2367 2.8901 5.6101 10.2925 10.79642 11.0488 13.9305 17.08 17.5979 18.4609 19.79877 20.2227 22.5967 25.8434 31.5606 37.6384 38.0703 45.2779 47.917 93.1693 42.0922 41.41712 28.7239 32.7761 36.5342 39.8477 39.82033 42.3874 43.6138 42.325 40.8324 35.78505 36.0985 35.94033 34.6082 34.4365 33.2421 30.7764 30.7829 27.0119 21.2797 17.8657 16.1838 13.9224 12.1093 11.2483 11.9024 9.815133 12.0936 6.4832 5.4275 6.9944 9.5095 10.06725 10.9756 12.4303 13.8255 14.9824 15.32697 15.7165 15.4179 15.7747 18.0392 24.5385 32.16354 47.571 28.21298 17.76463 12.7157 10.6287 11.0139 9.4229 7.8771 6.3641 9.368283 12.208 0.3553 0.1264 0.0379 0.0097 0.06456666 0.0021 0.0004 0.0001 0.001933333 0.0005 0.0001 0.0001 0.00178125 0.00105 
0.0003065972 0.0004335648 0.0009216049 0.002586883 0.00765607 0.01129513 0.0001 0.0001 0.0001166667 0.0002666667 0.0005636719 0.0003 0.000209375 0.00015 0.0001 0.00025 0.0002 0.001066667 0.0012 0.0066 0.0317 0.1287 0.45035 1.23505 2.8154 4.7988 6.6163 8.1811 10.43473 10.1127 11.6899 13.4882 15.4072 17.20612 17.599 20.1153 22.988 27.806 32.829 41.26023 37.2295 80.5455 62.3255 39.2242 35.77227 15.5493 17.1997 19.4216 21.814 24.0564 28.0997 26.0326 27.603 28.5013 30.2562 30.81068 32.1181 33.6666 32.096 32.73542 32.25777 30.1846 28.007 25.1451 25.9903 21.0619 19.58773 17.8648 13.9348 10.9944 10.1568 10.21963 6.5606 7.1358 5.9639 7.3342 9.4629 10.40725 11.1062 12.614 13.7179 14.77 15.17055 15.3924 15.0571 15.422 17.3109 20.5045 22.7884 38.0449 40.8362 14.5973 21.79423 17.31327 14.34698 16.6554 13.8081 24.5746 13.48522 6.9131 3.8343 1.8806 0.7965 1.10025 0.2869 0.0873 0.0223 0.0048 0.0009 0.01705 0.0001 0.004925 0.0016 0.0005 
0.00025625 0.0003569445 0.0006875 0.00172037 0.005352778 0.01589506 0.02383267 0.0001 0.0001 0.00015 0.00055 0.001254688 0.0003 0.0002875 0.0002 0.0001 0.0006 0.002966667 0.0038 0.0192 0.0834 0.3052 0.9296 1.7788 2.336 4.768133 7.038367 10.3711 10.31678 12.6022 14.0646 14.4366 16.1427 17.05368 18.029 19.9906 22.6291 29.0206 33.128 47.1159 74.744 46.4186 23.4382 12.4836 16.75095 12.115 12.8382 14.0722 15.6463 17.3099 19.21767 18.9642 20.5479 22.2294 24.301 25.69273 26.5457 28.4744 30.2224 31.1679 29.34222 28.52342 27.3917 28.582 25.4317 24.5412 19.7538 22.2704 16.9126 12.572 13.1932 8.772017 7.4112 7.3413 6.1359 7.6571 8.80855 9.8647 11.5246 12.9392 13.878 14.8816 15.14313 15.2804 15.0774 15.587 17.7149 20.20528 22.6351 36.9149 80.7753 34.6361 25.2278 24.00752 20.2957 18.22478 18.10127 17.8593 15.5848 12.9922 8.9788 5.8438 3.5283 2.467133 1.9422 0.9574 0.4162 0.1581 0.0522 0.02921667 0.015 0.0038 0.0008 0.0002 
0.0002 0.0003125 0.0005583334 0.001191667 0.003411111 0.01145556 0.03281852 0.0509566 0.0001 0.0001 0.00025 0.0013 0.00316875 0.0003 0.00055 0.0003 0.002 0.009816667 0.01 0.044 0.162 0.4968 1.050767 1.2548 2.5948 4.425 7.8379 9.204575 11.88188 13.89007 15.4142 16.9797 17.2164 16.7492 17.9278 18.6819 21.639 30.5126 68.2308 42.57938 36.5341 14.9335 11.067 10.6182 10.88095 10.5154 10.7345 11.4099 12.4964 13.43085 13.8203 15.1226 16.4701 18.0081 19.6658 20.24157 21.2696 23.1313 25.3449 27.506 26.24564 28.5104 24.71098 23.27077 17.3229 21.2365 17.6502 15.1343 12.5273 10.2262 8.0758 8.53165 7.2345 7.5213 6.6613 8.196 9.2814 10.3364 11.9738 13.2392 14.1641 15.1704 15.2967 15.364 15.4198 16.2647 18.3995 21.41032 22.3829 61.6095 41.8861 33.7703 30.90803 27.6273 22.8793 19.3118 16.3984 17.47708 15.5763 11.8348 11.0669 7.9461 5.2059 3.733883 3.043 1.5549 0.685 0.2586 0.1453667 0.0837 0.0234 0.0057 0.0012 0.0002 
0.0002375 0.0002 0.000425 0.00105 0.0021 0.007083334 0.02518333 0.06618889 0.1123542 0.0001 0.0001 0.00055 0.00325 0.008575 0.0003 0.0015 0.0079 0.3275333 0.0346 0.1293 0.4049 1.0535 1.670483 2.2647 4.0876 6.374 7.5344 11.0749 10.82697 13.4793 13.73325 13.7996 15.1468 16.72226 16.0325 16.2571 15.3822 60.6058 37.24937 30.05 12.7894 10.8252 10.2708 9.8855 9.912167 9.668 9.6321 9.904 10.3995 10.51362 10.9127 11.4589 12.1066 13.0019 14.1743 15.0123 15.493 17.0256 19.1603 21.1584 22.59588 22.8855 23.7802 17.1161 12.94522 12.9772 12.21348 7.7064 8.1311 9.4503 7.924 7.5864 7.3512 7.7461 7.3235 8.8271 9.81645 10.8071 12.4143 13.4914 14.4822 14.96077 15.517 15.5668 15.9142 17.0461 18.2643 28.59837 29.0652 91.5728 46.8234 35.4988 29.95058 28.6879 24.2673 20.8627 18.4982 17.1524 15.55293 14.3013 11.20458 8.3433 5.5003 3.93232 3.1836 1.5882 0.6755 0.2443 0.1475667 0.0753 0.02 0.0046 0.0009 0.0002 
0.0002010417 0.000275 0.0002 0.00065 0.0023 0.00335 0.0156 0.0566 0.1263667 0.26635 0.0001 0.59575 0.001 0.0055 0.0275 0.1188 0.4478 4.666783 1.4629 2.9511 3.0794 2.1117 4.226083 2.8414 4.5698 5.1189 7.2559 8.1512 10.5419 10.6025 12.1242 13.33318 14.11077 15.7909 17.2878 21.421 31.2255 22.5038 24.54415 11.5932 10.6533 10.3712 10.1463 9.7337 9.13405 9.0522 8.3287 7.9397 7.7285 7.963883 7.7243 7.6868 7.7937 8.2957 8.941833 9.2232 10.2479 11.0449 13.1162 13.5205 16.36402 21.9945 9.7061 8.7692 8.5727 6.911025 8.363 7.629567 8.32585 8.8018 8.39586 7.6503 7.2826 8.1054 8.0095 9.4696 10.36805 11.2625 12.7919 13.6872 14.743 15.19368 15.6879 15.8242 16.4053 17.6802 20.1804 32.33967 63.2979 41.5027 38.3061 28.9178 27.37047 25.2014 22.4469 20.7195 18.3476 17.30833 16.5535 14.2045 11.3654 8.10555 6.632175 4.088275 2.7288 1.2856 0.513 0.1735 0.1117667 0.05 0.0124 0.0027 0.0005 0.0001 
0.0001 0.0002291667 0.00035 0.0002 0.0011 0.0056 0.022325 0.0256 0.0876 0.2659 0.7118 0.88605 1.6701 3.4171 6.0711 9.3383 7.032183 12.3545 13.693 12.6753 10.9897 9.5908 8.54945 7.4944 5.9999 8.211 9.1485 9.94695 9.83 10.1135 11.4318 12.8002 14.6965 16.75887 19.2805 20.82282 16.5894 11.7968 13.27754 10.7153 10.3995 10.0526 9.451 8.975384 8.6826 7.7823 6.8294 6.2728 5.7013 5.981317 5.317 4.5124 3.8976 3.9939 7.178167 4.962 6.543 8.0068 9.9801 11.6921 11.35633 6.9331 4.9897 4.8203 4.997 7.113633 5.7114 7.3257 8.5398 8.826275 8.413 8.1529 7.4965 8.4474 8.6783 10.0905 10.93502 11.7515 13.1096 13.9067 14.9712 15.37587 15.7608 16.1094 16.8968 18.2231 28.15088 37.2678 25.9624 29.9648 28.508 23.9856 23.67408 21.9313 20.8547 19.2484 17.5436 16.53947 15.7547 13.4966 10.7392 7.7447 4.9404 3.40485 2.1688 1.291733 0.3232 0.1007 0.07262 0.0268 0.0062 0.0012 0.0002 0.000225 
0.0001333333 0.0001 0.0002666667 0.0005 0.0027 0.0104 0.0119 0.0462 0.1434 0.3923 0.9433 1.63835 1.99 3.6831 5.9914 8.6517 11.43612 11.282 13.5135 15.1423 16.0793 15.2922 15.60703 13.9662 12.2253 11.2159 12.1283 12.4747 13.1678 14.1285 15.234 16.334 17.4368 19.76198 17.6144 20.7988 14.81012 12.83152 10.70158 9.7786 9.2006 8.8266 8.3159 8.023583 7.5228 6.6717 5.506 4.9675 4.5604 5.81785 4.8564 5.8304 6.847 7.7646 7.640783 8.8296 10.3776 10.4136 8.9845 10.0204 7.371 6.6268 6.7989 6.9327 7.2224 7.018633 7.8153 8.5182 8.9165 9.047 9.206975 8.3704 8.527133 9.2338 9.4255 10.05906 10.7401 12.2959 13.3932 14.1705 15.1683 15.56427 15.924 16.4897 17.4643 19.9723 34.53445 55.5815 25.7184 26.5073 24.4393 21.5104 21.27147 20.498 19.2365 17.9864 16.4309 15.43357 14.6065 12.2856 9.486 6.5401 5.164217 3.9298 2.0204 0.8794 0.3408333 0.1617 0.04725 0.0121 0.0026 0.0005 0.0001 0.00015 
0.0001 0.0002 0.0001 0.0024 0.003475 0.0135 0.0307 0.0932 0.2676 0.6774 1.5136 2.073817 3.0013 5.3363 8.3937 11.7778 12.97795 15.2124 18.4676 21.5028 23.925 25.6088 21.21543 21.6898 19.7827 17.0163 15.3533 16.12502 15.2203 16.0121 16.859 17.7368 18.66125 18.8547 30.2075 16.7358 12.4243 10.5156 9.597375 8.844925 7.8835 7.7031 7.3363 7.655167 6.8329 5.8414 5.0007 5.7984 6.646517 6.8148 7.6572 8.4961 9.0325 9.7174 9.743883 10.5772 8.9224 9.3812 10.8293 11.05302 11.2654 10.0208 8.7036 8.4489 8.2194 7.894883 8.1463 8.3836 9.2403 9.8529 9.34316 9.7751 8.0571 9.211184 9.699625 10.41407 11.3609 12.7981 13.6044 14.453 15.3616 15.78372 16.1997 17.0297 18.4517 43.3012 34.4235 32.8608 27.9366 25.629 23.0429 21.49872 20.8071 18.8964 17.7173 16.5611 15.0976 14.06562 13.1681 10.6842 7.8276 5.0398 3.930033 2.7905 1.3102 0.5188 0.1735 0.0494 0.021725 0.00505 0.0009 0.0002 0.0002666667 0.0001 
0.0001 0.0001 0.0004 0.002 0.0087 0.0242 0.080175 0.16445 0.3984 0.9117 1.8152 2.850567 3.1795 5.9151 9.8237 13.5358 14.73552 17.408 20.5455 22.1765 35.6248 27.28585 25.6488 25.0868 25.8776 24.4581 21.8777 20.57895 19.0027 18.3664 18.9046 20.7331 17.74457 20.8721 21.4366 12.15 10.7352 9.5783 8.78438 8.517 7.229267 7.073483 7.3872 7.523075 8.5359 9.5623 8.0494 8.4974 8.2884 9.2406 10.1639 11.1287 10.8456 11.1509 10.6223 10.4236 10.5023 11.0793 13.3591 12.67358 14.5088 11.9415 8.8528 8.2827 8.350433 8.0195 7.9464 8.1917 8.6949 8.0547 9.374717 9.9861 8.4115 10.0094 10.1298 10.84478 12.21097 12.69768 13.7378 14.6566 15.04275 15.5165 16.5322 17.7928 37.2512 24.2565 29.99377 30.5687 27.4462 31.5287 20.0715 20.21627 19.1211 17.7239 16.551 15.292 13.6417 12.45698 11.4489 8.7771 5.9709 3.5171 2.715833 1.7629 0.7455 0.2658 0.0803 0.0208 0.01678 0.0046 0.0015 0.0004666667 0.0002 0.0001888889 
0.00015 0.0001 0.0007 0.003 0.012 0.03286 0.0454 0.1514 0.5948333 1.00416 1.69315 2.7174 4.8764 6.9183 9.0561 12.7402 16.28978 17.7389 21.8802 24.7467 25.9544 28.39462 26.9533 28.4422 29.5365 29.0319 27.5736 25.931 24.4461 19.2812 30.3171 16.5378 17.00483 11.7329 6.4575 8.5541 8.6073 8.202666 8.1698 7.1412 5.845 6.2858 7.81625 8.25875 8.468425 7.4077 8.7456 9.2343 9.675616 10.1449 11.4869 13.2732 11.8464 11.8087 11.4522 10.4125 10.4439 10.9438 12.5769 13.03932 13.502 11.5219 9.2732 8.6625 8.515333 8.4696 8.438 8.6398 9.1336 8.8751 9.56245 9.7044 8.2591 8.8434 10.1771 10.72238 11.7113 12.9736 13.79497 14.6802 15.11047 15.5886 16.8447 19.9357 46.3776 21.4848 27.88432 27.4906 34.0171 24.5421 19.9595 19.03362 18.2955 16.8521 15.4984 13.9427 11.939 10.61772 9.4466 6.7026 4.1516 2.1996 1.695633 0.9851 0.3717 0.1186 0.0323 0.02578333 0.0076 0.0015 0.0003 0.0002 0.0002666667 0.0002 
0.0001 0.0003 0.0015 0.0063 0.0232 0.06885 0.075 0.212 0.5672 1.3283 2.902875 5.028575 7.6678 10.8338 13.9985 16.9435 16.57215 19.3723 20.4553 23.673 26.7488 27.81303 29.4376 31.4177 32.4037 31.912 32.864 31.2624 31.4235 51.9566 26.8153 18.9151 18.04273 13.238 7.965 7.1822 6.0916 8.041133 6.0338 7.064 8.7147 8.8479 8.7441 8.6285 8.3678 8.546783 8.945633 10.0314 10.07893 10.9051 12.3738 17.6834 14.2765 12.46763 11.2806 11.0086 11.954 11.6054 12.0656 12.13617 12.2235 10.7037 15.489 8.9709 8.871583 8.6868 8.6108 9.4818 11.0686 10.31525 10.3132 10.4412 8.476 6.7847 9.7959 10.76492 11.7978 13.062 13.6596 14.11155 15.09075 16.30613 17.2405 39.7945 30.8983 25.8414 29.99527 37.6639 25.0545 22.7702 19.2779 18.35205 17.4762 15.9078 14.2754 12.3292 11.07457 9.9511 7.279 4.6899 2.6012 1.2237 0.9519333 0.4854 0.1626 0.0464 0.0113 0.009633333 0.0024 0.0004 0.0001 0.0002 0.0001666667 0.0001958333 
0.0002 0.0009 0.004 0.0167 0.0611 0.1043333 0.1964 0.5483 1.3177 2.7131 3.45378 4.8527 8.09885 11.22478 14.8648 15.75265 17.2038 15.4342 19.4258 23.598 27.6033 30.0749 30.1808 33.4226 36.1276 37.7096 43.7748 39.6945 64.2915 41.416 27.8829 23.9542 19.78302 23.8784 11.9578 10.266 9.5637 8.828767 9.7806 10.4101 10.7083 9.856 9.68925 8.8973 8.5048 8.6753 9.5795 10.13783 10.74953 11.7363 12.2731 13.2877 13.6133 13.31103 12.3368 21.5971 12.4163 11.4552 11.60528 11.1509 11.2981 12.7262 20.5923 9.4762 9.136867 8.9635 9.0644 10.6135 11.423 11.03337 11.078 11.2649 8.7785 6.9556 9.5037 10.64425 11.6037 13.1269 13.5629 14.5435 14.9748 15.5507 24.95308 30.38522 32.6998 32.27077 39.6436 27.8473 24.8393 21.4649 18.5113 17.55705 16.5919 14.8022 12.8132 10.4648 9.1483 7.8206 5.1924 2.9876 1.4641 0.606 0.4801167 0.2118 0.0629 0.016 0.0035 0.003183333 0.0007 0.0001 0.0002 0.0001 0.00015 0.0001388889 
0.0001 0.0008 0.0038 0.0165 0.0627 0.1364167 0.2076 0.5944 1.4639 3.1198 4.255133 5.255 8.3159 11.6679 14.67445 16.91828 18.27328 22.6118 25.7874 29.5486 34.0065 32.3592 32.4724 34.5519 38.2733 43.9822 57.80555 78.0881 48.6807 36.3878 28.0572 25.53595 22.6814 16.031 16.6508 11.6238 10.8109 10.5484 10.692 11.1625 11.6423 11.4254 11.38297 10.3648 9.5159 9.7283 10.272 10.6684 10.50222 11.3932 11.41718 14.2137 14.0662 14.69728 14.2928 32.4726 14.2164 11.5267 12.0418 11.8279 13.2448 18.337 17.8744 9.7432 9.3174 8.9806 9.0662 10.2586 10.2973 10.83237 12.0201 14.1722 10.2886 8.3923 9.112166 9.6714 11.493 13.1544 13.5687 14.3504 14.94303 15.4546 34.4314 27.2468 31.87667 36.09255 31.27385 27.9149 24.4797 20.5352 17.7911 16.75182 15.6939 13.59 11.2042 8.5229 7.239767 5.8012 3.4408 1.7443 0.7479 0.5928333 0.2707 0.0831 0.0218 0.0049 0.001 0.00112 0.0002 0.0003333333 0.0001 0.0001333333 0.0001 0.000125 
0.0001 0.0006 0.0035 0.0162 0.04075 0.0654 0.2253 0.659 1.6138 3.2477 5.198467 6.3425 10.1402 14.4039 17.7612 20.76395 17.8433 25.61613 28.42323 31.918 32.73668 31.7443 38.1479 41.8045 46.9266 88.9813 62.4859 58.3776 41.028 31.3045 26.0358 23.16487 24.6042 19.8449 16.2368 12.0145 11.1907 11.2319 11.2525 11.7892 12.4276 11.6743 14.5697 16.08 10.2864 10.2837 10.3842 10.36552 10.2335 9.7138 7.6216 11.62387 13.75245 15.422 19.1773 37.9401 16.0669 12.5162 13.2694 13.7739 16.1366 19.8127 16.8456 13.37785 9.8396 8.9013 8.9047 9.5585 7.7273 10.41997 12.4485 16.759 16.1826 11.5316 10.42262 8.6184 11.083 13.0651 13.5256 14.2089 17.73272 15.5501 43.3511 25.2229 42.3372 33.38163 29.6896 27.14568 24.00728 19.7708 18.32866 17.1178 14.8049 12.3467 9.5932 6.7159 5.5309 4.1132 2.1557 0.9546 0.356 0.2828 0.1123 0.0302 0.007 0.0014 0.0002 0.000375 0.00015 0.0002 0.0002111111 0.0001 0.0001111111 0.0001 
0.0001 0.0005 0.003 0.0155 0.04348333 0.0682 0.257 0.8163 2.1737 4.8308 6.03435 8.395 12.6027 17.2262 20.6706 22.26273 26.7807 29.5952 31.0784 32.09585 33.37378 36.466 42.8154 51.7399 82.2079 63.4433 53.0907 42.0429 30.5521 24.3546 18.5638 20.62263 19.0468 19.0935 17.4604 14.2264 13.8053 12.0661 11.3792 11.5188 11.9763 14.2256 18.79485 23.6481 10.965 10.7518 10.5475 10.34643 10.0875 9.3676 7.1118 12.5782 14.1517 19.07147 26.93796 25.38782 17.7793 14.0941 14.75462 15.8776 18.2906 21.6434 15.9478 13.11208 10.0165 9.026 9.0463 9.5532 8.2939 10.3687 11.7327 15.8426 20.6538 15.1076 11.97162 9.2144 10.7746 12.7954 13.2837 14.7325 22.03255 32.0998 29.5868 41.7729 32.0529 32.3965 29.4468 27.5017 23.8414 21.39873 18.09007 16.4284 13.9044 11.1188 8.0954 5.1866 4.131933 2.8456 1.3142 0.5078 0.1647 0.1290833 0.0452 0.0106 0.0022 0.0004 0.00044 0.0001 0.0001 0.0001375 0.0002 0.0001703704 0.0001 0.0001037037 
0.0001 0.0006 0.0036 0.018 0.03348333 0.0776 0.2808 0.8517 2.1691 2.958517 4.6834 8.7067 13.0409 17.5908 23.2875 24.00993 27.2331 30.2512 32.0202 33.3668 33.14525 37.88985 49.74575 95.1752 65.3062 51.7017 41.5976 24.1015 22.6998 25.3919 17.2524 19.12515 18.2328 19.6741 23.1163 20.1363 22.39608 13.1978 11.412 11.173 11.3514 19.6686 23.9816 27.4725 13.8547 11.116 10.6425 10.82617 10.1834 11.3865 9.7404 13.2319 15.53522 16.2091 26.7478 34.6155 22.41572 16.95572 15.88597 17.5113 21.0309 23.7869 15.6023 13.13503 10.4207 9.4809 9.5857 10.1572 9.7218 11.0782 12.288 16.0042 20.0272 16.4424 13.94192 10.9153 10.7656 12.9937 13.7247 20.80982 29.8864 25.7176 39.6217 30.6133 31.8229 30.3031 29.0296 26.9107 22.9394 19.0433 17.35628 14.74242 13.33492 9.921 6.7627 5.40826 3.9705 1.9598 0.8032 0.2731 0.0776 0.05885 0.0187 0.0039 0.0007 0.0001 0.0002 0.0001 0.0001 0.0001 0.000134375 0.0002 0.0001567901 0.0001 
0.0002666667 0.0001 0.0005 0.0032 0.0293 0.0184 0.0878 0.3422 1.0845 2.68665 2.8096 6.0759 12.143 17.6468 21.8842 18.48318 24.2035 25.7938 27.952 31.8011 23.9824 30.9471 41.3309 39.88968 45.28748 29.66158 5.9535 7.948 10.0013 40.6526 20.0025 13.73057 21.6526 28.5849 38.6132 40.5003 21.46795 34.2496 24.3416 10.9376 12.4529 22.72328 22.5829 36.2919 18.3912 11.8666 12 12.32812 11.4961 14.291 13.0935 16.4001 18.24513 20.6403 28.4689 32.0559 19.8886 16.0609 17.89695 20.43698 25.6271 23.8897 15.7368 13.5065 11.0861 10.2451 10.4045 11.0983 11.08242 11.0911 13.3417 16.6101 19.0623 17.1952 15.15565 14.7766 8.6105 12.4863 16.7072 28.04362 36.5244 40.4551 29.7932 30.4408 31.051 29.6201 28.4154 26.1521 21.8883 18.2785 17.07312 15.6749 12.962 9.326167 7.75745 4.83825 3.0261 1.3573 0.5006 0.1523 0.0386 0.02791667 0.0083 0.0015 0.0002 0.000275 0.0001 0.000125 0.0001 0.0001 0.0001 0.0001335938 0.0002 0.0001522634 
0.0001 0.0003 0.001266667 0.00185 0.0108 0.0531 0.1494667 0.5048333 0.71335 1.298233 1.9613 0.9169 0.9818 2.7311 8.01165 5.3809 8.9099 11.7035 12.0304 9.2128 16.5853 14.5842 16.8573 14.8795 5.789 3.281975 3.85075 4.3677 0.8019 1.4427 13.28434 2.0963 3.1468 4.4037 6.5893 9.6889 19.50458 11.0348 6.7977 22.8243 24.3986 36.12422 45.8853 80.0703 67.8697 23.0074 15.4014 15.31877 14.2453 17.0204 16.8451 19.664 22.14467 23.3254 28.242 30.8683 21.9311 20.33015 18.3475 19.6681 24.4945 22.63802 16.2631 13.754 11.93 11.1719 11.3276 12.0393 12.1494 12.3868 14.3349 16.9764 18.6007 17.3474 15.57928 14.257 9.7549 13.0205 24.6394 33.04413 46.7796 32.9308 28.7228 29.4049 29.68818 29.8759 27.5258 25.0996 20.6466 17.509 16.14042 14.8599 11.9652 8.7524 5.5937 3.86515 1.902175 1.4044 0.3171 0.0879 0.06202 0.0203 0.004 0.0007 0.0001 0.00015 0.00015625 0.0001 0.00010625 0.0001 0.0001 0.0001 0.0001333984 0.0002 
0.0002 0.0005555556 0.001138889 0.004638889 0.02191667 0.07112222 0.2358 0.4558833 0.5035233 0.0006 0.0006 0.0035 0.0201 0.092 1.43465 0.3349 0.9618 2.1893 3.9186 5.8302 7.202183 7.1364 6.7556 4.198 0.6747 1.48716 0.7107 0.7908 0.8161167 0.96355 1.745775 2.2276 3.6952 4.849 6.4132 9.2408 10.46052 12.3131 16.9297 36.7384 49.0598 44.7402 62.3658 54.6285 26.0571 14.7013 16.71653 9.346 29.4238 25.5837 25.142 25.9467 25.9774 26.8915 28.7599 30.7285 24.3251 25.99252 21.4277 23.4707 28.4433 25.8681 22.21485 15.0749 12.17097 12.2566 12.2254 12.8219 13.0618 13.459 15.1128 17.2246 18.203 17.58275 16.9968 12.9027 11.7322 19.1222 37.4135 36.3318 36.2007 32.8535 27.7417 28.6163 28.6942 28.7402 26.5093 23.8127 19.3489 16.5996 15.20888 13.9206 10.881 7.5934 4.5564 3.54746 2.2844 0.9409 0.3733 0.1641 0.042625 0.011 0.002 0.0003 0.0003 0.0001 0.000125 0.0001203125 0.0001 0.0001015625 0.0001 0.0001 0.0001 0.0001333496 
0.0003777778 0.0006314815 0.002111111 0.009231482 0.03255926 0.109613 0.2542685 0.2392813 0.0006 0.0006 0.001466667 0.0003 0.002 0.0119 0.0841 0.0571 0.2194 0.667 1.5985 2.673483 3.0108 3.4387 2.9346 1.5155 0.109 0.279 0.1524 0.2517 0.3931 1.2165 1.3219 2.61075 3.0676 4.679 6.4023 7.698667 8.8592 11.6263 18.2688 34.5127 42.3804 45.88717 44.3513 37.6136 23.7428 18.2348 17.67445 19.6083 36.088 38.0207 35.9412 31.614 29.5381 28.4228 28.7806 24.7023 42.6798 32.59348 27.2439 29.7969 32.7452 27.9471 18.7811 16.4491 13.3254 12.93515 12.75072 13.3744 13.48617 14.2894 15.6775 17.2755 17.7285 17.37853 16.6201 13.3601 20.9061 19.3353 37.5175 35.51558 35.4401 32.4074 27.3387 27.8754 27.87535 27.6525 25.3395 22.2918 18.1934 16.83935 15.5479 12.8163 9.68 6.4235 3.6169 2.683183 1.6859 0.6425 0.2001 0.0513 0.0244 0.004975 0.001 0.0001 0.0002 0.000175 0.0001 0.0001125 0.0001082031 0.0001 0.0001003906 0.0001 0.0001 0.0001 
0.0005046296 0.001040123 0.003991358 0.01463395 0.0504679 0.1321469 0.1208726 0.0006 0.0006 0.0007888889 0.0003 0.0008333334 0.0002 0.0012 0.01321667 0.0075 0.0361 0.1396 0.4262 1.14415 1.2566 1.4272 1.1388 0.5038 0.0087 0.04843333 0.0185 0.0444 0.1053 0.3909 0.808 1.4526 2.721517 4.44135 6.2018 7.6345 9.0747 12.5687 22.2149 35.9594 41.1472 37.8812 36.0185 29.4678 21.6998 20.7612 21.69073 23.3951 30.7506 33.591 35.1673 33.6899 32.10438 30.6637 31.87 34.245 46.3278 38.29312 33.5566 31.764 33.5674 28.8186 24.15292 19.7124 13.9775 12.9807 12.8453 13.2933 14.06752 15.23065 16.067 17.3129 17.5324 17.8427 17.1904 18.7432 17.8835 22.424 27.5471 32.9771 33.5446 31.0099 27.5391 27.6443 27.20062 26.7234 24.2155 20.5768 16.9966 15.61392 14.3497 11.5293 8.3524 5.2399 2.7596 2.008683 1.1959 0.4231 0.1226 0.0294 0.02112 0.0059 0.001766667 0.000425 0.0001 0.0001333333 0.0001270833 0.0001 0.00010625 0.0001036133 0.0001 0.0001000977 0.0001 0.0001 
0.0007723765 0.00184537 0.006555144 0.02303107 0.06574959 0.06093748 0.0006 0.0006 0.000562963 0.0003 0.0004444444 0.0002 0.0005666667 0.0003 0.0018 0.0013 0.0084 0.0452 0.1771 0.39865 0.3957 0.4642 0.3568 0.1384 0.13628 0.0005 0.0015 0.0053 0.0269 0.1475 0.5002167 0.8325 2.219 4.0784 4.8934 7.50475 11.19315 14.117 27.5353 34.0487 33.6536 32.59768 29.7362 24.7733 21.9976 23.1767 23.72128 24.9683 29.6445 32.55 34.924 34.95408 35.0156 33.2203 34.9395 37.9561 44.4971 40.02108 35.4535 32.858 33.9673 29.4708 24.75133 20.1875 14.4182 13.4429 13.2359 13.7176 14.45365 14.8887 16.23672 17.4987 18.0541 18.08252 19.9307 16.1783 19.0993 23.2208 26.52625 29.8079 31.3115 29.4013 27.3737 27.5457 26.41398 25.7624 22.9979 18.7526 15.6366 14.2182 12.9593 10.0466 6.9135 4.0678 3.060533 1.9929 0.8009 0.2631 0.0711 0.016 0.01063333 0.003 0.0005 0.0001 0.0001 0.0001 0.0001111111 0.0001095486 0.0001 0.000103125 0.0001016846 0.0001 0.0001000244 0.0001 
0.001308873 0.00305763 0.01047719 0.0317786 0.03018363 0.0006 0.0006 0.0004876543 0.0003 0.0003148148 0.0002 0.0003555556 0.0003 0.0002 0.0001 0.0004 0.002 0.008 0.0435 0.12215 0.0928 0.1145 0.0869 0.03 0.0435 0.0007 0.0001 0.0005 0.0049 0.0349 0.1966667 0.1429 1.4441 3.5631 5.7303 7.591975 9.0122 17.77902 25.47475 31.3274 30.70294 28.859 26.1716 23.2723 22.9159 24.3638 24.92505 25.6626 29.408 32.4374 35.0088 35.45053 35.9189 35.3231 36.9284 39.3445 43.5023 40.15193 36.7892 33.4757 34.0219 29.905 25.08532 20.4137 14.7256 13.7336 13.4895 13.67002 13.9079 15.3004 16.3526 17.79315 18.43217 18.94777 17.705 16.1353 19.3791 23.0206 25.32985 27.7071 29.4928 28.3474 26.7116 26.51228 26.5848 24.2233 21.6815 16.9146 14.0404 12.60075 11.3266 8.3767 5.4154 2.9617 2.197783 1.3413 0.4982 0.1519 0.0383 0.0081 0.005483333 0.0014 0.0002 0.000225 0.0001 0.0001 0.0001 0.0001037037 0.0001033131 0.0001 0.0001015625 0.0001008118 0.0001 0.0001000081 
0.002183252 0.004947899 0.01510448 0.01472788 0.0006 0.0006 0.0004625514 0.0003 0.0002716049 0.0002 0.0002851852 0.0003 0.0002 0.0001 0.0002 0.0001 0.0004 0.0018 0.0075 0.02725 0.0163 0.0214 0.0164 0.0051 0.01193333 0.0001 0.0003 0.00128 0.0004 0.008233333 0.0029 0.0193 0.3646 2.6773 5.4359 7.79345 10.1895 16.3601 29.46 28.93535 28.2925 25.626 24.1165 22.7584 23.4916 25.0807 25.61072 26.2982 29.5152 32.6474 35.2023 35.98188 36.6336 36.8884 38.2351 40.0046 41.60909 42.9308 37.7387 33.9437 33.911 29.823 25.25585 20.7119 14.957 13.9289 13.6608 13.81733 14.0084 15.5869 16.6776 18.0746 20.1013 18.39758 17.1047 17.57258 18.9676 22.182 24.66198 26.0407 27.9331 27.3767 25.7696 25.3691 25.0883 22.2704 19.8231 14.9487 12.1925 10.74193 9.4491 6.5833 3.9544 1.9931 1.4694 0.8299 0.2841 0.0803 0.0189 0.0132 0.0038 0.0006 0.0001 0.00015 0.00014375 0.0001 0.0001 0.0001 0.0001012346 0.0001011369 0.0001 0.0001007813 0.0001003983 0.0001 
0.003565576 0.007411876 0.007196052 0.0006 0.0006 0.0004541838 0.0003 0.0002572016 0.0002 0.0002617284 0.0003 0.0002 0.0001 0.0001333333 0.0001 0.0002 0.0001 0.0003 0.00265 0.001 0.0024 0.0034 0.0024 0.0007 0.001966667 0.00294 0.000496 0.0004 0.0005 0.002333333 0.0058 0.0543 0.3851 1.8697 4.7782 8.221817 11.6146 19.6319 27.5964 27.3576 25.29605 24.05095 23.58143 22.5264 23.8991 24.72364 25.5477 26.7113 29.7665 33.107 35.6378 36.47645 37.4899 38.3748 39.5336 40.8561 41.83493 43.0162 38.784 34.6124 33.8139 29.6509 25.30338 21.0306 15.1094 14.0272 13.7589 13.91053 14.0785 15.8325 17.2821 19.6107 18.7559 18.4347 17.3493 15.8992 18.58768 20.00567 23.361 24.3595 26.4884 26.193 24.6188 24.02813 23.4415 20.2859 17.0356 12.7252 11.32315 10.0556 7.3874 4.7939 2.6512 1.2236 0.9047667 0.4668 0.1472 0.0386 0.0085 0.00615 0.0016 0.0003 0.000275 0.0001 0.000125 0.0001171875 0.0001 0.0001 0.0001 0.0001004115 0.0001003871 0.0001 0.0001003906 0.0001001972 
0.005488726 0.003874701 0.0006 0.0006 0.0004513946 0.0003 0.0002524006 0.0002 0.0002539095 0.0003 0.0002 0.0001 0.0001111111 0.0001 0.0001333333 0.0001 0.0002 0.0002 0.00065 0.0017 0.002266667 0.002125 0.0003 0.0001 0.0004 0.0008222222 0.0003666667 0.0004 0.0003 0.002466667 0.0041 0.0385 0.2576 1.1526 3.1988 7.304966 14.1139 17.006 27.0713 24.5553 24.03286 23.6453 22.816 22.91308 23.18858 24.7646 25.5991 26.7125 29.8696 33.1321 35.8514 36.74295 38.0437 39.2782 40.3229 41.3196 41.97468 42.8823 39.3749 35.001 33.3621 31.16408 29.1805 21.4234 15.133 13.9801 13.7831 13.94925 14.1735 16.2506 18.3435 18.4222 18.20225 17.8919 16.4086 15.6042 18.0113 20.8618 21.71017 23.47372 24.9013 24.8374 23.1867 22.46437 22.0639 16.9751 13.9718 10.285 8.97985 7.7319 5.3147 3.179 1.6096 0.6783 0.5085 0.2369 0.0688 0.0168 0.0035 0.002616667 0.0006 0.0001 0.0002 0.00016875 0.0001 0.0001125 0.0001074219 0.0001 0.0001 0.0001 0.0001001372 0.0001001311 0.0001 0.0001001953 
0.002640857 0.0006 0.0006 0.0004504649 0.0003 0.0002508002 0.0002 0.0002513032 0.0003 0.0002 0.0001 0.0001037037 0.0001 0.0001111111 0.0001 0.00015 0.0001666667 0.00035 0.00085 0.001538889 0.001597917 0.0003 0.0002 0.0002 0.0001 0.00025 0.0003333333 0.0003 0.0004 0.00175 0.0037 0.0307 0.1931 0.8833 1.612167 2.8798 7.2445 17.7528 27.9879 22.3865 22.36323 22.2196 21.9082 22.3163 24.0125 24.5554 25.8501 27.12338 29.4703 32.4787 33.77082 35.4066 38.0283 39.5316 40.5512 41.3489 41.706 42.425 39.4658 35.0209 32.6134 30.3345 28.3637 21.5405 15.0483 13.6448 13.5197 13.87255 14.3818 16.6553 17.3643 17.7436 17.34957 17.1104 15.4566 14.7147 16.4402 17.56665 19.0809 22.5385 23.15675 23.40352 21.336 21.68147 20.1393 13.5038 10.5951 7.6685 6.595067 5.4129 3.4538 1.8961 0.8765 0.67965 0.3373 0.1081 0.029 0.0066 0.0013 0.001016667 0.0002 0.00025 0.0001 0.00015 0.0001296875 0.0001 0.00010625 0.000103418 0.0001 0.0001 0.0001 0.0001000457 0.0001000442 0.0001 
0.0006 0.0006 0.000450155 0.0003 0.0002502667 0.0002 0.0002504344 0.0003 0.0002 0.0001 0.0001012346 0.0001 0.0001037037 0.0001 0.000125 0.0001388889 0.0002222222 0.0004555556 0.0009129629 0.001071701 0.0003 0.00025 0.0002333333 0.0001666667 0.00015 0.0001 0.0002666667 0.0003 0.0002 0.0014 0.0018 0.0111 0.0436 0.5221 0.9770333 1.0364 4.345 18.0049 25.7468 20.4614 20.67238 20.9113 21.0375 21.8615 23.625 23.70588 24.985 26.1038 28.76417 31.2582 33.41035 34.4979 37.3807 39.0976 40.114 40.7826 40.84005 41.4776 38.8986 34.4903 31.4622 29.00892 27.0251 20.7572 14.6476 12.886 12.88563 13.1479 14.2293 15.5383 16.3687 16.9362 16.36513 15.9931 14.2939 13.1538 14.2393 15.33422 16.7664 20.5036 23.0495 23.1102 21.05607 19.44743 16.02136 10.1493 7.4026 5.078 4.39735 3.3941 2.0018 1.0083 0.426 0.3390333 0.1502 0.0443 0.011 0.0023 0.0004 0.00042 0.0001 0.00015 0.00015 0.0001 0.000125 0.0001136719 0.0001 0.000103125 0.0001016357 0.0001 0.0001 0.0001 0.0001000152 0.0001000149 
0.0006 0.0004500517 0.0003 0.0002500889 0.0002 0.0002501448 0.0003 0.0002 0.0001 0.0001004115 0.0001 0.0001012346 0.0001 0.0001125 0.0001212963 0.000162037 0.0002722222 0.0005302469 0.000685055 0.0003 0.000275 0.0002611111 0.0002166667 0.0001833333 0.0001388889 0.0001933333 0.00025 0.0002 0.0002 0.00075 0.0009 0.0053 0.0283 0.1385 0.3785667 0.4021 2.7118 17.3378 20.9385 19.78822 18.6127 19.4428 19.949 20.8261 22.451 22.60943 23.4559 24.7769 28.4971 29.0201 32.11562 35.2118 35.9487 37.7422 38.7331 38.74568 39.3032 39.703 37.3965 33.1472 29.6648 27.16783 24.9243 19.1793 13.6347 11.8081 11.66485 12.3073 12.4172 13.9924 15.0507 15.6344 15.05812 14.7731 12.7233 10.9798 11.478 12.64908 14.0005 18.1018 20.8768 20.8499 19.44138 18.9282 17.3862 10.0583 6.274734 2.9615 3.325675 1.8691 1.0246 0.4752 0.1844 0.15215 0.0598 0.0164 0.0038 0.0008 0.0001 0.0002 0.0001 0.0001 0.000125 0.00011875 0.0001 0.0001125 0.000106543 0.0001 0.0001015625 0.0001007996 0.0001 0.0001 0.0001 0.0001000051 
0.0004500172 0.0003 0.0002500296 0.0002 0.0002500483 0.0003 0.0002 0.0001 0.0001001372 0.0001 0.0001004115 0.0001 0.00010625 0.0001112654 0.0001319444 0.0001851852 0.0003215021 0.000446881 0.0003 0.0002875 0.0002787037 0.0002509259 0.0002203704 0.0001796296 0.0001881111 0.000225 0.0002 0.0002 0.00035 0.0005 0.0001 0.0018 0.0059 0.0381 0.1268167 0.1342 3.5573 12.6045 16.5278 16.47667 16.4421 17.5739 18.2934 19.0632 20.2745 20.23722 20.8652 22.8077 26.6386 29.6865 30.25472 33.0199 34.47217 36.36363 36.4922 37.89437 37.049 37.2726 35.1894 31.085 27.3009 24.86977 22.6297 17.0146 11.9132 10.2647 9.660867 9.5751 10.4214 12.2066 13.2839 13.48867 13.9368 13.0751 10.7505 8.4507 8.4075 9.729917 11.0028 15.3486 18.1669 18.1343 16.97535 16.1843 13.3547 7.3023 4.7547 3.001025 1.82515 1.1651 0.4618 0.1983 0.0711 0.0614 0.0214 0.0054 0.0012 0.0002 0.0003 0.0001 0.000125 0.0001 0.0001 0.0001125 0.0001078125 0.0001 0.00010625 0.0001031982 0.0001 0.0001007813 0.0001003952 0.0001 0.0001 0.0001 
0.0003 0.0002500099 0.0002 0.0002500161 0.0003 0.0002 0.0001 0.0001000457 0.0001 0.0001001372 0.0001 0.000103125 0.0001058385 0.0001164866 0.0001427984 0.0002128772 0.0003133921 0.0003 0.00029375 0.0002887346 0.0002723766 0.00025 0.0002169753 0.0002001222 0.0002125 0.0002 0.0002 0.00023 0.0003 0.0001 0.0007333333 0.0003 0.0013 0.0092 0.03866667 0.0388 3.3241 8.4586 12.43 13.14135 13.9089 15.0756 15.9481 16.4549 16.45613 16.9743 17.4024 20.0948 24.0831 27.4559 28.93495 30.8566 33.7405 35.5251 34.52063 35.30782 35.6935 34.2974 32.3963 28.4241 26.39155 24.6069 20.092 14.6156 9.809 7.0077 7.175783 7.0023 8.2409 9.9414 11.0066 11.408 12.0196 10.8128 8.4713 5.8668 5.4758 6.889733 8.0149 12.28 15.0735 14.9616 13.78138 12.7938 9.495 4.7136 2.7243 2.24006 1.5636 0.9064 0.3686833 0.0735 0.0272 0.02516 0.0045 0.0014 0.0003 0.0001 0.00015 0.0001625 0.0001 0.00010625 0.0001 0.0001 0.00010625 0.0001035156 0.0001 0.000103125 0.0001015808 0.0001 0.0001003906 0.0001001965 0.0001 0.0001 
0.0002500033 0.0002 0.0002500054 0.0003 0.0002 0.0001 0.0001000152 0.0001 0.0001000457 0.0001 0.0001015625 0.0001029878 0.0001084834 0.0001217078 0.0001573874 0.0002422669 0.0003 0.000296875 0.0002941615 0.0002849537 0.0002703704 0.0002464506 0.0002146695 0.00020625 0.0002 0.0002 0.000186 0.0002 0.0001 0.0003777778 0.0003 0.0006 0.0002 0.00262 0.002 0.0097 1.3331 6.2673 8.6753 9.82575 10.864 12.2064 13.0124 13.1263 12.91602 12.8436 13.4488 16.6217 20.9713 24.5984 26.02773 27.9924 30.7449 32.5301 33.5351 32.00555 34.155 31.87007 30.03088 25.2706 23.71022 21.6618 17.3986 12.1381 6.3861 4.5637 4.759833 4.6412 5.7487 7.4253 8.5503 9.067166 9.6508 8.3309 6.0859 3.582 3.570117 3.1234 5.314 9.1724 11.738 11.5135 10.40978 9.1008 6.1865 2.791 1.4235 1.2376 0.7342 0.3883 0.1838 0.06365 0.033275 0.01035 0.0016 0.0004 0.0001 0.0001666667 0.0001 0.000125 0.000121875 0.0001 0.0001015625 0.0001 0.0001 0.000103125 0.0001016602 0.0001 0.0001015625 0.0001007858 0.0001 0.0001001953 0.0001000979 0.0001 
0.0002 0.0002500018 0.0003 0.0002 0.0001 0.0001000051 0.0001 0.0001000152 0.0001 0.0001007813 0.0001015168 0.0001043446 0.0001110597 0.0001291929 0.0002053405 0.0003 0.0002984375 0.0002970122 0.0002919968 0.0002831619 0.0002672582 0.0002269231 0.000203125 0.0002 0.0002 0.0001672 0.00015 0.0001 0.0002592593 0.0003 0.0003666667 0.0002 0.0002 0.000675 0.0004 0.0021 0.4609 3.8081 5.4554 6.72775 7.6209 9.2541 9.7559 9.5024 9.205083 8.5946 9.4397 12.77 17.2147 18.89837 20.9669 24.2962 26.95 28.7134 29.7573 29.90967 30.5748 30.7497 29.0472 25.2645 21.78645 18.5877 14.5211 8.7909 4.0887 3.613233 2.7206 2.6235 3.39 4.8834 6.055 6.55085 7.1207 5.8284 3.954 1.8444 1.923917 1.5283 3.2345 6.2467 8.4249 8.105 7.245983 5.984 3.5881 1.5002 0.6713 0.5902666 0.3087 0.1481 0.065 0.0243 0.0081 0.0031 0.00096 0.00054 0.0002 0.0001 0.0001222222 0.0001 0.0001125 0.0001085937 0.0001 0.0001003906 0.0001 0.0001 0.0001015625 0.0001008057 0.0001 0.0001007813 0.0001003918 0.0001 0.0001000977 0.0001000489 
0.0002500006 0.0003 0.0002 0.0001 0.0001000017 0.0001 0.0001000051 0.0001 0.0001003906 0.000100766 0.0001022142 0.0001056403 0.0001148657 0.0001863983 0.0003 0.0002992188 0.0002984832 0.0002958155 0.0002907236 0.0002808056 0.0002357811 0.0002015625 0.0002 0.0002 0.00015844 0.000125 0.0001 0.0002197531 0.0003 0.0002888889 0.0002 0.0002 0.000285 0.00025 0.0001 0.0004 0.1383 1.9336 2.7513 3.024 4.7269 6.328 6.7095 6.1506 5.888767 5.013 5.9037 8.9166 13.012 14.77512 16.6269 19.7905 22.3279 24.0756 25.1767 25.49033 26.2591 26.6696 25.1145 21.6257 18.27215 14.81293 12.34972 6.0557 2.5582 2.26098 1.3621 1.2765 1.7209 2.9388 3.3813 4.2288 4.547 3.9688 2.2708 0.8288 0.89815 0.6366 1.7391 3.748 5.5864 5.2207 4.6284 3.5519 1.8513 0.7266 0.2867 0.25595 0.1172 0.0507 0.0206 0.0072 0.007383334 0.0022 0.0005 0.0001 0.0001 0.000125 0.0001 0.0001074074 0.0001 0.00010625 0.0001037109 0.0001 0.0001000977 0.0001 0.0001 0.0001007813 0.0001003967 0.0001 0.0001003906 0.0001001956 0.0001 0.0001000488 
0.0003 0.0002 0.0001 0.0001000006 0.0001 0.0001000017 0.0001 0.0001001953 0.0001003855 0.0001011236 0.0001028735 0.0001075734 0.0001767261 0.0003 0.0002996094 0.000299234 0.0002978391 0.0002950074 0.0002891149 0.0002416183 0.0002007812 0.0002 0.0002 0.000154188 0.0001125 0.0001 0.0002065844 0.0003 0.000262963 0.0002 0.0002 0.000192 0.000175 0.0001 0.0002 0.0001 0.0364 0.8289 1.3591 1.4578 2.5805 3.7824 4.1828 3.5492 3.357883 2.5228 3.2331 5.5243 8.8408 10.57542 11.9894 14.7942 17.0882 18.7608 19.28937 19.9577 21.2164 21.962 20.6254 17.7114 15.86708 15.1638 10.9791 5.441933 3.5013 1.488975 0.5753 0.5348 0.7605 1.5213 1.6733 2.3748 2.5955 2.3179 1.1266 0.3297 0.3660667 0.2211 0.7336 2.0311 3.3877 3.44995 3.0764 1.8324 0.8596 0.316 0.1113 0.1013167 0.0405 0.0157 0.0059 0.0019 0.002083333 0.0006 0.0001 0.0002333333 0.0001 0.0001 0.00010625 0.0001 0.0001024691 0.0001 0.000103125 0.000101709 0.0001 0.0001000244 0.0001 0.0001 0.0001003906 0.0001001968 0.0001 0.0001001953 0.0001000977 0.0001 
0.0002 0.0001 0.0001000002 0.0001 0.0001000006 0.0001 0.0001000977 0.0001001936 0.0001005682 0.0001014609 0.0001038568 0.0001717932 0.0003 0.0002998047 0.0002996144 0.0002988942 0.0002973602 0.0002939872 0.0002452263 0.0002003906 0.0002 0.0002 0.0001520876 0.00010625 0.0001 0.0002021948 0.0003 0.000254321 0.0002 0.0002 0.0001659 0.0001375 0.0001 0.0001333333 0.0001 0.0117 0.0085 0.2528 0.5851667 0.6575 1.2268 1.9748 2.3186 2.304917 1.8209 1.0908 1.5323 2.9834 5.2891 6.81465 7.6943 9.925 11.8034 13.2738 14.04308 14.4916 15.8444 16.7322 15.8449 13.5021 12.42388 11.3324 7.6673 3.931 1.4603 0.7599 0.383975 0.4314667 0.2924 0.6814 0.85855 0.7383 1.3134 1.1689 0.498 0.1159 0.1304833 0.0643 0.2672 0.9823 1.8404 1.914717 1.5881 0.832 0.3594 0.1236 0.0394 0.03675 0.0128 0.0045 0.0015 0.0005 0.00064 0.0001 0.0002666667 0.0001 0.0001444444 0.0001 0.0001 0.0001015625 0.0001 0.000100823 0.0001 0.0001015625 0.0001008179 0.0001 0.0001000061 0.0001 0.0001 0.0001001953 0.000100098 0.0001 0.0001000977 0.0001000488 
0.0001 0.0001000001 0.0001 0.0001000002 0.0001 0.0001000488 0.0001000971 0.0001002865 0.0001007409 0.000101962 0.0001692777 0.0003 0.0002999023 0.0002998064 0.0002994378 0.0002986229 0.0002967472 0.0002473538 0.0002001953 0.0002 0.0002 0.0001510425 0.000103125 0.0001 0.0002007316 0.0003 0.0002514403 0.0002 0.0002 0.00015693 0.00011875 0.0001 0.0001111111 0.0001 0.0045 0.00515 0.0018 0.0669 0.2197833 0.2471 0.5058 0.9039 1.1323 1.1557 0.8257 0.4061 0.6259 1.3913 2.7493 3.900433 4.325 5.8654 7.2101 8.3468 9.2617 9.4278 10.6845 11.6145 11.1037 10.44063 9.3674 7.4662 4.9593 2.4779 0.7713 0.57878 0.2327 0.1931 0.2624 0.2339 0.489175 0.3031 0.5598 0.4895 0.1952 0.0361 0.0409 0.0158 0.0889 0.4246 0.8806 0.9473 0.7151 0.3404 0.1356 0.0437 0.03955 0.0128 0.0037 0.0012 0.0004 0.0001 0.0002333333 0.0001 0.0001 0.0001555556 0.0001 0.0001148148 0.0001 0.0001 0.0001003906 0.0001 0.0001002744 0.0001 0.0001007813 0.0001003998 0.0001 0.0001000015 0.0001 0.0001 0.0001000977 0.0001000489 0.0001 0.0001000488 
0.0001 0.0001 0.0001000001 0.0001 0.0001000244 0.0001000486 0.0001001441 0.0001003748 0.0001009964 0.0001679952 0.0003 0.0002999512 0.0002999029 0.0002997155 0.000299289 0.0002982693 0.0002485643 0.0002000977 0.0002 0.0002 0.000150521 0.0001015625 0.0001 0.0002002439 0.0003 0.0002504801 0.0002 0.0002 0.000153261 0.000109375 0.0001 0.0001037037 0.0001 0.001804167 0.002133333 0.00105 0.021125 0.0155 0.1021 0.0789 0.1805 0.3444 0.4978 0.5182167 0.3389 0.1311 0.2208 0.5592 1.10135 1.2345 2.1104 3.0178 3.84 4.5933 5.44605 5.4369 6.7348 10.1831 6.9979 6.704 5.8278 4.3188 3.1116 1.3723 0.3479 0.2662 0.0817 0.0679 0.1057 0.11165 0.1804 0.298075 0.2204 0.1925 0.0677 0.0554 0.01 0.0033 0.025 0.1628 0.3745 0.41655 0.2851 0.1261 0.0463 0.014 0.01323333 0.0038 0.001 0.0003 0.0001 0.0002 0.0001 0.0001333333 0.0001 0.0001 0.0001185185 0.0001 0.0001049383 0.0001 0.0001 0.0001000977 0.0001 0.0001000914 0.0001 0.0001003906 0.0001001976 0.0001 0.0001000004 0.0001 0.0001 0.0001000488 0.0001000244 0.0001 
0.0001 0.0001 0.0001 0.0001000122 0.0001000244 0.0001000724 0.0001001892 0.0001005051 0.0001673416 0.0003 0.0002999756 0.0002999514 0.0002998565 0.0002996358 0.0002990913 0.0002492343 0.0002000488 0.0002 0.0002 0.0001502605 0.0001007813 0.0001 0.0002000813 0.0003 0.00025016 0.0002 0.0002 0.0001515897 0.0001046875 0.0001 0.0001012346 0.0001 0.0007746528 0.0009277778 0.0004833333 0.0002 0.0003 0.004775 0.029825 0.06808 0.0561 0.1161 0.1895 0.2093167 0.1251 0.037 0.0677 0.1945 0.4480167 0.4793 0.892 1.3454 1.7699 2.1858 2.822633 2.6857 3.271 2.5912 3.8769 3.846217 3.0503 2.5014 1.7174 0.6625 0.1384 0.10815 0.0252 0.0185 0.0314 0.0756 0.0602 0.109 0.1161833 0.1070167 0.0209 0.025275 0.0025 0.0006 0.006 0.0547 0.1419 0.1641 0.1021 0.0423 0.0144 0.0043 0.00405 0.0008 0.0002 0.0001 0.0001666667 0.0001 0.0001333333 0.0001 0.0001083333 0.0001 0.0001 0.0001061728 0.0001 0.0001016461 0.0001 0.0001 0.0001000244 0.0001 0.0001000305 0.0001 0.0001001953 0.0001000982 0.0001 0.0001000001 0.0001 0.0001 0.0001000244 0.0001000122 
0.0001 0.0001 0.0001000061 0.0001000122 0.0001000363 0.0001000953 0.0001002556 0.000167009 0.0003 0.0002999878 0.0002999757 0.0002999278 0.0002998146 0.0002995279 0.0002495972 0.0002000244 0.0002 0.0002 0.0001501302 0.0001003906 0.0001 0.0002000271 0.0003 0.0002500534 0.0002 0.0002 0.0001507867 0.0001023438 0.0001 0.0001004115 0.0001 0.0003739873 0.0004444444 0.0002666667 0.0001666667 0.0002 0.0001 0.00105 0.0032 0.0217 0.04153333 0.0348 0.0638 0.08618 0.0408 0.0092 0.0182 0.0589 0.15965 0.1617 0.3277 0.5204 0.7054 0.8968 1.2732 1.1373 1.3569 0.9178 1.7821 1.94435 1.5423 1.2906 0.8375 0.2849 0.2098167 0.0488 0.0069 0.0044 0.0083 0.0216 0.04266667 0.0346 0.0764 0.0642 0.027525 0.007425 0.000925 0.0001 0.0013 0.0164 0.04696667 0.0491 0.0319 0.0129 0.0041 0.0012 0.00136 0.0002 0.0001 0.0001333333 0.0001 0.0001222222 0.0001 0.0001111111 0.0001 0.0001020833 0.0001 0.0001 0.0001020576 0.0001 0.0001005487 0.0001 0.0001 0.0001000061 0.0001 0.0001000102 0.0001 0.0001000977 0.000100049 0.0001 0.0001 0.0001 0.0001 0.0001000122 
0.0001 0.0001000031 0.0001000061 0.0001000182 0.0001000479 0.0001001291 0.00016684 0.0003 0.0002999939 0.0002999878 0.0002999638 0.000299906 0.0002997568 0.0002497903 0.0002000122 0.0002 0.0002 0.0001500651 0.0001001953 0.0001 0.000200009 0.0003 0.0002500178 0.0002 0.0002 0.0001503917 0.0001011719 0.0001 0.0001001372 0.0001 0.0002146002 0.0002475309 0.0001768519 0.0001388889 0.00015 0.0001 0.0001 0.001 0.0006 0.0052 0.0153 0.02548 0.0318 0.0338 0.0117 0.002 0.0043 0.0157 0.05005 0.0478 0.1054 0.1756 0.2441 0.3894333 0.3182 0.4154 0.4896 0.2945 0.7119 0.8815 0.7026 0.5872 0.3632 0.109 0.08325 0.0153 0.0017 0.0009 0.0019 0.0055 0.01255 0.0097 0.0234 0.0192 0.0058 0.00195 0.0005 0.00044 0.00448 0.0044 0.0179 0.0153 0.009 0.0036 0.0011 0.0003 0.00045 0.0001333333 0.00015 0.0001 0.0001111111 0.0001 0.0001074074 0.0001 0.0001037037 0.0001 0.0001005208 0.0001 0.0001 0.0001006859 0.0001 0.0001001829 0.0001 0.0001 0.0001000015 0.0001 0.0001000034 0.0001 0.0001000488 0.0001000245 0.0001 0.0001 0.0001 0.0001 
0.0001000015 0.000100003 0.0001000091 0.0001000241 0.0001000651 0.0001667542 0.0003 0.000299997 0.0002999939 0.0002999818 0.0002999525 0.0002998755 0.0002498918 0.0002000061 0.0002 0.0002 0.0001500325 0.0001000977 0.0001 0.000200003 0.0003 0.0002500059 0.0002 0.0002 0.0001501955 0.0001005859 0.0001 0.0001000457 0.0001 0.0001494898 0.0001652263 0.0001368827 0.0001212963 0.000125 0.0001 0.0001 0.00033 0.00035 0.0001 0.001 0.0038 0.0097 0.009025 0.0189 0.006833334 0.003716667 0.0009 0.0037 0.01652 0.0125 0.0299 0.0522 0.0739 0.1301167 0.0982 0.1316 0.1508 0.0775 0.2713 0.3586833 0.2788 0.2368 0.1405 0.0372 0.02971667 0.0043 0.0004 0.0002 0.0004 0.001583333 0.0013 0.0026 0.0062 0.0052 0.0014 0.00162 0.0001 0.0002666667 0.0002 0.0019 0.006275 0.0043 0.0023 0.0009 0.0003 0.00038 0.0001 0.0001 0.0001166667 0.000125 0.0001 0.0001037037 0.0001 0.0001024691 0.0001 0.0001012346 0.0001 0.0001001302 0.0001 0.0001 0.0001002286 0.0001 0.000100061 0.0001 0.0001 0.0001000004 0.0001 0.0001000011 0.0001 0.0001000244 0.0001000122 0.0001 0.0001 0.0001 
0.0001000023 0.0001000046 0.0001000121 0.0001000328 0.0001667108 0.0003 0.0002999985 0.000299997 0.0002999909 0.0002999761 0.0002999366 0.0002499446 0.0002000031 0.0002 0.0002 0.0001500163 0.0001000488 0.0001 0.000200001 0.0003 0.000250002 0.0002 0.0002 0.0001500977 0.000100293 0.0001 0.0001000152 0.0001 0.0001220636 0.0001297325 0.0001181327 0.0001112654 0.0001125 0.0001 0.0001 0.000171 0.000225 0.0001 0.0004333333 0.0002 0.0008 0.0025 0.006316666 0.005 0.003 0.0004 0.001016667 0.0014 0.004975 0.0029 0.0075 0.0137 0.0197 0.03825 0.0266 0.0365 0.0415 0.0189 0.08138333 0.0902 0.0973 0.0849 0.0487 0.0114 0.009566667 0.0011 0.0001 0.00024 0.0001 0.00044 0.0003 0.0006 0.0015 0.0013 0.0003 0.000475 0.0001 0.00015 0.0005 0.0011 0.001675 0.002075 0.001566667 0.0002 0.0001 0.0001666667 0.0001 0.0001 0.0001 0.0001083333 0.0001125 0.0001 0.0001012346 0.0001 0.000100823 0.0001 0.0001004115 0.0001 0.0001000326 0.0001 0.0001 0.0001000762 0.0001 0.0001000203 0.0001 0.0001 0.0001000001 0.0001 0.0001000004 0.0001 0.0001000122 0.0001000061 0.0001 0.0001 
0.0001000034 0.0001000063 0.0001000165 0.0001666889 0.0003 0.0002999992 0.0002999985 0.0002999954 0.000299988 0.0002999679 0.0002499718 0.0002000015 0.0002 0.0002 0.0001500081 0.0001000244 0.0001 0.0002000003 0.0003 0.0002500007 0.0002 0.0002 0.0001500488 0.0001001465 0.0001 0.0001000051 0.0001 0.0001101271 0.0001139175 0.0001090321 0.0001058385 0.00010625 0.0001 0.0001 0.0001267 0.0001625 0.0001 0.0002444444 0.0002 0.0003666667 0.0001 0.0006 0.001616667 0.0012 0.0007 0.0001 0.0002 0.0008 0.0011 0.00256 0.0017 0.0032 0.0047 0.009966667 0.0064 0.0089 0.0104 0.0041 0.02451667 0.0263 0.0301 0.0272 0.0152 0.0031 0.0028 0.0003 0.0004 0.0001 0.0001 0.0001666667 0.0001 0.0001 0.0003 0.0003 0.00042 0.0001 0.0001 0.0002571428 0.00065 0.0002 0.000675 0.0011 0.0006 0.00025 0.00015 0.0001 0.0001166667 0.0001 0.0001 0.0001 0.0001041667 0.00010625 0.0001 0.0001004115 0.0001 0.0001002744 0.0001 0.0001001372 0.0001 0.0001000081 0.0001 0.0001 0.0001000254 0.0001 0.0001000068 0.0001 0.0001 0.0001 0.0001 0.0001000001 0.0001 0.0001000061 0.0001000031 0.0001 
0.0001000049 0.0001000087 0.0001666779 0.0003 0.0002999996 0.0002999992 0.0002999977 0.000299994 0.0002999837 0.0002499857 0.0002000008 0.0002 0.0002 0.0001500041 0.0001000122 0.0001 0.0002000001 0.0003 0.0002500002 0.0002 0.0002 0.0001500244 0.0001000732 0.0001 0.0001000017 0.0001 0.000104764 0.0001066539 0.0001045275 0.0001029878 0.000103125 0.0001 0.0001 0.00011159 0.00013125 0.0001 0.0001814815 0.0002 0.0002222222 0.0001 0.0002666667 0.0001 0.00046 0.0003 0.0002 0.0003 0.0003666667 0.0003666667 0.0001 0.0006 0.0011 0.001933333 0.001 0.003375 0.0014 0.0019 0.0023 0.0011 0.006616666 0.0065 0.0083 0.0078 0.0043 0.004116667 0.0008 0.0001 0.0002 0.00018 0.0001166667 0.0001 0.0001 0.00015 0.0001 0.0001 0.0001666667 0.0001 0.0001 0.0002625 0.0002 0.0002 0.000425 0.0003 0.0001 0.00035 0.00019 0.000125 0.0001 0.0001041667 0.0001 0.0001 0.0001 0.0001020833 0.000103125 0.0001 0.0001001372 0.0001 0.0001000914 0.0001 0.0001000457 0.0001 0.000100002 0.0001 0.0001 0.0001000085 0.0001 0.0001000023 0.0001 0.0001 0.0001 0.0001 0.0001 0.0001 0.0001000031 0.0001000015 
0.0001000068 0.0001666729 0.0003 0.0002999998 0.0002999996 0.0002999989 0.000299997 0.0002999918 0.0002499928 0.0002000004 0.0002 0.0002 0.000150002 0.0001000061 0.0001 0.0002 0.0003 0.0002500001 0.0002 0.0002 0.0001500122 0.0001000366 0.0001 0.0001000006 0.0001 0.0001022849 0.0001032317 0.0001022752 0.0001015168 0.0001015625 0.0001 0.0001 0.000105443 0.000115625 0.0001 0.0001604938 0.0002 0.0001740741 0.0001 0.0001555556 0.0001 0.0001 0.0001666667 0.0001 0.0002 0.0002 0.0002666667 0.0001 0.0002666667 0.0001 0.0003 0.0007 0.0005 0.000725 0.00084 0.0004 0.0005 0.0002 0.00192 0.0015 0.0021 0.002 0.0011 0.00134 0.0002 0.0003666667 0.0001 0.00015 0.0001 0.0001 0.0001125 0.0001 0.0001 0.0001 0.0001 0.0001166667 0.0001 0.00015 0.0002 0.000225 0.0002 0.0001 0.0001666667 0.0001 0.000225 0.000148 0.0001125 0.0001 0.0001010417 0.0001 0.0001 0.0001 0.0001010417 0.0001015625 0.0001 0.0001000457 0.0001 0.0001000305 0.0001 0.0001000152 0.0001 0.0001000005 0.0001 0.0001 0.0001000028 0.0001 0.0001000008 0.0001 0.0001 0.0001 0.0001 0.0001 0.0001 0.0001000015 
0.0001888932 0.0003 0.0002999999 0.0002999998 0.0002999994 0.0002999985 0.0002999959 0.0002499963 0.0002000002 0.0002 0.0002 0.000150001 0.0001000031 0.0001 0.0002 0.0003 0.00025 0.0002 0.0002 0.0001500061 0.0001000183 0.0001 0.0001000002 0.0001 0.0001011993 0.0001016513 0.0001011439 0.000100766 0.0001007813 0.0001 0.0001 0.0001026511 0.0001078125 0.0001 0.0001534979 0.0002 0.0001580247 0.0001 0.0001185185 0.0001 0.0001 0.0001166667 0.0001 0.0001 0.0001 0.0001666667 0.00015 0.0001555556 0.0001 0.0001666667 0.0001 0.0001 0.0003333333 0.0002 0.0003 0.00028 0.00026 0.0002666667 0.000525 0.0003 0.0005 0.0005 0.0003 0.000425 0.0002 0.0002 0.0002222222 0.0001 0.0001125 0.000103125 0.0001 0.0001 0.0001 0.0001 0.0001 0.0001 0.0001166667 0.00015 0.000165 0.00015 0.0001 0.0001 0.0001 0.0001222222 0.0001 0.0001625 0.0001246 0.00010625 0.0001 0.0001002604 0.0001 0.0001 0.0001 0.0001005208 0.0001007813 0.0001 0.0001000152 0.0001 0.0001000102 0.0001 0.0001000051 0.0001 0.0001000001 0.0001 0.0001 0.0001000009 0.0001 0.0001000003 0.0001 0.0001 0.0001 0.0001 0.0001 0.0001 
0.0003 0.0003 0.0002999999 0.0002999997 0.0002999992 0.0002999979 0.0002624977 0.0002000001 0.0002 0.0002 0.0001625006 0.0001000015 0.0001 0.0002 0.0003 0.00025 0.0002 0.0002 0.0001625038 0.0001000092 0.0001 0.0001000001 0.0001 0.0001008185 0.0001012562 0.0001008611 0.0001005783 0.0001003906 0.0001 0.0001 0.0001016393 0.0001039062 0.0001 0.000151166 0.0002 0.0001526749 0.0001 0.0001061728 0.0001 0.0001 0.0001041667 0.0001 0.0001 0.0001 0.0001 0.0001 0.0001344444 0.0001 0.0001222222 0.0001 0.0001 0.0001 0.00015 0.00025 0.0002 0.0001 0.0001 0.0001 0.0002 0.0001 0.0001 0.0001 0.0001 0.0002 0.00025625 0.0002 0.0002 0.0001740741 0.0001 0.0001 0.0001 0.0001 0.0001 0.0001 0.0001 0.0001 0.0001 0.0001313333 0.000125 0.0001 0.0001 0.0001 0.0001 0.0001 0.0001074074 0.0001 0.00013125 0.000115525 0.000103125 0.0001 0.0001000651 0.0001 0.0001 0.0001 0.0001003255 0.0001003906 0.0001 0.0001000051 0.0001 0.0001000034 0.0001 0.0001000017 0.0001 0.0001 0.0001 0.0001 0.0001000003 0.0001 0.0001000001 0.0001 0.0001 0.0001 0.0001 0.0001 
