ncols         179
nrows         106
xllcorner     94.924151253825
yllcorner     29.770645981747
cellsize      0.00033019315129894
NODATA_value  -9999
0.0001 0.0001 0.0001 0.00015 0.0002375 0.0002 0.00045 0.0011 0.00155 0.005 0.01515 0.0315 0.08593334 0.16545 0.0003 0.0025 0.018 1.64055 0.1044 0.489 1.7256 4.4982 3.9505 3.1496 1.7425 8.58485 1.0167 15.4689 13.2408 10.8833 8.6523 5.7317 7.4245 3.0364 0.6104 4.15045 2.770033 1.4311 0.8714 0.7053889 0.178 0.9426302 0.5380296 0.1651963 0.01049907 0.001686111 0.0011875 0.0008 0.1081477 0.0960625 0.0056 0.2944207 0.1792168 0.03982315 0.0133875 0.0008 0.101502 0.09571975 0.08291235 0.09203889 0.09516749 0.0876428 0.07408766 0.06034372 0.04945792 0.04228822 0.03804588 0.03593135 0.03487451 0.03458437 0.0343 0.03457109 0.01928348 0.0001 0.0002436768 0.0001946023 0.0001311957 0.0001105918 0.0001032723 0.0001015625 0.0001 0.1915144 0.3829 0.1281219 0.0005551758 0.0002 0.1393283 0.2039473 0.2000824 0.1980075 0.1969605 0.1964675 0.1962474 0.1961584 0.1961199 0.19611 0.1961 0.1961241 0.07593166 0.003806795 0.003801544 0.003800708 0.0038 0.002364926 0.0007258289 0.000245652 0.0001267666 0.0001038164 0.0001005144 0.0001001251 0.0001000474 0.0001000181 0.0001000061 0.0001000031 0.0001 0.0001 0.0001 0.0001000053 0.0001000053 0.0001 2.97948 4.469085 4.469028 4.469014 4.469 1.74688 0.3858097 0.3858032 0.3858016 0.3858 0.1307758 0.002322994 0.00145264 0.0008672603 0.0005047683 0.0002984863 0.0001905887 0.0001386245 0.0001154955 0.0001059168 0.0001021841 0.0001007932 0.0001002872 0.0001001047 0.0001000381 0.0001000143 0.0001000048 0.0001000024 0.0001 0.00023334 0.000300003 0.0003000003 0.0003 0.0003 0.0003 0.0003 0.0004345023 0.000500851 0.0005003097 0.0005001134 0.0005000417 0.0005000152 0.0005000057 0.0005000019 0.000500001 0.0005 0.03690054 0.03881786 0.02410354 0.01433458 0.008181474 0.004502873 0.002414321 0.001287606 0.0007098385 0.0004283161 0.0002985265 0.000243524 0.0002264779 
0.0001 0.0001 0.0001 0.0001 0.0002 0.00045 0.0002 0.0007 0.0024 0.01395 0.0076 0.0227 0.0642 0.1709 0.4264 0.994 2.1515 3.1438 4.2883 7.6446 10.4181 11.6835 13.0591 14.2997 15.7019 9.821016 15.8783 12.9866 12.8545 12.201 11.1267 10.7578 10.14307 10.1721 8.5527 5.4479 1.9908 0.8714 1.066767 0.178 2.005671 1.121183 0.4656667 0.02723889 0.002683333 0.001575 0.0008 0.2396656 0.186525 0.0056 0.6604077 0.4189809 0.09269445 0.025975 0.0008 0.1980764 0.134866 0.07226543 0.08002778 0.09644382 0.09964506 0.08941358 0.07386975 0.05897963 0.04818179 0.04121235 0.03747052 0.03545478 0.03486875 0.0343 0.03484219 0.02317935 0.0001 0.0004128589 0.0002969117 0.0001649367 0.0001219584 0.000106692 0.000103125 0.0001 0.1915432 0.3829 0.1284773 0.0009103516 0.0002 0.1447993 0.2092895 0.2030244 0.1995282 0.1976946 0.1967999 0.196387 0.1962156 0.1961397 0.19612 0.1961 0.1961481 0.09998362 0.003815753 0.003803216 0.003801416 0.0038 0.003651314 0.001550531 0.0004578602 0.000169096 0.0001099999 0.000101204 0.0001002453 0.0001000938 0.0001000362 0.0001000122 0.0001000061 0.0001 0.0001 0.0001 0.0001000107 0.0001000107 0.0001 2.979593 4.469171 4.469057 4.469028 4.469 1.746893 0.3858195 0.3858064 0.3858032 0.3858 0.1316895 0.003403677 0.002210163 0.001355143 0.0007926153 0.0004540227 0.0002676668 0.0001737694 0.0001303299 0.0001117742 0.0001043824 0.0001015939 0.000100576 0.0001002096 0.0001000761 0.0001000286 0.0001000095 0.0001000048 0.0001 0.000233351 0.0003000081 0.0003000009 0.0003000001 0.0003 0.0003 0.0003 0.0004356827 0.0005017069 0.0005006195 0.0005002265 0.0005000833 0.0005000304 0.0005000114 0.0005000038 0.0005000019 0.0005 0.05311066 0.05729681 0.0366947 0.02246208 0.01315383 0.007387841 0.004002753 0.002118026 0.001122184 0.0006226089 0.000384723 0.0002776163 0.0002332403 0.0002197155 
0.0001 0.0001 0.0001 0.0001 0.0001 0.0003 0.0012 0.0038 0.0118 0.02255 0.034 0.0919 0.2314 0.5428 1.187 2.4366 4.7008 7.494333 7.5998 9.6045 10.8931 11.5523 11.8107 11.9528 14.71065 11.9983 12.5884 16.76 17.7645 18.2678 17.8825 16.6544 14.75558 14.506 12.7512 10.3194 7.3375 2.1509 0.178 4.5556 1.97145 1.317633 0.07446667 0.0049 0.00235 0.0008 0.5848125 0.36745 0.0056 1.430238 0.9796593 0.2261333 0.05115 0.0008 0.441826 0.2695315 0.08014815 0.05491852 0.08172963 0.1034352 0.1041667 0.09133333 0.07274074 0.05753519 0.04666296 0.04034722 0.03662685 0.0354375 0.0343 0.03538438 0.02347522 0.0001 0.0008064997 0.0005097508 0.0002351852 0.000145799 0.000113826 0.00010625 0.0001 0.1916295 0.3829 0.1291885 0.001620703 0.0002 0.1532837 0.2178073 0.2079062 0.2021549 0.199012 0.1974176 0.1966542 0.1963277 0.196179 0.19614 0.1961 0.1961962 0.1000255 0.003837609 0.003806817 0.003802832 0.0038 0.006431432 0.003404584 0.0009692408 0.0002777674 0.0001265725 0.0001029481 0.000100479 0.0001001851 0.0001000719 0.0001000243 0.0001000122 0.0001 0.0001 0.0001 0.0001000214 0.0001000214 0.0001 2.979817 4.46934 4.469114 4.469057 4.469 1.74692 0.3858392 0.3858129 0.3858064 0.3858 0.1328395 0.004835425 0.003283 0.002092607 0.001254881 0.0007179403 0.0004050241 0.0002391035 0.0001588728 0.0001233318 0.000108785 0.0001032057 0.0001011564 0.0001004196 0.0001001521 0.0001000571 0.0001000191 0.0001000095 0.0001 0.00023338 0.0003000216 0.0003000025 0.0003000002 0.0003 0.0003 0.0003 0.0004380622 0.0005034285 0.00050124 0.0005004522 0.0005001663 0.0005000607 0.0005000228 0.0005000076 0.0005000038 0.0005 0.07460506 0.08263814 0.05469942 0.03455287 0.02083181 0.01200155 0.006628126 0.003533845 0.001846286 0.0009739477 0.0005463167 0.0003475623 0.0002602898 0.0002249967 0.0002144343 
0.0001 0.0001 0.0001 0.0001 0.0002 0.00045 0.0002 0.0016 0.0117 0.1603667 0.0678 0.3003 1.3806 2.5743 5.4366 9.7222 9.727217 12.7988 13.4268 13.4146 13.6219 14.8918 16.4605 17.2164 18.01248 17.0948 16.5351 24.9571 23.166 21.4136 19.909 18.5834 18.72252 17.8598 17.2745 16.8151 16.0922 14.7604 9.7554 11.55372 3.7334 0.2095 0.01 0.0039 0.0008 1.60355 0.7293 0.0056 2.877875 2.261378 0.5761 0.1015 0.0008 0.9875984 0.6143333 0.1645722 0.02968889 0.04618333 0.08888333 0.1101222 0.1113 0.09107777 0.07162222 0.05552222 0.04546111 0.03900556 0.036575 0.0343 0.03646875 0.0241165 0.0001 0.001792666 0.0009526749 0.0003806584 0.0001959191 0.000128978 0.0001125 0.0001 0.1918886 0.3829 0.1306126 0.003041406 0.0002 0.1661012 0.2310326 0.2158011 0.2065883 0.2013294 0.198547 0.1971596 0.1965461 0.196257 0.1961801 0.1961 0.1962925 0.1001242 0.003892378 0.003814787 0.003805664 0.0038 0.01226649 0.007477265 0.00218197 0.0005545148 0.0001712372 0.0001075501 0.0001009303 0.0001003638 0.0001001428 0.0001000485 0.0001000244 0.0001 0.0001000001 0.0001 0.0001000427 0.0001000427 0.0001 2.980263 4.469678 4.469228 4.469114 4.469 1.746974 0.3858788 0.3858258 0.3858129 0.3858 0.1342085 0.006626369 0.004723003 0.003156904 0.001969094 0.001151824 0.0006437268 0.0003582706 0.0002130749 0.0001459651 0.0001175784 0.000106452 0.0001023247 0.0001008405 0.000100304 0.0001001141 0.0001000381 0.0001000191 0.0001 0.0002334559 0.0003000574 0.0003000068 0.0003000005 0.0003 0.0003 0.0003 0.0004428665 0.0005068974 0.0005024849 0.0005009033 0.000500332 0.0005001213 0.0005000457 0.0005000153 0.0005000076 0.0005 0.102051 0.116212 0.07965723 0.0520452 0.03239583 0.0192176 0.010882 0.005905061 0.003097321 0.001599153 0.0008423846 0.0004803051 0.0003162604 0.0002461215 0.0002184877 0.000210381 
0.02503333 0.0001 0.0001 0.00015 0.0002375 0.0002 0.1449667 0.1285 0.1959 0.8073834 0.641 2.0302 7.2044 9.2498 12.3163 13.7314 13.7159 14.9735 17.2029 19.0503 20.8701 22.4858 23.8192 24.3763 22.73093 25.4363 25.7153 26.2689 25.8093 24.9493 23.9565 23.62613 22.8804 21.8511 21.1593 20.9903 20.9442 21.3093 22.1903 22.9958 21.9115 19.1232 12.8796 7.7726 4.9548 1.453 0.0056 4.923967 5.056633 1.5253 0.2022 0.0008 2.145744 1.350883 0.4529667 0.03915 0.0016 0.04831666 0.08863334 0.1297 0.1120333 0.09216667 0.06903333 0.05366667 0.04386667 0.03885 0.0343 0.0386375 0.02559726 0.0001 0.004513461 0.001877984 0.0006792181 0.000300823 0.0001619341 0.000125 0.0001 0.1926658 0.3829 0.1334674 0.005882813 0.0002 0.1849844 0.2510087 0.2282116 0.2138775 0.2053142 0.2005731 0.1981009 0.1969671 0.1964109 0.1962602 0.1961 0.196485 0.1003628 0.004032773 0.003833032 0.003811328 0.0038 0.0240858 0.01617766 0.005002509 0.001251629 0.0002917731 0.0001201424 0.0001017962 0.0001007118 0.0001002828 0.0001000968 0.0001000488 0.0001 0.0001000002 0.0001 0.0001000855 0.0001000854 0.0001 2.981146 4.47035 4.469455 4.469228 4.469 1.747084 0.3859589 0.3858517 0.3858257 0.3858 0.1357645 0.00873256 0.006536907 0.004609639 0.003022462 0.00183861 0.00104621 0.0005706516 0.0003143193 0.0001898408 0.0001350646 0.0001129897 0.0001046808 0.0001016855 0.0001006078 0.0001002281 0.0001000762 0.0001000381 0.0001 0.0002336529 0.0003001518 0.0003000188 0.0003000016 0.0003000001 0.0003 0.0003 0.0004525789 0.0005139001 0.0005049868 0.0005018053 0.0005006623 0.0005002422 0.0005000913 0.0005000305 0.0005000153 0.0005 0.1356412 0.1589986 0.1130643 0.07657307 0.04933438 0.03022814 0.01762496 0.009799688 0.005221339 0.002694155 0.00137647 0.0007268352 0.0004238493 0.0002902308 0.000234701 0.0002134327 0.0002073293 
0.0331832 0.0749 0.0812125 0.150583 0.3651 0.3100183 0.25275 0.4331 0.96334 1.7065 2.2214 3.8434 6.0062 8.5087 11.5718 14.2798 14.83648 16.7897 18.9772 20.8735 22.0702 22.8549 23.6686 25.7011 25.96528 26.5607 26.6217 29.039 29.6334 29.3954 28.7871 28.20337 27.6404 25.9921 24.0288 25.0663 29.921 36.311 40.0618 28.90012 40.3224 38.391 35.4967 30.8391 22.8822 17.3364 12.87175 10.5948 4.1715 0.4036 0.0008 4.642275 2.6961 1.2438 0.11275 0.00235 0.00235 0.0001 0.1425 0.1233 0.1233 0.0895 0.0637 0.0539 0.0434 0.0343 0.042975 0.02935156 0.0001 0.01283656 0.003832099 0.001285185 0.0005166667 0.0002358025 0.00015 0.0001 0.1949975 0.3829 0.139204 0.01156562 0.0002 0.2122233 0.280383 0.2471314 0.2255116 0.2119918 0.2041292 0.1998215 0.1977686 0.1967125 0.1964203 0.1961 0.1968699 0.1009533 0.00439922 0.003876441 0.003822656 0.0038 0.04699323 0.03414172 0.01140824 0.002983014 0.0006162765 0.0001555967 0.0001034459 0.0001013847 0.000100558 0.0001001928 0.0001000977 0.0001 0.0001000006 0.0001 0.0001001709 0.0001001709 0.0001 2.982889 4.471685 4.46991 4.469457 4.469 1.747309 0.3861215 0.3859037 0.3858515 0.3858 0.1375223 0.01107712 0.00865858 0.006461977 0.004490165 0.002876777 0.001700445 0.0009386069 0.0004995776 0.0002737703 0.0001696099 0.0001261423 0.0001094417 0.0001033852 0.0001012156 0.0001004556 0.0001001523 0.0001000763 0.0001 0.0002341605 0.0003003991 0.0003000519 0.0003000045 0.0003000002 0.0003 0.0003 0.0004722269 0.0005280609 0.0005100279 0.0005036114 0.0005013213 0.0005004833 0.0005001824 0.000500061 0.0005000305 0.0005 0.1748406 0.2111819 0.1560425 0.1097715 0.07337882 0.04656892 0.02805538 0.01606012 0.008759393 0.004579552 0.002325071 0.001177843 0.0006264949 0.0003761676 0.0002688853 0.0002256395 0.0002095783 0.0002050802 
0.002133333 0.05559948 0.1497 0.1749 0.3638937 0.73 0.422175 0.0724 1.008833 2.4088 3.0805 4.0703 5.4687 7.5172 10.1363 13.075 14.3492 16.1695 18.5015 20.541 22.3488 23.7745 25.1844 25.76773 26.3007 27.4166 28.2869 32.3862 32.4769 33.0404 33.2086 32.27607 32.7472 31.7787 35.7395 36.2369 33.668 28.4986 28.96983 24.9803 23.9344 23.9344 24.3802 24.7029 25.7611 24.7625 19.71938 23.0782 20.579 16.9885 10.7009 5.6007 2.2667 0.2209 5.297575 0.0046 0.0001 1.481175 1.7342 0.1425 0.1041 1.10915 0.0749 0.0525 0.0343 0.05165 0.04003125 0.0001 0.04069253 0.008048148 0.002505556 0.0009425926 0.0004074074 0.0002 0.0001 0.2019926 0.3829 0.1507847 0.02293125 0.0002 0.2510031 0.3226108 0.2750794 0.2434587 0.2228561 0.2102199 0.2028994 0.1992682 0.1972969 0.1967406 0.1961 0.1976398 0.1024443 0.005368339 0.00398401 0.003845312 0.0038 0.08895455 0.06968517 0.02553322 0.007206779 0.001484715 0.0002575481 0.0001065666 0.0001026754 0.0001010957 0.000100383 0.0001001953 0.0001 0.0001000017 0.0001 0.0001003419 0.0001003418 0.0001 2.986313 4.474328 4.470816 4.469913 4.469 1.747775 0.3864532 0.3860084 0.3859029 0.3858 0.1396901 0.0136501 0.01094877 0.008632509 0.006394466 0.004358954 0.002717074 0.001554304 0.0008299562 0.0004315606 0.000237216 0.0001525344 0.0001190792 0.0001068132 0.0001024326 0.0001009098 0.0001003044 0.0001001526 0.0001 0.0002354576 0.0003010423 0.0003001421 0.000300013 0.0003000006 0.0003 0.0003 0.0005119594 0.0005567351 0.0005202132 0.0005072347 0.0005026359 0.0005009637 0.0005003643 0.0005001219 0.000500061 0.0005 0.2182464 0.2717322 0.2088838 0.1529297 0.106314 0.07007062 0.04375186 0.02588428 0.01453 0.007766072 0.003982105 0.00199048 0.001002627 0.0005404216 0.0003364365 0.0002516449 0.0002185745 0.000206699 0.0002034614 
0.0009 0.003366667 0.06843125 0.1497 0.2001 0.375775 0.73 0.4532 0.93895 0.979 3.0975 4.6091 5.9697 7.5321 9.2743 11.31695 11.7014 14.0798 16.9982 19.9007 22.4956 24.992 26.1806 26.82955 27.571 29.4868 31.4791 31.8151 33.2404 34.1952 34.59205 34.894 36.3791 40.6657 42.0866 33.8488 27.6274 23.4655 25.73885 20.5018 18.7621 18.4374 18.7219 19.3827 20.0768 20.8815 20.23152 21.6629 22.5971 22.9304 22.073 20.1771 17.3827 10.13177 13.6401 7.3247 3.8642 1.6741 0.3863 4.7339 2.6896 1.98195 1.568 0.6579 0.069 0.074075 0.0001 0.1402313 0.01745 0.004988889 0.001705556 0.0008222222 0.0003 0.0001 0.2229778 0.3829 0.1743762 0.0456625 0.0002 0.3060622 0.3825171 0.3152331 0.2700823 0.2399228 0.2203709 0.2082747 0.202014 0.1984094 0.1973812 0.1961 0.1991797 0.1062673 0.007952986 0.004261406 0.003890625 0.0038 0.1602413 0.1362425 0.05553439 0.01727862 0.00378663 0.0005550826 0.0001124321 0.0001051297 0.000102138 0.0001007584 0.0001003906 0.0001 0.0001000051 0.0001 0.0001006842 0.0001006836 0.0001 2.992994 4.479537 4.47262 4.470826 4.469 1.748745 0.3871346 0.3862192 0.3860058 0.3858 0.1429343 0.01675137 0.01327484 0.01092409 0.008647375 0.006326067 0.004209957 0.002540838 0.001400426 0.0007216482 0.0003677945 0.000205239 0.0001386144 0.0001137497 0.0001048736 0.0001018163 0.000100608 0.0001003052 0.0001 0.000238741 0.0003027022 0.0003003874 0.0003000372 0.0003000017 0.0003 0.0003 0.0005921556 0.0006148262 0.0005408559 0.0005145232 0.0005052604 0.0005019203 0.000500727 0.0005002437 0.0005001221 0.0005 0.2637815 0.338163 0.2705413 0.2064923 0.1496177 0.1026792 0.06664508 0.04088761 0.02372291 0.01304232 0.006824782 0.003431109 0.001690424 0.0008499072 0.000467549 0.0003038085 0.000237952 0.0002131743 0.0002045973 0.0002023255 
0.0003 0.0015 0.0083 0.114225 0.1497 0.2505 0.3729 0.4402 0.4391 1.2812 4.6224 7.2941 8.7845 9.5583 11.0017 12.0433 12.713 15.2279 17.3712 19.2124 21.1803 23.4446 26.7763 25.99067 28.9643 29.8353 30.593 30.1538 33.2886 33.9699 37.1171 38.2442 46.8531 43.3576 39.295 35.8628 33.1552 30.3263 28.75613 26.6606 22.9496 19.9597 17.702 15.9218 15.4564 16.83763 15.4863 15.5177 14.9115 13.9653 14.1373 14.2264 13.8446 12.76178 13.4356 14.3092 12.6906 10.3958 7.7924 5.881 4.5815 3.9388 2.8736 1.426 0.1929 0.0001 0.511225 0.03925 0.01035 0.00275 0.001866667 0.0005 0.0001 0.2859333 0.3829 0.2232797 0.091125 0.0002 0.3844204 0.4674216 0.3722068 0.3079228 0.2655697 0.2367543 0.2174444 0.2069139 0.2004657 0.1986625 0.1961 0.2022594 0.116179 0.01487474 0.005002967 0.00398125 0.0038 0.2690372 0.2519287 0.1161994 0.04059938 0.009804398 0.00143209 0.0001234011 0.0001097565 0.0001041388 0.0001014939 0.0001007813 0.0001 0.0001000152 0.0001 0.0001013695 0.0001013672 0.0001 3.005918 4.489749 4.476209 4.472652 4.469 1.750789 0.388546 0.386646 0.3862117 0.3858 0.1487603 0.02143025 0.01574657 0.01307727 0.01100067 0.008694319 0.006247138 0.004036745 0.002345989 0.00123978 0.0006155082 0.0003096561 0.0001782191 0.0001278419 0.0001097823 0.0001036249 0.0001012136 0.0001006103 0.0001 0.0002469634 0.0003069498 0.0003010505 0.0003001063 0.0003000052 0.0003 0.0003 0.0007533821 0.0007324183 0.0005828221 0.0005292384 0.0005105072 0.000503824 0.0005014499 0.000500487 0.0005002441 0.0005 0.3096137 0.4067806 0.3382316 0.269477 0.2039153 0.1460846 0.0988533 0.06309962 0.03798231 0.02158089 0.01160553 0.005940556 0.002928262 0.00142451 0.0007185017 0.0004067103 0.000277435 0.00022728 0.0002091409 0.000203102 0.0002015489 
0.0001 0.0005 0.0039 0.0205 0.2828 0.1728 0.2417 0.32295 0.4043 1.3456 4.7839 9.3292 12.0215 13.1355 13.2737 12.59172 14.2957 15.0614 16.1831 17.9352 19.9111 21.5035 21.43248 22.4668 23.985 26.0876 28.3242 32.3564 32.1854 38.3855 36.96987 43.0138 40.5246 38.8893 38.2228 38.5557 38.5645 37.0806 34.08098 34.502 30.2818 24.9675 19.6848 16.4877 14.6909 16.6486 14.4339 13.4714 12.1831 10.8944 10.0177 9.4633 9.4198 10.92737 8.8479 8.2623 7.6899 7.1053 6.5066 6.9118 6.543733 6.2998 5.6203 4.891 4.0109 1.9663 0.0624 0.0161 1.69955 0.0046 0.0009 0.0001 0.4748 0.3829 0.3279687 0.18205 0.0002 0.4950927 0.5875352 0.4548537 0.3598759 0.3018907 0.2620018 0.2328167 0.2154444 0.2040722 0.201225 0.1961 0.2084188 0.142074 0.03341533 0.007046399 0.0041625 0.0038 0.4090914 0.4324233 0.2308341 0.09252881 0.02523534 0.004034002 0.0001438529 0.0001184156 0.0001079347 0.0001029192 0.0001015625 0.0001 0.0001000457 0.0001 0.0001027435 0.0001027344 0.0001 3.030626 4.509622 4.483323 4.476304 4.469 1.755141 0.3914999 0.3875148 0.3866234 0.3858 0.1599426 0.03011652 0.01918207 0.01499217 0.01306547 0.01117417 0.00876236 0.006146422 0.003832631 0.002131181 0.001074156 0.0005140039 0.0002583652 0.0001565992 0.000119693 0.0001072336 0.0001024202 0.0001012207 0.0001 0.0002673077 0.0003177134 0.0003028327 0.0003003034 0.0003000155 0.0003 0.0003 0.001075356 0.000969811 0.0006683617 0.000559082 0.0005210224 0.0005076107 0.0005028886 0.0005009728 0.0005004883 0.0005 0.3566035 0.4739604 0.4073909 0.3389905 0.2683134 0.201127 0.1423053 0.09482156 0.059433 0.03504431 0.01946961 0.01022874 0.005118228 0.002474697 0.001191861 0.0006069712 0.0003566733 0.0002564865 0.0002191453 0.0002062083 0.0002020691 0.0002010287 
0.0003 0.0015 0.03535 0.1036 0.1793143 0.4237 0.1952 0.2655167 0.2845 0.6236 2.7219 7.0879 9.8475 11.6769 12.3743 11.04113 11.8919 12.4841 13.7394 14.4517 15.0407 16.1285 17.35895 18.2752 20.325 21.8855 25.3459 23.8223 34.6189 34.1767 31.78935 34.0291 33.2448 35.0387 36.6428 37.5979 37.9379 37.60437 38.1105 37.8059 36.9906 34.9875 31.7501 27.0589 22.0428 24.69898 17.7813 15.7675 14.5768 12.2154 10.5929 10.2386 10.3387 10.02957 9.6776 9.0735 8.5671 8.062 7.5095 8.0384 7.566633 7.5499 7.1751 6.8014 6.4848 6.1656 5.7596 3.8199 2.456333 2.9576 1.974 1.0414 0.3829 0.564875 0.3639 0.0002 0.6499875 0.7479278 0.5822555 0.4324222 0.3498833 0.2973222 0.2584667 0.2302167 0.2097667 0.20635 0.1961 0.2207375 0.2101302 0.08290679 0.0128142 0.004525 0.0038 0.5373581 0.6685061 0.4267012 0.2020623 0.06373858 0.01178549 0.0001819444 0.0001345679 0.0001150463 0.0001056327 0.000103125 0.0001 0.0001001372 0.0001 0.0001055054 0.0001054688 0.0001 3.077149 4.547895 4.497362 4.483608 4.469 1.764509 0.3977554 0.3892976 0.3874467 0.3858 0.1808397 0.0473146 0.02581622 0.01721875 0.01451125 0.01324653 0.01143863 0.008837366 0.006011085 0.003590814 0.001895993 0.0009067356 0.000419738 0.000215538 0.0001398195 0.0001144401 0.0001048193 0.0001024414 0.0001 0.0003169539 0.0003446889 0.0003075878 0.0003008637 0.0003000466 0.0003 0.0003 0.001711916 0.001446525 0.0008429819 0.0006199262 0.0005421771 0.0005151429 0.0005057473 0.0005019418 0.0005009766 0.0005 0.4141615 0.5395181 0.4722346 0.4101285 0.3398095 0.2670336 0.198097 0.1382505 0.09056847 0.05564575 0.03208477 0.01740239 0.00892167 0.004362172 0.002070842 0.0009910766 0.0005136632 0.0003161736 0.0002401831 0.0002131028 0.0002041499 0.0002013723 0.0002006851 
0.01152667 0.028 0.05713333 0.1165 0.0943 0.1446 0.2033 0.19935 0.2641 0.3243 0.3984 0.5822 1.7971 4.0768 6.7774 6.629 7.7822 8.8674 9.0418 10.1007 11.0832 11.8832 15.67052 13.8965 17.4076 23.6197 27.8459 22.8713 21.1475 23.8171 20.4253 20.7057 23.5514 26.4796 29.7619 32.5892 35.5124 34.65028 38.4203 41.1309 43.5356 45.5175 46.6765 45.8158 42.6678 35.43507 36.5772 29.7312 22.9364 19.8875 16.9435 13.5748 13.97823 11.2406 10.6528 9.8069 9.3069 8.9332 8.5531 8.6755 9.02715 7.9244 7.4431 6.7839 6.2245 5.6787 5.1491 5.370133 4.62 3.3198 2.463 1.8147 1.1488 0.7276 0.0002 0.9049333 0.91215 0.7826667 0.5489666 0.4151333 0.3331667 0.30135 0.25745 0.2166 0.2166 0.1961 0.245375 0.3903431 0.2140778 0.02939259 0.00525 0.0038 0.555338 0.8814389 0.7088556 0.4152241 0.1560241 0.03493889 0.0002527778 0.0001648148 0.0001282407 0.0001106482 0.00010625 0.0001 0.0001004115 0.0001 0.000111084 0.0001109375 0.0001 3.163025 4.620601 4.524868 4.498217 4.469 1.784865 0.4111732 0.3929995 0.3890934 0.3858 0.2173674 0.08007263 0.04011895 0.02175221 0.0155775 0.01432652 0.01362971 0.01178335 0.008902825 0.005825925 0.003304504 0.001642014 0.0007414626 0.0003367306 0.0001810209 0.0001288625 0.0001095751 0.0001048828 0.0001 0.0004362004 0.000411443 0.0003201722 0.0003024513 0.0003001397 0.0003 0.0003 0.002952755 0.002395604 0.001199307 0.0007446639 0.0005849748 0.0005301399 0.0005114165 0.0005038724 0.0005019531 0.0005 0.5141663 0.6149656 0.5270143 0.4765744 0.4131151 0.3406961 0.2656174 0.1947874 0.1338864 0.08607767 0.05174139 0.02911821 0.01539472 0.007694242 0.003676045 0.001716228 0.0008202536 0.0004367483 0.0002839876 0.0002277848 0.0002087768 0.0002027468 0.0002009261 0.000200444 
0.0109 0.01693333 0.028 0.0269 0.0461 0.0729 0.1133333 0.1062 0.1428 0.1796 0.2202 0.2832 0.354 1.544 3.179683 4.3634 6.428 7.444 8.722 9.1834 10.5377 15.0999 15.10783 18.7398 21.3862 20.7903 17.1401 14.9829 15.7383 15.865 16.7959 17.0337 18.56 19.9759 21.7547 24.3966 27.3458 28.36805 30.5748 34.04 37.5993 41.4407 45.3833 47.2957 43.02934 47.4645 46.0768 42.6671 38.8014 33.7182 28.3437 23.3049 20.87627 15.1718 11.9113 10.2299 9.4392 9.1723 9.3122 10.37733 11.1389 10.8358 9.9448 9.2355 8.5417 7.8161 6.9445 7.8355 5.9277 4.9058 4.1472 3.4886 2.9369 2.0783 1.6167 4.27972 1.0979 0.7264 0.5237 0.3968 0.3249 0.2778 1.44225 0.2371 0.1961 0.29465 0.8747073 0.5578555 0.07767778 0.0067 0.0038 0.3512188 0.8812278 0.9851056 0.7779833 0.3634778 0.1042111 0.0003833333 0.0002222222 0.0001527778 0.0001194444 0.0001125 0.0001 0.0001012346 0.0001 0.0001224609 0.000121875 0.0001 3.31763 4.756201 4.578171 4.527433 4.469 1.829326 0.4403213 0.4008117 0.3923867 0.3858 0.2764513 0.1378291 0.06938924 0.03299953 0.01796806 0.01428903 0.01447542 0.01421513 0.0121986 0.008936321 0.00557356 0.002967894 0.001372058 0.000586089 0.0002662409 0.0001578622 0.0001189597 0.0001097656 0.0001 0.0007174076 0.0005742316 0.0003531626 0.0003069349 0.0003004191 0.0003 0.0003 0.005325908 0.004261105 0.001924006 0.0010017 0.0006722154 0.0005600766 0.0005226322 0.0005077109 0.0005039062 0.0005 0.743309 0.7451475 0.5677086 0.5320407 0.4812935 0.416389 0.3416626 0.2640366 0.191153 0.1291726 0.08133355 0.04772688 0.02616373 0.01346402 0.006556418 0.003062286 0.00140943 0.0006769671 0.0003743635 0.0002589145 0.000218685 0.000205755 0.0002018905 0.000200595 0.000200293 
0.003833333 0.0109 0.0119 0.0221 0.0384 0.0617 0.05616667 0.0913 0.1233 0.154 0.1819 0.2192 0.42 0.6902 1.4605 1.7747 3.8244 5.2718 7.4362 10.3887 14.8317 12.17738 16.1266 14.901 13.0867 11.584 15.503 9.9792 10.4518 11.64517 10.6312 12.4066 12.6862 13.3721 14.5091 16.1494 18.32492 18.0658 20.2892 22.8496 25.7075 28.9174 32.0374 35.6582 36.80033 39.274 42.6226 45.3722 45.8483 43.1432 38.7869 33.1045 30.2199 28.861 22.2847 18.0306 15.184 13.5094 11.1129 12.81432 13.4714 13.4752 13.2889 12.8423 12.4613 12.4142 12.2542 10.62978 12.1175 12.3752 12.3803 13.012 14.3229 12.3377 10.6253 7.628817 8.0585 7.0765 6.7797 6.3635 4.8106 3.4728 3.427083 1.7813 0.3932 2.21882 1.444333 0.2196333 0.0096 0.0038 0.001525 0.4665 0.93305 1.244133 0.7781333 0.3116833 0.0006166667 0.0003333333 0.0002 0.0001333333 0.000125 0.0001 0.0001037037 0.0001 0.0001460937 0.00014375 0.0001 3.587685 5.003089 4.679646 4.585865 4.469 1.926315 0.5043288 0.4176615 0.3989734 0.3858 0.3650559 0.2313202 0.123629 0.05853818 0.02600058 0.01445984 0.01344377 0.01496348 0.015019 0.0126629 0.008913889 0.005232176 0.002574614 0.001096892 0.0004446674 0.0002167074 0.0001373478 0.0001195313 0.0001 0.001366483 0.0009644643 0.0004386831 0.0003195473 0.0003012574 0.0003 0.0003 0.009753533 0.007863034 0.003387064 0.001533217 0.0008517366 0.0006201456 0.000544764 0.0005153202 0.0005078125 0.0005 1.309547 1.069745 0.593444 0.5722531 0.5374288 0.4864402 0.4200114 0.3427155 0.2622609 0.1871333 0.1240648 0.07631966 0.04361622 0.02324477 0.0116302 0.005517094 0.002521965 0.0011478 0.0005585265 0.0003245751 0.0002399889 0.0002121795 0.0002038865 0.000201199 0.0002005859 0.0002 
0.0003 0.0003 0.0006 0.001 0.0015 0.0021 0.039475 0.0028 0.0049 0.0084 0.0139 0.0233 0.0424 0.312 0.0954 0.2953 1.2689 4.605 7.3118 8.8404 9.1342 9.746683 7.3342 7.3633 7.3968 8.9253 8.8692 9.1997 8.1413 8.30335 8.1125 8.3364 9.0306 9.7659 10.5698 11.475 12.86238 12.5169 13.7348 15.1733 16.883 18.9249 21.287 24.0037 26.5709 27.1059 30.6245 34.4574 37.9977 40.3422 40.9287 40.8717 35.20107 40.0055 36.4296 30.0594 23.6996 16.1999 14.6313 17.23845 17.2192 14.197 13.3902 12.9682 12.1974 12.4308 12.9981 12.04442 13.5367 13.7304 13.6298 13.4388 12.1582 12.9871 11.21307 12.471 11.9035 10.6343 8.6979 7.1241 7.2507 7.0763 5.680433 7.7172 6.1872 3.6779 0.6397 0.0154 0.0038 0.0018 0.00025 0.00025 1.399 1.3999 0.9335 0.001 0.00055 0.0003 0.00015 0.00015 0.0001 0.0001111111 0.0001 0.000196875 0.0001875 0.0001 4.044104 5.439328 4.867209 4.702731 4.469 2.135422 0.6458018 0.4550378 0.4121469 0.3858 0.4895349 0.3707042 0.2141845 0.1090719 0.04763045 0.01891214 0.01145916 0.01300823 0.01586392 0.01601828 0.01317479 0.008795627 0.004771245 0.002129655 0.0008229424 0.0003380787 0.000172981 0.0001390625 0.0001 0.002827408 0.001881116 0.0006574074 0.0003548697 0.0003037723 0.0003 0.0003 0.0177578 0.01465302 0.006303311 0.002632773 0.001225109 0.0007417696 0.0005883316 0.0005303355 0.000515625 0.0005 2.625044 2.005897 0.6067453 0.5965936 0.576993 0.5431726 0.4921208 0.4240272 0.3438863 0.2602331 0.1826633 0.1185033 0.07102763 0.03942804 0.02039298 0.009913291 0.004584317 0.002053673 0.000927905 0.0004618209 0.0002858535 0.0002260507 0.0002080626 0.000202425 0.0002011719 0.0002 0.0001999023 
0.0003 0.0004 0.0006333333 0.001033333 0.001533333 0.0018 0.00245 0.00385 0.005366667 0.009066666 0.0152 0.02653333 0.03285 0.0689 0.19535 0.62152 0.3087 2.2337 2.3056 3.4871 4.3768 5.696883 6.6766 6.31 7.6815 9.1424 9.7485 5.4634 6.4647 6.0004 6.4829 7.039 7.5762 8.1028 8.6333 9.1858 9.876166 9.7814 10.4437 11.1991 12.0793 13.1228 14.3561 15.8183 18.13997 17.5653 19.6763 22.2126 25.1121 28.18 31.0961 32.8376 33.5734 34.7903 34.5673 34.0706 30.3465 28.3613 22.4619 21.52718 24.534 18.3403 12.3292 11.8949 11.7376 10.5595 10.85197 10.5721 10.7879 10.2177 9.9695 9.6806 9.2725 9.1582 9.64795 9.6991 10.4851 10.2227 9.7166 8.8144 7.2292 6.9269 7.7372 7.1081 7.2145 7.1339 6.7409 3.7796 0.0012 3.55942 0.0004 0.0001 3.35006 2.7979 0.0019 0.0007 0.0004 0.355675 0.0002 0.0001 0.0001333333 0.0001 0.0003125 0.000275 0.0001 4.794792 6.185359 5.196164 4.936462 4.469 2.573776 0.9580922 0.5408196 0.4384938 0.3858 0.6569548 0.5644455 0.3509393 0.1967278 0.09488632 0.03560175 0.01240329 0.008731378 0.0132428 0.01705051 0.01729846 0.01370586 0.008520062 0.004160957 0.001632716 0.0005952932 0.0002408179 0.000178125 0.0001 0.006019578 0.003982441 0.001207613 0.0004532922 0.0003113169 0.0003 0.0003 0.03166914 0.02705889 0.01200318 0.004896982 0.002009774 0.0009915638 0.0006739884 0.0005597565 0.00053125 0.0005 5.090219 4.797261 0.6121976 0.6082325 0.5998058 0.5817426 0.5494305 0.4983447 0.4285872 0.3451497 0.2579219 0.1776278 0.1124403 0.06544191 0.03520071 0.01764148 0.008336745 0.003761644 0.00165456 0.000744815 0.0003843397 0.0002563081 0.0002169127 0.0002049314 0.0002023438 0.0002 0.0001998047 0.0001998064 
0.00035 0.0004444444 0.0006888889 0.001066667 0.001455556 0.001927778 0.0027 0.003888889 0.006094445 0.009877778 0.01693333 0.06877083 0.1755917 0.4612 0.3443 0.48402 1.1393 0.3657 0.4078 1.3138 3.0187 3.31575 3.6408 5.2743 5.2282 5.9911 5.8032 4.8558 5.17805 5.1276 5.5947 6.1104 6.6052 7.0707 7.5119 7.9379 8.30475 8.36 8.791 9.2453 9.7391 10.2918 10.9318 11.98237 11.6987 12.6479 13.8561 15.4258 17.4843 20.1419 23.448 24.70947 27.1077 30.1042 28.6401 30.5676 32.5802 31.4986 28.8325 23.70958 21.4842 19.5936 19.8645 17.1074 14.1381 10.6501 10.9791 7.9012 6.5219 6.2473 6.6125 6.835 6.2715 6.5919 6.67345 6.9804 7.433 7.9414 8.5109 9.156 9.8653 7.266016 9.5114 8.0833 8.758 9.4504 10.0366 10.4587 10.8575 6.478416 6.9342 3.8781 2.9954 7.0788 6.6653 3.7272 3.848283 1.4043 0.0178 0.0002 0.0001 0.0006 0.00045 0.0001 6.026917 7.436584 5.715567 5.403925 4.469 3.443014 1.637618 0.7454713 0.4911875 0.3858 0.8787198 0.8235667 0.5397327 0.330037 0.1830481 0.07709815 0.02451265 0.005194445 0.007502778 0.01349691 0.0187287 0.01892593 0.01424074 0.007950926 0.003368519 0.001163426 0.0003662037 0.00025625 0.0001 0.01275691 0.008658436 0.002562963 0.0007259259 0.0003339506 0.0003 0.0003 0.05470421 0.04883854 0.02283381 0.009504321 0.003671399 0.001515226 0.0008426955 0.0006167695 0.0005625 0.0005 6.580775 13.1653 0.6143 0.6121828 0.6101101 0.6024047 0.5869025 0.5559208 0.5054684 0.4336448 0.3466485 0.2551558 0.1719614 0.1057663 0.05959314 0.03096632 0.01504267 0.006915455 0.003052109 0.00131737 0.0005942016 0.0003228738 0.0002359439 0.0002101066 0.0002046875 0.0002 0.0001996094 0.0001996145 0.0001994395 
0.0002981481 0.0003366667 0.0004166667 0.0005907408 0.0008157407 0.001141667 0.001667593 0.007475099 0.0284 0.0274 0.02706667 0.08543333 0.2005 0.2635667 0.4612 0.2274 0.2835 0.2273 0.375 0.4288 1.024117 0.4611 1.7205 3.7002 4.7641 4.8853 5.1855 5.0683 4.802834 4.5528 4.8066 5.2798 5.7743 6.2415 6.6778 6.895083 7.0872 7.4762 7.8521 8.2224 8.5938 8.9706 9.3515 9.867117 9.7378 10.1356 10.5641 11.0718 11.769 12.8884 14.9009 19.8944 18.1307 28.9553 19.7624 21.0601 22.0834 22.5691 24.51452 22.3437 22.6012 24.5037 22.7936 19.6467 17.1038 14.9317 11.3148 11.26 7.1748 4.8561 4.1471 3.7777 3.7169 4.406883 3.7586 3.8525 4.0195 4.2236 4.452 4.704 4.9744 6.182167 5.0889 5.3351 5.9179 6.988 7.7057 8.6307 9.7875 8.53155 11.2897 11.807 9.9344 7.9713 8.7548 9.14 6.55665 8.8171 7.3623 3.989 0.0014 0.0008 0.0001 8.136666 9.63205 6.33885 6.33885 4.469 4.986779 3.062239 1.254039 0.596575 0.3858 1.162966 1.176169 0.7899445 0.5045871 0.3246667 0.1608574 0.06362037 0.006816667 0.003100926 0.005665741 0.01374167 0.02108333 0.02136111 0.01433333 0.007027778 0.002491667 0.0005861111 0.0004125 0.0001 0.02642827 0.01868827 0.005811111 0.001475926 0.0004018518 0.0003 0.0003 0.09067775 0.08520802 0.04263107 0.01867654 0.007193827 0.002642593 0.001177778 0.0007253087 0.000625 0.0005 6.576526 13.1653 6.708998 2.354359 0.6143 0.6100656 0.6059647 0.5911836 0.5635592 0.5130196 0.4398262 0.3480886 0.2520307 0.1653481 0.09850542 0.05344534 0.02682867 0.01262497 0.005674383 0.002447017 0.001034928 0.0004701646 0.000277512 0.0002209448 0.000209375 0.0002 0.0001992187 0.000199234 0.0001988993 0.0001986407 
0.0001 0.0001 0.0001 0.0001 0.0001333333 0.0002111111 0.0004222222 0.0008555556 0.009964583 0.0284 0.0264 0.0264 0.08843333 0.2005 0.129 0.1826 0.2463 0.4204 0.4185 0.3541 0.4361 0.5682 0.6894 1.4364 2.6776 3.5968 4.7933 4.403567 4.5414 4.6711 4.1306 4.4375 4.9288 5.4106 5.8649 6.057083 6.2908 6.6922 7.0753 7.4472 7.8154 8.1896 8.5617 8.77425 8.9212 9.2479 9.5072 9.6423 9.5624 9.1261 11.15575 8.1057 27.6734 14.9643 16.1706 17.5482 19.0022 20.4726 20.07973 21.3706 15.645 16.0606 15.9167 14.6641 13.1749 12.0266 12.16017 11.1192 10.1394 8.0399 4.8184 3.2319 3.0634 3.174617 3.039 2.9606 3.0353 3.1776 3.3398 3.517 3.7135 3.931283 3.9395 4.2158 4.761 4.6136 5.1086 5.5295 5.9494 7.304584 6.371 6.8212 7.3373 6.7376 7.2213 7.7713 7.55225 8.48 9.5241 10.7957 25.0672 15.2164 13.3545 11.0554 8.168275 8.2087 4.469 7.09875 5.8104 2.568967 0.80735 0.3858 1.450404 1.662072 1.153589 0.7128444 0.5034 0.2975167 0.1730833 0.01197222 0.005805556 0.002672222 0.000825 0.0135 0.0269 0.02285 0.01433333 0.005816667 0.0009333334 0.000725 0.0001 0.05307049 0.03923704 0.01330556 0.003522222 0.0006055555 0.0003 0.0003 0.1430925 0.1423105 0.07700802 0.03630555 0.01457963 0.005144444 0.001857407 0.0009259259 0.00075 0.0005 6.563779 13.1653 6.972875 3.540523 3.157293 2.105319 0.6143 0.6058313 0.5977629 0.5699567 0.522958 0.4461441 0.3503765 0.2477451 0.1579704 0.09032881 0.04721708 0.02279012 0.01047881 0.004605967 0.001938374 0.0007967078 0.0003697017 0.0002440844 0.00021875 0.0002 0.0001984375 0.0001984832 0.0001978544 0.0001974085 0.0001968513 
0.0001 0.0001 0.0001 0.0001 0.0001 0.0002 0.0003333333 0.0007333333 0.0015 0.009225 0.0284 0.0244 0.0571 0.0404 0.063 0.0922 0.1269 0.167 0.2638 0.3969 0.3379 0.4075 0.3974 0.3963 0.7436 1.9696 3.565 3.30135 3.2679 4.0444 3.9997 3.5701 4.0211 4.511 4.9862 5.1764 5.4356 5.859 6.2601 6.6446 7.0179 7.4104 7.8206 7.963017 8.2527 8.7084 9.1887 9.6922 10.2108 10.7335 9.821533 11.1799 11.7433 12.3539 13.0389 13.8328 14.7099 17.0277 18.01348 16.6947 13.9547 13.9678 13.8654 13.5726 13.0619 12.9628 12.3121 11.3114 10.0751 8.7203 7.1858 4.1625 2.5619 3.68045 2.9079 2.4809 2.3764 2.4838 2.6233 2.7609 2.8835 3.066383 2.9879 3.1253 2.6181 3.2191 4.0308 4.499 4.548217 4.9936 5.4363 5.8616 6.2879 4.9668 5.2818 5.5125 9.61345 5.5926 6.2939 23.8966 5.1902 5.5692 5.9781 8.0241 6.4362 6.9728 7.7237 10.1101 6.0922 1.2289 0.3858 1.547633 2.16315 1.705033 1.118033 0.6377 0.3828 0.4897 0.02005 0.0095 0.006366667 0.00155 0.0001 0.07666 0.0269 0.0269 0.01475 0.00135 0.00135 0.0001 0.1035208 0.07901111 0.02965 0.00905 0.001216667 0.0003 0.0003 0.2136108 0.2254907 0.1329685 0.06847222 0.02958333 0.01086111 0.003294444 0.001277778 0.001 0.0005 6.525537 13.1653 7.256968 3.938176 3.531055 3.152338 2.788485 1.866152 0.6143 0.5973625 0.5816262 0.5308812 0.4563667 0.3511846 0.2435784 0.1484722 0.08186049 0.0406537 0.01913704 0.008579629 0.003719753 0.001518519 0.0005768518 0.0002947531 0.0002375 0.0002 0.000196875 0.0001970122 0.0001958612 0.000195137 0.0001942463 0.0001934278 
0.0001 0.0001 0.0001 0.0001 0.0001 0.0001 0.0003 0.0006 0.0013 0.0026 0.0046 0.0075 0.016 0.0127 0.0204 0.0308 0.0438 0.0516 0.089 0.1279 0.2208 0.1728 0.225 0.2911 0.4085 0.7489 1.9058 1.955767 1.7347 2.7898 3.1273 2.8585 3.041 3.5074 4.0008 4.185467 4.4801 4.9356 5.3669 5.7667 6.1385 6.5158 6.702883 6.9059 7.316 7.7452 8.1947 8.6711 9.1683 9.6538 9.9531 10.1302 10.5946 11.0435 11.4697 11.8707 12.2548 14.3803 15.92675 18.135 13.592 13.8386 13.9849 13.9788 13.794 13.42023 13.4073 12.7974 11.8795 10.7661 9.7878 8.7725 6.8121 5.04615 3.6984 2.5899 1.8656 1.8449 2.036 2.2769 2.522517 2.4661 2.4078 2.2943 2.5388 2.4416 2.3172 2.8146 3.297267 3.5032 3.869 4.2761 4.6235 3.627 4.0676 5.1898 4.5233 25.801 6.2911 4.1411 4.5167 4.9242 5.3792 5.547033 5.9412 6.5581 7.4966 9.5052 10.5392 8.1609 2.3271 4.68078 1.93 2.3963 0.7888 0.169 0.9553 0.0241 0.6164 0.016 0.003 0.0001 0.1096 0.1483333 0.09836667 0.0269 0.254225 0.0026 0.0001 0.20075 0.1511333 0.0621 0.0238 0.00305 0.0003 0.0003 0.3008875 0.3355667 0.2176889 0.1232167 0.058 0.0242 0.00655 0.001833333 0.0015 0.0005 6.410811 13.1653 7.571927 4.367759 3.922885 3.523883 3.146397 2.786733 2.432325 1.631249 0.6143 0.580425 0.5501537 0.4620648 0.3568815 0.2346074 0.1392463 0.07156296 0.03477222 0.01562593 0.007012963 0.0031 0.001046296 0.0004092593 0.000275 0.0002 0.00019375 0.0001941615 0.0001921339 0.0001910665 0.0001897474 0.0001886288 0.000187544 
0.0001 0.0001 0.0001 0.0001 0.0001 0.0001666667 0.0001 0.0002 0.0004 0.0007 0.0017 0.004 0.005816667 0.007 0.0109 0.0154 0.0205 0.0376 0.0517 0.07218333 0.0889 0.1308 0.1822 0.2406 0.3048 0.4069 0.6916 0.94645 0.5696 1.2383 2.1878 2.4127 2.0564 2.3621 2.548883 2.8501 3.36 3.861 4.3202 4.8295 5.218 5.5936 5.751033 5.971 6.3792 6.8109 7.2491 7.7283 8.2207 8.7507 8.965016 9.2705 9.7766 10.2716 10.736 11.1321 11.4018 12.11462 11.3327 17.9901 12.9846 13.4058 13.7523 13.9727 14.035 13.91033 13.9111 13.5897 12.868 11.7012 10.6138 9.3268 9.160183 7.8967 6.3999 4.7596 3.2807 2.494 2.4237 2.3541 2.229983 2.3936 2.4914 2.5868 2.2942 2.2067 2.1276 2.0489 2.321767 1.9243 2.3391 2.9092 3.2498 2.1203 2.6475 3.840333 9.1061 2.5299 2.9149 3.3429 3.7335 4.161 4.5683 4.7348 4.9792 5.445 6.0725 7.1343 9.5221 10.3818 8.73885 11.2702 7.4908 0.8561 0.3941 0.708 1.2734 1.231 1.287183 1.1945 2.5566 0.091 0.1768 0.1705 0.0977 0.42184 0.5171 0.4703 0.3913 0.2729 0.1387 0.0418 0.0058 0.30465 0.0003 0.40685 0.4575333 0.3388667 0.2103 0.1039 0.05545 0.01465 0.0025 0.0025 0.0005 6.066633 13.1653 7.931783 4.8494 4.341226 3.912652 3.514778 3.14422 2.780193 2.435787 2.080996 1.393911 0.6143 0.54655 0.4896111 0.3500333 0.231 0.1227889 0.06395 0.02795 0.01241667 0.006511111 0.002111111 0.0006777778 0.00035 0.0002 0.0001875 0.0001887346 0.0001853652 0.0001840535 0.0001823145 0.0001810018 0.000179757 0.0001786739 
0.0001 0.0001 0.0001 0.0001 0.0001166667 0.0001 0.0001333333 0.0001 0.0002 0.0004 0.0008 0.001483333 0.0014 0.0023 0.0042 0.0073 0.0146 0.0221 0.0318 0.05141667 0.0438 0.0747 0.1224 0.1925 0.25 0.3121 0.4011 0.4189833 0.3759 0.4969 0.7364 1.5292 1.7097 1.0957 1.92485 1.4772 1.9733 2.5887 2.8577 3.7364 4.1891 4.5971 4.755767 4.9228 5.3091 5.7807 6.1512 6.5771 7.1061 7.31475 7.6991 8.2858 8.8431 9.4248 10.042 10.6904 11.3669 11.1575 11.9512 12.493 12.1283 12.7141 13.2618 13.725 13.7516 14.0688 14.2458 14.1438 14.3844 13.327 12.6145 11.6606 10.79312 10.4924 9.1685 7.7715 6.3567 4.2641 2.539 2.2709 2.300967 1.6183 1.7325 1.9231 2.1538 2.059 1.9653 1.710617 1.8696 1.77 1.6707 1.538 1.8182 7.8273 1.4591 2.959067 1.2384 1.4898 1.8946 2.5325 2.9252 3.3442 3.438867 3.6101 3.9308 4.3395 4.9454 5.9733 8.1428 8.7876 9.027634 11.5055 12.8136 0.8129 0.4289 1.682 2.4671 2.6518 2.862683 2.6057 5.9603 0.1959 0.439 0.5385 0.5454 1.453917 0.9221 0.8938 0.8288 0.7423 0.667 0.6278 0.614 1.7663 0.5985 0.5568 0.4718 0.344 0.2008 0.0861 0.0248 1.07785 0.0045 0.0005 5.0341 13.1653 8.323921 5.418678 4.819233 4.310289 3.894156 3.533511 3.116667 2.782483 2.441428 2.08345 1.718111 1.159783 0.6143 0.4788 0.3757333 0.1955667 0.1217 0.0511 0.01905 0.0137 0.0045 0.001333333 0.0005 0.0002 0.000175 0.0001787037 0.0001736111 0.0001726338 0.0001707562 0.0001696245 0.0001685219 0.0001676358 0.0001668461 
0.0001 0.0001 0.0001 0.0001041667 0.0001 0.0001111111 0.0001 0.0001333333 0.0001 0.0001 0.0003 0.0008 0.0007 0.0017 0.004 0.0087 0.0148 0.0242 0.0374 0.0402 0.0549 0.0759 0.0981 0.1204 0.1835 0.2344 0.2492 0.2873 0.1884 0.365 0.8396 1.8495 2.2205 1.8777 2.997083 1.8863 1.8653 1.8474 2.3332 2.2701 2.8884 3.761583 3.6354 3.8147 3.9528 4.8254 5.0501 5.3165 5.7246 5.891733 6.3873 7.1136 7.6551 8.2031 8.7991 9.4365 10.1045 10.38547 10.7879 11.4715 10.9173 11.6524 12.3662 13.0428 13.16607 13.6653 14.1932 14.4791 14.4096 14.2711 13.8791 13.1889 12.95558 12.1933 10.9337 9.5326 8.1434 6.715 5.0996 4.456333 3.1234 2.0455 1.9197 1.8008 1.6522 1.4557 1.2424 1.726883 1.0099 0.7582 0.4947 0.2424 0.0492 3.1754 1.6774 1.6795 1.6259 1.5956 1.5223 1.3588 1.6997 2.3781 2.510283 2.5715 2.8167 3.1009 3.623 4.3366 5.0575 5.7597 7.758767 6.461 4.5498 1.9513 0.5379 1.4039 3.3927 4.6273 4.582083 4.8658 6.5985 15.866 0.4118 0.7676 0.8984 2.64525 5.7428 6.3352 6.8447 7.3361 6.885 6.0885 5.1074 4.012084 4.2718 3.6787 3.2919 2.9557 2.6623 2.4176 3.438083 2.22 2.0621 1.9365 13.1653 8.64275 5.994433 5.4932 4.7684 4.1961 3.966367 3.52 3.114167 2.715833 2.51745 2.091 1.6419 1.421433 0.9615 0.6143 0.3433 0.1696 0.0738 0.051825 0.0284 0.0097 0.003 0.0008 0.0002 0.00015 0.0001611111 0.0001546296 0.0001555556 0.0001542696 0.0001540638 0.0001536265 0.0001533836 0.0001531456 0.0001356483 
0.0001 0.0001 0.0001010417 0.0001 0.0001037037 0.0001 0.0001111111 0.0001 0.0001 0.0001666667 0.0002 0.0005 0.0012 0.00495 0.009083333 0.0133 0.0114 0.0189 0.03498333 0.0297 0.0436 0.0593 0.0746 0.0866 0.0962 0.1439 0.2644333 0.1164 1.3462 3.4461 6.5395 8.3839 7.781 5.4063 6.4263 5.2193 5.1366 4.0627 3.9522 3.8224 3.6825 3.928983 3.577 4.2387 4.9477 4.1316 4.3411 4.2641 3.944 5.584833 4.4893 5.8694 6.4072 6.8835 7.4241 8.0293 8.2976 8.6945 9.4078 10.156 9.3151 10.1578 10.9899 11.8216 11.95508 12.6729 13.4998 14.2347 14.7531 15.1742 15.387 15.3155 14.83658 14.8828 14.0111 12.7661 11.6264 9.9054 7.7395 7.775683 5.9656 5.2983 4.6357 4.4529 3.6273 2.7626 2.1322 2.576483 2.1419 2.1983 2.3139 2.5107 2.7547 2.3728 2.202933 2.0477 2.0285 2.0187 2.0209 2.0633 2.2571 1.4994 1.594433 1.6584 1.936 2.2056 2.8312 3.2552 3.3505 2.942 5.281433 11.0968 6.4613 8.4743 3.7396 1.4061 3.6695 3.801933 5.7315 7.0104 9.5538 23.0933 0.7541 3.1269 4.7813 3.000867 2.9815 3.4246 3.6305 3.9059 5.0955 6.6791 5.053184 5.8804 7.6004 8.3301 8.5086 8.2699 7.9489 7.8767 6.907483 8.0033 7.7346 7.7605 8.5075 6.9969 5.9013 5.0851 5.87255 4.4517 3.9405 3.5069 3.1126 2.723 2.3119 2.743225 1.8701 1.4137 0.9805 0.8375 0.4289 0.1937 0.0775 0.04328333 0.0276 0.0088 0.0025 0.0006 0.0001 0.0001333333 0.0001277778 0.0001333333 0.000133642 0.0001352881 0.0001360597 0.0001368999 0.0001375314 0.0001212104 0.0001006012 
0.0001 0.0001002604 0.0001 0.0001012346 0.0001 0.0001037037 0.0001 0.0001 0.0001222222 0.0001555556 0.0002416667 0.0008888889 0.0024 0.006366667 0.0134 0.0134 0.0238 0.0393 0.03706667 0.0604 0.086 0.1135 0.1394 0.162 0.1869 0.2446 0.2807833 0.56 0.4989 1.1094 3.0186 6.1514 7.7495 7.138134 6.3828 4.7453 4.6887 5.6236 5.4791 5.2728 5.0274 4.406183 4.7632 4.4583 3.4198 4.0819 4.4702 5.4775 6.6973 4.8184 6.2665 5.0709 5.1768 5.5331 5.9577 6.4623 6.712467 7.0585 7.7393 8.5007 7.2689 8.1317 8.956 9.79 9.94735 10.7379 11.7436 12.775 13.8009 14.7848 15.6803 15.13607 16.4417 16.9973 17.0658 15.98 15.8912 17.0505 12.9301 11.16563 11.7959 10.5104 9.5738 8.5138 7.6551 6.2724 5.0284 3.822417 3.9041 2.5961 2.5938 2.5763 2.5122 2.0586 2.4161 1.8857 1.7561 1.5912 1.3692 1.0456 0.5746 0.6483 1.083133 0.8109 1.2839 1.3586 2.167 2.6281 2.6647 2.728783 3.4379 1.9912 2.0592 3.5926 3.5465 1.4631 2.1923 3.215533 3.1983 4.0569 5.7623 12.3425 25.6515 1.356 2.2265 2.15495 1.3747 1.6579 1.792 1.8531 1.9209 1.9995 3.580017 4.5642 4.7146 5.4691 6.477 7.8087 9.1508 10.1199 6.608133 10.8074 9.738 8.3858 8.5659 8.2672 7.7785 7.0634 7.2423 6.7111 6.1943 5.6762 5.1251 4.5046 3.7918 2.942 2.9991 2.1845 1.4369 0.5592 0.2594 0.1071 0.08031667 0.0394 0.013 0.0038 0.001 0.0002 0.0001 0.0001 0.0001111111 0.000112963 0.0001166667 0.0001186214 0.0001205761 0.0001220679 0.0001139347 0.0001008117 0.0001003906 
0.0001000868 0.0001 0.0001004115 0.0001 0.0001012346 0.0001 0.0001 0.0001074074 0.0001259259 0.0001438889 0.0001 0.0001 0.0009333334 0.0024 0.0033 0.0071 0.0143 0.0269 0.03323333 0.0472 0.0767 0.1153 0.1601 0.2055 0.2462 0.2829 0.3158333 0.3369 0.4205 0.8713 2.2169 4.8102 7.1928 6.135716 7.2964 6.2312 5.1808 5.1521 5.0693 4.9416 4.7879 4.286567 4.5991 4.0166 4.6991 4.5446 4.5697 3.9074 4.264567 3.7371 3.7762 3.9167 4.0828 4.2813 4.5228 4.8206 5.050517 5.2096 5.74 6.4437 4.4898 5.524 6.2674 6.592417 6.937 7.7247 8.6544 9.7027 10.8505 12.0775 13.3429 12.66843 14.649 16.26 18.5581 14.3524 22.3042 14.2026 14.1177 12.54993 14.445 13.6966 11.3818 8.8299 6.8868 5.6344 12.16838 4.3863 5.3416 19.3285 4.8989 2.3609 2.216 4.3889 3.916433 1.7429 1.5794 1.4187 1.25 1.0873 0.9858 0.9676833 0.972 0.9098 0.6959 1.1406 1.232 2.0848 2.7328 1.981833 1.2448 0.6951 0.304 0.7806 0.6713 0.865 1.9582 2.512983 2.5434 2.9394 3.7478 7.5632 22.3893 0.2376 3.7377 0.847 0.7187 0.7645 0.7105 0.6777 0.9217 1.107 1.804867 1.2499 1.3574 1.4384 1.5013 1.5523 1.5971 4.032567 1.4596 1.3819 3.2121 5.4499 7.5409 8.6642 8.411 6.70105 7.9622 7.4762 6.9715 6.4008 5.7133 4.8681 3.8672 3.044583 2.8119 1.8421 1.0753 0.2969 0.1266 0.048 0.03856667 0.0162 0.0049 0.0013 0.0003 0.0001 0.0001333333 0.0001 0.0001 0.0001037037 0.0001055556 0.0001078189 0.0001095679 0.0001082704 0.0001016539 0.0001007813 0.0001 
0.0001 0.0001001372 0.0001 0.0001004115 0.0001 0.0001 0.0001024691 0.0001111111 0.0001154444 0.0001 0.0001 0.0001 0.0001 0.0003 0.0007 0.0017 0.004 0.0086 0.0173 0.017 0.031 0.0536 0.0858 0.1211 0.1674 0.1875167 0.201 0.2696 0.2639 0.3577 0.5721 1.2668 3.0668 4.405467 5.126 6.0976 4.7657 3.8039 3.7775 3.6838 4.194867 3.5264 3.0154 3.2929 3.099 2.8962 2.7111 2.9761 3.218 2.792 3.1243 3.2135 3.2959 3.3618 3.3982 3.3918 3.99855 3.3603 3.3278 3.6848 3.7614 3.4195 3.6801 4.03815 3.924 4.2758 4.7383 5.3562 6.1224 6.9765 7.7785 9.634933 8.1182 7.8546 23.8694 12.0336 11.8897 11.2883 11.55768 11.0789 10.932 10.8423 10.7718 10.6345 10.5152 10.3702 18.44112 41.3186 12.5769 9.3228 8.1946 7.8179 6.3097 5.32065 6.5528 6.8697 4.3245 1.8578 1.9235 2.4246 1.3065 1.29665 1.3189 1.3689 1.5474 1.9996 2.3566 1.3227 0.8968 1.3517 0.914 0.2202 0.1141 0.2712 0.958 1.4849 1.873 2.2766 2.9091 3.2994 3.8672 5.7852 12.5101 17.4582 6.849983 0.3009 0.3247 0.7932 1.1044 1.2484 1.1039 0.9974 1.10885 0.9112 0.8413 0.7846 0.7392 0.7038 0.707 1.175583 1.161 1.5251 1.4249 1.249 1.0528 1.6481 3.5195 4.280334 5.2928 6.6343 7.3683 6.9872 5.4621 4.0762 2.8907 2.256783 1.9068 1.1462 0.6184 0.1113 0.0444 0.0157 0.01496667 0.005 0.0014 0.0004 0.0001 0.0001666667 0.0001 0.0001111111 0.0001 0.0001 0.0001012346 0.0001022634 0.0001062459 0.0001033993 0.0001015625 0.0001 0.0001000914 
0.0001000457 0.0001 0.0001001372 0.0001 0.0001 0.000100823 0.0001045267 0.0001058049 0.0001 0.0001 0.0001 0.0001 0.0002 0.0003 0.0001 0.0002 0.0004 0.0024 0.0011 0.003 0.0073 0.0146 0.0278 0.0539 0.0832 0.1176333 0.1444 0.1996 0.1602 0.2236 0.3192 0.5241 1.151417 1.1463 2.6045 4.2041 5.661 5.1922 4.3026 4.3244 4.1548 3.9051 4.1797 4.0728 3.9316 3.7653 3.1433 3.0153 3.416667 2.8801 2.7475 2.9153 3.1179 3.3645 3.6537 3.550683 3.6299 3.5791 4.019 4.0723 2.3081 1.9625 1.65 3.526617 1.7704 1.9755 2.3019 2.7998 3.5464 4.682 6.3055 6.4584 7.4626 7.9759 8.7492 9.3959 10.1986 9.4356 9.445933 9.223 9.0666 9.1149 9.3295 9.3774 9.5814 39.1675 18.56078 9.7697 6.8641 7.1805 7.5477 8.0041 7.0915 5.823517 5.365 5.6764 6.2229 6.9302 4.5281 1.1136 1.5674 2.234333 1.6293 1.7791 2.1353 2.6736 1.6518 1.6991 1.2128 0.9714667 1.109 0.409 0.4881 0.8092 1.381 1.9888 2.312 2.6645 3.1961 3.471 3.8578 5.0165 8.0289 22.1355 10.72362 0.1207 0.2673 0.6106 0.9213 1.1316 1.2017 1.128317 1.206 1.1816 1.1486 1.1196 1.1034 1.1061 1.1268 1.048267 1.002 0.9006 0.7983 0.8424 0.7402 0.5448 0.3325 1.609633 0.164 0.0639 0.0193 0.4417 1.3697 1.6501 1.677083 1.2414 0.8227 0.4804 0.2466 0.0307 0.0114 0.0038 0.004366667 0.0011 0.0003 0.0001 0.0002 0.0001 0.0001222222 0.0001 0.0001037037 0.0001 0.0001 0.0001109491 0.000107073 0.000103125 0.0001 0.0001002744 0.0001 
0.0001 0.0001000457 0.0001 0.0001 0.0001002744 0.00010357 0.0001 0.0001007813 0.0001 0.0001 0.0001 0.00015 0.000175 0.0001 0.00015 0.0002 0.0001 0.00045 0.0002 0.0005 0.0015 0.0039 0.0086 0.0194 0.0404 0.05883333 0.0694 0.1095 0.0465 0.0846 0.1561 0.3007 0.52465 0.6038 1.4471 3.3216 5.5489 6.4709 6.1558 4.5611 5.2666 4.928 4.8541 4.6964 4.5089 4.3339 4.6285 4.493083 4.4849 4.3516 4.2222 4.0886 3.933 3.7509 3.5506 3.896417 3.6799 3.3458 3.0368 2.6791 4.7569 4.8432 4.9841 4.966633 5.1511 5.3263 5.5003 5.6709 5.8472 6.0354 5.946317 5.9022 6.0416 6.705 7.2474 7.8245 8.2027 8.0989 8.63545 7.5509 6.882 6.3943 6.744 6.5359 32.4713 5.8301 11.41 4.9086 4.9916 5.0752 5.1602 5.236 5.2872 5.095183 4.3349 4.32 4.3217 4.3968 4.6517 6.0575 4.5462 3.285483 3.0377 2.0867 2.56 1.8272 2.1117 1.9177 1.6383 1.2838 0.4124 0.4193 0.8362 1.2831 1.8482 2.4479 2.688617 3.0093 3.3595 3.539 3.7675 4.5243 6.2572 12.8702 12.06073 11.4562 0.1704 0.432 0.7069 0.9365 1.0864 1.125367 1.1745 1.2229 1.2495 1.2684 3.1225 0.8745 1.0925 1.1283 1.2003 1.2206 1.1536 0.8532 0.594 0.372 0.35995 0.2325 0.1165 0.0467 0.015 0.0039 0.0008 0.0006 0.61914 0.2035 0.2065 0.1386 0.0736 0.0021 0.0012 0.0034 0.0005 0.0001 0.0004 0.0002 0.0001 0.0001333333 0.0001 0.0001144444 0.0001 0.0001387539 0.0001322917 0.0001149691 0.00010625 0.0001 0.000100823 0.0001 0.0001004115 
0.0001000152 0.0001 0.0001 0.0001003674 0.0001042036 0.000111677 0.0001125 0.0001 0.000103125 0.0001 0.000125 0.00013125 0.0001 0.000125 0.0001375 0.0001 0.0001 0.00015 0.00035 0.000575 0.0001 0.0002 0.0006 0.0018 0.01125 0.0046 0.011 0.0237 0.021 0.0484 0.0955 0.1857 0.3466167 0.3873 0.9253 2.2244 4.922 7.7063 7.2883 7.0398 6.997833 6.8412 6.702 6.4971 6.3293 6.1442 5.9586 5.818433 5.7279 5.31 5.1176 4.9382 4.7718 4.6196 4.4833 4.8316 4.3811 4.7912 4.739 4.7244 7.1283 7.441 6.4542 7.8515 8.3927 9.1262 10.1261 8.2275 8.8732 7.3682 6.61725 5.2317 6.3393 7.3723 7.898 8.288 8.8946 8.9923 9.060017 8.512 7.5469 5.6347 6.8753 32.1792 4.3798 9.448017 4.3936 4.3905 4.3479 4.3067 4.2974 4.3146 4.3301 4.388067 4.1624 4.1328 4.0665 3.9969 3.9312 3.9284 4.368583 4.622 4.3103 3.381 1.8772 2.3163 2.4616 2.1756 2.351333 1.5408 0.8542 0.4343 1.0562 1.6391 2.2411 2.8024 2.948717 3.2188 3.39 3.5246 3.5855 4.0617 5.2608 7.5396 8.9733 16.8085 0.0938 0.2839 0.5276 0.7692 0.9677 1.05495 1.1159 1.2226 1.3013 5.234 0.9627 0.9874 1.131333 1.1144 1.2338 1.2796 1.2171 1.0101 0.7356 0.4616 0.3250167 0.2163 0.0853 0.0278 0.0074 0.0017 0.0004 0.0001 0.06806666 0.205 0.1828667 0.1395667 0.053925 0.01318333 0.0001 0.00056 0.00025 0.00025 0.0001 0.0004238095 0.0003133333 0.0001833333 0.00015 0.0001 0.0002121528 0.0001842593 0.0001324074 0.0001125 0.0001 0.0001024691 0.0001 0.0001012346 0.0001 
0.0001 0.0001 0.0001 0.0001 0.0001015625 0.0001123412 0.0001225309 0.000125 0.0001 0.0001125 0.0001287037 0.0001701389 0.0002494444 0.0003184524 0.0001 0.0001 0.0001166667 0.0002 0.00029375 0.0001 0.0001333333 0.0002166667 0.0001 0.0003 0.001733333 0.001 0.0031 0.0084 0.0244 0.0486 0.0939 0.1878 0.2626333 0.4144 1.0055 2.608 5.4472 7.6604 9.7191 8.8067 9.5956 9.0213 9.1544 9.2963 9.2089 7.4807 7.192 7.146683 6.9187 6.873 6.5952 6.4793 6.4097 6.3861 6.4102 6.178583 6.4845 6.6083 6.7228 6.8932 6.9407 6.8638 6.9044 6.7416 6.5418 6.2214 5.7926 7.8068 6.2881 6.7584 6.419283 8.4076 8.3133 8.3317 8.7258 9.2737 10.2415 10.18685 10.6924 10.5136 10.8316 4.3701 42.5777 5.196 4.8148 4.8163 4.7985 4.7575 4.5906 4.2605 4.1122 4.1073 4.1331 4.132167 4.0807 4.0435 4.0149 3.97 3.858 3.5904 3.871133 3.467 3.8175 4.2217 3.2664 3.0302 3.2748 3.4851 2.401683 3.705 1.1039 0.4334 1.1875 1.8724 2.4974 2.679533 2.9855 3.2284 3.334 3.3957 3.2829 3.6351 4.6123 6.070734 7.2638 19.5778 10.2332 0.1759 0.4161 0.6721 1.277783 0.9004 1.0848 1.2285 4.2823 1.9457 1.5628 1.3801 1.3819 1.3391 1.3517 1.3336 1.2268 1.009 0.7247 0.4441 0.3480167 0.2236 0.0918 0.0305 0.0081 0.0016 0.0003 0.00602 0.006966667 0.0092 0.006866666 0.004633334 0.005075 0.0014 0.0007 0.00254 0.0003 0.0001 0.0011 0.0007333333 0.0003333333 0.0002 0.0001 0.0003208333 0.0002555556 0.0001722222 0.000125 0.0001 0.0001074074 0.0001 0.0001037037 0.0001 0.0001028646 
0.0001002972 0.0001000152 0.0001 0.0001 0.0001 0.000103125 0.0001235503 0.0001425926 0.00015 0.0001 0.000125 0.0001611111 0.0002944444 0.0005666667 0.0009055556 0.001488889 0.0025 0.00395 0.004825 0.004630555 0.0001 0.0001 0.0002 0.0007 0.0007833333 0.002 0.0049 0.0114 0.0104 0.024 0.0528 0.4167667 0.118 0.2826 0.7311 1.8971 4.13 7.6482 9.621 9.602283 9.5764 8.6041 8.7702 8.4649 7.9567 8.9012 8.6542 8.279034 8.4287 8.2505 8.1947 8.1041 8.0695 8.0983 7.153117 8.1817 7.1307 7.0838 7.0391 6.9951 6.773586 6.3391 5.86175 6.1894 6.1783 6.7539 5.413 5.1139 5.0758 5.683084 4.9807 5.7691 6.8386 7.6858 8.1897 8.8354 10.6331 11.16775 11.6672 12.3495 51.4368 35.1665 14.5395 5.4189 5.278 4.879867 5.2331 5.2181 5.1044 4.7775 4.1517 4.0544 4.048333 4.0815 4.0052 3.9712 4.0568 4.2035 4.3242 3.8806 3.7855 3.7384 5.2382 5.2558 5.6382 5.1254 3.8001 3.641983 2.6953 0.8083 1.2305 0.4267 1.2568 1.9896 2.5893 2.72165 2.9615 3.0948 3.1788 3.123 2.9448 3.3032 4.1281 5.222017 6.1861 13.2261 46.4699 6.8735 3.7925 2.4683 2.017567 1.889 1.6633 4.3393 1.9109 2.0935 1.9566 1.7934 1.771733 1.677 1.5894 1.4785 1.2993 1.0421 0.7462 0.4734 0.4091667 0.2691 0.1434 0.077 0.0443 0.0275 0.0178 0.03804 0.0115 0.0093 0.0068 0.0045 0.0026 0.0118 0.0073 0.01336667 0.0043 0.0024 0.0013 0.0006 0.0003 0.0001 0.0005666667 0.00035 0.0002666667 0.00015 0.0001 0.0001222222 0.0001 0.0001111111 0.0001 0.000105816 0.0001027778 
0.000104039 0.0001011736 0.0001000457 0.0001 0.0001 0.0001 0.00010625 0.0001439089 0.0001777778 0.0002 0.0001 0.00015 0.0002333333 0.0005 0.0009666667 0.00125 0.00225 0.004 0.0056 0.0096 0.01225 0.01668 0.01156667 0.0002 0.03368333 0.0005 0.0016 0.0042 0.5051 0.7104 0.9259 1.255667 1.1222 1.2922 0.8357 1.0896 2.8534 5.8655 8.9006 9.839817 10.201 9.8034 9.4842 9.6431 9.6785 9.682 9.317467 9.3976 9.083 8.7546 8.4124 8.0334 7.6133 7.1594 7.5238 6.683 7.3042 7.1611 6.9863 6.7947 6.5885 5.40434 4.799 4.2376 3.6512 3.0569 4.9281 4.9928 5.3845 5.244467 5.611 4.3946 5.4248 6.3443 6.8211 7.7911 10.6856 17.49762 13.0867 52.691 27.0626 9.4557 5.0649 4.816 4.296883 4.6279 4.5269 4.5654 4.7264 4.7933 4.4874 4.0086 3.85945 3.9051 3.6657 3.6415 3.7481 4.0209 4.741 3.8538 3.760683 4.1828 3.7646 5.3688 6.0284 5.339 4.0238 3.075233 4.5728 1.3929 1.2355 0.4982 1.3112 2.0108 2.5241 2.63105 2.7721 2.8976 2.9203 2.7692 2.6893 3.0457 3.737 4.610067 5.4048 10.7805 4.8046 5.0886 4.225 3.3901 3.184283 2.7855 2.3949 3.4739 2.9789 2.7696 2.548 2.3221 2.223817 2.1187 1.9293 1.7225 1.4723 1.181 0.8828 0.7982833 0.6214 0.4234 0.29 0.2057 0.1524 0.1167 0.0906 0.1091 0.07 0.0516 0.0374 0.0265 0.0181 0.0602 0.06506667 0.0411 0.0265 0.016 0.0091 0.0048 0.0024 0.0011 0.0014 0.0005 0.0002 0.0001 0.0001666667 0.0001 0.0001333333 0.0001 0.0001177083 0.0001055556 0.0001 
0.0007421018 0.0001109282 0.0001034751 0.0001001372 0.0001 0.0001 0.0001 0.0001125 0.0001792667 0.0002333333 0.0003 0.0001 0.0002 0.0004 0.0009 0.0016 0.0036 0.0029 0.0051 0.0088 0.0149 0.0252 0.043 0.09092 0.0735 0.1252 0.2089 0.3345 1.5615 2.1558 2.6877 4.765867 2.6274 2.4131 1.4742 2.7748 4.401 6.882 8.55625 9.6071 11.1328 11.152 10.6062 11.0233 9.9922 9.7967 9.596133 9.4731 9.0996 8.7 8.2872 7.9728 7.7487 7.5891 8.212267 7.4313 7.2368 6.8116 6.3539 5.8632 5.3259 5.029867 3.9692 3.7384 3.6374 3.4931 2.6647 3.7188 4.6096 4.098967 5.8052 7.4724 6.3737 5.8531 5.5259 6.9115 12.0427 20.90555 46.8704 14.4233 3.5083 3.2956 3.1536 2.944 2.9088 2.6965 2.5011 2.4564 2.6501 3.0629 3.4728 3.5732 3.15605 3.5339 2.0945 2.2583 2.2434 2.3973 3.9948 3.80085 5.1096 1.7989 1.8526 1.9355 2.0281 2.1581 2.4475 2.584267 0.9119 1.5183 0.9802 0.8491 1.4263 1.9897 2.3723 2.4808 2.567 2.673 2.6229 2.5041 2.5349 2.844 3.146783 3.4136 4.7908 25.8396 11.0718 7.2376 5.7498 4.6812 4.1378 3.8916 3.3716 3.5832 3.4568 3.2873 3.0768 2.9443 2.8389 2.5928 2.3407 2.0711 1.7756 1.4643 1.1637 1.067333 0.9022 0.6956 0.5434 0.435 0.3573 0.2991 0.2524 0.23465 0.2123 0.1757 0.142 0.1113 0.0838 0.157 0.1559667 0.113 0.0764 0.0482 0.0284 0.0156 0.0079 0.0037 0.00385 0.0016 0.0007 0.0003 0.0001 0.0002 0.0001 0.0001541667 0.0001166667 0.0001 0.0001 
0.002 0.0007563054 0.0001292638 0.0001102881 0.0001004115 0.0001 0.0001 0.0001 0.000125 0.000238 0.0003 0.0005 0.0005 0.001 0.002 0.0037 0.0036 0.0063 0.0111 0.0195 0.0347 0.0635 0.1182 0.7085834 0.2197 0.3966 0.6771 1.0674 8.6844 9.5672 10.0804 8.912066 11.1516 8.8136 10.2867 9.6267 9.0114 9.3421 11.49272 10.7402 11.5076 10.8876 9.7465 9.6359 10.3621 9.8937 11.23923 9.3337 8.9235 8.5735 8.5116 8.8573 10.2603 12.5001 14.4635 7.9107 7.5003 6.9762 6.7233 5.9673 4.4534 6.596367 5.0432 2.1503 1.8402 0.9549 1.2878 1.0945 1.5043 3.443 1.6792 2.403 3.4722 3.8537 3.975 4.2557 10.97682 38.2398 4.5081 1.547 1.556 1.5235 1.4128 1.2646 1.534133 1.1038 0.9661 0.9082 0.9466 1.0847 1.4154 1.8939 2.0317 2.0216 0.7205 0.8145 0.7861 0.7131 4.2102 2.569883 0.8957 1.1475 1.1973 1.2367 1.2612 1.1671 2.1882 1.710267 1.3614 1.1637 1.0079 1.2204 1.596 1.9828 2.1234 2.2361 2.4132 2.4651 2.387 2.3404 2.4352 2.6903 3.288683 3.1501 10.5203 54.5709 16.02361 6.7857 6.0311 5.550734 5.3182 4.7602 4.2047 4.0563 3.9163 3.7544 3.5564 3.422717 3.3236 3.0658 2.7882 2.4904 2.1751 1.855 1.551 1.436383 1.2829 1.0618 0.8883 1.5268 0.3984 0.4124 0.5147 0.4032 0.3794 0.3451 0.3029 0.2554 0.2056 0.3223 0.3081667 0.2422 0.1713 0.1136 0.0704 0.0407 0.0219 0.02096667 0.011 0.0052 0.0023 0.0009 0.0004 0.0001 0.0002666667 0.00015 0.0001 0.0001 0.0001111111 
0.001992578 0.002 0.0007924826 0.0001773663 0.0001304527 0.0001012346 0.0001 0.0001 0.0001 0.00015 0.00034 0.0003 0.0004 0.0012 0.0036 0.01641667 0.0105 0.0294 0.0765 0.183 0.3985 0.7883 1.4159 2.34205 2.3812 3.6605 5.1733 6.8955 13.3598 15.0755 15.67058 15.5923 11.333 14.1844 14.9043 15.5043 16.4968 16.6552 14.98383 15.7297 15.3785 15.1275 14.6786 12.4143 13.5434 14.3326 14.39525 14.6056 14.713 15.6369 18.0899 21.5568 23.925 20.16673 23.1383 28.2115 27.6968 26.032 22.4401 17.7745 11.8068 8.163983 8.9797 5.3941 1.7176 2.9076 3.2612 3.4596 3.424683 3.4365 3.6232 3.2479 2.8001 2.4025 3.015 3.5513 8.024734 0.8599 0.7708 0.7745 0.7591 0.7177 0.6658 0.618 0.7838666 0.5779 0.5409 0.5414 0.5801 0.5223 0.4321 0.8975833 0.5439 0.6237 0.5672 0.4262 0.4509 0.4412 0.8068 1.311483 0.4022 0.428 0.4798 0.5935 0.8809 1.6408 1.756283 1.9877 1.3649 0.7396 1.1745 1.454 1.7373 1.9878 2.086383 2.1717 2.3086 2.2955 2.2371 2.2517 2.3656 2.5768 4.040633 5.0573 35.5046 8.0391 8.3414 6.3028 5.9037 5.700417 5.6204 5.1758 4.7393 4.4969 4.3256 4.1635 3.9791 3.843783 3.7615 3.512 3.2349 2.9345 2.6184 2.2999 2.151783 1.9961 1.7224 1.4883 1.2958 1.3907 1.0967 0.9185 0.85405 0.8026 0.7164 0.6413 0.5671 0.4889 0.4062 0.5688 0.52915 0.4457 0.3305 0.2309 0.1512 0.0926 0.053 0.04725 0.0283 0.0142 0.0066 0.0029 0.0012 0.0005 0.0002 0.00025 0.0001 0.0001333333 0.0001 
0.001985591 0.001985156 0.002 0.0008822759 0.0003012346 0.0001901235 0.0001037037 0.0001 0.0001 0.0001 0.0002 0.0006 0.002 0.0065 0.0203 0.03391667 0.0585 0.1542 0.3701 0.787 1.3978 2.4432 3.9833 4.451433 5.934 8.0165 9.9371 11.6961 21.7081 23.3611 21.37057 20.347 24.1968 24.4818 23.8365 22.6655 20.8526 18.9691 17.46398 18.4667 18.4006 17.1481 15.0291 15.4516 16.5148 15.08543 17.899 20.3069 22.9861 25.1974 26.6199 26.3208 25.4547 19.8316 25.722 24.9878 23.4311 20.8608 17.5902 13.7506 10.902 9.583817 7.7988 6.4699 6.1979 4.6856 5.2321 5.5926 4.150883 5.4606 4.6877 3.4402 2.1142 1.1355 0.7214 0.6215 1.162083 0.6202 0.6216 0.6281 0.6282 0.6096 0.5844 0.6342 0.5695 0.5694 0.5511 0.5295 0.6062 0.5614 0.5223 0.9739833 0.5779 0.6481 2.0747 0.9547 0.3941 0.5601 0.8025833 0.6356 0.9184 1.0379 1.0662 1.1077 1.3563 1.7451 1.641283 1.8088 1.2749 0.5709 1.2006 1.5613 1.8125 1.9876 2.078 2.1523 2.2301 2.1861 2.1401 2.2036 2.3177 2.415483 2.4957 8.2736 6.1939 7.2041 7.1894 5.798 5.7734 5.5962 5.5557 5.2943 5.0009 4.7834 4.621 4.4753 4.3159 4.18845 4.1262 3.9017 3.6447 3.3609 3.0592 2.7527 2.59665 2.456 2.1823 1.9405 1.7342 1.6473 1.5013 1.357 1.2832 1.2306 1.1203 1.0184 0.9165 0.8084 0.6917 1.004583 0.8796 0.7163 0.5553 0.4063 0.2795 0.18 0.1084 0.0762 0.0609 0.0319 0.0156 0.0071 0.003 0.0012 0.0005 0.0003166667 0.0002 0.0001 0.0001 
0.001960247 0.001971616 0.001970313 0.002 0.001097416 0.0006123457 0.0003666667 0.0001111111 0.0001 0.0001 0.0002 0.0006 0.0024 0.0085 0.0278 0.0548 0.0828 0.222 0.5305 1.0857 1.9311 3.0445 4.289633 5.0926 7.9016 11.2274 14.9857 18.7082 23.6698 23.4408 23.26072 30.4067 30.6849 28.7781 25.8447 22.5497 19.29 18.99818 17.6135 17.3497 17.6614 17.1133 15.3932 14.4065 14.2044 13.87395 14.0184 13.6805 13.9775 12.6961 11.3181 10.6643 10.4419 14.46822 10.3077 10.1123 9.8436 9.5511 9.2535 8.9816 9.730534 8.6218 9.3938 6.4386 6.7003 5.3629 3.9707 3.7223 3.476367 3.2337 2.5679 1.8924 1.366 12.1586 0.9427 0.7064667 0.6559 0.6637 0.6697 0.6966 0.7392 0.7422 0.7081 0.71315 0.6594 0.6381 0.6547 0.4698 0.5532 1.0004 1.8001 1.330817 1.9676 2.1876 0.4347 0.6785 0.7643 0.7766 1.159433 1.5952 1.2615 1.4669 1.4896 1.4045 1.2519 0.984 1.423617 1.6813 2.1048 1.1739 1.4259 1.6798 1.8633 2.0176 2.08805 2.151 2.1658 2.1082 2.0946 2.1773 2.287 4.245717 2.4501 22.5457 3.957 6.0174 6.1537 5.4584 5.3934 5.33035 5.3306 5.2188 5.0573 4.9087 4.7857 4.6732 4.5773 4.5496 4.3984 4.2119 3.9898 3.7371 3.4626 3.1782 3.02205 2.897 2.631 2.389 2.1758 2.0227 1.8843 1.755 1.69055 1.6355 1.5237 1.4143 1.3003 1.1749 1.0344 1.406917 2.4468 0.644 0.5575 0.4364 0.3143 0.21 0.1307 0.1185167 0.0759 0.0411 0.0208 0.0098 0.0043 0.0018 0.001366667 0.0007 0.0002 0.0001 0.0001 
0.001911874 0.001923969 0.001944534 0.001940625 0.002 0.001587196 0.001366667 0.0008888889 0.0001333333 0.0001 0.0002 0.0009 0.0035 0.0118 0.03188333 0.0366 0.1028 0.2627 0.6061 1.2053 2.213 4.2759 5.766233 6.8983 10.3887 14.6267 17.8017 20.9076 16.7281 20.55755 20.6931 21.3156 21.7573 21.3922 21.0422 20.6886 19.8258 20.33617 17.4381 14.6171 13.9687 14.8443 12.1483 11.294 10.4205 9.536034 10.1866 8.5668 7.4455 7.9625 7.8207 7.3768 7.246867 7.2578 7.6252 7.8678 7.7987 7.6226 7.4425 7.6201 8.45245 8.5071 4.5628 4.2008 4.0848 4.1633 3.2104 1.728 1.811667 1.121 0.7634 0.6121 1.0604 0.7089 0.5927 0.6727833 0.7046 0.7286 0.7126 0.7133 0.8288 0.9078 0.9208 1.014133 0.8367 0.6052 0.9933 1.6011 2.0423 2.0601 1.7788 1.6155 1.3382 0.8808 1.06 1.017 1.01 0.9087 1.543283 2.4804 1.5655 1.8048 1.822 1.7246 1.589 1.3114 1.482983 1.0111 1.945 1.6155 1.6834 1.812 1.942 2.030717 2.0677 2.1521 2.1355 2.0563 2.0843 2.1843 2.3559 5.017933 13.5679 5.7258 4.735 5.7584 5.6421 4.6481 4.956867 4.9137 5.0153 5.0295 4.9791 4.9075 4.8366 4.7661 4.697516 4.6837 4.576 4.4341 4.2557 4.0439 3.8061 3.5528 3.404133 3.2956 3.0455 2.8115 2.5993 2.4229 2.273 2.204117 2.1417 2.0235 1.9132 1.804 1.6878 1.5564 1.4035 1.67265 1.9855 1.5088 1.1197 0.7998 0.5437 0.35 0.2826667 0.213 0.1222 0.0659 0.0334 0.0158 0.007 0.0029 0.002166667 0.0011 0.0004 0.0001 0.000125 
0.001817653 0.001840038 0.00185706 0.001892978 0.00188125 0.002 0.002615451 0.0031 0.002433333 0.0002 0.0007 0.0026 0.0089 0.0277 0.2276 0.0789 0.2061 0.4885 1.0237 1.8796 3.4307 5.8828 9.2574 9.4033 13.6547 16.1541 17.7366 18.2619 19.5587 21.16768 19.2548 18.4367 19.2552 20.6454 22.208 24.6503 25.349 24.78162 22.5006 16.9762 11.1221 7.8948 9.8396 8.7206 8.547584 5.7035 2.6828 3.2791 4.4288 4.7094 4.6549 4.2015 5.07755 3.5389 4.379 5.4468 5.621 5.4578 4.6697 3.0146 7.001467 13.9695 3.2301 2.5361 1.9982 1.5668 1.195 1.649533 0.8453 0.2197 14.8195 0.2239 0.242 0.2683 0.4445 0.5869833 0.6963 0.7785 0.7262 0.4696 0.6495 0.8953 1.2293 1.319283 1.7305 2.0491 2.1785 2.3064 2.3608 2.1548 1.811217 1.6403 1.168 0.9269 1.4939 1.4545 1.5015 1.5806 1.421767 1.9182 1.7666 2.0844 2.132 2.0657 2.0097 2.04925 1.9708 1.9393 2.0545 1.3891 1.1702 1.7511 2.0582 1.981033 2.2355 2.3465 2.2799 2.1837 2.3536 2.8413 6.3129 6.57135 3.1338 5.3696 5.2766 9.0071 3.7855 4.6624 5.406816 4.6652 4.7551 4.8206 4.8395 4.8292 4.8069 4.7774 4.737333 4.7351 4.6698 4.5732 4.4412 4.2748 4.0795 3.948617 3.8637 3.6375 3.4109 3.1927 2.9893 2.8092 2.6531 2.578317 2.5176 2.3981 2.2887 2.1816 2.0676 1.9365 1.7795 1.520117 1.3862 1.3825 1.2111 0.9651 0.7094 0.4843 0.3776 0.308 0.1827 0.101 0.0521 0.025 0.0112 0.0047 0.003166667 0.0018 0.0007 0.0002 0.0001 
0.001667234 0.001688953 0.001718519 0.001737577 0.001797685 0.0017625 0.002 0.004472916 0.006733333 0.007 0.0169 0.0513 0.1444 0.3704 0.4795333 0.8402 1.6176 2.6057 4.1288 6.5213 9.1254 9.285283 13.0832 16.0009 16.74 17.5898 18.1668 17.3281 25.0175 24.02718 25.7539 25.0225 27.4446 30.2931 32.0954 31.6638 31.544 28.96843 32.0322 29.6281 24.7094 17.7379 14.0036 9.5859 11.56953 5.561 2.6633 1.869 1.5002 2.1259 3.092 3.7663 7.42425 4.324 3.4526 2.8806 3.6079 4.4702 5.3489 4.8451 5.489917 4.0524 2.8142 2.2863 1.958 1.7339 1.552 4.989217 1.3665 24.0959 0.9988 0.4577 0.4772 0.4977 0.5234 0.9520667 0.5604 0.8636 1.2831 1.8625 1.7771 1.6584 1.397317 1.575 1.6234 2.124 2.1564 2.1602 2.104 1.8283 2.605083 1.405 1.1034 1.3732 1.4928 1.6227 1.1132 0.9955167 0.8772 0.7655 4.2801 2.7095 2.317 2.0643 1.5435 2.521133 3.8711 2.3515 2.0812 1.2769 0.6338 0.9359 1.467 1.632767 2.1158 2.7533 3.3302 3.4929 3.214 3.0583 6.58085 12.1046 1.953 5.5669 14.2557 6.2249 5.1046 7.4888 6.975683 6.0627 5.0458 4.756 4.7188 4.7241 4.7326 4.73935 4.7353 4.7264 4.6981 4.6426 4.5547 4.4335 4.2823 4.173433 4.1073 3.9168 3.7195 3.5237 3.3361 3.1637 3.0098 2.93235 2.8747 2.7559 2.6484 2.5449 7.1397 0.6944 1.5038 1.0928 1.4732 1.3706 1.2143 1.0044 0.771 0.5486 0.4455333 0.3617 0.221 0.1251 0.0657 0.032 0.0145 0.0061 0.004033333 0.0024 0.0009 0.0003 0.0001 
0.001452919 0.001472711 0.001491281 0.001525 0.001533796 0.001630556 0.001525 0.002 0.006725 0.013 0.0291 0.084 0.222 0.5282 0.6229 1.0318 1.7591 3.0872 4.9125 6.9924 10.6992 11.09915 13.4904 15.8097 17.8429 19.981 20.9531 23.8087 26.7242 25.53595 27.854 33.5139 36.2667 36.3399 33.4355 30.9906 29.23027 30.9214 31.4634 29.7849 28.7354 26.9071 23.0536 20.139 20.49417 19.7072 20.0794 16.9713 13.7858 14.4477 16.5933 16.4422 13.49335 12.2726 10.1359 8.7259 7.3149 5.8257 3.3974 3.850033 3.7046 3.3533 2.5258 2.1567 2.0214 1.945 1.9687 10.35022 23.0078 1.7363 1.7333 2.0621 2.0982 1.606 1.396617 1.6987 1.7891 1.8929 1.9791 1.9667 1.8402 1.6282 1.361483 1.3977 1.2747 1.1863 1.1306 1.1077 1.1098 7.3526 2.45855 1.2495 2.147 1.5847 1.1542 0.8135 0.5625 0.7891833 0.3381 1.5701 6.7714 3.3688 2.6454 2.5512 2.5959 2.544883 3.1358 2.5535 2.9329 1.2713 0.2645 0.4783 0.7340667 0.7661 1.154 1.6541 2.1228 2.7071 3.2902 12.9459 5.75205 2.2221 2.3271 15.3374 3.5877 6.9242 8.0864 9.3713 8.467183 9.6037 8.5209 6.8952 5.5664 4.8608 4.704 5.116983 4.6799 4.6834 4.6813 4.6591 4.6096 4.5298 4.4209 4.33545 4.2869 4.134 3.9696 3.801 3.635 3.4777 3.3337 3.257867 3.2052 3.0914 2.9891 8.214 2.5998 1.9267 1.681233 1.5929 1.864 1.5942 1.3375 1.0771 0.8197 0.5838 0.49075 0.3868 0.2377 0.1353 0.0713 0.0348 0.0158 0.01096667 0.0066 0.0026 0.001 0.0003 0.0001 
0.001190904 0.001197094 0.001208333 0.001211265 0.001243519 0.001208333 0.001366667 0.00105 0.002 0.0049 0.0153 0.0442 0.1175 0.2009667 0.2817 0.6851 1.4473 2.708 4.6911 6.8561 8.8957 9.5615 11.301 13.7797 15.8612 16.1414 20.8942 24.6591 19.87148 22.4386 25.4275 25.3407 24.1576 22.6693 22.5138 24.2862 23.63108 25.9756 26.0165 26.6915 28.6363 31.3009 32.2611 33.0673 28.84902 34.9046 37.4135 40.2612 41.1664 39.1721 35.894 25.85983 24.6942 19.4608 12.7846 8.9794 7.1066 3.1247 3.3856 4.432416 2.4186 2.3381 2.2297 1.9313 2.1063 2.1398 11.80703 32.3446 1.8617 1.97 2.1508 2.0814 1.8015 2.1442 1.468867 1.9097 1.8947 1.8744 1.8357 1.6848 1.4177 1.1011 1.9451 0.8085 0.6879 0.6196 0.5641 0.503 0.4349 1.895567 0.3738 2.5421 3.4919 8.4024 1.1693 0.8807 0.7987 1.317267 1.0454 5.7785 5.9272 3.1008 2.8136 2.5205 2.373767 1.8904 2.2326 2.6484 4.3076 2.6093 0.6476 0.3048 0.3607333 0.4523 0.641 0.9115 1.2794 1.9517 13.0875 2.1811 4.543817 2.0003 14.5143 2.3525 2.929 5.3267 7.7189 7.540967 8.2457 10.0309 10.9341 10.7816 9.6945 8.0717 6.4964 6.858 5.3537 4.7915 4.6793 4.6495 4.6228 4.5767 4.5054 4.443883 4.4099 4.2941 4.1638 4.0253 3.8848 3.7481 3.670333 3.62 3.5038 3.4002 9.0127 3.1564 3.0096 2.5934 2.386583 2.1872 2.3781 1.9795 1.6028 1.2482 0.9241 0.8045833 0.6441 0.4195 0.2541 0.1427 0.0743 0.0359 0.0161 0.01148333 0.0067 0.0026 0.0009 0.0003 0.0001 
0.0009090964 0.0009029064 0.0008916667 0.0008887346 0.0008564815 0.0008916667 0.0007333333 0.00105 0.0001 0.0004 0.0013 0.0042 0.0129 0.07605 0.0435 0.1344 0.3779 0.9489 1.8834 3.683 5.5597 5.725017 7.423 9.0135 10.5442 14.0596 15.6904 18.1524 12.1307 3.4459 5.0703 6.5167 8.0322 10.0938 12.4325 14.2815 14.82582 15.3312 16.3414 18.5761 21.3952 24.4526 27.7012 26.65955 31.2813 33.9947 36.1886 38.7636 41.0183 39.6745 32.043 32.20218 29.4923 23.1389 18.6664 14.6179 9.4886 10.4095 7.9822 4.423033 5.7061 3.8941 2.0836 2.1353 1.9578 30.7461 11.77575 1.698 1.4966 1.3112 1.0964 0.9524 0.8602 0.7755 1.15725 0.6791 0.5457 0.4012 0.245 0.1055 0.0233 5.271934 6.5032 0.2319 0.1601 0.097 0.0468 0.0165 0.0036 1.047317 2.0987 3.8502 4.4695 13.3143 1.9936 2.0338 2.2515 2.068383 2.9074 4.4213 5.2327 3.0169 2.9236 2.6202 2.279133 2.0644 1.2819 2.2752 3.2979 6.1192 1.4276 0.0414 0.3516167 0.1215 0.2438 0.4197 0.7221 1.2416 21.3651 0.1761 4.818567 7.7374 2.0839 2.058 2.3178 3.6404 5.8243 5.988966 5.9992 8.3193 10.2104 11.3445 11.7533 11.5703 10.6695 9.354967 9.2445 7.6081 6.1551 5.1652 4.7189 4.6131 4.79525 4.5531 4.4871 4.4051 4.3081 4.2005 4.0877 3.9751 3.908217 3.8674 3.7684 8.1223 4.0671 3.8716 3.5939 3.221 2.9964 2.7983 2.9283 2.4481 1.9693 1.5133 1.1022 0.9920167 0.7536 0.4818 0.2865 0.158 0.0807 0.0383 0.0168 0.0121 0.0069 0.0026 0.0009 0.0003 0.0001 
0.0006470808 0.0006272891 0.0006087191 0.000575 0.0005662037 0.0004694444 0.000575 0.0001 0.00025 0.0006 0.001966667 0.00465 0.0002 0.014275 0.0005 0.0021 0.0077 0.0234 0.073 0.2075 2.46975 0.4288 0.7419 1.6191 2.9488 3.8237 4.1028 3.8852 4.301633 0.203 0.3756 0.6638 1.1175 1.7806 2.702 5.752267 3.9255 5.1549 6.8724 8.9305 11.2925 13.7859 16.3848 19.17327 19.2616 22.6885 26.761 31.242 35.2793 37.9965 38.3738 30.08293 32.7158 24.3101 18.5806 12.5395 11.0774 7.0541 6.385783 4.3817 2.664 1.8472 1.4126 1.6501 24.9797 1.763 6.577 1.963 2.0418 1.9125 1.4996 1.2871 1.0101 0.8087 0.79405 0.6263 0.5477 0.4119 0.246 0.0948 5.6857 10.39547 16.9006 0.4117 0.3038 0.2044 0.1291 0.0057 0.0008 2.026517 3.3721 4.6773 5.2259 18.5669 2.5113 2.5354 2.22465 2.6101 2.7972 4.8675 3.9576 2.9771 3.1139 2.6616 2.3927 1.9177 1.1594 1.6156 2.4293 7.5476 3.9857 1.1771 0.5720667 0.0126 0.0494 0.1269 0.3082 8.7881 3.9931 9.17565 15.9493 0.8672 1.0733 1.1995 1.4917 2.2632 3.8032 4.357267 4.3425 6.297 8.356 10.1559 11.4613 12.1663 11.67667 12.308 12.0577 11.3793 10.1641 8.5802 6.9965 5.6774 6.055067 4.8458 4.5795 4.4868 4.4119 4.3328 4.2481 4.1615 4.906317 4.0772 7.0666 4.4196 4.4354 4.3206 4.1098 3.878817 3.792 3.3865 3.4213 2.912 2.367 1.8276 1.6842 1.241233 0.8439 0.506 0.3122 0.1774 0.0913 0.0429 0.03095 0.0186 0.0075 0.0028 0.001 0.0003 0.0001 
0.0004327661 0.0004110468 0.0003814815 0.0003624228 0.0003023148 0.0003375 0.0001 0.000175 0.0003166667 0.0009388889 0.001854167 0.0002 0.0002 0.00035 0.0013 0.003433333 0.01106667 0.0347 0.076 0.09353333 0.15915 0.23428 0.0001 0.0002 0.0615 0.0252 0.0523 0.1051 0.7038333 0.0182 0.0359 0.0694 0.1311 0.2402 0.4271 1.317217 0.745 1.2919 2.2141 3.594 5.2714 7.0596 9.0197 10.85423 11.391 14.3589 17.847 21.4797 24.5928 26.3432 25.801 23.60857 22.0717 16.7602 11.8318 10.9985 7.9437 5.2875 3.618483 3.1997 2.1502 1.7129 0.8511 31.1263 1.0139 1.3837 1.264417 1.9082 2.5819 3.3478 2.346 2.3001 1.9801 2.35485 1.326 0.5487 0.5051 0.5578 0.52 0.374 13.4205 16.79527 19.8395 5.7747 1.3765 1.3693 1.3577 5.6769 3.4021 3.594567 3.2818 4.2042 14.3088 10.3948 2.3654 2.1198 2.259517 1.7973 4.4652 6.4329 3.0815 2.8266 3.2039 2.8591 2.6225 2.2332 1.909 2.0136 1.2631 5.8619 5.8084 3.610783 1.1841 0.8957 0.8016 0.7369 7.5512 5.6545 11.2617 6.0954 2.3086 1.9639 1.7092 1.568 1.6071 1.9442 2.8361 3.15005 3.3383 4.812 6.5588 8.3481 9.9595 11.2385 11.3619 12.1074 12.5174 12.5745 12.3052 11.7691 10.7312 9.172 8.37505 7.469 5.9722 4.9556 4.5532 4.4437 4.3747 5.243217 4.3123 9.0444 3.3693 3.9476 4.2672 4.4027 4.3721 4.229867 4.1841 3.8572 3.8086 3.3076 2.7304 2.1354 2.1 1.514283 0.9635 0.5293 0.3291 0.1933 0.1018 0.0482 0.03426667 0.0209 0.0083 0.0031 0.0011 0.0003 0.0001 
0.0002823467 0.0002599623 0.0002429398 0.0002070216 0.00021875 0.0001 0.0001375 0.0001972222 0.0004768519 0.0008274306 0.0002 0.0002 0.00025 0.0006166667 0.001694444 0.005266667 0.0164 0.02439333 0.0001 0.0001 0.00015 0.0002 0.0004 0.0008 0.0013 0.0022 0.0043 0.009 0.02738 0.0025 0.0027 0.0041 0.008 0.0162 0.0329 0.2158833 0.0708 0.1684 0.4158 0.9185 1.6581 2.5923 3.7777 5.360883 5.2906 7.1736 9.3065 11.3457 12.7996 13.1991 13.74927 12.2611 10.428 6.4536 5.645 3.351 1.8295 1.0669 1.802 0.721 0.5875 0.6038 0.1268 0.205 0.2585 0.58245 0.2919 0.2767 0.1828 7.6936 2.7957 3.5509 4.2436 2.236567 4.7606 4.9767 3.8215 2.6028 1.5819 4.2379 16.8874 23.84257 28.0379 5.5416 3.1404 2.9018 3.6585 7.3199 5.540367 5.3101 6.2005 7.3758 8.8375 5.5503 2.4787 2.2959 3.40405 2.1986 8.0928 4.3259 2.8811 2.8243 3.3879 3.33935 3.2337 2.8297 2.6681 2.7153 2.8771 4.9327 5.2137 3.749867 4.2957 0.0891 0.1381 0.1753 6.222 16.8558 1.4845 2.9757 1.5752 1.4629 1.3453 1.2903 1.3667 1.639 1.841533 2.2757 2.3045 3.4778 4.9293 6.5332 8.1295 9.5704 10.15658 10.7808 11.7068 12.3907 12.7863 12.8553 12.5757 11.75273 12.0262 11.0599 9.5037 7.7008 6.1234 5.0233 4.5547 6.518833 9.808 4.0157 3.8713 4.0001 4.2285 4.4189 4.4969 4.447433 4.4243 4.1907 4.0947 3.6124 3.0213 2.3929 2.3855 2.4456 1.0485 0.5288 0.3325 0.2014 0.1088 0.0523 0.03688333 0.0227 0.009 0.0033 0.0011 0.0004 0.0001 
0.0001881259 0.000176031 0.0001554655 0.000159375 0.0001 0.00011875 0.0001449074 0.0002705247 0.0004253761 0.0002 0.0002 0.0002166667 0.0003555556 0.0008537037 0.002525926 0.007787037 0.009252 0.0001 0.0001 0.0001 0.0001333333 0.00018 0.0001 0.0002 0.0004 0.0008 0.0014 0.003383333 0.0021 0.002742857 0.0051 0.0068 0.0082 0.0087 0.0088 0.02198333 0.0107 0.0223 0.0661 0.181 0.3951 0.7288 1.52755 1.1368 1.5495 1.9323 2.254 2.4564 2.5145 2.4892 6.504133 2.402 9.7574 1.1907 0.9527 0.7586 0.5639 0.3647 0.6427667 0.1722 0.0454 0.0761 0.1176 0.137 0.2171 0.8618 0.3296 0.4778 0.6613 0.8455 0.4118 0.505 0.5636 2.653567 0.5455 0.4375 0.2665 0.0908 44.748 18.9069 16.6491 30.8435 34.0266 5.0934 4.3206 4.7046 4.9112 5.969 7.159467 5.5642 5.9673 6.13 5.6052 3.6619 4.7358 7.255434 5.4577 6.555 8.0985 5.4544 3.6237 3.3081 3.5745 3.738917 3.777 3.7321 3.4685 3.4024 3.6584 4.78 4.9855 3.449067 1.0118 0.923 0.8167 0.7127 15.0794 10.063 6.5973 0.7642 0.46 0.4024 0.3767 0.4295 0.5978 0.9027 1.446517 1.4515 1.9521 2.785 3.8808 5.1804 6.5838 7.9831 8.7602 9.2593 10.3844 11.3421 12.1197 12.6849 12.9931 12.705 13.0182 12.7266 12.1254 11.1141 9.4548 7.5806 11.1075 7.557667 4.9558 4.5145 4.2888 4.2602 4.3645 4.5107 4.6107 4.608984 4.5965 4.4281 4.3082 3.8364 3.2386 2.5904 2.78075 2.6487 1.1102 0.5225 0.3325 0.2044 0.1117 0.0539 0.03745 0.0233 0.0092 0.0033 0.0011 0.0004 0.0001 
0.000139753 0.0001283843 0.0001296875 0.0001 0.000109375 0.0001212191 0.0001780607 0.0002602021 0.0002 0.0002 0.0002055556 0.0002574074 0.0004753087 0.001245062 0.003722222 0.003952993 0.0001 0.0001 0.0001 0.0001066667 0.0001 0.0001 0.0001 0.0002 0.0004 0.0007 0.0013 0.001416667 0.0022 0.0035 0.0011 0.0011 0.001 0.0011 0.004216667 0.0023 0.0064 0.0157 0.0403 0.0883 0.1899 0.3541 0.6483667 0.5756 0.8174 0.8799 0.8472 0.73 0.5411 0.2855 2.6369 8.3879 1.4474 1.4181 1.3829 1.3049 1.1615 1.205567 0.9456 0.5862 0.0888 0.1015 1.668 1.8163 1.9681 2.26655 2.1056 2.1207 2.226 2.311 1.7374 2.1524 2.81185 2.6566 3.1515 3.6631 4.266 8.7257 16.4103 14.26 17.03052 14.7589 1.7582 0.1378 0.1066 0.082 38.6528 9.7119 6.148533 9.0817 7.3177 6.3866 5.2168 4.5353 21.6604 8.715816 6.9041 4.5751 3.6558 2.4911 2.8911 3.8207 4.2041 4.26295 4.2563 4.355 4.236 3.8817 3.8042 3.9263 4.1298 2.58695 1.0579 0.9555 0.8927 8.3772 7.8056 8.7548 5.015917 1.6615 1.3732 1.1419 1.0012 0.9149 0.8992 1.0314 1.472367 1.3788 2.4939 3.0286 3.7654 4.6903 5.7592 6.5453 6.9097 8.0579 9.1843 10.224 11.1479 11.9406 12.5797 12.70103 13.0371 13.2709 13.2305 12.8309 12.0877 17.2374 8.2952 8.59685 6.6248 5.4547 4.7423 4.5697 4.5953 4.686 4.742217 4.765 4.7605 4.6173 4.5546 4.8681 4.6981 3.8343 3.060267 2.7726 1.0867 0.5305 0.3289 0.1973 0.1061 0.07646666 0.0507 0.0218 0.0086 0.0031 0.001 0.0003 0.0001 
0.0001144094 0.0001148438 0.0001 0.0001046875 0.000110198 0.0001362183 0.0001898705 0.0002 0.0002 0.0002018519 0.0002209877 0.0003127572 0.0006592593 0.001814198 0.001824055 0.0001 0.0001 0.0001 0.0001013333 0.0001 0.0001 0.0001 0.0001 0.0002 0.0003 0.0004 0.0006 0.0009 0.0009 0.001 0.0001 0.0001 0.0002 0.0009 0.002383333 0.0035 0.013 0.0403 0.0945 0.2062 0.3728 0.552 0.5778667 0.5429 0.5522 0.6646 0.7694 0.8801 1.0119 0.6326666 1.0751 1.1817 1.3342 1.5251 1.7345 1.9184 2.038 1.808817 2.1597 2.3091 2.4516 1.611 4.2861 4.4145 4.5328 3.602117 4.4461 4.6743 4.7695 4.8893 5.3716 5.4508 4.4856 5.5427 5.6387 5.8444 6.1265 12.5628 20.5627 15.4262 10.90533 7.9876 5.0335 5.9731 6.9712 8.6711 13.727 3.5022 5.693583 3.0622 1.8774 1.6754 1.462 0.9533 9.8204 8.602417 3.7165 3.5995 2.9864 2.7069 3.241 4.4782 4.8561 4.858183 4.9097 4.9776 4.648 4.0013 3.4893 2.7258 3.03435 2.747 1.5897 8.7831 0.0732 1.5071 4.5328 6.2223 4.020767 2.6297 2.3322 2.1218 1.9599 1.8543 1.8391 1.9302 1.978033 2.1396 3.1583 3.59 4.1386 4.8071 5.5834 6.137533 6.4526 7.3906 8.3831 9.3649 10.3026 11.1708 11.9492 12.27578 12.6289 13.1681 13.5062 13.5563 20.6094 13.0956 13.10677 11.3432 9.2546 7.4092 6.0025 5.125 4.8856 4.9173 4.97525 4.9636 4.9441 4.8039 6.4767 6.5292 5.7123 4.568183 4.1024 2.4132 1.1253 0.5695 0.3244 0.1805 0.0929 0.06708334 0.0435 0.0186 0.0073 0.0026 0.0009 0.0003 0.0001 
0.0001074219 0.0001 0.0001023438 0.0001049619 0.0001170346 0.0001590717 0.0002 0.0002 0.0002006173 0.0002076132 0.0002451989 0.000397668 0.000928738 0.0008995024 0.0001 0.0001 0.0001 0.0001002667 0.0001 0.0001 0.0001 0.0001 0.000125 0.0001 0.0001 0.0001 0.000325 0.0002 0.0002 0.0001 0.00025 0.0001 0.0003 0.0013 0.00415 0.0052 0.018 0.054 0.1385 0.2727 0.4354 0.5516 1.015917 0.891 1.013 0.9934 0.9346 0.8325 0.3942 1.109733 0.4882 0.6292 0.8313 1.1108 1.4936 1.998 2.2102 2.382783 2.3379 2.3819 3.3435 4.5559 3.9757 4.1037 4.876417 4.1683 4.3918 4.3752 4.3879 4.5334 5.7529 5.5701 6.073267 5.541 5.7155 6.2043 7.0181 13.187 13.6566 7.9297 7.769917 5.0696 5.0303 5.032 10.3971 12.525 9.4231 7.311316 4.7664 4.0371 3.8434 4.3062 5.0389 6.317 6.2782 5.056883 3.2349 3.0433 2.8535 3.0164 4.0861 5.0757 5.234583 5.3885 5.5344 5.4886 4.8657 4.0415 3.4154 2.469 3.924733 2.2082 8.544 1.7711 1.6173 1.6406 2.0063 2.5119 2.854333 2.3444 2.4543 2.1457 2.1663 2.2349 2.3733 2.3589 2.5635 2.8247 3.6718 4.1057 4.5896 5.1289 5.7278 6.0823 6.3925 7.1635 8.0037 8.8683 9.7318 10.5706 11.00975 11.3622 12.0976 12.7473 13.2887 16.7308 14.8604 14.7613 13.7442 13.9079 12.3991 10.282 8.1222 6.4554 5.4967 5.2362 5.930533 5.2834 5.9769 6.5203 8.5124 7.4924 5.5851 4.367733 3.4769 1.9174 1.0063 0.536 0.2884 0.1513 0.0749 0.05431667 0.0344 0.0145 0.0057 0.002 0.0007 0.0002 0.0001 
0.0001 0.0001011719 0.0001024352 0.0001081134 0.000145267 0.0002 0.0002 0.0002002058 0.0002027435 0.0002178098 0.0002834934 0.0005238683 0.0004851817 0.0001 0.0001 0.0001 0.0001000533 0.0001 0.0001 0.0001 0.0001 0.00010625 0.0001 0.0001 0.0001 0.0001 0.00015 0.0002 0.0001666667 0.00015 0.000125 0.0001 0.0007 0.003 0.006533334 0.011 0.0351 0.0966 0.2282 0.464 0.9066 1.030617 1.5258 2.0322 2.4502 2.7012 2.3245 1.7112 1.9299 2.017433 1.7591 1.6402 1.5954 1.613 1.6721 1.7846 2.3955 3.131367 3.1554 2.9788 3.1043 3.2734 6.139 6.0894 5.510267 5.9498 5.7149 5.4196 5.1016 4.8337 4.4713 9.3203 6.966183 5.0147 4.3272 4.4947 6.8408 15.3988 6.8345 7.82575 4.7885 5.4179 5.5527 9.8899 12.2457 10.7071 7.4382 6.482333 5.011 4.7954 4.8136 5.1068 5.4768 5.9599 5.1756 4.2164 3.0749 2.9757 3.021 3.43 4.8455 5.6411 5.73575 5.9679 6.1128 5.85 5.0286 4.0831 3.7858 3.1575 5.440067 10.2409 2.1456 2.6501 2.1267 1.822 1.7141 2.374517 1.7038 1.7139 3.3299 1.9916 1.904 2.2059 2.5482 2.677483 2.8991 3.2763 3.9803 4.434 4.8989 5.3739 5.569983 5.8817 6.4558 7.1325 7.8593 8.6128 9.3772 10.1349 10.49795 10.8708 11.5776 12.2475 13.8908 13.5802 14.1947 14.6819 14.4997 14.6753 14.0226 12.7434 10.9201 9.2455 8.1258 8.144867 7.5952 7.5875 8.3401 8.7522 9.4692 7.1485 4.6468 3.548383 2.6829 1.4997 0.8404 0.4453 0.2289 0.1148 0.0552 0.04025 0.025 0.0105 0.0041 0.0015 0.0005 0.0002 0.0001666667 
0.0001005859 0.0001012024 0.0001039068 0.0001389539 0.0002 0.0002 0.0002000686 0.0002009831 0.0002069197 0.0002346822 0.0003417238 0.0002985087 0.0001 0.0001 0.0001 0.0001000107 0.0001 0.0001 0.0001 0.0001 0.0001015625 0.0001 0.0001 0.0001 0.0001 0.0001166667 0.00015 0.0001722222 0.0001433333 0.0001 0.0002 0.0002 0.001 0.002833333 0.004 0.0147 0.047 0.1322 0.3238 0.6824 1.1358 1.38375 1.6285 2.1141 2.5403 2.5524 3.223 3.9073 3.8396 3.693483 3.6936 3.579 3.5571 3.6321 3.7801 3.9738 4.614183 4.1948 4.4944 5.8556 5.9976 6.0996 6.854 6.5603 6.5163 6.1901 5.6824 5.3314 5.0631 4.9406 5.331 7.316133 9.6399 6.7111 6.1297 7.4165 8.7528 16.16 6.327 7.429283 7.4182 8.1106 8.9358 11.3045 10.0352 8.0872 6.5725 6.3589 5.6828 5.3489 5.1707 5.0018 4.8549 4.6476 4.39375 3.6345 3.1865 3.1026 3.2325 3.8589 5.2378 5.9765 6.002967 6.3648 6.513 6.1789 5.2085 4.8228 5.0924 6.080867 9.5232 5.0416 2.1185 2.861 2.2621 1.8587 3.0418 3.374533 3.2692 3.3187 3.8118 1.2269 1.663 2.1265 2.6062 2.777767 3.0746 3.533 4.0412 4.5066 4.9683 5.4288 5.636483 5.8788 6.4235 7.0361 7.6796 8.3352 9.0065 9.6858 10.08383 10.3634 11.0613 12.7226 12.3783 12.9537 13.6083 14.2521 14.87518 14.7197 14.8298 14.4984 13.7796 12.7165 11.5618 11.21952 10.8535 10.9424 11.3246 10.942 7.9132 5.2471 3.126 2.528383 1.7726 1.0189 0.5527 0.2874 0.1472 0.0741 0.05705 0.0358 0.0162 0.0068 0.0027 0.0009 0.0004 0.0003 0.0002 
0.0001008941 0.0001018984 0.0001360158 0.0002 0.0002 0.0002000229 0.0002003506 0.0002026571 0.000214195 0.0002611086 0.0002149829 0.0001 0.0001 0.0001 0.0001000021 0.0001 0.0001 0.0001 0.0001 0.0001003906 0.0001 0.0001 0.0001 0.0001 0.0001055556 0.0001222222 0.0001462963 0.0001331111 0.0001 0.0001 0.0001 0.0004 0.0017 0.003916667 0.0066 0.0231 0.0701 0.1841 0.4141 0.7908 1.2793 1.576117 1.8265 2.4278 2.8136 3.8195 4.4912 4.9321 5.78185 5.3138 5.6249 5.9352 6.2931 6.7006 7.1254 7.5177 8.10255 7.8187 7.9859 7.6421 7.1975 7.0612 7.1254 6.976867 7.1512 7.157 7.2233 7.1488 7.1963 7.3424 7.4763 7.044017 7.658 7.5247 7.6281 10.7406 12.8371 8.8914 9.1896 9.397933 10.0179 10.3708 10.5551 10.4499 9.1839 7.9671 7.78425 7.0491 6.3998 5.8519 5.4618 4.9582 4.5241 4.0786 4.111166 3.8255 3.5449 3.45 3.5069 3.9406 5.0164 5.8644 5.974033 6.2031 6.4197 6.8066 6.7425 7.813 10.2339 6.67075 4.6924 6.7989 3.3045 3.3061 2.7208 3.1594 4.6909 5.029467 5.8274 5.2617 4.2003 0.6268 1.2331 1.8683 2.4853 2.87915 3.0532 3.5676 4.1573 4.5762 5.0054 5.4248 5.7133 5.8309 6.3582 6.9444 7.5505 8.1565 8.7688 9.3912 9.9593 10.0569 11.6521 11.4672 12.2181 13.1314 14.0856 14.58443 15.0267 15.8954 16.6275 17.1251 17.2614 16.5589 15.1807 14.17785 14.0001 13.3094 12.3595 10.5055 5.4581 3.3047 2.739017 1.8813 1.0607 0.5615 0.2873 0.1497 0.0796 0.0417 0.03425 0.0207 0.0096 0.0041 0.0021 0.0002 0.0001 0.00025 0.0002125 
0.0001013963 0.0001347021 0.0002 0.0002 0.0002000076 0.0002001245 0.0002010102 0.0002057342 0.0002259869 0.0001780573 0.0001 0.0001 0.0001 0.0001000004 0.0001 0.0001 0.0001 0.0001 0.0001000977 0.0001 0.0001 0.0001 0.0001 0.0001018519 0.0001092593 0.0001246914 0.0001203259 0.0001 0.0001 0.0001 0.0001 0.0005 0.0021 0.0033 0.0081 0.0278 0.0826 0.214 0.4758 0.9008 0.9035667 1.4556 2.131 2.919 4.2336 5.4459 6.6777 7.8934 6.163833 8.8049 9.473 9.995 10.4935 11.0387 11.6358 12.2704 8.672916 12.8399 11.9065 11.7922 10.4532 8.6559 7.4312 6.874717 6.7391 6.671 6.5985 6.4942 6.4243 6.3448 6.1782 6.593283 5.9807 5.8918 6.0966 14.5366 8.0925 17.9943 11.4724 11.7183 11.9625 12.0224 11.7425 11.0362 9.9921 8.9561 8.6039 8.0735 7.2848 6.5323 5.993 5.2853 4.7235 4.2299 4.293967 4.2509 3.9848 3.8473 3.8705 4.0251 4.7171 5.245217 5.4926 5.9428 6.6938 8.2378 10.0873 14.7678 4.8008 6.347667 5.6818 5.2819 4.6572 4.1165 3.6796 3.8919 6.1225 6.5652 7.225 6.7991 5.6478 3.2704 1.6045 2.2033 2.657367 2.7693 3.2863 3.7451 4.6718 4.9958 5.3466 5.6811 6.001517 6.0354 6.5291 7.0773 7.6297 8.1711 8.7209 9.35825 9.3318 10.9267 10.9254 11.7941 12.6404 13.5682 14.6324 15.58073 15.9015 17.4318 19.1643 20.5976 20.9625 19.9106 17.8708 16.06148 15.6002 13.4076 10.955 8.1652 4.887212 1.8566 1.614533 1.0184 0.5123 0.2499 0.1282 0.0708 0.0401 0.022 0.0188 0.0112 0.0053 0.003 0.0004 0.0001 0.000125 0.0001 0.000175 
0.0001453661 0.0002 0.0002 0.0002000025 0.000200044 0.0002003808 0.0002022896 0.0002109104 0.0001619557 0.0001 0.0001 0.0001 0.0001000001 0.0001 0.0001 0.0001 0.0001 0.0001000244 0.0001 0.0001 0.0001 0.0001 0.0001006173 0.0001037037 0.0001119342 0.0001108553 0.0001 0.0001 0.0001 0.0001 0.0003 0.0009 0.0009333334 0.0002 0.0011 0.0043 0.0163 0.0516 0.1418 0.3334 0.6235333 0.6615 1.077 1.6381 2.2895 3.0819 3.9557 4.7306 5.272533 5.3082 5.6575 5.8235 5.8952 5.9232 5.9024 5.821 7.265183 5.7698 7.0353 6.7704 7.24 7.4315 6.1885 6.63825 6.6129 6.5323 6.4979 6.5041 6.4811 6.4152 6.243 6.285433 6.0235 5.8784 5.6826 5.1303 27.9194 25.9156 18.41827 13.8155 13.8519 13.7532 13.2662 12.4262 11.3883 10.2998 9.758233 9.2778 8.343 7.6511 6.7557 5.9324 5.2426 4.6786 4.704566 4.7003 4.3688 4.1458 4.1905 4.2869 4.8447 5.261817 5.5361 6.4018 8.1195 11.4914 16.9451 6.5429 6.24 6.281433 6.4371 5.5612 5.432 4.8112 4.7929 4.7831 5.942417 7.063 8.4624 8.0345 10.1946 2.5296 2.4808 3.0603 3.575867 3.5577 3.9996 4.363 5.7747 5.9509 6.1875 6.42585 6.3794 6.6575 7.0648 7.5269 7.9899 8.455 9.1663 10.2814 10.7705 10.7813 11.2438 12.1574 13.2328 14.4338 15.9273 16.72365 17.9109 20.4925 23.1791 24.9359 24.5469 22.157 20.88395 18.7102 15.0069 11.4567 8.2128 5.4124 3.2723 1.1229 0.7958834 0.5033 0.2198 0.1052 0.0578 0.0344 0.0204 0.01836667 0.0114 0.0058 0.0038 0.0005 0.0002 0.0001 0.0001 0.00010625 0.0001 
0.0002 0.0002 0.0002000009 0.0002000155 0.0002001424 0.0002009048 0.0002045269 0.0001550311 0.0001 0.0001 0.0001 0.0001 0.0001 0.0001 0.0001 0.0001 0.0001000061 0.0001 0.0001 0.0001 0.0001 0.0001002058 0.0001014403 0.0001054184 0.0001052986 0.0001 0.0001 0.0001 0.0001 0.0002 0.0004333333 0.0004766667 0.00015 0.00038 0.0002 0.001 0.0042 0.0147 0.0453 0.1209 0.28135 0.269 0.562 0.9385 1.2981 1.6772 2.0095 2.3376 3.223467 2.5605 2.6918 2.7775 2.8717 2.9994 3.1513 4.206733 3.3252 3.5648 3.8447 4.77 5.7109 6.0666 6.4383 6.847333 6.4195 6.4142 6.5202 6.7067 7.7973 6.8569 8.0736 6.7417 6.5455 7.4208 4.3569 24.5534 40.7841 25.4422 19.39928 15.8696 15.5411 15.3232 14.7261 13.8378 12.7306 11.5411 10.89813 10.4011 9.4163 8.7882 7.6102 6.6561 5.85 5.530217 5.2017 5.166 4.7512 4.5595 4.4292 4.4073 5.0178 5.664583 5.9626 7.6173 10.6522 16.9171 8.2701 7.6722 7.3897 7.3892 7.1397 6.6647 6.229 5.7196 5.5647 5.8594 7.006633 7.9346 9.2475 9.0386 12.4496 4.791 4.4561 4.7908 5.161 5.0738 5.3708 5.6219 7.3845 7.3588 7.4538 7.564433 7.5067 7.7309 8.0566 8.4168 8.7851 9.613 12.8719 10.89108 10.827 11.5482 12.6276 13.4017 14.264 15.3299 15.46898 16.8373 19.1325 22.2946 25.8473 28.258 26.5509 25.166 21.1067 21.4891 16.537 11.6084 7.3874 4.2952 2.3281 0.1657 0.3307333 0.1084 0.0682 0.0433 0.0278 0.0176 0.0105 0.009416667 0.0058 0.0041 0.0007 0.0003 0.0001 0.000125 0.0001 0.0001 0.0001015625 
0.0002 0.0002000003 0.0002000055 0.0002000529 0.0002003543 0.0002018581 0.0001520926 0.0001 0.0001 0.0001 0.0001 0.0001 0.0001 0.0001 0.0001 0.0001000015 0.0001 0.0001 0.0001 0.0001 0.0001000686 0.0001005487 0.0001023548 0.0001024315 0.0001 0.0001 0.0001 0.0001 0.00015 0.0002444444 0.0002653333 0.0001166667 0.0001 0.0001 0.0003 0.0012 0.0043 0.0137 0.0387 0.0916 0.1536833 0.2117 0.4051 0.6834 1.0143 1.3401 1.7599 1.87665 2.0754 2.3285 2.5382 2.7348 2.9458 3.1776 3.4135 3.564633 3.627 3.3831 3.6609 3.9483 4.3584 5.3853 7.228583 7.6722 7.7526 7.8833 8.2507 8.8728 10.3761 11.2626 10.83003 10.9222 11.5714 10.7463 20.5311 31.1849 34.2102 18.0779 18.90612 17.2749 16.9075 16.5028 15.9277 15.0275 13.8242 13.06253 12.5452 11.3238 10.262 9.7045 8.3346 7.3369 6.4509 6.085067 5.7575 5.6236 5.2951 4.9167 4.6236 4.3369 5.152233 5.5168 7.1095 10.0759 15.7076 8.3178 8.5497 8.2499 8.32205 8.244 8.5431 8.1277 7.3912 7.0472 6.6818 6.9704 8.40305 9.4293 10.2818 10.4848 13.8943 8.2069 7.5901 7.431433 7.2003 7.2831 7.3227 7.3717 9.186 8.9767 8.9542 8.899217 8.905 9.0883 9.3293 9.6074 10.4826 19.2078 10.637 11.54257 11.0738 11.4422 11.9189 12.5092 13.245 14.3291 15.53067 15.9565 18.373 21.5214 24.5153 26.0565 26.7842 22.4782 19.37865 16.6397 10.6508 5.6876 2.4447 0.8618 0.2587 0.48705 0.0502 0.0339 0.0351 0.0233 0.0151 0.0094 0.0055 0.004783333 0.0029 0.0017 0.0006 0.0002 0.0001 0.0001 0.00010625 0.0001 0.0001 
0.0002000001 0.0002000019 0.0002000196 0.0002001376 0.0002007551 0.000150861 0.0001 0.0001 0.0001 0.0001 0.0001 0.0001 0.0001 0.0001 0.0001000004 0.0001 0.0001 0.0001 0.0001 0.0001000229 0.0001002058 0.0001009907 0.000101067 0.0001 0.0001 0.0001 0.0001 0.000125 0.0001648148 0.0001730667 0.0001055556 0.0001 0.0001 0.0002 0.0002 0.0009 0.0031 0.0099 0.0267 0.05256667 0.0715 0.1574 0.3053 0.5247 0.8072 1.1096 1.4005 1.6533 1.677 1.9372 2.2079 2.5135 2.8697 3.2656 3.6864 4.048316 4.1844 5.2252 5.8027 6.3877 6.9411 7.3997 9.01655 10.4094 10.7463 11.022 11.6217 12.5195 13.5751 14.2398 14.80915 14.957 12.4622 20.096 30.0501 32.628 24.7418 22.56252 18.4119 18.3602 17.8769 17.3657 16.7447 15.7671 14.5223 13.79052 13.2118 11.867 11.1021 10.1392 8.886 7.8964 6.9903 6.599717 6.26 5.97915 5.7453 5.2813 4.4972 5.0857 6.0501 6.5489 9.3808 15.2371 7.2013 8.0469 8.7756 8.9395 9.282 9.4375 10.0864 9.9516 9.3558 9.012 8.7773 9.1819 10.05987 11.0427 12.1684 13.945 13.4295 11.5453 10.6711 10.01118 9.8802 9.6346 9.4327 9.2955 10.8699 10.6435 10.3094 10.21842 10.2662 10.4599 10.6782 11.6321 25.4269 11.2034 13.04587 11.6849 12.1608 12.5577 12.7925 13.039 13.6037 14.5835 15.56452 16.1477 18.3274 20.8153 22.8537 23.3574 21.948 17.9891 15.43938 12.5098 7.1262 3.1743 1.1903 0.3764 0.1026 0.08648334 0.017 0.0104 0.0036 0.007 0.0062 0.0043 0.0026 0.00235 0.0014 0.0007 0.0003 0.0001 0.0001333333 0.0001 0.0001 0.0001015625 0.0001 
0.000200001 0.0002000072 0.000200053 0.0002003041 0.0001503507 0.0001 0.0001 0.0001 0.0001 0.0001 0.0001 0.0001 0.0001 0.0001000001 0.0001 0.0001 0.0001 0.0001 0.0001000076 0.0001000762 0.0001004064 0.0001004527 0.0001 0.0001 0.0001 0.0001 0.0001125 0.0001299383 0.0001329467 0.0001018519 0.0001 0.0001 0.00015 0.0001666667 0.0002 0.0008 0.0027 0.0084 0.0248 0.03843333 0.0621 0.1381 0.2722 0.4762 0.7429 1.0459 1.3523 1.484917 1.6547 1.9569 2.2907 2.6843 3.159 3.7202 3.980367 4.3738 5.0048 5.8302 6.7471 7.7469 8.758 9.6872 12.20408 13.5455 16.4091 15.4031 16.3631 17.5698 18.8991 19.6032 19.12998 17.8701 21.9445 25.7529 36.3708 35.5697 20.7487 21.67668 19.1846 19.0427 18.6854 18.0461 17.3231 16.2754 14.9878 14.24507 13.6518 12.2192 11.6682 10.3922 9.2702 8.3232 7.4224 7.116333 6.7172 6.2301 6.2044 5.7575 4.9043 6.1886 7.798217 8.6237 13.8182 6.817 6.9205 7.989 9.0066 9.6836 10.41795 11.1375 11.6587 11.8206 11.4874 11.1635 11.0013 10.83012 11.1547 12.5802 13.7005 15.3399 14.5651 13.3737 12.6255 12.17123 12.0999 11.6571 11.3164 11.0711 13.4549 11.848 11.73978 11.4347 11.441 11.6942 12.6404 29.3028 12.2235 12.5914 12.87935 12.9507 13.3172 13.5745 13.8548 14.206 14.6476 15.5297 15.93632 16.8406 18.5269 20.2325 21.2382 20.2313 17.972 16.52263 13.8821 9.1374 5.0817 2.4393 0.9532 0.2989 0.0771 0.04925 0.0133 0.0045 0.0021 0.0024 0.0023 0.0017 0.001783333 0.0011 0.0006 0.0003 0.0001 0.00015 0.0001 0.0001111111 0.0001 0.0001 0.0001003906 
0.0002000041 0.0002000204 0.0002001214 0.0001501416 0.0001 0.0001 0.0001 0.0001 0.0001 0.0001 0.0001 0.0001 0.0001 0.0001 0.0001 0.0001 0.0001 0.0001000025 0.0001000279 0.0001001634 0.0001001871 0.0001 0.0001 0.0001 0.0001 0.00010625 0.0001141461 0.0001152004 0.0001006173 0.0001 0.0001 0.0001236111 0.0001333333 0.0001333333 0.0001 0.0003 0.0011 0.0039 0.0121 0.02985 0.0334 0.0822 0.1799 0.3491 0.599 0.9128 1.090917 1.2465 1.5785 1.9316 2.3376 2.7666 3.2573 3.9796 4.366267 4.8566 5.5881 6.3713 7.4303 8.8653 10.441 12.0888 15.76655 20.0939 22.5761 22.4953 22.1433 22.9208 23.6945 22.52808 22.7371 25.3727 28.6099 32.2932 35.0935 32.2801 27.2697 24.27132 19.7034 19.6737 19.4565 18.6463 17.8301 16.6829 15.3189 14.59557 13.7778 12.8565 11.871 10.6616 9.6185 8.7478 8.412983 7.9415 7.3666 6.7592 6.728 6.3787 5.6634 7.9248 8.64265 12.4176 6.0506 6.3302 6.8255 7.9293 9.383 9.980884 10.6738 12.6358 13.2298 13.3622 13.2862 13.036 12.2931 12.11047 12.5724 13.273 14.3257 14.9441 15.218 14.6932 14.1242 13.62297 13.6265 13.1711 12.7948 12.4867 13.549 13.3924 12.94563 12.8107 13.7198 14.9099 32.3845 14.1083 14.263 14.3712 14.15968 14.4745 14.5654 14.5746 14.7384 15.0262 15.4365 15.70835 15.8934 16.623 17.6202 18.5942 18.8521 18.3358 15.5527 13.89175 11.7919 7.782 4.3783 2.0658 0.8029 0.2508 0.0637 0.05108333 0.0218 0.0047 0.0013 0.0009 0.0008 0.0006 0.0006833333 0.0004 0.0002 0.0001 0.0001 0.0001 0.0001125 0.0001 0.0001037037 0.0001 0.0001 
0.0002000123 0.0002000487 0.0001500567 0.0001 0.0001 0.0001 0.0001 0.0001 0.0001 0.0001 0.0001 0.0001 0.0001 0.0001 0.0001 0.0001 0.0001000008 0.0001000102 0.0001000646 0.0001000757 0.0001 0.0001 0.0001 0.0001 0.000103125 0.0001067987 0.0001071605 0.0001002058 0.0001 0.0001 0.0001105324 0.0001148148 0.0001111111 0.0001 0.0001 0.0004 0.0013 0.0043 0.0127 0.02375 0.034 0.082 0.1767 0.3383 0.5723 0.8539 1.025783 1.1341 1.3981 1.6915 2.0612 2.6075 3.2781 4.1025 4.617417 5.1649 6.8063 8.3489 9.8613 11.7152 14.2233 17.0869 18.92877 22.097 23.9349 24.4271 25.0402 24.7728 23.9414 25.04112 26.2932 28.0522 29.2709 29.0496 30.5694 30.3758 38.7789 27.48697 19.9426 20.3534 20.1326 19.3676 18.3851 17.1474 16.5467 15.7283 14.1088 13.6232 12.2109 11.0288 10.0945 9.3791 9.032033 8.6639 7.9432 7.276 7.5979 6.1612 7.576 7.981633 11.2391 5.4621 5.402 5.8413 6.8042 8.0149 9.7159 10.4276 11.4224 13.7448 14.2524 14.9132 14.7849 13.9983 12.8147 12.4652 12.8266 12.8676 14.0082 14.6282 15.152 15.0478 14.72598 14.7734 14.4883 14.1172 13.7679 13.5121 14.0719 14.0286 16.65178 14.1594 32.1645 10.69 14.76 15.0091 15.1897 14.97543 15.2746 15.2957 15.2875 15.2295 15.3634 15.6367 16.0723 16.00728 16.6706 17.3856 18.0096 18.2302 17.777 16.307 13.7277 11.8712 10.4241 7.0595 4.2285 2.2048 0.9609 0.337 0.2150333 0.0953 0.0353 0.0077 0.0016 0.0005 0.0003 0.0002 0.00028 0.0001 0.0001 0.000125 0.0001 0.0001 0.0001 0.000103125 0.0001 0.0001012346 0.0001 
0.0002000305 0.0001500235 0.0001 0.0001 0.0001 0.0001 0.0001 0.0001 0.0001 0.0001 0.0001 0.0001 0.0001 0.0001 0.0001 0.0001000003 0.0001000037 0.0001000252 0.0001000301 0.0001 0.0001 0.0001 0.0001 0.0001015625 0.0001033079 0.0001034305 0.0001000686 0.0001 0.0001 0.000104485 0.0001061728 0.0001037037 0.0001 0.0001 0.0001 0.0004 0.0015 0.0047 0.00775 0.0138 0.0365 0.0871 0.1855 0.351 0.5878 0.8698 0.98325 1.1376 1.3955 1.7019 2.1046 2.646 3.4494 4.3938 4.776217 5.2071 6.6465 8.7517 11.3876 14.1143 16.9304 17.36282 19.8209 22.3851 23.9879 24.2595 24.5919 25.3596 26.4919 26.04868 27.0886 27.2766 27.5878 26.7042 33.1751 56.0194 43.82763 37.5193 21.7079 21.6075 21.0325 20.3874 19.228 17.923 17.09165 16.4797 14.7131 14.3892 12.7171 11.5735 10.8867 10.1381 9.710584 9.3218 8.4869 7.8713 8.3865 7.1993 10.4661 7.237184 5.0204 4.965 5.3238 5.5661 6.387 8.3727 10.8101 10.47928 10.5604 13.1248 15.6504 17.4151 15.7506 14.006 12.36333 12.542 11.7424 12.1958 13.1955 13.6827 14.546 14.8315 14.72423 14.8858 14.798 14.5739 14.3238 14.1413 14.5308 14.7726 19.83202 30.747 14.8974 14.0749 14.6371 15.0782 15.3493 15.15437 15.4048 15.3815 15.2054 15.155 15.2333 15.4409 15.7746 15.45182 16.1963 16.5933 16.7722 16.5019 15.5361 13.7219 11.2478 9.735933 8.483 5.8671 3.7068 2.1039 1.0269 0.4101 0.2640167 0.1333 0.0495 0.0122 0.0025 0.0005 0.0001 0.0001 0.0001333333 0.0001 0.0001 0.0001 0.00010625 0.0001 0.0001 0.0001 0.0001007813 0.0001 0.0001004115 
0.0001375135 0.0001 0.0001 0.0001 0.0001 0.0001 0.0001 0.0001 0.0001 0.0001 0.0001 0.0001 0.0001 0.0001 0.0001000001 0.0001000013 0.0001000097 0.0001000118 0.0001 0.0001 0.0001 0.0001 0.0001007813 0.0001016235 0.0001016648 0.0001000229 0.0001 0.0001 0.0001018414 0.0001024691 0.0001012346 0.0001 0.0001 0.0001 0.0001 0.0002 0.0008 0.0027 0.0053 0.0083 0.0237 0.0609 0.1401 0.286 0.5139 0.8068 0.864 1.0973 1.3655 1.6754 2.0729 2.5899 3.2604 3.71605 4.1499 5.6391 7.1878 9.0495 11.2594 13.9031 16.6696 17.40907 19.4458 19.7838 23.6567 22.293 23.4332 24.8054 24.94017 25.9909 26.4861 27.0047 28.4234 29.3831 40.599 59.876 50.0622 40.3964 22.0922 23.3411 22.9799 21.7742 20.1834 18.6017 17.78662 16.6698 15.7538 15.0022 13.3932 12.4974 11.7301 11.23242 10.8301 9.9305 8.9615 8.4221 7.8395 10.6297 4.7199 5.198233 4.4016 4.8792 5.5929 4.5105 6.3885 9.4701 14.4203 10.14605 5.9466 10.6193 18.8163 22.2404 16.2176 10.9645 10.0789 9.8545 10.3706 10.8943 11.6396 12.6625 13.6057 14.2158 14.28605 14.5911 14.7776 14.6887 14.533 14.4621 14.9426 19.73785 30.3742 14.9103 14.9269 14.8161 14.9004 14.9664 14.9499 14.54915 14.7579 14.5061 14.1513 13.9613 13.8717 13.8797 13.9574 13.48498 14.0397 14.0165 13.7435 13.089 11.9109 10.2374 9.12265 8.2675 6.2655 4.4606 2.9765 1.8283 0.9897 0.4445 0.26455 0.1639 0.0374 0.0094 0.0019 0.0003 0.0001 0.0001 0.0001 0.0001083333 0.0001 0.0001 0.0001 0.0001015625 0.0001 0.0001 0.0001 0.0001001953 0.0001 
0.0001 0.0001 0.0001 0.0001 0.0001 0.0001 0.0001 0.0001 0.0001 0.0001 0.0001 0.0001 0.0001 0.0001 0.0001000005 0.0001000037 0.0001000046 0.0001 0.0001 0.0001 0.0001 0.0001003906 0.0001008016 0.0001008154 0.0001000076 0.0001 0.0001 0.0001007347 0.0001009602 0.0001004115 0.0001 0.0001 0.0001 0.0001 0.00015 0.00026 0.0001 0.0005 0.0024 0.0018 0.006 0.018 0.0488 0.1181 0.2545 0.43525 0.4814 0.7911 1.1169 1.4392 1.8385 2.3627 3.0562 3.4168 3.9866 5.1241 6.5147 8.171 10.0793 12.222 14.5394 15.88532 17.0483 17.2462 18.9052 19.6913 21.0763 22.645 23.79817 24.3482 25.8739 27.8944 30.5823 34.2948 42.6097 58.9277 51.99615 47.6344 25.249 24.5204 24.8688 23.9879 21.5372 20.7335 19.6998 17.3457 17.1308 15.904 14.524 13.4708 12.4313 11.94393 11.3782 10.456 9.4631 9.576 9.5875 4.8047 3.2795 3.515117 3.3019 4.1918 4.8993 4.6755 6.7005 9.9999 11.16788 14.4857 4.6532 8.4015 22.8716 26.4176 13.7037 7.3835 7.299366 5.7229 7.16 8.3315 9.3472 10.7343 12.1383 13.2378 13.33315 13.9543 14.4131 14.5387 14.5169 14.6371 29.2703 19.53558 14.5366 14.4073 14.4007 14.3888 14.2793 14.053 13.6863 13.13177 13.1467 12.5725 11.9857 11.5422 11.1751 10.8739 10.45593 10.6107 10.3312 9.9492 9.3926 8.6101 7.5435 6.2864 5.81795 4.9749 3.7481 2.7035 1.8641 1.2047 0.6782 0.3152 0.19915 0.1203 0.0113 0.0027 0.0005 0.0001 0.0001666667 0.0001 0.0001 0.0001 0.0001020833 0.0001 0.0001 0.0001 0.0001003906 0.0001 0.0001 0.0001 0.0001000488 
0.0001 0.0001 0.0001 0.0001 0.0001 0.0001 0.0001 0.0001 0.0001 0.0001 0.0001 0.0001 0.0001 0.0001000002 0.0001000014 0.0001000018 0.0001 0.0001 0.0001 0.0001 0.0001001953 0.0001003974 0.000100402 0.0001000025 0.0001 0.0001 0.0001002866 0.0001003658 0.0001001372 0.0001 0.0001 0.0001 0.0001 0.000125 0.000142 0.0001 0.0001 0.000225 0.0002 0.0009 0.003 0.0099 0.029 0.0772 0.1817 0.2261 0.3732 0.6595 0.9842 1.2805 1.6233 2.0889 2.7025 2.694217 3.3452 4.2729 5.4491 6.8769 8.5555 10.5006 11.0519 12.6775 14.9313 12.953 24.8401 21.1399 20.2056 21.6636 22.63498 23.3359 25.1894 27.88 31.2435 34.8398 42.7982 55.0613 51.32037 50.0811 28.9429 24.9163 26.3588 25.6013 22.9013 21.4944 21.4776 19.7495 19.4581 17.8221 16.2085 14.7663 13.3475 12.88798 11.9464 10.8927 10.0221 10.4209 4.5575 3.8709 3.329717 2.4799 2.9079 3.4997 3.9547 3.8342 6.9441 10.4617 9.35425 8.1696 5.7943 6.8981 26.4434 24.9078 11.9703 7.547 5.34175 2.3238 2.8026 4.1498 5.6346 7.3563 9.354 9.8406 11.2804 12.7195 13.6177 14.0451 14.2472 14.3581 14.2152 15.74602 13.8746 13.5973 13.4166 13.1905 12.8201 12.2709 11.58758 11.5598 10.69 9.7917 8.9637 8.2344 7.577 6.9815 6.864316 6.4324 5.9001 5.3427 4.7465 4.1318 3.4958 2.8669 3.094617 2.2746 1.7524 1.308 0.9055 0.5339 0.2665 0.2437833 0.1119 0.0391 0.0024 0.0006 0.0002 0.000225 0.0001 0.0001222222 0.0001 0.0001 0.0001 0.0001005208 0.0001 0.0001 0.0001 0.0001000977 0.0001 0.0001 0.0001 
0.0001 0.0001 0.0001 0.0001 0.0001 0.0001 0.0001 0.0001 0.0001 0.0001 0.0001 0.0001 0.0001000001 0.0001000005 0.0001000007 0.0001 0.0001 0.0001 0.0001 0.0001000977 0.0001001976 0.0001001991 0.0001000008 0.0001 0.0001 0.0001001097 0.0001001372 0.0001000457 0.0001 0.0001 0.0001 0.0001 0.0001125 0.0001134 0.0001 0.0001 0.0001 0.00015 0.00055 0.001075 0.0002 0.0007 0.0022 0.0067 0.0183 0.1042167 0.0475 0.1103 0.2273 0.396 0.6449 0.9457 1.2493 1.688783 1.8255 2.4348 3.2516 4.3127 5.6368 7.2401 8.236417 9.1318 11.1223 10.9243 27.6382 22.0552 19.2893 21.0022 21.36522 22.815 24.9111 27.2015 29.7089 32.6864 38.3149 43.9144 50.2501 45.9676 28.5353 22.9297 25.1724 29.285 22.5576 22.11805 20.7929 19.7203 20.158 19.0373 17.746 16.4019 14.8597 14.10577 13.3648 12.3985 11.7169 14.5318 3.5092 2.9524 2.779933 2.5909 2.8471 3.1892 3.2662 2.6421 3.9674 6.6269 6.363517 6.3817 4.4006 8.4821 24.3923 21.5662 10.0062 7.947633 6.5902 2.4831 3.504 0.8402 1.7321 3.2211 5.3366 6.75805 7.6965 9.9764 11.6305 12.6207 12.9875 24.029 13.44443 11.1769 11.4025 11.383 11.184 10.8158 10.2385 9.4474 8.654433 8.5081 7.4636 6.4319 5.4844 4.6504 3.9478 3.3737 3.752367 2.9137 2.5411 2.2222 1.936 1.671 1.4348 1.645933 1.2074 0.9575 0.6912 0.4637 0.2784 0.1455 0.0656 0.08158334 0.0253 0.0084 0.0007 0.0002 0.0001 0.0001333333 0.0001395833 0.0001 0.0001074074 0.0001 0.0001 0.0001 0.0001001302 0.0001 0.0001 0.0001 0.0001000244 0.0001 0.0001 
0.0001 0.0001 0.0001 0.0001 0.0001 0.0001 0.0001 0.0001 0.0001 0.0001 0.0001 0.0001 0.0001000002 0.0001000003 0.0001 0.0001 0.0001 0.0001 0.0001000488 0.0001000984 0.0001000989 0.0001000003 0.0001 0.0001 0.0001000414 0.0001000508 0.0001000152 0.0001 0.0001 0.0001 0.0001 0.00010625 0.00010518 0.0001 0.0001 0.0001 0.0001166667 0.0002666667 0.00049375 0.0002 0.00045 0.0008 0.0001 0.0004 0.0011 0.0141 0.0035 0.0099 0.0255 0.0497 0.0911 0.196 0.4809167 0.3845 0.6257 0.9697 1.4043 1.9845 2.8226 4.0465 5.6991 5.822 8.1454 11.1016 22.7319 15.7453 16.6615 16.9928 18.7332 20.6414 22.7251 24.4297 25.7343 28.9151 32.5149 38.68768 44.547 42.229 27.61 20.7475 23.2283 33.017 24.109 22.1313 20.8699 21.0554 20.6128 19.5903 18.6403 17.573 16.30328 16.1391 14.9771 14.4291 13.9838 5.1307 2.1623 2.4227 2.3565 2.3628 2.7481 2.8771 2.5267 1.9816 2.1404 3.155367 3.3073 3.2339 2.2732 8.1221 19.0432 17.9807 6.8741 5.50645 4.698 2.081 3.4521 0.1255 0.4378 1.0064 1.9865 4.235317 4.8943 5.7734 7.9293 9.2907 22.2871 10.5819 10.16255 6.3055 6.8177 7.0804 7.2791 7.1848 6.1666 5.4641 5.178967 4.6763 3.8793 3.1737 2.5823 2.1197 1.7694 1.5073 1.69695 1.3056 1.1306 0.9451 0.7669 0.6219 0.4954 0.6241167 0.3753 0.2661 0.1791 0.1126 0.064 0.0323 0.0144 0.01968333 0.0058 0.0021 0.0004 0.0002 0.0001 0.0001 0.0001111111 0.0001126736 0.0001 0.0001024691 0.0001 0.0001 0.0001 0.0001000326 0.0001 0.0001 0.0001 0.0001000061 0.0001 
0.0001 0.0001 0.0001 0.0001 0.0001 0.0001 0.0001 0.0001 0.0001 0.0001 0.0001 0.0001000001 0.0001000001 0.0001 0.0001 0.0001 0.0001 0.0001000244 0.0001000491 0.0001000492 0.0001000001 0.0001 0.0001 0.0001000154 0.0001000186 0.0001000051 0.0001 0.0001 0.0001 0.0001 0.000103125 0.000102286 0.0001 0.0001 0.0001 0.0001055556 0.0001611111 0.0002692708 0.0002 0.000325 0.0003875 0.0001 0.00025 0.0005333333 0.00075 0.001566667 0.0001 0.0003 0.0011 0.0035 0.0104 0.0298 0.1202833 0.0802 0.1766 0.3847 0.7683 1.2888 1.9698 3.0544 3.925767 4.8998 7.6197 8.3165 11.0723 10.2703 12.0255 12.7014 14.2451 16.1286 18.0485 19.8596 21.1474 23.7913 26.5218 32.82347 39.9774 40.03 27.8784 20.4851 22.6219 29.2911 25.95123 23.1681 21.2903 21.0351 20.6766 19.6537 18.819 17.5494 15.90683 15.2966 13.4735 13.571 7.6772 3.198 1.514 1.796333 1.8302 1.98 2.2866 2.3331 1.9563 1.5565 1.4224 1.7541 1.4678 1.312 1.0655 5.1178 12.7148 11.4907 2.946 2.99365 1.9242 1.0688 1.8818 0.1659 0.0597 0.205 0.6186 2.244883 4.8794 1.8812 6.4068 17.3567 4.9041 5.6234 5.001817 3.2586 3.306 3.7223 4.5873 3.9752 2.3861 1.5798 2.272717 1.3981 1.2495 1.1241 0.9962 0.8612 0.7316 0.82895 0.6034 0.478 0.3635 0.2747 0.2141 0.1695 0.1322 0.1994 0.0996 0.0721 0.0495 0.0316 0.0184 0.0098 0.0048 0.005183334 0.0022 0.0009 0.0003 0.0001 0.000125 0.0001 0.0001 0.0001037037 0.0001040943 0.0001 0.000100823 0.0001 0.0001 0.0001 0.0001000081 0.0001 0.0001 0.0001 0.000100002 
0.0001 0.0001 0.0001 0.0001 0.0001 0.0001 0.0001 0.0001 0.0001 0.0001 0.0001 0.0001 0.0001 0.0001 0.0001 0.0001 0.0001000122 0.0001000245 0.0001000246 0.0001 0.0001 0.0001 0.0001000057 0.0001000068 0.0001000017 0.0001 0.0001 0.0001 0.0001 0.0001015625 0.0001010822 0.0001 0.0001 0.0001 0.0001018519 0.0001222222 0.0001839844 0.0002 0.0002625 0.000253125 0.0001 0.000175 0.0002944444 0.0005111111 0.0007375 0.0001 0.0002 0.0004 0.0001 0.0003 0.0015 0.0064 0.02413333 0.0248 0.0798 0.2285 0.5433 1.0124 1.482 1.674383 2.2161 3.5158 5.6481 3.1593 4.188 4.8525 6.3304 7.669983 8.2127 10.1788 12.2121 14.2247 16.1493 17.334 18.84237 19.8914 33.4883 36.8927 32.0739 23.7068 24.0788 26.0468 24.07075 20.0754 19.1686 20.6071 20.8368 19.8953 18.7702 16.3055 14.59102 12.5774 10.94 8.3042 5.2436 1.3078 1.3209 1.375667 1.5279 1.6532 1.7413 1.6718 1.4179 1.1822 1.1173 1.04065 1.0694 0.6781 0.3657 1.4229 5.2272 5.8522 0.7958 1.120267 0.7238 0.4014 0.8874 0.0749 0.0297 0.0575 0.1837167 0.1361 0.9544 1.6927 7.6935 4.7868 2.9171 3.113 2.389267 1.1285 1.2239 2.4554 2.1559 1.2481 0.6326 0.84665 0.3461 0.1719 0.2347 0.2487 0.2439 0.2282 0.1991 0.3047 0.1629 0.1289 0.1035 0.0867 0.0744 0.0634 0.0524 0.06693333 0.0415 0.0311 0.0219 0.0143 0.0087 0.0049 0.004466667 0.0026 0.0013 0.0006 0.0002 0.0001 0.0001 0.00010625 0.0001 0.0001 0.0001012346 0.0001013322 0.0001 0.0001002744 0.0001 0.0001 0.0001 0.000100002 0.0001 0.0001 0.0001 
0.0001 0.0001 0.0001 0.0001 0.0001 0.0001 0.0001 0.0001 0.0001 0.0001 0.0001 0.0001 0.0001 0.0001 0.0001 0.0001000061 0.0001000122 0.0001000123 0.0001 0.0001 0.0001 0.0001000021 0.0001000024 0.0001000006 0.0001 0.0001 0.0001 0.0001 0.0001007813 0.0001005289 0.0001 0.0001 0.0001 0.0001006173 0.0001080247 0.0001520146 0.0002 0.00023125 0.0002039063 0.0001 0.0001375 0.0001898148 0.0003268518 0.0004107639 0.0001 0.00015 0.0002 0.0001 0.0002 0.0005 0.0001 0.00176 0.0007 0.0029 0.0105 0.0347 0.0989 0.2358 0.4731 0.87755 0.8509 1.3352 2.1011 0.8155 1.1615 1.5353 2.1794 3.5019 3.0268 3.9051 4.6594 5.0066 4.5874 7.9331 11.971 17.5826 30.0363 35.1163 33.6357 27.1276 26.5342 25.2944 21.9804 20.5487 17.5494 19.4496 19.9742 19.2193 17.9627 14.914 12.44283 10.9032 7.413 5.2454 2.244 1.2601 1.0054 1.071967 1.0556 1.1112 1.1652 1.1636 1.0992 0.9631 0.7912 0.6184667 0.3758 0.1936 0.1168 0.3835 1.2893 2.0004 1.573567 0.1659 0.1659 0.0987 0.2184 0.0325 0.0494 0.0351 0.05823333 0.05 0.1603 1.1701 2.7994 2.1776 0.5579 0.9232 0.9483833 0.2889 0.3565 0.6459 1.2576 0.3036 0.0676 0.2040333 0.0677 0.0504 0.0502 0.0586 0.0675 0.0706 0.0681 0.09745 0.0631 0.0582 0.0542 0.0502 0.0454 0.0396 0.04033333 0.033 0.0429 0.025 0.0152 0.0093 0.0055 0.0031 0.002733333 0.0016 0.0008 0.0004 0.0002 0.0001 0.0001 0.0001 0.0001015625 0.0001 0.0001 0.0001004115 0.0001004359 0.0001 0.0001000914 0.0001 0.0001 0.0001 0.0001000005 0.0001 0.0001 
0.0001 0.0001 0.0001 0.0001 0.0001 0.0001 0.0001 0.0001 0.0001 0.0001 0.0001 0.0001 0.0001 0.0001 0.0001000031 0.0001000061 0.0001000061 0.0001 0.0001 0.0001 0.0001000008 0.0001000009 0.0001000002 0.0001 0.0001 0.0001 0.0001 0.0001003906 0.000100262 0.0001 0.0001 0.0001 0.0001002058 0.0001028807 0.0001401641 0.0002 0.000215625 0.0001837891 0.0001 0.00011875 0.0001424383 0.0002180556 0.0002568576 0.0001 0.000125 0.0001375 0.0001 0.00015 0.000225 0.0001 0.0001 0.0003 0.0001 0.0002 0.001 0.0035 0.0114 0.0319 0.0772 0.2661667 0.166 0.3165 0.5298 0.1292 0.2043 0.3204 0.7777167 0.5087 0.7534 1.0029 1.1837 1.1768 0.8284 2.6077 6.018567 6.4772 26.7951 30.8745 27.548 21.9805 23.5342 23.7811 19.13117 16.136 15.8364 16.1485 15.8221 14.9825 13.8183 12.79535 12.6946 7.2623 5.0413 3.2225 1.1239 1.0106 0.7268 0.6640334 0.7952 0.8467 0.7484 0.6213 0.4192 0.308 0.43465 0.2624 0.0947 0.145 0.0997 0.1029 0.4942 0.5767 0.4964167 0.0504 0.0457 0.0346 0.0671 0.0247 0.034 0.0348 0.03748333 0.0359 0.1104 0.5995 1.1624 0.859 0.0902 0.3098333 0.1943 0.0424 0.08 0.1551 0.2911 0.1704 0.0734 0.0557 0.0368 0.0442 0.0146 0.0287 0.0386 0.0439 0.05116666 0.0458 0.0457 0.0445 0.0423 0.0391 0.0348 0.0296 0.02766667 0.024 0.0083 0.012 0.0093 0.0061 0.0054 0.0025 0.00185 0.0017 0.0009 0.0005 0.00026 0.00015 0.0001 0.0001 0.0001 0.0001003906 0.0001 0.0001 0.0001001372 0.0001001433 0.0001 0.0001000305 0.0001 0.0001 0.0001 0.0001000001 0.0001 
0.0001 0.0001 0.0001 0.0001 0.0001 0.0001 0.0001 0.0001 0.0001 0.0001 0.0001 0.0001 0.0001 0.0001000015 0.0001000031 0.0001000031 0.0001 0.0001 0.0001 0.0001000003 0.0001000003 0.0001000001 0.0001 0.0001 0.0001 0.0001 0.0001001953 0.0001001305 0.0001 0.0001 0.0001 0.0001000686 0.0001010288 0.0001358126 0.0002 0.0002078125 0.0001748535 0.0001 0.000109375 0.0001203961 0.0001597479 0.0001793379 0.0001 0.0001125 0.000115625 0.0001 0.000125 0.00014375 0.0001 0.0001 0.00015 0.0001 0.00015 0.00035 0.0001 0.0003 0.001 0.0032 0.0087 0.04593333 0.0211 0.0451 0.0782 0.0157 0.0262 0.045 0.1615333 0.0775 0.1217 0.1674 0.1948 0.1626 0.1543 0.4771 1.799317 1.0337 14.2813 23.8668 19.0434 14.8666 15.5737 15.75468 16.4712 12.5556 13.0022 12.9642 12.0443 10.9853 9.6088 8.6966 7.7737 4.5061 2.8853 1.7003 0.713 0.6725 0.4603167 0.17 0.2312 0.246 0.1963 0.1538 0.0981 0.1318 0.1844833 0.1514 0.0643 0.1636 0.1037 0.0762 0.1474 0.145 0.15905 0.0401 0.031 0.0274 0.0351 0.0256 0.0302 0.03135 0.0281 0.041 0.0381 0.1189 0.4396 0.242 0.0297 0.07235 0.0637 0.0274 0.0242 0.0576 0.1019 0.0894 0.0548 0.0481 0.0339 0.0352 0.0228 0.0438 0.036 0.0391 0.0393 0.0395 0.0238 0.0322 0.0331 0.0308 0.0269 0.0223 0.02028333 0.0175 0.009 0.0073 0.0056 0.0037 0.001 0.0016 0.00132 0.0006 0.0002 0.0001 0.0003 0.000182 0.000125 0.0001 0.0001 0.0001 0.0001000977 0.0001 0.0001 0.0001000457 0.0001000472 0.0001 0.0001000102 0.0001 0.0001 0.0001 0.0001 
0.0001 0.0001 0.0001 0.0001 0.0001 0.0001 0.0001 0.0001 0.0001 0.0001 0.0001 0.0001 0.0001000008 0.0001000015 0.0001000015 0.0001 0.0001 0.0001 0.0001000001 0.0001000001 0.0001 0.0001 0.0001 0.0001 0.0001 0.0001000977 0.0001000652 0.0001 0.0001 0.0001 0.0001000229 0.0001003658 0.0001342275 0.0002 0.0002039063 0.0001706665 0.0001 0.0001046875 0.0001099237 0.0001298397 0.0001398705 0.0001 0.00010625 0.0001070313 0.0001 0.0001125 0.0001171875 0.0001 0.0001 0.0001125 0.0001 0.000125 0.000175 0.0001 0.0002 0.000375 0.0001 0.0004 0.002266667 0.0009 0.0017 0.0027 0.0093 0.0032 0.0048 0.0071 0.02463333 0.0105 0.0143 0.0147 0.0252 0.0225 0.0201 0.1207667 0.0623 0.1379 3.0377 11.3656 10.1839 6.1665 7.3877 8.506117 7.7802 6.1985 7.5105 8.0866 7.57 6.5281 5.0566 4.85655 3.2276 2.3285 2.5241 1.1141 0.1385 0.1609 0.1756167 0.0211 0.0748 0.0797 0.0741 0.0755 0.0669 0.1188 0.12835 0.1345 0.0595 0.157 0.1248 0.0696 0.0629 0.1027667 0.103 0.0391 0.0305 0.0286 0.0311 0.0289 0.0332 0.03093333 0.0278 0.0349 0.0336 0.0477 0.149 0.0807 0.019 0.03466666 0.0372 0.0296 0.0168 0.041 0.0699 0.071 0.06416667 0.0528 0.0369 0.0337 0.0263 0.0555 0.0331 0.0343 0.03335 0.0332 0.02 0.0165 0.0223 0.0223 0.0197 0.016 0.01453333 0.0123 0.0073 0.0067 0.002 0.0019 0.0008 0.0007166667 0.0002 0.00026 0.00025 0.00015 0.0001 0.0002 0.0001414 0.0001125 0.0001 0.0001 0.0001 0.0001000244 0.0001 0.0001 0.0001000152 0.0001000156 0.0001 0.0001000034 0.0001 0.0001 0.0001 
0.0001 0.0001 0.0001 0.0001 0.0001 0.0001 0.0001 0.0001 0.0001 0.0001 0.0001 0.0001000004 0.0001000008 0.0001000008 0.0001 0.0001 0.0001 0.0001 0.0001 0.0001 0.0001 0.0001 0.0001 0.0001 0.0001000488 0.0001000326 0.0001 0.0001 0.0001 0.0001000076 0.0001001296 0.000133654 0.0002 0.0002019531 0.0001686432 0.0001 0.0001023438 0.0001048704 0.000114817 0.0001199085 0.0001 0.000103125 0.0001033203 0.0001 0.00010625 0.0001074219 0.0001 0.0001 0.000103125 0.0001 0.0001125 0.000125 0.0001 0.00015 0.00019375 0.0001 0.0002 0.0001 0.00036 0.0003 0.0006 0.0009 0.0021 0.0037 0.0048 0.005375 0.0048 0.0029 0.0021 0.0027 0.0044 0.0032 0.0019 0.01625 0.0089 0.0177 0.4244 2.6072 2.6608 1.1866 1.7866 3.2803 2.0373 1.4533 2.1643 2.7209 2.7052 2.5623 2.9468 2.1083 1.3643 1.2148 1.159 0.5336 0.0729 0.0189 0.03816667 0.0103 0.065 0.063 0.0692 0.0786 0.0702 0.1151 0.1146167 0.1185 0.0545 0.1486 0.1183 0.0691 0.0739 0.07918333 0.0844 0.0369 0.0301 0.03 0.0325 0.0337 0.0371 0.0333 0.0292 0.033 0.0369 0.0419 0.0718 0.0814 0.0212 0.03388333 0.0372 0.0333 0.0209 0.0304 0.0578 0.064 0.0578 0.053 0.0394 0.0332 0.0269 0.0613 0.0283 0.028 0.02695 0.026 0.0154 0.0083 0.0136 0.0148 0.0134 0.01303333 0.0109 0.0082 0.0071 0.0025 0.0014 0.001 0.0005 0.00035 0.0002 0.0001 0.0001 0.00014 0.000125 0.0001 0.00015 0.00012078 0.00010625 0.0001 0.0001 0.0001 0.0001000061 0.0001 0.0001 0.0001000051 0.0001000052 0.0001 0.0001000011 0.0001 0.0001 
0.0001 0.0001 0.0001 0.0001 0.0001 0.0001 0.0001 0.0001 0.0001 0.0001 0.0001000002 0.0001000004 0.0001000004 0.0001 0.0001 0.0001 0.0001 0.0001 0.0001 0.0001 0.0001 0.0001 0.0001 0.0001000244 0.0001000163 0.0001 0.0001 0.0001 0.0001000025 0.0001000457 0.0001334478 0.0002 0.0002009766 0.0001676491 0.0001 0.0001011719 0.0001024047 0.0001073437 0.000109899 0.0001 0.0001015625 0.0001016113 0.0001 0.000103125 0.000103418 0.0001 0.0001 0.0001007813 0.0001 0.00010625 0.000109375 0.0001 0.000125 0.0001359375 0.0001 0.0001333333 0.0001 0.0001 0.00015 0.0001 0.0003 0.0008 0.0024 0.00325 0.00425 0.0048 0.002675 0.0018 0.0014 0.0017 0.0024 0.0015 0.0001 0.00376 0.0042 0.0066 0.0659 0.4571 0.4034 0.1935 0.3093 0.8168167 0.3807 0.2006 0.3534 0.5627 0.6932 0.7583 1.060717 0.6672 0.4691 0.3911 0.3185 0.1085 0.0263 0.007 0.01106667 0.0108 0.0703 0.0612 0.0759 0.0878 0.0713 0.08515 0.1029 0.0979 0.0476 0.137 0.1111 0.0667 0.0639 0.0743 0.087 0.0331 0.0289 0.0309 0.0354 0.0397 0.0415 0.03621667 0.031 0.0367 0.0366 0.0439 0.0601 0.0708 0.05716667 0.0478 0.0409 0.036 0.0233 0.0332 0.0408 0.0553 0.05268333 0.0507 0.0398 0.0321 0.0258 0.0613 0.0224 0.02195 0.0213 0.0189 0.0075 0.0065 0.0084 0.0092 0.0085 0.008883334 0.0097 0.0032 0.0035 0.0018 0.0009 0.0005 0.0003 0.0002333333 0.0001 0.000125 0.0001 0.0001 0.000113 0.0001125 0.0001 0.000125 0.000110406 0.000103125 0.0001 0.0001 0.0001 0.0001000015 0.0001 0.0001 0.0001000017 0.0001000017 0.0001 0.0001000004 0.0001 
0.0001 0.0001 0.0001 0.0001 0.0001 0.0001 0.0001 0.0001 0.0001 0.0001000001 0.0001000002 0.0001000002 0.0001 0.0001 0.0001 0.0001 0.0001 0.0001 0.0001 0.0001 0.0001 0.0001 0.0001000122 0.0001000081 0.0001 0.0001 0.0001 0.0001000008 0.0001000161 0.000133374 0.0002 0.0002004883 0.0001671564 0.0001 0.0001005859 0.0001011922 0.0001036401 0.0001049118 0.0001 0.0001007813 0.0001007935 0.0001 0.0001015625 0.0001016357 0.0001 0.0001 0.0001001953 0.0001 0.000103125 0.0001039062 0.0001 0.0001125 0.0001152344 0.0001 0.0001111111 0.0001 0.0001 0.00011 0.0001 0.0001 0.0001 0.0004 0.0012 0.0024 0.003675 0.002758333 0.001266667 0.0012 0.001 0.0013 0.002 0.0012 0.000975 0.00285 0.0037 0.0057 0.0583 0.125 0.1509 0.134 0.1825 0.298 0.089 0.051 0.0615 0.0905 0.1196 0.1392 0.29655 0.129 0.0968 0.0744 0.0551 0.0366 0.0242 0.0071 0.009933333 0.0123 0.0777 0.0612 0.0836 0.0961 0.0675 0.07621667 0.0839 0.0755 0.0394 0.122 0.1024 0.0629 0.0551 0.06758333 0.0815 0.0282 0.0266 0.031 0.039 0.046 0.04553333 0.0455 0.033 0.0401 0.0358 0.0459 0.0581 0.0683 0.06065 0.0535 0.0605 0.0371 0.0243 0.0243 0.0356 0.04113333 0.0471 0.046 0.0377 0.0299 0.0236 0.0566 0.0166 0.01615 0.0151 0.0128 0.0051 0.003 0.0047 0.0054 0.007 0.005666667 0.0038 0.0022 0.0019 0.0011 0.0006 0.0003 0.0002666667 0.0002 0.0001 0.0001 0.00010625 0.0001 0.0001 0.0001051 0.00010625 0.0001 0.0001125 0.0001052062 0.0001015625 0.0001 0.0001 0.0001 0.0001000004 0.0001 0.0001 0.0001000006 0.0001000006 0.0001 0.0001000001 
0.0001 0.0001 0.0001 0.0001 0.0001 0.0001 0.0001 0.0001 0.0001 0.0001000001 0.0001000001 0.0001 0.0001 0.0001 0.0001 0.0001 0.0001 0.0001 0.0001 0.0001 0.0001 0.0001000061 0.0001000041 0.0001 0.0001 0.0001 0.0001000003 0.0001000056 0.0001333477 0.0002 0.0002002441 0.0001669112 0.0001 0.000100293 0.0001005927 0.0001018061 0.000102436 0.0001 0.0001003906 0.0001003937 0.0001 0.0001007813 0.0001007996 0.0001 0.0001 0.0001000488 0.0001 0.0001015625 0.0001017578 0.0001 0.00010625 0.0001069336 0.0001 0.0001037037 0.0001 0.0001 0.000102 0.0001 0.0001 0.0001 0.0002 0.00025 0.0004 0.001333333 0.0024 0.0008444444 0.0008 0.0008 0.0007 0.001 0.0015 0.0011 0.001033333 0.003333333 0.0034 0.0202 0.0572 0.1013 0.1308 0.1169 0.1285833 0.0433 0.0651 0.0456 0.0423 0.0455 0.0489 0.0481 0.0695 0.0375 0.0616 0.0361 0.0244 0.0274 0.0148 0.0121 0.0079 0.0145 0.0859 0.0621 0.0915 0.1022 0.0594 0.06425 0.0723 0.0445 0.0307 0.104 0.092 0.0575 0.05298333 0.047 0.071 0.0226 0.0233 0.03 0.0429 0.0515 0.04985 0.049 0.0348 0.043 0.0401 0.0412 0.0564 0.0666 0.0612 0.0569 0.0784 0.0581 0.0241 0.0172 0.0291 0.03405 0.0389 0.0397 0.0338 0.0267 0.0206 0.0487 0.0115 0.01116667 0.01 0.0081 0.0023 0.002 0.0026 0.0041 0.0028 0.003083333 0.0022 0.0014 0.001 0.0006 0.0003 0.0002 0.00018 0.0001 0.0001333333 0.0001 0.0001 0.0001015625 0.0001 0.0001 0.00010227 0.000103125 0.0001 0.00010625 0.0001026037 0.0001007813 0.0001 0.0001 0.0001 0.0001000001 0.0001 0.0001 0.0001000002 0.0001000002 0.0001 
0.0001 0.0001 0.0001 0.0001 0.0001 0.0001 0.0001 0.0001 0.0001 0.0001 0.0001 0.0001 0.0001 0.0001 0.0001 0.0001 0.0001 0.0001 0.0001 0.0001 0.0001000031 0.000100002 0.0001 0.0001 0.0001 0.0001000001 0.000100002 0.0001333384 0.0002 0.0002001221 0.0001667888 0.0001 0.0001001465 0.0001002952 0.0001008973 0.0001012087 0.0001 0.0001001953 0.0001001961 0.0001 0.0001003906 0.0001003952 0.0001 0.0001 0.0001000122 0.0001 0.0001007813 0.0001008301 0.0001 0.000103125 0.0001032959 0.0001 0.0001012346 0.0001 0.0001 0.0001004 0.0001 0.0001 0.0001 0.0001333333 0.0001833333 0.0002833333 0.000325 0.0004 0.0009592593 0.0005 0.0004666667 0.0004 0.0005 0.0007 0.0011 0.0008 0.0008333334 0.0029 0.0029 0.017 0.075 0.1048 0.1315 0.1147 0.1606 0.0646 0.0672 0.0485 0.0452 0.0465 0.0459 0.04405 0.0392 0.024 0.0777 0.0339 0.0253 0.0224 0.0094 0.0094 0.0092 0.0173 0.0944 0.0638 0.0991 0.1051 0.07611667 0.0486 0.0538 0.0253 0.0224 0.0845 0.0797 0.0557 0.04583333 0.0397 0.0525 0.0171 0.0195 0.0277 0.046 0.0556 0.05255 0.0515 0.0359 0.0449 0.0363 0.0416 0.0542 0.064 0.06036667 0.0579 0.0717 0.0729 0.0227 0.0119 0.0226 0.02655 0.031 0.0327 0.0286 0.0227 0.0233 0.0335 0.0075 0.007266667 0.0063 0.0049 0.0014 0.0009 0.0018 0.0016 0.001933333 0.0015 0.0012 0.0008 0.0005 0.0003 0.0002 0.0001 0.0001333333 0.0001 0.0001 0.0001111111 0.0001 0.0001 0.0001003906 0.0001 0.0001 0.000101079 0.0001015625 0.0001 0.000103125 0.000101302 0.0001003906 0.0001 0.0001 0.0001 0.0001 0.0001 0.0001 0.0001000001 0.0001000001 
0.0001 0.0001 0.0001 0.0001 0.0001 0.0001 0.0001 0.0001 0.0001 0.0001 0.0001 0.0001 0.0001 0.0001 0.0001 0.0001 0.0001 0.0001 0.0001 0.0001000015 0.000100001 0.0001 0.0001 0.0001 0.0001 0.0001000007 0.0001333351 0.0002 0.000200061 0.0001667277 0.0001 0.0001000732 0.0001001472 0.0001004463 0.0001006003 0.0001 0.0001000977 0.0001000978 0.0001 0.0001001953 0.0001001965 0.0001 0.0001 0.0001000031 0.0001 0.0001003906 0.0001004028 0.0001 0.0001015625 0.0001016052 0.0001 0.0001004115 0.0001 0.0001 0.00010008 0.0001 0.0001 0.0001 0.0001111111 0.0001388889 0.0002 0.0002638889 0.0003361111 0.0003625 0.0003333333 0.0002777778 0.0002333333 0.0002 0.0003 0.0004 0.0008 0.0006 0.0006 0.002366667 0.0024 0.0139 0.0915 0.1209 0.2027 0.1959167 0.5454 0.0787 0.0694 0.0509 0.0485 0.0493 0.0463 0.0424 0.0359 0.0183 0.0979 0.0339 0.0256 0.0192 0.0089 0.007666667 0.0062 0.0205 0.1029 0.066 0.1057 0.1043 0.0702 0.0371 0.0333 0.0164 0.0154 0.0651 0.0724 0.0436 0.03785 0.0315 0.0379 0.0122 0.0155 0.0243 0.0475 0.0578 0.05326667 0.0499 0.0392 0.0456 0.0318 0.04 0.0511 0.05518333 0.0601 0.0567 0.0649 0.081 0.0203 0.0108 0.0146 0.01946667 0.0231 0.0256 0.023 0.0184 0.0225 0.0217 0.0139 0.0046 0.0037 0.0027 0.0008 0.0005 0.0007 0.0008 0.0009166666 0.0008 0.0006 0.0004 0.0003 0.0002 0.0001 0.0001333333 0.0001 0.0001083333 0.0001 0.0001 0.0001037037 0.0001 0.0001 0.0001000977 0.0001 0.0001 0.0001005283 0.0001007813 0.0001 0.0001015625 0.000100651 0.0001001953 0.0001 0.0001 0.0001 0.0001 0.0001 0.0001 0.0001 
0.0001 0.0001 0.0001 0.0001 0.0001 0.0001 0.0001 0.0001 0.0001 0.0001 0.0001 0.0001 0.0001 0.0001 0.0001 0.0001 0.0001 0.0001 0.0001000008 0.0001000005 0.0001 0.0001 0.0001 0.0001 0.0001000002 0.000133334 0.0002 0.0002000305 0.0001666972 0.0001 0.0001000366 0.0001000735 0.0001002223 0.0001002985 0.0001 0.0001000488 0.0001000489 0.0001 0.0001000977 0.0001000979 0.0001 0.0001 0.0001000008 0.0001 0.0001001953 0.0001001984 0.0001 0.0001007813 0.0001007919 0.0001 0.0001001372 0.0001 0.0001 0.000100016 0.0001 0.0001 0.0001 0.0001037037 0.0001166667 0.00015 0.0002009259 0.0002666667 0.0003208333 0.0002671296 0.0001814815 0.0001555556 0.0001333333 0.0001 0.0002 0.0003 0.0005 0.0004 0.0004333333 0.00145 0.0018 0.0109 0.1019 0.1218 0.1625 0.1821333 0.0187 0.0856 0.0695 0.0518 0.0504 0.0512 0.0476 0.04405 0.0395 0.0389 0.0839 0.0342 0.0253 0.0171 0.008 0.007566667 0.0043 0.0153 0.1108 0.0684 0.1109 0.0997 0.06276666 0.0264 0.0191 0.0098 0.01 0.0474 0.0613 0.0329 0.04058333 0.0237 0.0265 0.0082 0.0116 0.0202 0.0468 0.05166667 0.0581 0.0467 0.0414 0.0449 0.0271 0.037 0.0468 0.05053333 0.0549 0.0534 0.0579 0.0485625 0.0174 0.0093 0.0095 0.0092 0.0163 0.019 0.0176 0.0142 0.0194 0.0134 0.0092 0.0027 0.0021 0.0015 0.0004 0.0002 0.0003 0.0004 0.00045 0.0004 0.0003 0.0002 0.0001 0.0001 0.0001333333 0.0001 0.0001111111 0.0001 0.0001020833 0.0001 0.0001 0.0001012346 0.0001 0.0001 0.0001000244 0.0001 0.0001 0.0001002619 0.0001003906 0.0001 0.0001007813 0.0001003255 0.0001000977 0.0001 0.0001 0.0001 0.0001 0.0001 0.0001 
0.0001 0.0001 0.0001 0.0001 0.0001 0.0001 0.0001 0.0001 0.0001 0.0001 0.0001 0.0001 0.0001 0.0001 0.0001 0.0001 0.0001 0.0001000004 0.0001000003 0.0001 0.0001 0.0001 0.0001 0.0001000001 0.0001333336 0.0002 0.0002000153 0.0001666819 0.0001 0.0001000183 0.0001000367 0.0001001108 0.0001001486 0.0001 0.0001000244 0.0001000244 0.0001 0.0001000488 0.0001000489 0.0001 0.0001 0.0001000002 0.0001 0.0001000977 0.0001000984 0.0001 0.0001003906 0.0001003933 0.0001 0.0001000457 0.0001 0.0001 0.0001000032 0.0001 0.0001 0.0001 0.0001012346 0.0001067901 0.0001234568 0.0001558642 0.0002058642 0.0002628086 0.0002198148 0.0001358025 0.0001222222 0.0001111111 0.0001 0.0001 0.0001 0.0001 0.0003 0.0003166667 0.0003 0.0009 0.0013 0.0083 0.1045 0.1132 0.1316 0.08168333 0.0319 0.0865 0.0671 0.051 0.0508 0.0522 0.0496 0.04741667 0.0454 0.0515 0.0739 0.0344 0.0249 0.0161 0.01281667 0.0091 0.0089 0.0118 0.1178 0.0706 0.1138 0.0915 0.05443333 0.0176 0.0102 0.0055 0.0131 0.0831 0.1505 0.07805 0.0675 0.0443 0.0178 0.0052 0.0083 0.016 0.0436 0.04928333 0.0562 0.0447 0.0395 0.0377 0.0268 0.0334 0.0416 0.04495 0.0487 0.0483 0.0504 0.0824 0.0142 0.0075 0.0068 0.0056 0.011 0.0134 0.0128 0.0104 0.012 0.0113 0.006016667 0.0015 0.0011 0.0007 0.0002 0.0001 0.0002 0.0002 0.0001 0.0002 0.0001 0.0001 0.0001 0.0001 0.0001 0.0001111111 0.0001 0.0001037037 0.0001 0.0001005208 0.0001 0.0001 0.0001004115 0.0001 0.0001 0.0001000061 0.0001 0.0001 0.0001001305 0.0001001953 0.0001 0.0001003906 0.0001001628 0.0001000488 0.0001 0.0001 0.0001 0.0001 0.0001 
0.0001 0.0001 0.0001 0.0001 0.0001 0.0001 0.0001 0.0001 0.0001 0.0001 0.0001 0.0001 0.0001 0.0001 0.0001 0.0001 0.0001000002 0.0001000001 0.0001 0.0001 0.0001 0.0001 0.0001 0.0001333334 0.0002 0.0002000076 0.0001666743 0.0001 0.0001000092 0.0001000183 0.0001000553 0.000100074 0.0001 0.0001000122 0.0001000122 0.0001 0.0001000244 0.0001000244 0.0001 0.0001 0.0001 0.0001 0.0001000488 0.000100049 0.0001 0.0001001953 0.000100196 0.0001 0.0001000152 0.0001 0.0001 0.0001000006 0.0001 0.0001 0.0001 0.0001004115 0.0001026749 0.0001104938 0.0001287037 0.0001617284 0.000208179 0.0001814012 0.0001152263 0.000108642 0.0001037037 0.0001 0.0001 0.0001 0.0001 0.0001 0.0002 0.0002 0.0002 0.0005666667 0.0009 0.006 0.0998 0.0994 0.1062 0.07243333 0.0392 0.0822 0.0624 0.0484 0.0497 0.0523 0.05158333 0.0515 0.0509 0.0581 0.0665 0.0343 0.0245 0.0159 0.01333333 0.0107 0.011 0.0093 0.1233 0.0721 0.1141 0.09646667 0.0804 0.011 0.005 0.0054 0.026775 0.08223333 0.1168 0.0727 0.02262 0.0006 0.0115 0.0032 0.0056 0.012 0.0385 0.045 0.0525 0.0413 0.0363 0.0307 0.0249 0.0292 0.03248333 0.0359 0.0418 0.0421 0.0427 0.0782 0.011 0.0059 0.00475 0.0033 0.0071 0.009 0.0088 0.0073 0.0094 0.0064 0.003966667 0.0008 0.0005 0.0003 0.0002 0.00015 0.0001 0.000125 0.0001 0.0001 0.0001 0.0001 0.0001 0.0001 0.0001 0.0001 0.0001037037 0.0001 0.0001012346 0.0001 0.0001001302 0.0001 0.0001 0.0001001372 0.0001 0.0001 0.0001000015 0.0001 0.0001 0.0001000652 0.0001000977 0.0001 0.0001001953 0.0001000814 0.0001000244 0.0001 0.0001 0.0001 0.0001 
0.0001 0.0001 0.0001 0.0001 0.0001 0.0001 0.0001 0.0001 0.0001 0.0001 0.0001 0.0001 0.0001 0.0001 0.0001 0.0001000001 0.0001000001 0.0001 0.0001 0.0001 0.0001 0.0001 0.0001333334 0.0002 0.0002000038 0.0001666705 0.0001 0.0001000046 0.0001000092 0.0001000276 0.0001000369 0.0001 0.0001000061 0.0001000061 0.0001 0.0001000122 0.0001000122 0.0001 0.0001 0.0001 0.0001 0.0001000244 0.0001000245 0.0001 0.0001000977 0.0001000978 0.0001 0.0001000051 0.0001 0.0001 0.0001000001 0.0001 0.0001 0.0001 0.0001001372 0.0001010288 0.0001045267 0.0001139575 0.000133642 0.0001662037 0.0001517706 0.00010631 0.0001032922 0.0001012346 0.0001 0.0001 0.0001 0.0001 0.0001 0.0001333333 0.0001 0.00014 0.0001 0.00065 0.0006 0.0168 0.0769 0.0829 0.08421667 0.0847 0.041 0.0739 0.0558 0.0444 0.0473 0.0512 0.05158333 0.0527 0.0547 0.0608 0.0606 0.034 0.0242 0.0162 0.01435 0.012 0.0118 0.0332 0.0922 0.0724 0.1113 0.0889 0.0677 0.0064 0.004 0.0048 0.0054 0.05780208 0.05438667 0.0001 0.0001 0.0006 0.007 0.0018 0.0036 0.0085 0.02031667 0.032 0.0472 0.0367 0.0295 0.0267 0.0222 0.0249 0.0274 0.0299 0.0346 0.0353 0.0431 0.0617 0.0082 0.0043 0.003233333 0.0019 0.0043 0.0058 0.0058 0.0049 0.0068 0.0054 0.0034 0.0004 0.0003 0.0001 0.0001 0.000125 0.0001 0.0001 0.0001 0.0001 0.0001 0.0001 0.0001 0.0001 0.0001 0.0001 0.0001 0.0001012346 0.0001 0.0001004115 0.0001 0.0001000326 0.0001 0.0001 0.0001000457 0.0001 0.0001 0.0001000004 0.0001 0.0001 0.0001000326 0.0001000488 0.0001 0.0001000977 0.0001000407 0.0001000122 0.0001 0.0001 0.0001 
0.0001 0.0001 0.0001 0.0001 0.0001 0.0001 0.0001 0.0001 0.0001 0.0001 0.0001 0.0001 0.0001 0.0001 0.0001 0.0001 0.0001 0.0001 0.0001 0.0001 0.0001 0.0001333333 0.0002 0.0002000019 0.0001666686 0.0001 0.0001000023 0.0001000046 0.0001000138 0.0001000184 0.0001 0.0001000031 0.0001000031 0.0001 0.0001000061 0.0001000061 0.0001 0.0001 0.0001 0.0001 0.0001000122 0.0001000122 0.0001 0.0001000488 0.0001000489 0.0001 0.0001000017 0.0001 0.0001 0.0001 0.0001 0.0001 0.0001 0.0001000457 0.0001003887 0.0001018976 0.0001065043 0.0001173754 0.0001379344 0.0001309268 0.0001025606 0.0001012346 0.0001004115 0.0001 0.0001 0.0001 0.0001 0.0001 0.0001111111 0.0001 0.0001 0.0001 0.0001 0.0006666667 0.002 0.0099 0.067 0.0662 0.06665 0.0659 0.0386 0.0629 0.0479 0.0394 0.0437 0.0491 0.05045 0.0527 0.0564 0.0605 0.0554 0.0332 0.0238 0.0203 0.0168 0.0145 0.0183 0.025 0.0945 0.0712 0.1054 0.07956666 0.0545 0.0035 0.003925 0.004 0.004733333 0.0054 0.0001 0.0001 0.000375 0.0005 0.0041 0.001 0.0022 0.0057 0.01561667 0.0252 0.0408 0.0313 0.0251 0.0204 0.0188 0.0204 0.02238333 0.0241 0.0277 0.0284 0.0401 0.0466 0.0058 0.004466667 0.003 0.001 0.0026 0.0036 0.0037 0.0031 0.0046 0.003416667 0.0018 0.0002 0.0001 0.0001333333 0.0001 0.0001 0.000105 0.0001 0.0001 0.0001 0.0001 0.0001 0.0001 0.0001 0.0001 0.0001 0.0001 0.0001 0.0001004115 0.0001 0.0001001372 0.0001 0.0001000081 0.0001 0.0001 0.0001000152 0.0001 0.0001 0.0001000001 0.0001 0.0001 0.0001000163 0.0001000244 0.0001 0.0001000488 0.0001000203 0.0001000061 0.0001 0.0001 
0.0001 0.0001 0.0001 0.0001 0.0001 0.0001 0.0001 0.0001 0.0001 0.0001 0.0001 0.0001 0.0001 0.0001 0.0001 0.0001 0.0001 0.0001 0.0001 0.0001 0.0001333333 0.0002 0.000200001 0.0001666676 0.0001 0.0001000011 0.0001000023 0.0001000069 0.0001000092 0.0001 0.0001000015 0.0001000015 0.0001 0.0001000031 0.0001000031 0.0001 0.0001 0.0001 0.0001 0.0001000061 0.0001000061 0.0001 0.0001000244 0.0001000244 0.0001 0.0001000006 0.0001 0.0001 0.0001 0.0001 0.0001 0.0001 0.0001000152 0.0001001448 0.0001007773 0.0001029302 0.0001085924 0.0001206047 0.0001174851 0.0001010212 0.0001004572 0.0001001372 0.0001 0.0001 0.0001 0.0001 0.0001 0.0001037037 0.0001 0.0001 0.0001 0.0001 0.0001333333 0.0002 0.001 0.0066 0.0549 0.0505 0.05086667 0.0497 0.0333 0.051 0.0396 0.0338 0.0392 0.0458 0.04808334 0.0512 0.0558 0.0581 0.0506 0.032 0.0233 0.02025 0.0175 0.0165 0.0206 0.0189 0.0944 0.0683 0.0967 0.06915 0.0418 0.0018 0.002066667 0.00275625 0.004 0.002866667 0.0001 0.0002354167 0.0003 0.0003 0.0023 0.0005 0.0013 0.0036 0.01141667 0.0187 0.0339 0.0257 0.0206 0.015 0.0151 0.0162 0.01766667 0.0188 0.0214 0.022 0.0347 0.0337 0.0039 0.002933333 0.0016 0.0009 0.0015 0.0021 0.0022 0.0019 0.003 0.002033333 0.0009 0.0001 0.0001 0.0001 0.0001 0.0001 0.0001 0.000101 0.0001 0.0001 0.0001 0.0001 0.0001 0.0001 0.0001 0.0001 0.0001 0.0001 0.0001 0.0001001372 0.0001 0.0001000457 0.0001 0.000100002 0.0001 0.0001 0.0001000051 0.0001 0.0001 0.0001 0.0001 0.0001 0.0001000081 0.0001000122 0.0001 0.0001000244 0.0001000102 0.0001000031 0.0001 
0.0001 0.0001 0.0001 0.0001 0.0001 0.0001 0.0001 0.0001 0.0001 0.0001 0.0001 0.0001 0.0001 0.0001 0.0001 0.0001 0.0001 0.0001 0.0001 0.0001333333 0.0002 0.0002000005 0.0001666671 0.0001 0.0001000006 0.0001000011 0.0001000034 0.0001000046 0.0001 0.0001000008 0.0001000008 0.0001 0.0001000015 0.0001000015 0.0001 0.0001 0.0001 0.0001 0.0001000031 0.0001000031 0.0001 0.0001000122 0.0001000122 0.0001 0.0001000002 0.0001 0.0001 0.0001 0.0001 0.0001 0.0001 0.0001000051 0.0001000533 0.0001003124 0.0001012841 0.0001041 0.0001107091 0.0001094289 0.0001004014 0.0001001677 0.0001000457 0.0001 0.0001 0.0001 0.0001 0.0001 0.0001012346 0.0001 0.0001 0.0001 0.0001 0.0001208333 0.00015 0.0001 0.0006 0.0093 0.0372 0.0368 0.03731667 0.0361 0.0267 0.0393 0.0314 0.0281 0.0341 0.0377 0.0416 0.0481 0.0531 0.0541 0.0457 0.0303 0.0224 0.0199 0.0177 0.0176 0.0204 0.0143 0.0916 0.0636 0.07423333 0.0858 0.0307 0.0009 0.001033333 0.0012 0.002136285 0.00205 0.0001616319 0.0001888889 0.0001666667 0.0001 0.0013 0.0002 0.0007 0.0022 0.007916667 0.0131 0.0269 0.0202 0.0162 0.0107 0.0116 0.01216667 0.0124 0.0141 0.0159 0.0164 0.0283 0.0233 0.0025 0.001783333 0.0008 0.0006 0.0009 0.0012 0.0013 0.0014 0.001483333 0.0012 0.0007 0.00042 0.0001 0.0001 0.0001 0.0001 0.0001 0.0001 0.0001002 0.0001 0.0001 0.0001 0.0001 0.0001 0.0001 0.0001 0.0001 0.0001 0.0001 0.0001 0.0001000457 0.0001 0.0001000152 0.0001 0.0001000005 0.0001 0.0001 0.0001000017 0.0001 0.0001 0.0001 0.0001 0.0001 0.0001000041 0.0001000061 0.0001 0.0001000122 0.0001000051 0.0001000015 
0.0001 0.0001 0.0001 0.0001 0.0001 0.0001 0.0001 0.0001 0.0001 0.0001 0.0001 0.0001 0.0001 0.0001 0.0001 0.0001 0.0001 0.0001 0.0001333333 0.0002 0.0002000002 0.0001666669 0.0001 0.0001000003 0.0001000006 0.0001000017 0.0001000023 0.0001 0.0001000004 0.0001000004 0.0001 0.0001000008 0.0001000008 0.0001 0.0001 0.0001 0.0001 0.0001000015 0.0001000015 0.0001 0.0001000061 0.0001000061 0.0001 0.0001000001 0.0001 0.0001 0.0001 0.0001 0.0001 0.0001 0.0001000017 0.0001000195 0.0001001236 0.00010055 0.0001018988 0.0001053644 0.0001048832 0.0001001558 0.000100061 0.0001000152 0.0001 0.0001 0.0001 0.0001 0.0001 0.0001004115 0.0001 0.0001 0.0001 0.0001 0.0001114583 0.000125 0.0001 0.000325 0.0004 0.009 0.0245 0.02615 0.0257 0.0251 0.0201 0.0289 0.024 0.0226 0.0289 0.0327 0.0366 0.0437 0.0487 0.0489 0.0407 0.028 0.0211 0.01908333 0.0174 0.0175 0.0187 0.0108 0.0862 0.0575 0.06523333 0.0735 0.0214 0.0004 0.0005 0.0005888889 0.0006944445 0.0008049934 0.000137037 0.0001222222 0.0001 0.0001 0.0006 0.0001 0.0003 0.00085 0.0012 0.0087 0.02 0.0157 0.0122 0.0074 0.0086 0.009033334 0.0091 0.0102 0.0114 0.0117 0.0218 0.0155 0.008916667 0.0015 0.0004 0.0004 0.0005 0.0007 0.0009 0.0006 0.0007833333 0.0008 0.0003 0.0003666667 0.0002306667 0.0001 0.0001 0.0001 0.0001 0.0001 0.0001 0.00010004 0.0001 0.0001 0.0001 0.0001 0.0001 0.0001 0.0001 0.0001 0.0001 0.0001 0.0001 0.0001000152 0.0001 0.0001000051 0.0001 0.0001000001 0.0001 0.0001 0.0001000006 0.0001 0.0001 0.0001 0.0001 0.0001 0.000100002 0.0001000031 0.0001 0.0001000061 0.0001000032 
0.0001 0.0001 0.0001 0.0001 0.0001 0.0001 0.0001 0.0001 0.0001 0.0001 0.0001 0.0001 0.0001 0.0001 0.0001 0.0001 0.0001 0.0001333333 0.0002 0.0002000001 0.0001666668 0.0001 0.0001000001 0.0001000003 0.0001000009 0.0001000011 0.0001 0.0001000002 0.0001000002 0.0001 0.0001000004 0.0001000004 0.0001 0.0001 0.0001 0.0001 0.0001000008 0.0001000008 0.0001 0.0001000031 0.0001000031 0.0001 0.0001 0.0001 0.0001 0.0001 0.0001 0.0001 0.0001 0.0001000006 0.0001000071 0.0001000483 0.000100231 0.0001008575 0.0001026044 0.0001024428 0.0001000598 0.000100022 0.0001000051 0.0001 0.0001 0.0001 0.0001 0.0001 0.0001001372 0.0001 0.0001 0.0001 0.0001 0.0001059896 0.0001125 0.0001 0.0001979167 0.0002333333 0.0002 0.0073 0.0156 0.01723333 0.0171 0.0168 0.0142 0.0203 0.0176 0.0177 0.0237 0.02753333 0.0313 0.0384 0.0432 0.0429 0.0355 0.0252 0.02218333 0.0194 0.0165 0.0165 0.0164 0.0213 0.0623 0.0503 0.05546667 0.0607 0.0143 0.0002 0.0002333333 0.0002944444 0.0003481481 0.0002634259 0.0001074074 0.0001 0.0001 0.000275 0.0003 0.0002285714 0.0001 0.0004333333 0.0006 0.0054 0.0143 0.0117 0.0082 0.0055 0.0061 0.006466667 0.0064 0.0071 0.0079 0.0094 0.0145 0.0098 0.0057 0.0009 0.0002 0.0002 0.0003 0.0004 0.0004 0.0003 0.0004166667 0.0004 0.0001 0.0001666667 0.0002111111 0.0001528 0.0001 0.0001 0.0001 0.0001 0.0001 0.0001 0.000100008 0.0001 0.0001 0.0001 0.0001 0.0001 0.0001 0.0001 0.0001 0.0001 0.0001 0.0001 0.0001000051 0.0001 0.0001000017 0.0001 0.0001 0.0001 0.0001 0.0001000002 0.0001 0.0001 0.0001 0.0001 0.0001 0.000100001 0.0001000015 0.0001 0.0001000031 
0.0001 0.0001 0.0001 0.0001 0.0001 0.0001 0.0001 0.0001 0.0001 0.0001 0.0001 0.0001 0.0001 0.0001 0.0001 0.0001 0.0001333333 0.0002 0.0002000001 0.0001666667 0.0001 0.0001000001 0.0001000001 0.0001000004 0.0001000006 0.0001 0.0001000001 0.0001000001 0.0001 0.0001000002 0.0001000002 0.0001 0.0001 0.0001 0.0001 0.0001000004 0.0001000004 0.0001 0.0001000015 0.0001000015 0.0001 0.0001 0.0001 0.0001 0.0001 0.0001 0.0001 0.0001 0.0001000002 0.0001000025 0.0001000186 0.0001000955 0.0001003789 0.000101231 0.0001011861 0.0001000228 0.0001000079 0.0001000017 0.0001 0.0001 0.0001 0.0001 0.0001 0.0001000457 0.0001 0.0001 0.0001 0.0001 0.0001030599 0.00010625 0.0001 0.0001411458 0.0001555556 0.0001333333 0.0001 0.0053 0.0096 0.01091667 0.0109 0.0107 0.0096 0.0136 0.0125 0.0134 0.01633333 0.0189 0.0258 0.0325 0.037 0.0366 0.0303 0.0221 0.0196 0.0173 0.0151 0.0153 0.0164 0.0151 0.0556 0.0425 0.04445 0.0483 0.0091 0.0001 0.00015 0.0001611111 0.0001935185 0.000162963 0.0001 0.0001 0.0001604167 0.0001666667 0.0001 0.00014 0.0001 0.00024 0.0003 0.0032 0.0099 0.0077 0.0057 0.0039 0.0042 0.004466667 0.0044 0.0048 0.006 0.0063 0.0093 0.006 0.0035 0.0005 0.0001 0.0001 0.0002 0.0002 0.0002 0.0002 0.0002166667 0.0002 0.0001 0.0001 0.0001222222 0.0001444444 0.0001209304 0.0001 0.0001 0.0001 0.0001 0.0001 0.0001 0.0001000016 0.0001 0.0001 0.0001 0.0001 0.0001 0.0001 0.0001 0.0001 0.0001 0.0001 0.0001 0.0001000017 0.0001 0.0001000006 0.0001 0.0001 0.0001 0.0001 0.0001000001 0.0001 0.0001 0.0001 0.0001 0.0001 0.0001000005 0.0001000008 0.0001 
0.0001 0.0001 0.0001 0.0001 0.0001 0.0001 0.0001 0.0001 0.0001 0.0001 0.0001 0.0001 0.0001 0.0001 0.0001 0.0001333333 0.0002 0.0002 0.0001666667 0.0001 0.0001 0.0001000001 0.0001000002 0.0001000003 0.0001 0.0001 0.0001 0.0001 0.0001000001 0.0001000001 0.0001 0.0001 0.0001 0.0001 0.0001000002 0.0001000002 0.0001 0.0001000008 0.0001000008 0.0001 0.0001 0.0001 0.0001 0.0001 0.0001 0.0001 0.0001 0.0001000001 0.0001000009 0.0001000071 0.0001000389 0.0001001643 0.0001005684 0.0001005611 0.0001000086 0.0001000028 0.0001000006 0.0001 0.0001 0.0001 0.0001 0.0001 0.0001000152 0.0001 0.0001 0.0001 0.0001 0.0001015462 0.000103125 0.0001 0.0001167679 0.0001222222 0.0001111111 0.0001 0.0001 0.0036 0.00495 0.0057 0.0066 0.0065 0.0061 0.0088 0.0086 0.0098 0.01241667 0.0145 0.0206 0.0266 0.0305 0.0302 0.0252 0.0187 0.01681667 0.0149 0.0133 0.0137 0.0147 0.019 0.0446 0.03861667 0.0333 0.0316 0.0055 0.004475 0.0001 0.000125 0.0001287037 0.0001269444 0.0001 0.0001206597 0.0001222222 0.0001 0.0001 0.0001 0.0001 0.00015 0.0001 0.0018 0.0064 0.0051 0.0038 0.0027 0.00285 0.0028 0.0029 0.0031 0.0043 0.004 0.0057 0.0035 0.002066667 0.0003 0.0001 0.0001 0.0001 0.0001 0.0001 0.00015 0.0001 0.0001 0.000125 0.0001 0.0001 0.0001074074 0.0001172839 0.0001081367 0.0001 0.0001 0.0001 0.0001 0.0001 0.0001 0.0001000003 0.0001 0.0001 0.0001 0.0001 0.0001 0.0001 0.0001 0.0001 0.0001 0.0001 0.0001 0.0001000006 0.0001 0.0001000002 0.0001 0.0001 0.0001 0.0001 0.0001 0.0001 0.0001 0.0001 0.0001 0.0001 0.0001000003 0.0001000004 
0.0001 0.0001 0.0001 0.0001 0.0001 0.0001 0.0001 0.0001 0.0001 0.0001 0.0001 0.0001 0.0001 0.0001 0.0001333333 0.0002 0.0002 0.0001666667 0.0001 0.0001 0.0001 0.0001000001 0.0001000001 0.0001 0.0001 0.0001 0.0001 0.0001 0.0001 0.0001 0.0001 0.0001 0.0001 0.0001000001 0.0001000001 0.0001 0.0001000004 0.0001000004 0.0001 0.0001 0.0001 0.0001 0.0001 0.0001 0.0001 0.0001 0.0001 0.0001000003 0.0001000027 0.0001000156 0.0001000701 0.0001002572 0.0001002595 0.0001000032 0.000100001 0.0001000002 0.0001 0.0001 0.0001 0.0001 0.0001 0.0001000051 0.0001 0.0001 0.0001 0.0001 0.0001007772 0.0001015625 0.0001 0.0001066611 0.000108642 0.0001037037 0.0001 0.0001 0.0018 0.0022 0.002983333 0.0033 0.0038 0.0038 0.0037 0.0055 0.0057 0.007 0.00915 0.0109 0.016 0.021 0.0244 0.0242 0.0203 0.0154 0.01398333 0.0125 0.0113 0.012 0.0137 0.0189 0.034 0.02873333 0.0217 0.0235 0.0032 0.0035 0.00251875 0.0001 0.0001125 0.0001103009 0.0001070168 0.0001074074 0.0001 0.0001 0.0001 0.0001 0.0001083333 0.0001 0.0001 0.001 0.0039 0.0032 0.0024 0.0017 0.001866667 0.0018 0.0018 0.0019 0.0026 0.0028 0.0034 0.002 0.001183333 0.0001 0.00014 0.0001 0.0001 0.0001 0.0001 0.0001 0.0001 0.0001 0.0001 0.00010625 0.0001 0.0001 0.0001024691 0.0001065844 0.0001031088 0.0001 0.0001 0.0001 0.0001 0.0001 0.0001 0.0001000001 0.0001 0.0001 0.0001 0.0001 0.0001 0.0001 0.0001 0.0001 0.0001 0.0001 0.0001 0.0001000002 0.0001 0.0001000001 0.0001 0.0001 0.0001 0.0001 0.0001 0.0001 0.0001 0.0001 0.0001 0.0001 0.0001000002 
0.0001 0.0001 0.0001 0.0001 0.0001 0.0001 0.0001 0.0001 0.0001 0.0001 0.0001 0.0001 0.0001 0.0001333333 0.0002 0.0002 0.0001666667 0.0001 0.0001 0.0001 0.0001000001 0.0001000001 0.0001 0.0001 0.0001 0.0001 0.0001 0.0001 0.0001 0.0001 0.0001 0.0001 0.0001 0.0001 0.0001 0.0001000002 0.0001000002 0.0001 0.0001 0.0001 0.0001 0.0001 0.0001 0.0001 0.0001 0.0001 0.0001000001 0.000100001 0.0001000062 0.0001000295 0.0001001143 0.0001001176 0.0001000012 0.0001000004 0.0001000001 0.0001 0.0001 0.0001 0.0001 0.0001 0.0001000017 0.0001 0.0001 0.0001 0.0001 0.0001003896 0.0001007813 0.0001 0.0001025912 0.0001032922 0.0001012346 0.0001 0.0001 0.001075 0.0014 0.0013 0.0017 0.0018 0.0021 0.0021 0.0022 0.0033 0.0037 0.0048 0.006566667 0.0079 0.0119 0.0161 0.0188 0.0187 0.0159 0.01425 0.0123 0.0101 0.0094 0.0102 0.0126 0.0166 0.0248 0.0201 0.014 0.0168 0.0018 0.002 0.0022 0.001510243 0.0001 0.00010625 0.0001024691 0.0001 0.0001 0.0001 0.0001 0.0001 0.0001 0.0001 0.000475 0.0005 0.0023 0.0019 0.0015 0.0011 0.001166667 0.0011 0.0011 0.0012 0.0015 0.0018 0.0019 0.00165 0.0011 0.0001 0.0001 0.000108 0.0001 0.0001 0.0001 0.0001 0.0001 0.0001 0.0001 0.0001 0.0001015625 0.0001 0.0001 0.000100823 0.0001024691 0.0001011705 0.0001 0.0001 0.0001 0.0001 0.0001 0.0001 0.0001 0.0001 0.0001 0.0001 0.0001 0.0001 0.0001 0.0001 0.0001 0.0001 0.0001 0.0001 0.0001000001 0.0001 0.0001 0.0001 0.0001 0.0001 0.0001 0.0001 0.0001 0.0001 0.0001 0.0001 0.0001 
0.0001 0.0001 0.0001 0.0001 0.0001 0.0001 0.0001 0.0001 0.0001 0.0001 0.0001 0.0001 0.0001333333 0.0002 0.0002 0.0001666667 0.0001 0.0001 0.0001 0.0001 0.0001 0.0001 0.0001 0.0001 0.0001 0.0001 0.0001 0.0001 0.0001 0.0001 0.0001 0.0001 0.0001 0.0001 0.0001000001 0.0001000001 0.0001 0.0001 0.0001 0.0001 0.0001 0.0001 0.0001 0.0001 0.0001 0.0001 0.0001000004 0.0001000024 0.0001000122 0.00010005 0.0001000524 0.0001000004 0.0001000001 0.0001 0.0001 0.0001 0.0001 0.0001 0.0001 0.0001000006 0.0001 0.0001 0.0001 0.0001 0.0001001951 0.0001003906 0.0001 0.0001009907 0.0001012346 0.0001004115 0.0001 0.0001 0.0007645834 0.001033333 0.001 0.0007 0.0009333334 0.0009 0.0011 0.0011 0.0012 0.0019 0.0023 0.002933333 0.0033 0.0055 0.0086 0.0118 0.014 0.0141 0.0121 0.01096667 0.0095 0.0079 0.0075 0.0085 0.011 0.0134 0.01566667 0.0173 0.0088 0.0116 0.001 0.0011 0.001222222 0.001355556 0.00092432 0.0001 0.0001 0.0001 0.0001 0.0001 0.0001 0.0001 0.0001 0.0002604167 0.0003 0.0003 0.0013 0.0011 0.0009 0.00085 0.0007 0.0006 0.0006 0.0007 0.0008 0.0011 0.001 0.0008833333 0.0005 0.0005 0.0001 0.0001 0.0001016 0.0001 0.0001 0.0001 0.0001 0.0001 0.0001 0.0001 0.0001 0.0001003906 0.0001 0.0001 0.0001002744 0.0001009145 0.0001004353 0.0001 0.0001 0.0001 0.0001 0.0001 0.0001 0.0001 0.0001 0.0001 0.0001 0.0001 0.0001 0.0001 0.0001 0.0001 0.0001 0.0001 0.0001 0.0001 0.0001 0.0001 0.0001 0.0001 0.0001 0.0001 0.0001 0.0001 0.0001 0.0001 0.0001 
0.0001 0.0001 0.0001 0.0001 0.0001 0.0001 0.0001 0.0001 0.0001 0.0001 0.0001 0.0001333333 0.0002 0.0002 0.0001666667 0.0001 0.0001 0.0001 0.0001 0.0001 0.0001 0.0001 0.0001 0.0001 0.0001 0.0001 0.0001 0.0001 0.0001 0.0001 0.0001 0.0001 0.0001 0.0001 0.0001 0.0001 0.0001 0.0001 0.0001 0.0001 0.0001 0.0001 0.0001 0.0001 0.0001 0.0001000001 0.000100001 0.000100005 0.0001000216 0.000100023 0.0001000002 0.0001 0.0001 0.0001 0.0001 0.0001 0.0001 0.0001 0.0001000002 0.0001 0.0001 0.0001 0.0001 0.0001000976 0.0001001953 0.0001 0.0001003734 0.0001004572 0.0001001372 0.0001 0.0001 0.0006251736 0.0008611111 0.00085 0.0007 0.0004333333 0.0004 0.0005 0.0006 0.0006 0.0007 0.0011 0.0014 0.001866667 0.0021 0.0037 0.006 0.0084 0.0101 0.0102 0.0089 0.008166667 0.0071 0.0059 0.0056 0.0053 0.0109 0.0102 0.01116667 0.0117 0.0054 0.0077 0.0005 0.0005666667 0.0006444444 0.0007314815 0.0008228395 0.0004145986 0.0001 0.0001 0.0001 0.0001 0.0001 0.0001 0.0001678819 0.0001888889 0.0001666667 0.0001 0.0007 0.0006 0.0005 0.0005 0.0004 0.0004 0.0004 0.0004 0.0004 0.0007 0.0005 0.00045 0.0003 0.0003 0.0002666667 0.0001 0.0001 0.0001002667 0.0001 0.0001 0.0001 0.0001 0.0001 0.0001 0.0001 0.0001 0.0001000977 0.0001 0.0001 0.0001000914 0.0001003353 0.0001001602 0.0001 0.0001 0.0001 0.0001 0.0001 0.0001 0.0001 0.0001 0.0001 0.0001 0.0001 0.0001 0.0001 0.0001 0.0001 0.0001 0.0001 0.0001 0.0001 0.0001 0.0001 0.0001 0.0001 0.0001 0.0001 0.0001 0.0001 0.0001 0.0001 
0.0001 0.0001 0.0001 0.0001 0.0001 0.0001 0.0001 0.0001 0.0001 0.0001 0.0001333333 0.0002 0.0002 0.0001666667 0.0001 0.0001 0.0001 0.0001 0.0001 0.0001 0.0001 0.0001 0.0001 0.0001 0.0001 0.0001 0.0001 0.0001 0.0001 0.0001 0.0001 0.0001 0.0001 0.0001 0.0001 0.0001 0.0001 0.0001 0.0001 0.0001 0.0001 0.0001 0.0001 0.0001 0.0001 0.0001000004 0.000100002 0.0001000092 0.0001000099 0.0001000001 0.0001 0.0001 0.0001 0.0001 0.0001 0.0001 0.0001 0.0001000001 0.0001 0.0001 0.0001 0.0001 0.0001000488 0.0001000977 0.0001 0.0001001391 0.0001001677 0.0001000457 0.0001 0.0001 0.0005603443 0.0007787037 0.000775 0.0007 0.0003791667 0.0002333333 0.0002 0.0002 0.0003 0.0003 0.0003 0.0006 0.0008 0.00115 0.0013 0.0025 0.0041 0.0058 0.007 0.0072 0.006966667 0.0063 0.0051 0.0043 0.0041 0.0045 0.0082 0.0072 0.0076 0.0072 0.0044 0.0043 0.0002 0.0002666667 0.0003277778 0.0003814815 0.0004404321 0.0004010031 0.0001 0.0001 0.0001 0.0001 0.0001 0.0001280816 0.000137037 0.0001222222 0.0001 0.0001 0.0004 0.0003 0.0003 0.0002666667 0.0002 0.0002 0.0002 0.0002 0.0002 0.0004 0.0003 0.0002333333 0.0001 0.0001666667 0.0001888889 0.0001694445 0.0001 0.0001 0.0001 0.0001 0.0001 0.0001 0.0001 0.0001 0.0001 0.0001 0.0001 0.0001000244 0.0001 0.0001 0.0001000305 0.0001001219 0.0001000585 0.0001 0.0001 0.0001 0.0001 0.0001 0.0001 0.0001 0.0001 0.0001 0.0001 0.0001 0.0001 0.0001 0.0001 0.0001 0.0001 0.0001 0.0001 0.0001 0.0001 0.0001 0.0001 0.0001 0.0001 0.0001 0.0001 0.0001 0.0001 
0.0001 0.0001 0.0001 0.0001 0.0001 0.0001 0.0001 0.0001 0.0001 0.0001333333 0.0002 0.0002 0.0001666667 0.0001 0.0001 0.0001 0.0001 0.0001 0.0001 0.0001 0.0001 0.0001 0.0001 0.0001 0.0001 0.0001 0.0001 0.0001 0.0001 0.0001 0.0001 0.0001 0.0001 0.0001 0.0001 0.0001 0.0001 0.0001 0.0001 0.0001 0.0001 0.0001 0.0001 0.0001 0.0001000001 0.0001000008 0.0001000039 0.0001000042 0.0001 0.0001 0.0001 0.0001 0.0001 0.0001 0.0001 0.0001 0.0001 0.0001 0.0001 0.0001 0.0001 0.0001000244 0.0001000488 0.0001 0.0001000513 0.000100061 0.0001000152 0.0001 0.0001 0.0005294572 0.0007387346 0.0007375 0.0007 0.0003413194 0.0001611111 0.00015 0.0001 0.0001 0.0001 0.0001 0.0002 0.0003 0.0005 0.0007 0.0008 0.0016 0.0026 0.0038 0.0047 0.0049 0.0048 0.0043 0.0036 0.003 0.0028 0.0027 0.007 0.0043 0.004916667 0.005 0.0032 0.0024 0.0001 0.00015 0.0001722222 0.0002083333 0.0002407407 0.0002774177 0.0002094702 0.0001 0.0001 0.0001 0.0001113414 0.0001148148 0.0001074074 0.0001 0.0001 0.0002 0.0002 0.0002 0.0001 0.00015 0.0001 0.0001 0.0001 0.0001 0.0001 0.0002 0.0002 0.0001 0.0001 0.0001 0.0001222222 0.000137037 0.0001284722 0.0001 0.0001 0.0001 0.0001 0.0001 0.0001 0.0001 0.0001 0.0001 0.0001 0.0001 0.0001000061 0.0001 0.0001 0.0001000102 0.000100044 0.0001000212 0.0001 0.0001 0.0001 0.0001 0.0001 0.0001 0.0001 0.0001 0.0001 0.0001 0.0001 0.0001 0.0001 0.0001 0.0001 0.0001 0.0001 0.0001 0.0001 0.0001 0.0001 0.0001 0.0001 0.0001 0.0001 0.0001 0.0001 
0.0001 0.0001 0.0001 0.0001 0.0001 0.0001 0.0001 0.0001 0.0001333333 0.0002 0.0002 0.0001666667 0.0001 0.0001 0.0001 0.0001 0.0001 0.0001 0.0001 0.0001 0.0001 0.0001 0.0001 0.0001 0.0001 0.0001 0.0001 0.0001 0.0001 0.0001 0.0001 0.0001 0.0001 0.0001 0.0001 0.0001 0.0001 0.0001 0.0001 0.0001 0.0001 0.0001 0.0001 0.0001000001 0.0001000003 0.0001000016 0.0001000018 0.0001 0.0001 0.0001 0.0001 0.0001 0.0001 0.0001 0.0001 0.0001 0.0001 0.0001 0.0001 0.0001 0.0001000122 0.0001000244 0.0001 0.0001000187 0.000100022 0.0001000051 0.0001 0.0001 0.0005144984 0.0007191615 0.00071875 0.0007 0.0003206308 0.0001287037 0.000125 0.0001 0.0001 0.0001 0.0001 0.0001 0.0001 0.0002 0.00025 0.0003 0.0005 0.001 0.0017 0.0025 0.0031 0.0032 0.0032 0.0029 0.0024 0.002 0.0019 0.0022 0.0046 0.0038 0.0024 0.0034 0.0022 0.0013 0.0011 0.0001 0.000125 0.0001324074 0.0001510803 0.00016893 0.0001901492 0.0001388312 0.0001 0.0001044814 0.0001057613 0.0001024691 0.0001 0.0001 0.0001375 0.00015 0.0001 0.0001 0.000125 0.0001 0.0001 0.0001 0.0001 0.0001 0.0001 0.0001 0.000125 0.0001 0.0001 0.0001 0.0001 0.0001074074 0.0001148148 0.000111439 0.0001 0.0001 0.0001 0.0001 0.0001 0.0001 0.0001 0.0001 0.0001 0.0001 0.0001 0.0001000015 0.0001 0.0001 0.0001000034 0.0001000158 0.0001000076 0.0001 0.0001 0.0001 0.0001 0.0001 0.0001 0.0001 0.0001 0.0001 0.0001 0.0001 0.0001 0.0001 0.0001 0.0001 0.0001 0.0001 0.0001 0.0001 0.0001 0.0001 0.0001 0.0001 0.0001 0.0001 0.0001 
0.0001 0.0001 0.0001 0.0001 0.0001 0.0001 0.0001 0.0001333333 0.0002 0.0002 0.0001666667 0.0001 0.0001 0.0001 0.0001 0.0001 0.0001 0.0001 0.0001 0.0001 0.0001 0.0001 0.0001 0.0001 0.0001 0.0001 0.0001 0.0001 0.0001 0.0001 0.0001 0.0001 0.0001 0.0001 0.0001 0.0001 0.0001 0.0001 0.0001 0.0001 0.0001 0.0001 0.0001 0.0001000001 0.0001000007 0.0001000007 0.0001 0.0001 0.0001 0.0001 0.0001 0.0001 0.0001 0.0001 0.0001 0.0001 0.0001 0.0001 0.0001 0.0001000061 0.0001000122 0.0001 0.0001000068 0.0001000079 0.0001000017 0.0001 0.0001 0.0005071745 0.0007095122 0.000709375 0.0007 0.0003101538 0.0001137346 0.0001125 0.0001 0.0001 0.0001 0.0001 0.0001 0.0001 0.000125 0.0001 0.00016 0.0001 0.0003 0.0006 0.001 0.0015 0.0019 0.002 0.002083333 0.0019 0.0016 0.0013 0.0013 0.0016 0.0029 0.00235 0.0016 0.0022 0.0014 0.0006 0.0007333333 0.000575 0.0001 0.0001125 0.0001149691 0.0001240998 0.0001333676 0.0001337374 0.0001017376 0.0001021948 0.000100823 0.0001 0.0001 0.000115625 0.000125 0.0001 0.0001 0.0001 0.0001 0.0001 0.0001 0.0001 0.0001 0.0001 0.0001 0.0001 0.0001 0.0001 0.0001 0.0001 0.0001 0.0001 0.0001024691 0.0001057613 0.0001045059 0.0001 0.0001 0.0001 0.0001 0.0001 0.0001 0.0001 0.0001 0.0001 0.0001 0.0001 0.0001000004 0.0001 0.0001 0.0001000011 0.0001000056 0.0001000027 0.0001 0.0001 0.0001 0.0001 0.0001 0.0001 0.0001 0.0001 0.0001 0.0001 0.0001 0.0001 0.0001 0.0001 0.0001 0.0001 0.0001 0.0001 0.0001 0.0001 0.0001 0.0001 0.0001 0.0001 0.0001 
0.0001 0.0001 0.0001 0.0001 0.0001 0.0001 0.0001333333 0.0002 0.0002 0.0001666667 0.0001 0.0001 0.0001 0.0001 0.0001 0.0001 0.0001 0.0001 0.0001 0.0001 0.0001 0.0001 0.0001 0.0001 0.0001 0.0001 0.0001 0.0001 0.0001 0.0001 0.0001 0.0001 0.0001 0.0001 0.0001 0.0001 0.0001 0.0001 0.0001 0.0001 0.0001 0.0001 0.0001 0.0001000003 0.0001000003 0.0001 0.0001 0.0001 0.0001 0.0001 0.0001 0.0001 0.0001 0.0001 0.0001 0.0001 0.0001 0.0001 0.0001000031 0.0001000061 0.0001 0.0001000025 0.0001000028 0.0001000006 0.0001 0.0001 0.0005035629 0.0007047332 0.0007046875 0.0007 0.0003049851 0.0001066615 0.00010625 0.0001 0.0001 0.0001 0.0001 0.0001 0.0001 0.00010625 0.0001 0.0001 0.0001 0.0001 0.0002 0.0003 0.0006 0.0009 0.0012 0.001316667 0.0013 0.0012 0.001 0.0008 0.0009 0.0011 0.0016 0.001433333 0.001 0.0014 0.0009 0.0003 0.0003666667 0.0004333333 0.0003368056 0.0001 0.00010625 0.000107073 0.0001114326 0.0001160665 0.000100823 0.0001002744 0.0001 0.0001 0.0001070313 0.0001125 0.0001 0.0001 0.0001 0.0001 0.0001 0.0001 0.0001 0.0001 0.0001 0.0001 0.0001 0.0001 0.0001 0.0001 0.0001 0.0001 0.0001 0.0001 0.0001 0.000100823 0.0001021948 0.0001017437 0.0001 0.0001 0.0001 0.0001 0.0001 0.0001 0.0001 0.0001 0.0001 0.0001 0.0001 0.0001000001 0.0001 0.0001 0.0001000004 0.000100002 0.000100001 0.0001 0.0001 0.0001 0.0001 0.0001 0.0001 0.0001 0.0001 0.0001 0.0001 0.0001 0.0001 0.0001 0.0001 0.0001 0.0001 0.0001 0.0001 0.0001 0.0001 0.0001 0.0001 0.0001 0.0001 
0.0001 0.0001 0.0001 0.0001 0.0001 0.0001333333 0.0002 0.0002 0.0001666667 0.0001 0.0001 0.0001 0.0001 0.0001 0.0001 0.0001 0.0001 0.0001 0.0001 0.0001 0.0001 0.0001 0.0001 0.0001 0.0001 0.0001 0.0001 0.0001 0.0001 0.0001 0.0001 0.0001 0.0001 0.0001 0.0001 0.0001 0.0001 0.0001 0.0001 0.0001 0.0001 0.0001 0.0001000001 0.0001000001 0.0001 0.0001 0.0001 0.0001 0.0001 0.0001 0.0001 0.0001 0.0001 0.0001 0.0001 0.0001 0.0001 0.0001000015 0.0001000031 0.0001 0.0001000009 0.000100001 0.0001000002 0.0001 0.0001 0.0005017734 0.000702359 0.0007023438 0.0007 0.0003024524 0.0001032622 0.000103125 0.0001 0.0001 0.0001 0.0001 0.0001 0.0001 0.0001015625 0.0001 0.0001 0.0001 0.0001 0.0001333333 0.0001 0.0002 0.0003 0.0005 0.0007 0.0008 0.0008 0.0007 0.0006 0.0005 0.0005 0.0007 0.0009 0.0008 0.0006 0.0009 0.0005 0.0002 0.0002 0.0002388889 0.0002740741 0.000220544 0.0001 0.000103125 0.0001033993 0.0001054648 0.0001000914 0.0001 0.0001 0.0001033203 0.00010625 0.0001 0.0001 0.0001 0.0001 0.0001 0.0001 0.0001 0.0001 0.0001 0.0001 0.0001 0.0001 0.0001 0.0001 0.0001 0.0001 0.0001 0.0001 0.0001 0.0001 0.0001 0.0001002744 0.000100823 0.0001006646 0.0001 0.0001 0.0001 0.0001 0.0001 0.0001 0.0001 0.0001 0.0001 0.0001 0.0001 0.0001 0.0001 0.0001 0.0001000001 0.0001000007 0.0001000003 0.0001 0.0001 0.0001 0.0001 0.0001 0.0001 0.0001 0.0001 0.0001 0.0001 0.0001 0.0001 0.0001 0.0001 0.0001 0.0001 0.0001 0.0001 0.0001 0.0001 0.0001 0.0001 0.0001 
0.0001 0.0001 0.0001 0.0001 0.0001333333 0.0002 0.0002 0.0001666667 0.0001 0.0001 0.0001 0.0001 0.0001 0.0001 0.0001 0.0001 0.0001 0.0001 0.0001 0.0001 0.0001 0.0001 0.0001 0.0001 0.0001 0.0001 0.0001 0.0001 0.0001 0.0001 0.0001 0.0001 0.0001 0.0001 0.0001 0.0001 0.0001 0.0001 0.0001 0.0001 0.0001 0.0001 0.0001 0.0001 0.0001 0.0001 0.0001 0.0001 0.0001 0.0001 0.0001 0.0001 0.0001 0.0001 0.0001 0.0001 0.0001000008 0.0001000015 0.0001 0.0001000003 0.0001000004 0.0001000001 0.0001 0.0001 0.0005008841 0.0007011769 0.0007011719 0.0007 0.0003012105 0.0001016082 0.0001015625 0.0001 0.0001 0.0001 0.0001 0.0001 0.0001 0.0001003906 0.0001 0.0001 0.0001 0.0001 0.0001111111 0.0001 0.000125 0.0001 0.0002 0.0003 0.0004 0.00045 0.0004 0.0004 0.0004 0.0003 0.0003 0.0004 0.0004 0.00045 0.0003 0.0005 0.0003 0.0001 0.00015 0.00015 0.0001712963 0.0001901235 0.0001617332 0.0001 0.0001015625 0.0001016539 0.0001 0.0001 0.0001016113 0.000103125 0.0001 0.0001 0.0001 0.0001 0.0001 0.0001 0.0001 0.0001 0.0001 0.0001 0.0001 0.0001 0.0001 0.0001 0.0001 0.0001 0.0001 0.0001 0.0001 0.0001 0.0001 0.0001 0.0001 0.0001000914 0.0001003048 0.00010025 0.0001 0.0001 0.0001 0.0001 0.0001 0.0001 0.0001 0.0001 0.0001 0.0001 0.0001 0.0001 0.0001 0.0001 0.0001 0.0001000003 0.0001000001 0.0001 0.0001 0.0001 0.0001 0.0001 0.0001 0.0001 0.0001 0.0001 0.0001 0.0001 0.0001 0.0001 0.0001 0.0001 0.0001 0.0001 0.0001 0.0001 0.0001 0.0001 0.0001 
0.0001 0.0001 0.0001 0.0001333333 0.0002 0.0002 0.0001666667 0.0001 0.0001 0.0001 0.0001 0.0001 0.0001 0.0001 0.0001 0.0001 0.0001 0.0001 0.0001 0.0001 0.0001 0.0001 0.0001 0.0001 0.0001 0.0001 0.0001 0.0001 0.0001 0.0001 0.0001 0.0001 0.0001 0.0001 0.0001 0.0001 0.0001 0.0001 0.0001 0.0001 0.0001 0.0001 0.0001 0.0001 0.0001 0.0001 0.0001 0.0001 0.0001 0.0001 0.0001 0.0001 0.0001 0.0001 0.0001 0.0001000004 0.0001000008 0.0001 0.0001000001 0.0001000001 0.0001 0.0001 0.0001 0.0005004412 0.0007005876 0.000700586 0.0007 0.0003005994 0.0001007965 0.0001007813 0.0001 0.0001 0.0001 0.0001 0.0001 0.0001 0.0001000977 0.0001 0.0001 0.0001 0.0001 0.0001037037 0.0001 0.00010625 0.0001 0.0001 0.0001 0.0002 0.0002 0.0002333333 0.0002 0.0002 0.0002 0.0002 0.0002 0.0002 0.00025 0.0003 0.0002 0.0003 0.0001 0.00015 0.0001 0.000125 0.000125 0.0001362654 0.0001462963 0.000131592 0.0001 0.0001007813 0.0001 0.0001007935 0.0001015625 0.0001 0.0001 0.0001 0.0001 0.0001 0.0001 0.0001 0.0001 0.0001 0.0001 0.0001 0.0001 0.0001 0.0001 0.0001 0.0001 0.0001 0.0001 0.0001 0.0001 0.0001 0.0001 0.0001 0.0001 0.0001 0.0001000305 0.0001001118 0.000100093 0.0001 0.0001 0.0001 0.0001 0.0001 0.0001 0.0001 0.0001 0.0001 0.0001 0.0001 0.0001 0.0001 0.0001 0.0001 0.0001000001 0.0001 0.0001 0.0001 0.0001 0.0001 0.0001 0.0001 0.0001 0.0001 0.0001 0.0001 0.0001 0.0001 0.0001 0.0001 0.0001 0.0001 0.0001 0.0001 0.0001 0.0001 0.0001 
0.0001 0.0001 0.0001333333 0.0002 0.0002 0.0001666667 0.0001 0.0001 0.0001 0.0001 0.0001 0.0001 0.0001 0.0001 0.0001 0.0001 0.0001 0.0001 0.0001 0.0001 0.0001 0.0001 0.0001 0.0001 0.0001 0.0001 0.0001 0.0001 0.0001 0.0001 0.0001 0.0001 0.0001 0.0001 0.0001 0.0001 0.0001 0.0001 0.0001 0.0001 0.0001 0.0001 0.0001 0.0001 0.0001 0.0001 0.0001 0.0001 0.0001 0.0001 0.0001 0.0001 0.0001 0.0001 0.0001000002 0.0001000004 0.0001 0.0001 0.0001 0.0001 0.0001 0.0001 0.0005002203 0.0007002935 0.000700293 0.0007 0.0003002976 0.0001003957 0.0001003906 0.0001 0.0001 0.0001 0.0001 0.0001 0.0001 0.0001000244 0.0001 0.0001 0.0001 0.0001 0.0001012346 0.0001 0.0001015625 0.0001 0.0001 0.0001 0.0001 0.0001 0.00014 0.0001 0.0001 0.0001 0.0002 0.0001 0.0001 0.0001 0.00015 0.0001 0.0001 0.0002 0.0001 0.0001 0.0001125 0.0001 0.0001125 0.0001125 0.0001183385 0.0001246699 0.0001175297 0.0001 0.0001003927 0.0001007813 0.0001 0.0001 0.0001 0.0001 0.0001 0.0001 0.0001 0.0001 0.0001 0.0001 0.0001 0.0001 0.0001 0.0001 0.0001 0.0001 0.0001 0.0001 0.0001 0.0001 0.0001 0.0001 0.0001 0.0001 0.0001 0.0001 0.0001 0.0001000102 0.0001000406 0.0001000347 0.0001 0.0001 0.0001 0.0001 0.0001 0.0001 0.0001 0.0001 0.0001 0.0001 0.0001 0.0001 0.0001 0.0001 0.0001 0.0001 0.0001 0.0001 0.0001 0.0001 0.0001 0.0001 0.0001 0.0001 0.0001 0.0001 0.0001 0.0001 0.0001 0.0001 0.0001 0.0001 0.0001 0.0001 0.0001 0.0001 0.0001 
0.0001 0.0001333333 0.0002 0.0002 0.0001666667 0.0001 0.0001 0.0001 0.0001 0.0001 0.0001 0.0001 0.0001 0.0001 0.0001 0.0001 0.0001 0.0001 0.0001 0.0001 0.0001 0.0001 0.0001 0.0001 0.0001 0.0001 0.0001 0.0001 0.0001 0.0001 0.0001 0.0001 0.0001 0.0001 0.0001 0.0001 0.0001 0.0001 0.0001 0.0001 0.0001 0.0001 0.0001 0.0001 0.0001 0.0001 0.0001 0.0001 0.0001 0.0001 0.0001 0.0001 0.0001 0.0001000001 0.0001000002 0.0001 0.0001 0.0001 0.0001 0.0001 0.0001 0.0004334801 0.00070022 0.0007001465 0.0007 0.0003668644 0.0001002955 0.0001001953 0.0001 0.0001 0.0001 0.0001 0.0001 0.0001 0.0001000061 0.0001 0.0001 0.0001 0.0001 0.0001004115 0.0001 0.0001005208 0.0001 0.0001 0.0001 0.0001 0.0001 0.0001 0.0001 0.0001 0.0001 0.0001 0.00012 0.0001 0.0001 0.0001 0.0001 0.0001 0.0001 0.0001 0.0001333333 0.0001 0.0001 0.0001041667 0.0001 0.00010625 0.000109375 0.0001138567 0.0001192633 0.0001122643 0.0001002604 0.0001 0.0001 0.0001 0.0001 0.0001 0.0001 0.0001 0.0001 0.0001 0.0001 0.0001 0.0001 0.0001 0.0001 0.0001 0.0001 0.0001 0.0001 0.0001 0.0001 0.0001 0.0001 0.0001 0.0001 0.0001 0.0001 0.0001 0.0001 0.0001 0.0001000051 0.0001000229 0.0001000192 0.0001 0.0001 0.0001 0.0001 0.0001 0.0001 0.0001 0.0001 0.0001 0.0001 0.0001 0.0001 0.0001 0.0001 0.0001 0.0001 0.0001 0.0001 0.0001 0.0001 0.0001 0.0001 0.0001 0.0001 0.0001 0.0001 0.0001 0.0001 0.0001 0.0001 0.0001 0.0001 0.0001 0.0001 0.0001 0.0001 
