ncols         102
nrows         59
xllcorner     94.939849807591
yllcorner     29.782900341173
cellsize      0.00030793363234127
NODATA_value  -9999
0.0002 0.0002 0.0002 0.0002 0.0001444505 0.0001000092 0.0001000061 0.0001 0.0001000488 0.0001000732 0.0001000488 0.0001 0.0001000227 0.0001000229 0.0001 0.0001 0.0001001829 0.0001 0.00010625 0.000111677 0.0001342078 0.0001977366 0.0003754115 0.0004659987 0.0001 0.0001012346 0.0001 0.0001 0.0001026042 0.0001 0.0001111111 0.0001 0.000125 0.0001388889 0.0002541667 0.0002 0.0002 0.0007333333 0.0003 0.0014 0.0038 0.0557 0.17775 0.2307 2.9737 7.54 7.54 12.1763 17.1813 16.9131 16.6366 13.5789 12.18 7.69585 2.97735 2.97735 0.7632 4.225744 4.5184 5.21489 4.061403 3.601438 2.7735 19.63311 25.46738 24.40903 23.2661 18.80472 13.47167 11.11363 9.79961 9.430325 9.0576 6.470147 3.636569 2.200155 1.199348 0.5575579 0.2082222 0.0564048 0.01001273 0.001083393 0.000871875 0.0007 0.02994195 0.02108455 0.007607676 0.002461943 0.0008762346 0.0004723637 0.0003567687 0.0003296875 0.0003 0.0005340147 0.0004544353 0.0003533922 0.0003182013 0.000309375 0.0003 0.0002199557 0.0001552495 0.0001422932 
0.00015 0.0002 0.0002 0.0002 0.0002 0.0001333425 0.0001000122 0.0001000122 0.0001 0.0001000733 0.0001000977 0.0001000977 0.0001 0.0001000452 0.0001000457 0.0001 0.0001 0.0001005487 0.0001 0.0001125 0.0001225309 0.0001675926 0.0003030864 0.0006555556 0.000805353 0.0001 0.0001037037 0.0001 0.0001 0.0001104167 0.0001 0.0001333333 0.0001 0.00015 0.0001666667 0.0005 0.0002 0.00186 0.0017 0.0093 0.0385 0.1248 0.5884 1.740133 2.734275 5.7167 9.3633 17.32372 14.9893 19.3733 16.3767 14.1598 10.2002 16.55927 5.1915 0.7632 7.395633 4.5184 6.93045 4.981333 4.429375 2.7735 22.62291 27.58409 25.55195 23.2661 22.07593 16.87718 12.99966 10.53818 9.80305 9.0576 7.978869 5.38474 3.459378 2.065591 1.075495 0.4569585 0.14022 0.02748801 0.00150643 0.00104375 0.0007 0.0609822 0.04200161 0.01608399 0.005168056 0.001570988 0.000646785 0.0004109311 0.000359375 0.0003 0.0008086067 0.0006218793 0.0004055727 0.0003358539 0.00031875 0.0003 0.0002499984 0.0001811621 0.0001486622 0.0001359241 
0.0001 0.00015 0.0002 0.0002 0.0002 0.0002 0.0001333516 0.0001000244 0.0001000244 0.0001 0.0001001465 0.0001001953 0.0001001953 0.0001 0.0001001351 0.0001001372 0.0001 0.0001 0.0001016461 0.0001 0.000125 0.0001425926 0.0002351852 0.0005314815 0.0012 0.001389931 0.0001 0.0001111111 0.0001 0.0001 0.0001416667 0.0001 0.0002 0.0001 0.0002 0.0002 0.0014 0.005133333 0.0057 0.0362 0.1544 0.5247 1.35496 1.4734 3.5163 10.18628 20.7874 17.32372 24.1549 25.0517 29.3482 29.1074 25.59432 27.2246 23.6208 16.9053 4.5184 11.0329 6.08525 6.08525 2.7735 28.23197 31.64837 27.8378 23.2661 26.4145 22.18107 16.44205 12.00844 10.5485 9.0576 10.01353 7.710342 5.134008 3.30987 1.934255 0.9526475 0.3395833 0.07864475 0.00243179 0.0013875 0.0007 0.1285292 0.08094424 0.03375535 0.01130525 0.003191358 0.001007562 0.0005140432 0.00041875 0.0003 0.001438851 0.0009864197 0.0005091564 0.0003700617 0.0003375 0.0003 0.000299012 0.0002268433 0.0001741384 0.0001425047 0.0001293435 
0.0001 0.0001 0.0001500001 0.0002 0.0002 0.0002 0.0002 0.00013337 0.0001000488 0.0001000488 0.0001 0.0001002932 0.0001003906 0.0001003906 0.0001 0.0001004034 0.0001004115 0.0001 0.0001 0.0001049383 0.0001 0.00015 0.0001777778 0.0003777778 0.001038889 0.002183333 0.0022375 0.0001 0.0001333333 0.0001 0.0001 0.0002666667 0.0001 0.0004 0.0015 0.0037 0.00985 0.0056 0.0162 0.0824 0.384 1.2599 2.025533 3.392 7.5566 14.1774 16.5645 21.9051 25.66883 29.3013 33.3642 35.9364 35.883 36.9375 36.2893 32.6553 19.1833 34.96556 9.397 2.7735 38.47538 39.2695 32.4095 23.2661 30.77699 29.25646 22.35843 14.92831 12.0394 9.0576 12.77721 10.90316 7.316128 4.911735 3.174161 1.843713 0.7848907 0.2293389 0.00452037 0.002075 0.0007 0.2956304 0.1486555 0.06913087 0.0250463 0.007088889 0.001780556 0.0007046296 0.0005375 0.0003 0.00293133 0.00180679 0.0007172839 0.0004351852 0.000375 0.0003 0.0003843455 0.0002949074 0.0002167953 0.0001688272 0.0001367927 0.0001218943 
0.0001 0.0001000001 0.0001 0.0001500002 0.0002 0.0002 0.0002 0.0002 0.0001334066 0.0001000977 0.0001000977 0.0001 0.0001005867 0.0001007813 0.0001007813 0.0001 0.000101202 0.0001012346 0.0001 0.0001 0.0001148148 0.0001 0.0002 0.0002333333 0.0007 0.002183333 0.003666667 0.003 0.0001 0.0002 0.0001 0.0007 0.0006 0.0026 0.0091 0.0217 0.05346667 0.0265 0.0356 0.1628 0.5428 1.6174 2.76085 3.8858 7.6807 12.7825 18.5107 22.10645 24.1674 29.87205 34.32167 40.6367 40.453 45.4554 50.6849 58.282 76.946 44.42835 64.7831 56.5856 52.9895 41.5529 23.2661 32.77863 35.71527 31.34797 20.70613 15.0212 9.0576 16.22456 15.42761 10.39906 6.882828 4.6665 3.185878 1.670106 0.6751556 0.009411111 0.00345 0.0007 0.790766 0.2552741 0.1357815 0.05491111 0.0167 0.003527778 0.001038889 0.000775 0.0003 0.006560504 0.003718518 0.001146296 0.0005555556 0.00045 0.0003 0.000564388 0.0004009259 0.0002720679 0.0002117284 0.0001665895 0.0001281636 0.000115625 
0.0001 0.0001 0.0001000002 0.0001 0.0001500005 0.0002 0.0002 0.0002000001 0.0002 0.0001334801 0.0001001953 0.0001001953 0.0001 0.0001011749 0.0001015625 0.0001015625 0.0001 0.0001035735 0.0001037037 0.0001 0.0001 0.0001444444 0.0001 0.0003 0.0003 0.0015 0.00475 0.00475 0.0024 0.0001 0.0004 0.001483333 0.0023 0.0111 0.0444 0.1258 0.2747833 0.1375 0.0536 0.1701 0.6318 1.1922 1.9384 4.4716 8.5692 13.9952 20.0397 21.40665 25.708 30.8749 35.8165 36.60955 41.73425 43.299 49.8226 76.2302 50.5107 51.7301 45.75 43.0549 39.4833 36.0894 34.91127 34.0867 40.9831 32.076 20.9848 9.0576 19.19783 21.52547 15.11733 9.640034 6.4398 4.56865 2.99105 1.997933 0.02133333 0.0062 0.0007 2.512742 0.3992445 0.2503778 0.1162 0.04076667 0.007766667 0.001566667 0.00125 0.0003 0.01555313 0.008316667 0.002072222 0.0007666667 0.0006 0.0003 0.001021441 0.0006018518 0.0003342593 0.0002666667 0.0002152778 0.0001532407 0.00013125 0.0001 
0.0001 0.0001000001 0.0001 0.0001000006 0.0001 0.0001500016 0.0002 0.0002 0.0002000005 0.0002 0.0001336273 0.0001003906 0.0001003906 0.0001 0.000102356 0.000103125 0.000103125 0.0001 0.0001105903 0.0001111111 0.0001 0.0001 0.0002333333 0.0001 0.0005 0.005025 0.0025 0.007 0.1020333 0.0001 0.0007 0.01355 0.0048 0.0277 0.142 0.6168 1.217083 0.7204 0.1662 0.2077 0.6731 1.271917 1.7497 4.144 8.1008 12.7883 14.73873 17.7429 22.2712 27.2305 32.4391 37.5459 44.92525 51.90073 53.77258 38.8024 37.1902 38.95443 35.2006 32.7203 36.3758 36.861 35.83607 37.6115 39.2834 37.9041 35.1399 29.89195 28.8972 19.6387 16.0405 9.6728 3.2068 10.1311 5.9305 0.0516 0.0117 0.0007 9.081034 0.5478 0.4214333 0.2285 0.1012 0.0189 0.0022 0.0022 0.0003 0.0380625 0.01963333 0.004216667 0.0011 0.0009 0.0003 0.002296875 0.001088889 0.0004 0.0003166667 0.0002861111 0.0001972222 0.0001625 0.0001 0.0001 
0.0001 0.0001 0.0001000004 0.0001 0.0001000017 0.0001 0.0001500048 0.0002 0.0002 0.000200002 0.0002 0.0001339233 0.0001007813 0.0001007813 0.0001 0.0001047363 0.00010625 0.00010625 0.0001 0.00013125 0.0001333333 0.0001 0.0001 0.0005 0.0028 0.01433333 0.0143 0.0589 0.1925 0.3536 1.078067 0.0321 0.041 0.1914 0.7576 2.4056 3.806333 3.2964 3.4145 0.7518 0.78 1.75075 1.8585 3.5738 5.8612 9.3585 12.04372 14.5078 17.6708 21.6147 26.7858 32.0598 40.58662 66.7963 47.685 35.15603 31.9687 34.36647 33.1064 33.3751 34.5807 34.9174 34.87015 35.4504 36.5614 38.4893 40.7394 39.20158 44.5328 39.1444 14.9706 10.1521 15.3553 14.58177 16.0318 15.4277 18.0453 26.6299 15.29348 0.6125 0.4831 0.1687 0.0337 0.586725 0.0041 0.0003 0.09455 0.04775 0.00965 0.0015 0.0015 0.0003 0.0059375 0.002433333 0.0005166667 0.0003166667 0.0003666667 0.0002666667 0.000225 0.0001 0.0001 0.0001037037 
0.0001 0.0001 0.0001 0.0001000013 0.0001 0.0001000051 0.0001 0.0001500144 0.0002 0.0002 0.0002000081 0.0002 0.0001345215 0.0001015625 0.0001015625 0.0001 0.0001095703 0.0001125 0.0001125 0.0001 0.0001916667 0.0002 0.000675 0.00275 0.011 0.04764 0.0549 0.2221 0.7235 1.905 3.383883 4.1769 5.6866 6.6192 8.9996 6.8749 11.18803 8.9239 9.661 8.0962 3.304 7.50735 2.1392 3.9743 6.2062 8.3159 10.34277 9.5489 13.008 14.4596 21.5359 26.82448 38.4981 28.033 26.0246 29.2653 27.60788 29.56727 30.06752 30.6621 31.3688 31.787 31.4289 32.5936 35.2185 37.5966 39.9259 40.93538 45.9743 45.5605 15.939 15.4704 17.0773 22.1856 24.7806 26.6903 31.3002 43.0629 28.12443 6.1614 3.84 2.5907 1.5524 2.403667 0.7567 0.2824 0.0789 0.0166 0.214125 0.0027 0.0003 0.01635 0.00615 0.00095 0.0002 0.0004 0.00035 0.00035 0.0001 0.0001 0.0001111111 0.0001185185 
0.0001 0.0001 0.0001 0.0001 0.0001000039 0.0001 0.0001000152 0.0001 0.0001500432 0.0002 0.0002 0.0002000325 0.0002 0.0001357422 0.000103125 0.000103125 0.0001 0.0001195313 0.000125 0.000125 0.0001 0.0003666667 0.0003 0.0018 0.012475 0.063225 0.1552 0.6091 1.8994 4.6774 7.502483 9.1583 14.2767 18.1489 18.7316 22.32587 21.681 23.9464 25.6211 26.0932 22.5708 22.82572 14.3916 8.669 7.8952 9.3586 12.5231 10.9669 14.0208 27.7543 22.8315 22.91538 19.2358 17.0616 19.2568 23.2778 23.2849 25.9197 27.2743 27.14387 28.32022 25.9961 28.0183 27.8289 30.7629 33.2323 35.6288 38.10168 38.8111 35.9735 26.8196 18.3818 21.04425 20.9186 25.5911 29.5365 34.5335 38.34008 42.2896 49.9903 14.809 9.8498 7.2473 8.461367 4.8278 2.9066 1.5032 0.6303 1.943667 0.2069 0.0528 0.0106 0.0017 0.0345 0.0002 0.007125 0.0006 0.0001 0.0001 0.0001333333 0.0001444444 0.0001481481 
0.0001 0.0001 0.0001 0.0001 0.0001 0.0001000119 0.0001 0.0001000457 0.0001 0.0001501295 0.0002 0.0002 0.0002001302 0.0002 0.0001382812 0.00010625 0.00010625 0.0001 0.000140625 0.00015 0.00015 0.0001 0.0007 0.0053 0.0318 0.1454 0.583 1.324467 3.7154 8.6799 12.67613 16.4174 24.2278 30.0499 35.5705 38.38185 42.0976 47.079 52.6136 54.5587 49.42344 50.9998 43.5489 36.2015 27.2204 20.6478 24.02518 16.3005 18.3092 20.8251 18.6236 20.20392 16.7674 14.9244 15.0648 16.5832 21.55663 21.3785 23.4507 24.8359 25.2714 22.62692 23.88105 21.8859 23.8844 25.7442 27.0534 31.65493 41.2166 36.0799 36.6789 27.6389 22.52717 21.6702 25.0383 29.7562 35.1795 36.69562 43.6748 58.4693 20.4106 20.2753 19.001 14.07153 17.383 14.7407 11.194 7.193 3.565267 3.6125 1.3839 0.4374 0.1125 0.06213333 0.0236 0.0041 0.002766667 0.000675 0.0002 0.0002 0.0001888889 0.0001814815 
0.0001 0.0001 0.0001 0.0001000002 0.0001 0.0001 0.0001000356 0.0001 0.0001001372 0.0001 0.0001503887 0.0002 0.0002 0.0002005208 0.0002 0.00014375 0.0001125 0.0001125 0.0001 0.0001875 0.0002 0.0002 0.0016 0.0116 0.0683 0.21392 0.3263 1.2414 5.690834 12.7356 15.55527 24.3882 36.2468 43.196 53.0719 53.87592 59.1385 63.2392 67.3015 71.2644 70.65995 71.0537 65.0799 57.2616 48.5198 48.9355 44.75985 37.9418 28.3426 25.0053 22.8919 23.85353 20.8733 19.0146 19.1664 20.3088 17.42367 21.8718 17.3202 19.0165 19.4269 19.34006 19.8133 20.0209 21.7377 21.0737 24.7054 22.8889 22.5143 21.748 27.2633 26.5132 21.1853 20.0403 21.4811 25.1848 29.257 32.69005 35.2393 41.6491 56.2102 25.5458 20.55535 19.4432 16.5269 13.5 9.9797 6.2759 4.520033 3.473 1.6625 0.6119 0.1877 0.07578333 0.0471 0.0098 0.0017 0.0003 0.0003 0.0002333333 0.0002111111 0.0001962963 
0.0001 0.0001 0.0001000002 0.0001 0.0001000008 0.0001 0.0001 0.0001001067 0.0001 0.0001004115 0.0001 0.000151166 0.0002 0.0002 0.0002020833 0.0002 0.00015625 0.000125 0.000125 0.0001 0.0003 0.0003 0.0028 0.0199 0.06846666 0.114 0.5292 1.9696 5.8031 10.20685 21.137 29.31152 38.4984 50.9908 62.731 62.77717 70.646 75.0715 79.5614 85.4721 89.52631 90.611 85.8074 83.0018 102.1599 79.08366 77.9782 66.7553 57.3056 48.9401 37.1812 37.14995 26.7838 21.3993 18.2018 14.6828 16.69543 9.7169 12.7454 14.5603 15.4849 16.66158 16.7038 18.364 19.474 20.0966 19.17735 13.2898 8.5539 10.6195 15.259 15.9722 17.74782 15.277 18.1544 21.3729 24.5181 27.70755 28.2716 31.2425 53.2741 21.7649 26.828 17.3019 14.1876 10.8856 7.4596 6.186367 4.385 2.1808 0.8712 0.288 0.0702 0.0698 0.0136 0.0022 0.0003 0.00056 0.0002 0.0002 0.0001888889 0.0001814815 
0.0001079854 0.0001 0.0001 0.0001000006 0.0001 0.0001000031 0.0001 0.0001 0.0001003201 0.0001 0.0001012346 0.0001 0.0001534979 0.0002 0.0002 0.0002083333 0.0002 0.0001875 0.00015 0.00015 0.0001 0.0006 0.005 0.0318 0.1105 0.1652 0.6957 2.4605 8.0462 11.91796 14.2425 33.1817 39.44098 49.94328 60.7331 66.5799 70.3425 81.1525 90.9349 102.7864 109.4718 115.9703 151.5256 112.1226 98.8618 97.11217 98.0468 90.393 83.0861 77.2475 67.56329 66.3203 48.8492 32.4808 23.5105 19.0365 19.4718 14.5558 14.9463 13.0381 12.9246 15.62827 15.616 16.3749 17.5894 17.6405 13.4025 9.045275 8.90845 6.6501 10.5187 13.84432 12.9278 15.7564 18.6209 21.2065 23.3977 25.14745 25.5616 28.8716 41.1765 56.4911 32.27282 20.4211 13.9768 9.457 5.7314 4.959583 3.2866 1.8403 0.8396 0.2973 0.0823 0.03668333 0.0179 0.0031 0.0004 0.0001 0.0001 0.0001333333 0.0001444444 0.0001481481 
0.0001106915 0.0001132648 0.0001 0.0001 0.0001000025 0.0001 0.0001000122 0.0001 0.0001 0.0001009602 0.0001 0.0001037037 0.0001 0.0001604938 0.0002 0.0002 0.0002333333 0.0002 0.000275 0.0002 0.0002 0.0014 0.0104 0.0604 0.20635 0.2717 0.8678 1.4749 13.9656 13.80388 17.5324 27.2686 37.1485 49.5579 53.4287 64.2203 68.4469 83.2391 96.4734 111.5519 116.1633 150.439 106.8193 92.2568 97.9943 98.99837 107.632 98.1147 89.7221 87.9238 83.35822 87.7668 76.6443 58.0786 45.2373 38.7794 25.93108 20.0594 18.8301 17.0675 16.4924 16.85317 16.5479 16.7095 15.438 13.0255 12.73956 9.6542 4.6832 8.27095 9.5772 12.56732 14.5439 17.6794 20.517 22.6181 24.1201 24.5437 25.0156 27.3741 37.2852 59.1001 40.1242 18.5578 11.9014 8.2822 5.5656 4.73295 3.3293 1.4938 0.5262 0.1454 0.1338 0.031 0.0051 0.0007 0.0001 0.000175 0.0001 0.0001 0.0001111111 0.0001138889 
0.0001045429 0.00011684 0.0001316762 0.0001 0.0001 0.0001000102 0.0001 0.0001000488 0.0001 0.0001 0.0001028807 0.0001 0.0001111111 0.0001 0.0001814815 0.0002 0.0002 0.0003333333 0.0002 0.00055 0.0003 0.0024 0.0181 0.1141 0.5080333 0.5949 2.5357 5.9312 11.091 15.49905 17.9456 26.4683 34.7328 46.0651 49.33482 57.3587 66.86871 80.37939 93.9736 126.9226 97.55405 89.3096 77.2108 80.0376 93.625 91.38485 97.8303 90.6767 86.4173 88.84 87.29758 92.0509 85.8122 70.9177 52.5105 46.09353 32.7351 30.4203 24.3839 21.9178 20.5338 18.7997 19.0043 14.8739 14.8374 12.5948 11.10217 10.7828 6.6337 8.8611 12.2789 14.40847 17.0318 19.3941 22.1315 24.0545 24.33843 25.0337 24.1335 25.1396 31.9772 42.8576 42.12638 43.3175 13.2031 9.524 6.55 5.568683 3.9348 1.9149 0.7208 0.204 0.1939333 0.0428 0.0067 0.0008 0.0001 0.0001 0.00011875 0.0001 0.0001 0.0001 
0.0001015604 0.0001075255 0.0001414342 0.0001777452 0.0001 0.0001 0.0001000407 0.0001 0.0001001953 0.0001 0.0001 0.000108642 0.0001 0.0001333333 0.0001 0.0002444444 0.0002 0.0002 0.0007333333 0.0002 0.0015 0.0117 0.076 0.3954 0.90785 1.6117 3.8766 8.1275 13.3279 16.53437 19.1318 25.0256 32.3214 41.6681 48.06305 52.0243 62.042 78.1013 95.09124 96.53455 60.184 46.9172 49.8307 59.203 71.0864 76.47964 80.1411 80.7857 81.7739 83.9895 81.0254 83.2145 75.6392 64.7857 57.5744 50.46408 49.7245 43.175 33.5008 26.4662 24.10457 22.7728 17.447 16.7795 16.1225 12.4718 11.39453 8.0839 8.4127 11.0391 14.3013 15.34186 16.5098 19.96267 22.3702 24.8678 24.91456 25.3364 24.028 24.3599 28.8334 33.859 36.8635 52.0618 17.4911 11.953 8.4828 7.045533 5.5496 3.146 1.4884 0.5684 0.4418333 0.172 0.0411 0.0092 0.002625 0.0001 0.00013 0.0001 0.0001 0.0001259259 
0.0001003086 0.0001028121 0.0001194559 0.0002020347 0.0002894901 0.0001 0.0001 0.0001001628 0.0001 0.0001007813 0.0001 0.0001 0.0001259259 0.0001 0.0002 0.0001 0.0004333333 0.0002 0.00212 0.0018 0.0143 0.0657 0.3527 0.8647 0.9769 1.7541 5.6479 10.9744 16.3066 18.74658 21.4033 26.3324 32.0295 40.5102 47.07648 50.7519 57.0344 71.4007 105.058 61.5059 41.49648 41.71712 34.4861 42.1125 51.57824 52.9535 63.2415 65.1192 67.3862 69.6153 66.91732 68.4422 62.7172 56.5861 54.9484 54.42585 55.2916 47.7734 37.5742 30.1874 27.09735 22.7494 19.8599 18.774 17.8646 14.2617 12.37482 10.1722 10.0942 12.2638 15.652 16.70122 17.9673 20.6103 23.163 24.29205 25.19143 25.2804 23.6428 24.1741 27.5179 32.41957 35.1044 58.3448 21.1375 14.2798 10.4303 10.32877 7.3257 4.6791 2.5969 1.2063 1.625067 0.4575 0.1831 0.0004 0.0032 0.00025 0.0001 0.0001 0.0001777778 0.0001 
0.0001 0.0001006173 0.0001078189 0.0001499314 0.0003483539 0.0005596752 0.0001 0.0001 0.000100651 0.0001 0.000103125 0.0001 0.0001 0.0001777778 0.0001 0.0004 0.0001 0.001 0.009466667 0.0074 0.047 0.2683 0.8438 1.5185 2.5434 6.528 10.0164 13.8685 18.6127 21.2289 23.6972 29.1351 36.6775 44.9829 56.2021 52.5215 53.6451 97.8888 52.1988 46.52312 28.5828 30.3019 30.15757 31.99575 38.72435 32.5358 36.8543 37.8695 41.0579 46.2148 50.62093 50.0276 51.604 52.3758 54.7808 52.65771 54.2354 48.5414 38.5141 33.06 29.82607 27.3483 23.0309 20.3617 19.478 16.4021 18.141 11.1183 11.1444 13.2842 16.6569 17.8297 19.12 21.5905 23.8563 25.2811 25.10115 24.25352 24.38548 25.1247 29.1775 33.4226 37.0207 50.0078 55.7019 23.3885 22.54238 17.1682 13.016 9.5915 6.5725 3.999 3.9513 3.3472 0.0144 0.0028 0.0004 0.0015 0.0001 0.0003333333 0.0001 0.00135 
0.0001 0.0001 0.0001018519 0.0001216049 0.0002263374 0.0006971193 0.001215244 0.0001 0.0001 0.0001026042 0.0001 0.0001125 0.0001 0.0001 0.0003333333 0.0001 0.001 0.0069 0.03651667 0.0395 0.1324 0.5301 1.3726 2.736933 3.0216 6.3545 10.7206 15.6184 18.43447 20.8481 26.5055 34.1598 42.8445 51.0177 67.43343 97.4284 79.9084 53.7847 24.1856 27.92843 22.5904 22.6605 24.0888 27.2956 25.84788 29.09637 24.1209 25.4824 28.6935 32.91463 32.6933 36.7324 40.7606 44.7333 47.931 49.28695 48.7591 45.7918 42.1848 35.1376 32.664 30.4737 24.8271 20.182 17.1356 16.3006 11.5317 12.7435 12.2566 14.5256 17.6 18.71027 19.982 22.1783 24.066 25.1473 25.00462 24.6958 23.3951 26.91335 28.35197 34.1167 38.2925 53.9928 91.8864 41.9417 29.37507 28.0458 20.7469 15.5162 11.2137 9.539917 14.3901 0.3077 0.0928 0.0228 0.0047 0.04041667 0.0008 0.0001 0.00295 0.001 
0.0001012346 0.0001 0.0001 0.0001055556 0.0001592593 0.0004141975 0.001517901 0.002828877 0.0001 0.0001 0.0001104167 0.0001 0.00015 0.0001 0.0001 0.0008 0.0053 0.0294 0.1177333 0.1349 0.5582 1.3604 3.0157 4.703233 5.6245 8.3468 13.3538 18.468 20.42752 23.1911 28.4489 38.0216 46.5818 62.50065 92.9219 65.7282 45.7728 24.935 20.4934 20.4782 19.5196 19.0276 19.4176 20.6856 21.38342 22.8745 21.82902 23.55512 23.0318 25.9057 25.7965 28.7489 32.2392 36.712 40.1378 43.6873 46.3281 46.2836 39.4255 36.9025 31.25862 33.0619 26.2906 20.8417 19.357 14.351 12.1603 13.6584 13.0791 15.2634 16.73972 18.2475 20.6552 22.8572 24.6713 25.5087 25.16002 24.3902 24.6771 27.1296 31.9761 34.83895 51.95825 79.0558 48.7024 37.4969 33.01328 28.2093 21.9606 16.8632 12.1741 10.99193 8.8901 4.2708 1.7948 0.6387 0.1896 0.07525 0.0469 0.0097 0.0017 0.0003 
0.0001 0.0001037037 0.0001 0.0001 0.0001166667 0.0002611111 0.0008648148 0.003427778 0.006922917 0.0001 0.0001 0.0001416667 0.0001 0.0003 0.00122 0.0044 0.0239 0.0848 0.1067 0.389 1.0099 2.7455 5.606 6.588233 9.579 14.2082 17.2588 20.6208 21.54048 23.8187 29.8825 41.8572 85.3408 60.17593 56.2972 34.8411 24.3609 19.8251 18.5005 18.31608 17.5797 16.9163 17.0105 17.5672 18.23737 18.4942 19.267 20.7351 19.1687 21.33625 19.3134 21.748 25.02 29.9551 34.15257 37.8081 38.8606 29.5042 28.0838 27.8358 25.44345 24.1402 20.5248 17.2501 12.8907 13.95447 13.0307 14.1761 13.7129 15.9268 17.3912 18.875 21.2758 23.5054 25.3609 25.68682 26.1551 25.063 26.9262 29.7416 32.5953 35.21274 36.4919 59.61983 58.22977 35.3362 32.02305 27.0498 21.4362 16.4585 11.7825 9.266216 7.5011 3.9255 1.6893 0.5929 0.3385667 0.1696 0.0399 0.0078 0.0013 0.0002 
0.0001125 0.0001 0.0001111111 0.0001 0.0001 0.00015 0.0005333333 0.001911111 0.007838889 0.01784167 0.0001 0.0001 0.0002666667 0.0001 0.0007 0.0205 0.0297 0.115625 0.2587 0.6386 1.6774 3.3361 6.2299 8.5906 9.4743 13.3634 17.1666 20.3096 23.38852 22.8347 24.8066 75.524 49.4495 45.26798 30.4644 23.7872 20.192 18.0013 17.75008 17.3004 16.5029 15.6082 15.3277 14.9542 14.80098 14.8485 15.0572 15.7046 17.2033 15.57137 17.43838 18.83458 18.234 22.5169 27.9971 34.236 19.7881 17.0622 16.5041 18.23338 15.8496 14.8707 14.8793 15.7784 13.0263 13.02352 13.2618 14.4133 14.4661 16.6469 17.97715 19.3876 21.7615 23.9816 25.854 25.8642 26.5709 25.5627 28.4333 30.529 30.3188 42.08377 44.6816 100.4111 48.3762 37.58392 28.22952 22.41987 18.4346 14.1863 9.6065 7.518466 5.643 2.7489 1.0897 0.3495 0.2330667 0.0911 0.0195 0.0035 0.0005 0.0001 
0.0001488281 0.000125 0.0001 0.0001333333 0.0001 0.0001 0.00025 0.00125 0.004233333 0.01803333 0.049 0.0001 0.10914 0.0006 0.0035 0.0173 0.0732 0.662675 1.11385 2.4327 4.292 6.5477 8.25495 8.8169 11.8375 15.102 18.7022 23.032 25.2384 29.7153 44.4077 38.8913 27.5138 28.41412 22.5422 19.8846 18.0478 16.976 16.19163 15.8972 14.5559 13.2695 12.6184 12.26303 11.7526 11.1892 10.9294 10.9877 12.0502 12.09054 13.7186 14.9735 17.36513 19.20753 23.17668 15.4694 11.3728 10.6417 10.1344 12.78225 10.9926 13.7978 15.7538 15.5607 14.40757 12.6839 13.2477 14.7612 15.2109 17.2901 18.55677 19.7365 21.9174 23.9585 25.5051 25.72945 25.7392 26.3967 28.9825 30.3588 34.97857 33.7705 74.6445 44.9356 38.8501 27.7732 22.9672 22.7589 16.73357 10.9722 6.9104 5.58146 3.6673 1.5925 0.5588 0.1586 0.1178167 0.0367 0.0071 0.0011 0.0002 0.0002666667 
0.0001488281 0.000125 0.0001 0.0001333333 0.0001 0.0001 0.00025 0.00125 0.004233333 0.01803333 0.049 0.0001 0.10914 0.0006 0.0035 0.0173 0.0732 0.662675 1.11385 2.4327 4.292 6.5477 8.25495 8.8169 11.8375 15.102 18.7022 23.032 25.2384 29.7153 44.4077 38.8913 27.5138 28.41412 22.5422 19.8846 18.0478 16.976 16.19163 15.8972 14.5559 13.2695 12.6184 12.26303 11.7526 11.1892 10.9294 10.9877 12.0502 12.09054 13.7186 14.9735 17.36513 19.20753 23.17668 15.4694 11.3728 10.6417 10.1344 12.78225 10.9926 13.7978 15.7538 15.5607 14.40757 12.6839 13.2477 14.7612 15.2109 17.2901 18.55677 19.7365 21.9174 23.9585 25.5051 25.72945 25.7392 26.3967 28.9825 30.3588 34.97857 33.7705 74.6445 44.9356 38.8501 27.7732 22.9672 22.7589 16.73357 10.9722 6.9104 5.58146 3.6673 1.5925 0.5588 0.1586 0.1178167 0.0367 0.0071 0.0011 0.0002 0.0002666667 
0.0002 0.0001703125 0.00015 0.0001 0.0002 0.0001 0.000725 0.0004 0.0021 0.0102 0.0418 0.1439 0.4046667 0.401 0.8532 1.2497 1.1934 2.403 1.1254 4.2689 6.14465 10.7439 11.48168 13.8552 16.9096 20.0714 22.9178 26.54047 24.0559 31.4829 28.999 24.6516 21.1603 20.82565 19.3545 17.7775 16.1667 15.0077 14.32158 13.9672 12.5277 11.9951 10.1349 10.07055 8.7904 7.4308 6.4359 5.879 7.0888 11.67022 10.3918 12.3872 15.5948 20.4844 15.79292 12.75863 11.4769 11.1379 11.1567 11.7856 12.0561 14.1237 16.5176 15.1843 14.99323 14.2118 13.9396 15.3498 16.0865 18.02 19.18598 20.2595 22.2691 24.1234 25.3641 25.57938 25.3434 27.4277 29.6683 31.3472 42.90565 53.5471 36.5797 33.6689 28.7259 26.87197 22.5245 18.8122 15.2372 9.57105 7.56535 4.28125 2.0801 0.7843 0.2386 0.059 0.0481 0.012 0.002 0.0003 0.000425 0.0002 
0.0001703704 0.0002 0.00023125 0.0002 0.0001 0.0004 0.00225 0.002 0.01 0.0427 0.1588 0.5089 1.198 1.3735 2.9626 4.5156 4.7113 7.05225 4.9117 5.1534 7.6982 11.88265 14.26345 17.4447 20.53 23.7599 27.1633 30.64412 43.3716 26.9078 22.7336 19.5184 17.9142 17.36835 16.4689 15.3289 13.7296 12.4842 12.87705 11.5972 9.351 8.9421 8.3098 9.830717 8.8172 9.2804 9.7469 10.6619 10.72862 11.948 14.8239 15.4169 14.3824 14.5025 16.7883 12.7154 13.62677 12.5209 13.1155 12.39665 13.2583 14.4241 14.1268 15.8981 15.16122 16.4206 14.9908 16.5939 17.1619 17.92637 18.8393 20.9705 22.8392 24.3739 25.1895 25.87333 26.335 28.7825 30.8503 37.208 49.86637 71.2023 32.374 28.9911 23.9452 22.30825 19.4129 15.9771 11.9277 7.9116 4.4672 2.558075 1.3777 0.3391 0.0885 0.0189 0.01658333 0.0034 0.0005 0.0001 0.0002 0.00023125 
0.0001 0.0002111111 0.0002 0.000425 0.0003 0.0017 0.008266667 0.0089 0.0393 0.1436 0.4587 1.038883 1.3162 3.4445 7.9916 14.6084 14.4593 15.00757 15.9124 15.5132 14.0785 15.01 20.71395 21.61233 23.07618 28.2479 31.1866 29.41368 35.1695 20.6692 18.8963 16.9192 16.01798 15.2574 14.0548 13.5994 13.1187 12.5164 12.95837 11.6896 8.9543 9.4524 10.73 11.808 12.202 13.5492 13.3575 13.623 13.75762 15.171 12.2294 13.0619 15.1033 18.0472 18.17622 18.192 14.702 13.5364 13.95613 13.58282 13.86205 13.9676 12.9451 12.9725 15.38473 16.28 15.3597 17.5208 17.998 18.50748 19.4525 21.5659 23.4226 24.6506 24.92638 25.2421 27.7659 30.5033 35.9212 61.9152 48.80328 43.9784 33.0526 27.0712 21.8088 18.70575 17.4322 13.0837 9.0004 5.3422 4.147284 2.6323 1.0527 0.3507 0.12084 0.035425 0.0054 0.0008 0.0001 0.0002333333 0.0001 0.00015 
0.00015 0.0001 0.0003333333 0.0002 0.0011 0.0057 0.03 0.0309 0.1412 0.4449 1.1647 2.796283 2.626 5.3937 23.3969 20.0852 20.85492 23.5153 26.5354 28.5536 28.915 26.0567 28.43304 24.3444 24.1302 30.22643 27.32715 24.1984 10.1774 14.6794 14.6081 14.1482 13.5021 12.3505 11.1249 12.1394 13.313 13.79483 14.0009 15.4619 13.114 13.8278 14.6316 14.87168 16.1574 18.3027 17.0237 16.583 15.82505 14.5588 14.6807 15.7279 18.7065 19.43233 22.5294 23.0708 17.0893 15.0133 14.1593 14.47768 13.7982 14.13335 13.9643 14.5534 15.73218 16.1838 15.1115 15.8725 17.7225 18.75922 19.8707 21.7348 23.5202 24.6822 25.07208 25.42 29.2375 34.8464 55.6654 40.4277 41.67058 38.0881 30.9276 32.0572 16.4049 15.50007 13.2305 9.5576 6.023 3.1728 2.460583 1.3576 0.4662 0.1288 0.0289 0.011025 0.00195 0.00158 0.0003666667 0.0001 0.0001444444 0.0001 
0.0001888889 0.0002 0.0001 0.0007 0.0045 0.0247 0.07486667 0.1081 0.3922 1.2653 3.4099 4.7513 7.8022 13.4065 19.1591 24.1294 25.95803 28.3319 32.3652 34.9688 37.0538 38.5968 42.04811 38.1573 47.9198 29.614 20.2601 17.28055 12.51795 12.4549 10.5927 10.4493 12.93893 11.888 14.9442 15.7877 15.3441 15.40735 14.4759 13.7254 16.2116 16.4883 16.8899 17.74513 18.6192 22.6479 19.5923 18.0552 17.2561 16.9593 17.8758 17.8598 19.601 20.68887 22.6066 23.3265 18.884 15.6555 15.34173 14.8058 15.1474 14.9775 15.90407 16.20098 16.84973 18.6712 14.4177 13.2466 17.2403 18.87188 20.2713 21.988 23.367 24.3991 25.19687 26.0385 30.6889 40.5948 63.2502 45.94622 32.8097 32.8044 36.4644 21.6474 14.0972 12.13182 10.0268 6.5004 3.6116 1.6509 1.301167 0.6077 0.1794 0.0428 0.0084 0.00824 0.0014 0.0002 0.0002 0.0002166667 0.0001 0.0001148148 
0.0002229167 0.0002666667 0.0003 0.0018 0.0108 0.054 0.1328667 0.2258 0.7778 2.1827 4.9939 6.4948 8.5111 14.758 21.3005 27.3952 29.30365 32.2912 36.5099 39.185 41.9871 50.53845 47.6271 77.5064 46.1602 35.0592 25.9246 23.01466 12.7601 14.0461 12.70702 13.6072 13.78942 15.1904 18.0554 19.3997 18.7685 17.5624 16.5417 15.6195 16.9374 17.4114 18.06202 18.6435 21.5292 26.3444 23.9136 19.8491 21.0771 17.5312 20.5893 20.0327 19.3913 20.65377 21.2984 22.1495 27.0176 17.3234 16.4089 15.0931 15.4899 15.643 18.2957 17.9905 19.02253 17.78262 16.3958 14.5339 17.5681 19.20277 20.5584 22.3899 23.4371 23.9383 25.54602 26.7031 35.1125 59.9089 47.5992 45.7508 35.9251 42.5916 24.9141 17.7927 11.6117 9.675616 7.4198 4.1992 1.9977 0.7753 0.6191667 0.2427 0.0614 0.0127 0.0022 0.00215 0.0003 0.0005 0.0002 0.0002 0.0001791667 0.0001 
0.0001 0.000325 0.0004 0.0028 0.0156 0.04715 0.0765 0.3081 1.0047 2.6253 4.919 8.205033 9.3327 14.6373 22.8356 28.8372 31.52263 34.837 40.7686 46.1451 53.0586 65.05605 84.9073 63.05 45.5383 38.5173 36.7976 23.67167 19.3309 15.4574 13.6806 15.22305 15.82938 17.8122 20.506 22.8822 22.3657 20.72497 17.8785 17.3598 18.1061 18.5959 18.74758 20.3431 21.7162 21.9456 22.0563 22.7267 22.7103 31.3575 21.0724 20.6597 19.7711 21.4981 21.2542 24.8388 33.4701 20.0294 17.26973 15.5462 15.9715 16.4265 18.7451 18.70185 19.3974 20.031 18.7735 17.26748 17.23343 18.8539 20.7246 22.6315 23.5931 23.6167 26.4389 28.5804 55.0277 48.6735 46.6962 44.57778 48.2244 30.4815 22.7559 14.9968 12.40703 9.4727 5.4255 2.6499 1.0649 0.3468 0.2744833 0.0916 0.0198 0.0036 0.0005 0.00064 0.0001 0.0002 0.00025 0.0002 0.0002 0.0001697917 
0.0001 0.0001 0.0005 0.0032 0.0207 0.07218333 0.1053 0.4327 1.413 3.4232 5.373767 7.7814 13.6921 20.694 28.9097 30.5037 34.12548 35.2715 41.8784 52.4084 96.0764 72.21235 66.6798 55.9551 44.423 34.5117 32.49507 21.9263 25.2905 18.314 16.8967 16.7077 17.5122 18.961 20.74072 24.2875 29.3078 22.03368 19.4876 18.5888 18.7022 18.9056 19.1939 18.586 16.7297 22.4006 22.9595 24.44913 24.8714 43.4277 27.458 21.3789 22.36 23.99837 24.9136 31.5359 32.5884 19.9756 17.86808 15.6507 15.7507 15.3751 17.2282 18.51608 20.5542 23.8407 19.8618 17.9778 19.4726 19.38742 20.35098 21.9247 23.5911 23.7685 31.45837 32.0264 63.6806 43.0005 53.6234 42.90508 35.3984 28.3007 20.1302 12.8927 10.35075 7.6756 3.9378 1.6646 0.5675 0.4188833 0.1557 0.0348 0.0064 0.001 0.0001 0.0002333333 0.0001 0.0001 0.00015 0.000175 0.0002 0.0002 
0.0001 0.00045 0.0011 0.0074 0.0399 0.1355667 0.1751 0.6464 1.7932 4.5203 7.3578 8.9734 15.1104 22.4158 25.5634 34.421 37.61065 40.8825 48.5816 98.3763 75.5502 65.70247 57.0018 48.4261 39.6281 35.5147 28.7397 27.7028 25.2906 21.3916 18.6909 18.42842 17.5304 17.9985 20.9579 27.10162 30.0432 27.08662 21.1288 19.7438 19.8548 19.4228 19.74737 19.31 15.6577 20.7026 23.705 27.97102 30.3923 50.7066 32.8038 24.2991 25.62817 26.2448 29.4465 34.3305 32.7318 20.0788 18.3073 15.9278 15.7045 14.3325 13.5908 17.99067 21.5808 26.9966 28.1555 22.8926 21.12206 18.1661 19.8051 21.42532 23.4265 24.96473 29.0728 51.6854 48.6218 56.0815 40.9919 38.26532 32.4962 25.6177 17.3121 10.9623 8.568666 6.1044 2.8173 1.0428 0.3064 0.2170667 0.072 0.0138 0.0022 0.0003 0.000375 0.0001 0.0001333333 0.0001 0.0001 0.000125 0.00015 0.0002 
0.0002 0.0001 0.005166667 0.0274 0.094 0.17185 0.3784 1.1905 3.1917 6.9465 7.937217 12.502 18.3671 23.4317 28.869 30.24597 36.6191 47.9661 84.9858 71.4607 55.5691 48.44562 43.3375 37.2459 27.0585 25.5268 27.29128 27.2559 27.0752 25.7805 21.9621 20.45358 18.7827 18.3184 21.479 28.1552 38.4223 33.14775 26.86544 20.4147 20.1014 20.6591 21.39797 21.6007 20.2283 22.71 26.9154 32.2557 38.9825 50.5391 38.1813 28.9797 30.06857 30.5065 33.5081 38.2866 33.2954 20.9162 19.20928 17.2947 17.164 15.06 14.8228 18.12453 20.1672 25.9587 32.6775 27.2511 22.68568 19.3227 19.4055 20.399 23.35987 33.75993 43.27315 38.6874 53.3027 41.3484 41.01757 37.3845 29.6975 22.4037 14.8001 9.0745 6.92325 4.7025 1.9627 0.6448 0.1665 0.11415 0.0343 0.0057 0.0008 0.0001 0.0002 0.00019375 0.0001 0.0001083333 0.0001 0.0001 0.0001125 0.000140625 
0.0001 0.0004 0.0031 0.0189 0.04235 0.187425 0.664125 0.8586 2.4511 5.34 5.880383 9.3411 13.995 19.0093 22.4247 23.15562 33.5786 88.6056 65.5501 46.5907 35.95137 31.0627 28.1524 33.9436 22.9649 21.9273 26.05828 25.8202 31.291 31.0195 25.3568 27.30362 20.3986 19.4242 21.176 33.0167 39.31633 43.9814 29.0585 26.79455 21.69002 21.20048 21.6334 25.7618 25.8796 27.8584 32.1245 35.71653 41.4145 47.7203 41.6259 35.0872 34.62988 35.2941 39.065 43.3695 35.0499 28.68042 22.1326 18.9056 18.77 17.0878 17.5039 19.43208 21.0817 25.9853 30.8441 27.434 25.10665 21.0476 18.3399 20.7206 28.8934 44.92963 53.647 50.17299 37.5731 36.7928 35.7134 33.5063 26.7015 19.0082 12.3931 7.2303 5.389383 3.4655 1.3121 0.3868 0.0893 0.06003333 0.0164 0.0025 0.0003 0.000325 0.0001 0.00015 0.0001359375 0.0001 0.0001020833 0.0001 0.0001 0.00010625 
0.0002 0.0001 0.0011 0.0082 0.0483 0.069625 0.229 0.5995666 0.0499 0.2435 3.18468 0.9092 2.4551 3.4338 7.1391 13.06632 10.3032 9.9027 3.4822 4.459 14.95385 6.566 10.0504 43.6162 23.4311 23.2461 18.3254 32.5734 42.4237 45.828 42.4271 24.86483 34.8944 21.8344 23.7539 37.0145 55.62982 55.3079 43.9178 24.8669 22.408 23.76023 25.28952 26.21833 30.2723 32.1823 35.1523 38.10406 39.71 44.7528 41.9056 38.5957 39.22283 39.3161 45.9283 46.0478 36.9444 30.28805 23.744 20.4747 20.3701 19.5406 19.53017 20.1212 22.8957 26.8518 29.6184 28.2993 25.98207 27.2852 13.0378 19.5511 36.8662 46.67092 60.3119 57.5158 40.76135 35.3795 33.0976 29.535 23.2493 15.6592 9.9728 7.742633 5.4606 2.4029 0.8254 0.2199 0.046 0.0308 0.0077 0.0011 0.0001 0.0002 0.00018125 0.0001 0.000125 0.0001152344 0.0001 0.0001005208 0.0001 0.0001 
0.0001 0.0006 0.003133333 0.0192 0.0189 0.0002 0.001 0.0078 0.05351667 0.07825 0.314825 0.0896 0.3647 1.1317 2.1983 3.927083 2.754 1.7375 0.2333 0.4664 2.0487 0.5783 0.6804 0.6702 0.8427 8.65735 2.3001 4.0853 7.2365 11.751 14.6918 22.28462 11.4203 36.7827 39.5067 63.1039 67.14236 101.3545 97.7226 45.0219 26.079 26.74072 24.9205 28.8424 35.15323 39.9503 36.76795 39.7869 40.4362 44.6611 44.125 42.7183 45.8493 44.3256 49.8704 49.5478 38.7406 33.37667 25.1168 21.7583 21.038 20.8657 21.06317 22.0618 24.6012 27.723 29.3396 27.9436 25.55753 23.8827 14.7159 21.3842 39.827 48.13337 60.48 45.5343 34.5958 32.5563 29.1884 24.4474 20.9915 12.5002 7.5694 5.763967 3.8296 1.5339 0.477 0.1153 0.022 0.015 0.0034 0.0004 0.00045 0.0001 0.00015 0.0001328125 0.0001 0.0001125 0.0001069336 0.0001 0.0001001302 0.0001 
0.00035 0.001277778 0.007644444 0.01035833 0.0002 0.0006 0.002325 0.0003 0.0026 0.017 0.0301 0.10652 0.0645 0.2695 0.529 1.055117 0.6389 0.3223 0.0283 0.0752 0.2151667 0.1473 0.1888 0.2765 0.4202 1.001883 1.7039 3.3818 5.6272 8.7154 11.843 13.73718 18.4311 42.0631 59.076 75.2543 68.47853 70.8191 43.718 30.5144 16.5754 30.52292 43.7207 39.7778 39.8943 47.09737 45.75077 43.83973 45.6312 43.9233 68.4181 57.98793 56.1236 54.0165 60.3672 57.6228 47.0686 34.9608 28.6456 22.9471 21.0985 21.1445 21.57457 22.6452 25.0481 27.5281 28.1959 27.05802 26.1871 19.7473 17.5229 27.505 48.6153 45.5798 42.6998 40.2017 31.1424 29.004 26.87132 25.6583 19.347 11.57013 5.3102 4.7876 2.4412 0.8817 0.2475 0.0544 0.03793333 0.0095 0.0014 0.0002 0.0002333333 0.0002333333 0.0001 0.000125 0.0001144531 0.0001 0.00010625 0.0001032959 0.0001 0.0001000434 
0.0008138889 0.003090741 0.004870139 0.0002 0.0004 0.00085625 0.0003 0.001033333 0.0002 0.00434 0.0018 0.012 0.06683333 0.18338 0.235125 0.096 0.1145 0.0446 0.0021 0.007 0.04138333 0.0168 0.022 0.0042 0.0954 0.5119333 0.649 1.8756 3.7532 6.4145 7.96455 8.6996 17.3373 36.7403 48.6525 53.1801 54.05397 47.1593 34.3144 27.3459 26.4763 32.18595 45.3656 51.1581 54.7836 53.7613 48.48867 49.5046 48.03702 54.7413 73.0104 63.48466 63.5322 52.587 54.7005 52.0973 43.3374 34.98648 26.8558 21.6176 19.9949 20.4962 21.17717 22.234 24.4629 26.4063 26.43 25.43123 24.2519 18.9475 26.334 22.544 32.89763 42.6432 39.2135 36.3269 28.3005 25.501 23.59367 21.637 15.2608 9.4332 6.1705 3.124725 1.289125 0.4481 0.1134 0.0227 0.01663333 0.0037 0.0005 0.0001 0.00015 0.0001611111 0.0001548611 0.0001 0.0001125 0.0001067383 0.0001 0.000103125 0.0001016052 0.0001 
0.001952315 0.002243692 0.0002 0.0003 0.0004390625 0.0003 0.0005111111 0.0002 0.0002 0.0007 0.0001 0.0011 0.0079 0.046 0.04005 0.05955 0.04788333 0.0045 0.0001 0.0005 0.00518 0.0015 0.0021 0.0005 0.0166 0.1609667 0.1865 0.8171 2.1393 4.4649 6.007083 7.6499 19.1965 36.3619 46.2881 43.25191 41.8146 36.0964 28.7359 25.9952 27.1367 31.48887 33.841 38.0614 41.5365 44.5973 46.49403 46.0915 48.3302 56.34582 60.49958 63.50375 56.339 49.8429 50.1332 47.6911 43.53135 39.2187 24.7928 20.071 18.7576 19.349 20.12092 21.1941 23.224 24.8239 24.5875 24.15873 22.935 22.6737 18.1772 22.139 28.04442 33.9393 34.7092 32.0812 26.012 22.292 19.8138 17.4697 11.306 6.5766 3.362 1.828075 1.3855 0.4799 0.0454 0.0083 0.00726 0.0012 0.0002 0.0002666667 0.0001 0.000125 0.0001287037 0.0001240162 0.0001 0.00010625 0.0001032471 0.0001 0.0001015625 0.0001007919 
0.001465336 0.0002 0.00025 0.0003097656 0.0003 0.000337037 0.0002 0.0002 0.0003 0.0001 0.0004333333 0.0001 0.0012 0.0056 0.01318 0.0126 0.0151 0.0043 0.00135 0.0003 0.0007 0.0001 0.0001 0.00398 0.0006 0.04444 0.0177 0.2765 0.9075 2.3461 4.550267 6.4675 22.0137 33.4995 35.8696 35.8801 33.7066 29.1527 26.0753 25.3041 25.9342 27.93977 30.1794 33.9776 37.9018 41.2285 42.5695 43.781 47.7464 53.1132 61.1334 55.92653 51.26038 50.22377 46.1679 43.6632 39.38055 35.1804 22.5628 18.3116 17.2886 17.7967 18.55637 19.6555 21.5219 23.0136 23.0826 22.52593 23.6654 16.3094 15.8932 19.3537 23.51063 27.6473 29.9116 27.7336 23.0219 20.68627 18.9712 13.0119 7.6717 4.1048 1.8767 1.419567 0.6881 0.1989 0.05798334 0.018075 0.00315 0.0004 0.0006 0.0002 0.0001888889 0.0001 0.0001125 0.0001137346 0.0001110002 0.0001 0.000103125 0.000101593 0.0001 0.0001007813 
0.0002 0.000225 0.0002649414 0.0003 0.0002790123 0.0002 0.0002 0.0002 0.0001 0.0002111111 0.0001 0.0004666667 0.0001 0.0005 0.004 0.0012 0.0015 0.0003 0.0003 0.0005083333 0.0001 0.0001 0.0001 0.00035 0.0006 0.004825 0.0008 0.0391 0.2235 1.0869 3.4679 5.2863 21.3413 27.733 29.2114 29.13127 28.3903 25.4255 23.9736 23.259 22.99577 23.3778 27.1695 31.026 35.1231 38.305 39.69347 41.4137 45.2775 49.386 54.3608 52.83186 51.8729 46.9867 43.79 39.4459 37.34338 31.084 20.0464 16.1854 15.3775 15.36662 15.7456 17.5973 19.4153 21.0806 22.7083 20.10962 18.1768 13.482 12.8266 15.5154 18.99023 22.4691 25.4031 23.729 19.1835 16.74775 14.637 8.3936 4.6336 2.2425 1.758767 0.909 0.2961 0.0767 0.0159 0.0027 0.001 0.00025 0.00025 0.0002875 0.0002 0.000162963 0.0001 0.00010625 0.0001066615 0.0001051967 0.0001 0.0001015625 0.0001007889 0.0001 
0.0002125 0.0002474854 0.0003 0.0002596708 0.0002 0.0002 0.000175 0.0001 0.000137037 0.0001 0.0002222222 0.0001 0.0003 0.0003 0.0006 0.0001 0.0001 0.0006333333 0.0003 0.0002333333 0.0001 0.0001 0.0001833333 0.00035 0.001295 0.0005 0.0002 0.0054 0.0369 0.2725 2.361333 5.3481 15.6748 21.8758 23.5409 23.95752 24.0688 22.1476 20.9597 19.9587 19.78053 20.1408 24.0678 28.0888 32.1562 33.4182 35.105 38.3276 41.7558 45.1215 48.917 48.35598 47.8752 43.9966 42.4797 38.84583 33.06308 23.7697 17.1446 13.5511 12.8842 12.84055 13.1071 14.9489 16.9154 19.3874 18.36963 17.8788 15.1458 10.4697 9.4003 11.2788 14.55842 17.6771 20.8857 19.5142 14.7729 12.40147 9.9 4.3886 2.3524 1.042 0.8492833 0.3776 0.1099 0.0257 0.0049 0.0008 0.00095 0.0001 0.0001 0.00015 0.000184375 0.0002 0.000154321 0.0001 0.000103125 0.0001032622 0.0001025053 0.0001 0.0001007813 0.0001003925 
0.0002533284 0.0003 0.0002532236 0.0002 0.0002 0.00016875 0.0001 0.0001123457 0.0001 0.0001407407 0.0001 0.0002 0.0002333333 0.000325 0.0001 0.0001 0.0001 0.0001 0.0003444444 0.0003 0.0001833333 0.0001277778 0.0002111111 0.0004756667 0.00035 0.0002 0.001575 0.0005 0.0044 0.113 0.2956 1.8786 12.0616 16.1854 18.7372 19.2442 19.7965 18.4188 16.8987 15.6047 15.86072 16.3422 20.6443 24.7565 28.6018 29.57337 31.2181 34.3234 37.2789 40.2274 43.5812 43.12562 43.5288 40.4713 38.5391 34.9186 28.41987 26.8038 17.34528 10.4823 9.9102 10.57094 10.0187 11.8198 14.1076 14.8782 14.64358 14.2845 11.4861 7.6469 6.1077 7.3994 10.42925 13.0107 16.3457 14.8432 10.1855 8.195633 5.7299 1.9087 0.8059 0.3918 0.35105 0.1328 0.0352 0.0075 0.0013 0.0015 0.0002 0.00015 0.0001 0.0001 0.0001166667 0.0001502604 0.0002 0.0001514403 0.0001 0.0001015625 0.0001016082 0.0001012237 0.0001 0.0001003906 
0.0003 0.0002510745 0.0002 0.0002 0.0001671875 0.0001 0.0001041152 0.0001 0.0001135802 0.0001 0.00015 0.0001777778 0.0002145833 0.0001 0.0001 0.0001 0.0001 0.0001 0.0001 0.0002481481 0.0003 0.0002055556 0.0002579111 0.000275 0.0002 0.00058125 0.00035 0.0002 0.0047 0.06351667 0.0639 0.5854 7.5529 11.046 12.68222 13.9866 15.3352 14.157 12.0569 10.7843 11.66378 12.3336 16.8743 20.879 23.8442 24.96585 26.5149 29.0418 31.4159 34.0233 35.27212 37.1065 37.745 35.5126 33.5349 29.7158 25.8404 22.2413 13.8486 9.7473 8.582975 8.38005 6.9345 8.5464 9.8988 10.9345 10.81107 10.4981 8.0635 4.926 3.391 4.19475 4.3984 8.8111 11.849 10.1755 5.9373 4.734283 2.6482 0.6905 0.2388 0.1225 0.12065 0.0396 0.0097 0.0019 0.0003 0.000475 0.0002 0.0002 0.00015 0.0001 0.0001 0.0001055556 0.000138954 0.0002 0.0001504801 0.0001 0.0001007813 0.0001007965 0.0001006027 0.0001 
0.0002503582 0.0002 0.0002 0.0001667969 0.0001 0.0001013717 0.0001 0.0001045267 0.0001 0.000125 0.0001425926 0.0001605903 0.0001 0.0001 0.0001 0.0001 0.0001 0.0001 0.0001 0.0001 0.0002160494 0.0003 0.0002375 0.0002 0.0003140625 0.000275 0.0002 0.001833333 0.0006 0.020275 0.0119 0.1538 3.8033 6.7371 8.370584 9.401 10.8429 9.7628 7.3226 6.4555 7.7303 8.4624 12.7715 16.3959 18.6172 19.75952 20.9989 22.8804 24.6254 26.9252 28.24508 29.7691 30.8029 29.2773 27.5988 25.6225 23.9613 17.4016 10.3033 7.2826 6.6568 5.492525 6.242175 6.861866 6.3037 7.3736 7.359933 6.8975 5.0907 2.697 1.5502 2.211667 2.3218 5.4813 7.7763 6.0363 4.87165 2.863 1.0418 0.2146 0.0669 0.0296 0.03445 0.0076 0.0022 0.0004 0.0001 0.0002 0.000235 0.0002 0.0002 0.00015 0.0001 0.0001 0.0001018519 0.0001352015 0.0002 0.00015016 0.0001 0.0001003906 0.0001003957 0.0001002984 
0.0002 0.0002 0.0001666992 0.0001 0.0001004572 0.0001 0.0001015089 0.0001 0.0001125 0.0001225309 0.0001320457 0.0001 0.0001 0.0001 0.0001 0.0001 0.0001 0.0001 0.0001 0.0001 0.0001 0.0002107099 0.0002 0.0002378906 0.0002375 0.0002 0.0006208333 0.00035 0.00035 0.003575 0.0753 0.1338 1.453 3.5247 4.919867 5.5281 6.8472 5.857 3.7141 3.965167 3.3063 5.0397 8.6727 11.6811 13.4008 14.44685 15.1811 16.3842 17.5573 19.5526 20.98023 22.0938 23.2022 22.225 21.0534 19.49322 17.8708 12.414 6.8816 4.4332 3.9012 3.85764 4.4776 5.0102 4.861467 4.3375 5.68175 4.1184 2.7934 1.2505 0.5938 1.005233 1.0148 3.0579 4.5396 3.0212 2.4786 1.1966 0.3498 0.0574 0.0161 0.0057 0.00765 0.0017 0.0004 0.0001 0.0002 0.0001 0.00015 0.000177 0.0002 0.0002 0.00015 0.0001 0.0001 0.0001006173 0.0001339547 0.0002 0.0001500533 0.0001 0.0001001953 0.000100197 
0.0002 0.0001666748 0.0001 0.0001001524 0.0001 0.000100503 0.0001 0.00010625 0.000111677 0.0001167691 0.0001 0.0001 0.0001 0.0001 0.0001 0.0001 0.0001 0.0001 0.0001 0.0001 0.0001 0.00015 0.0002141602 0.00021875 0.0002 0.0002760417 0.0001833333 0.0001 0.0001 0.0006666667 0.0017 0.3520333 0.4719 1.5209 2.91542 2.8074 3.7474 3.0241 1.5714 1.845917 1.4211 2.5185 5.0969 7.2976 8.7164 9.586933 9.7667 10.4132 11.0563 12.71 14.18203 14.8307 15.7764 15.2014 14.5228 13.5491 11.9522 7.9621 4.1272 2.4495 2.517167 2.2043 2.0483 2.627 3.5168 2.918975 3.195675 2.51002 1.3115 0.5069 0.1906 0.3857833 0.3602 1.4722 2.2957 1.3254 1.101517 0.4291 0.1011 0.0134 0.0033 0.004483333 0.001 0.0003 0.0001 0.0002 0.0001 0.0001333333 0.0001 0.000125 0.0001604 0.0002 0.0002 0.00015 0.0001 0.0001 0.0001002058 0.0001335401 0.0002 0.0001500178 0.0001 0.0001000977 
0.0001555583 0.0001 0.0001000508 0.0001 0.0001001677 0.0001 0.000103125 0.0001059757 0.000108674 0.0001 0.0001 0.0001 0.0001 0.0001 0.0001 0.0001 0.0001 0.0001 0.0001 0.0001 0.0001166667 0.000174707 0.000209375 0.0002 0.0001759549 0.0001277778 0.0001 0.0001 0.0001 0.0006 0.0002 0.0516 0.4541 0.664875 1.515775 1.196 1.7563 1.3469 0.553 0.72855 0.5096 1.0595 2.5208 3.9361 4.853717 4.9482 5.5084 5.7426 6.0078 7.1316 8.55265 8.7735 9.4687 9.1196 8.8529 8.433833 7.0425 4.4938 2.3355 1.2536 1.257617 0.8612 0.8885 1.1687 1.637 1.79018 2.1846 2.1422 0.9301 0.1791 0.0522 0.1461 0.1031 0.5953 1.0194 0.5039 0.4318 0.1329 0.0254 0.0027 0.0006 0.00104 0.0002 0.0001 0.0001666667 0.0001 0.0001333333 0.0001 0.0001111111 0.0001 0.0001125 0.00015458 0.0002 0.0002 0.00015 0.0001 0.0001 0.0001000686 0.0001334022 0.0002 0.0001500059 0.0001 
0.0001 0.0001000169 0.0001 0.0001000559 0.0001 0.0001015625 0.0001030335 0.0001044437 0.0001 0.0001 0.0001 0.0001 0.0001 0.0001 0.0001 0.0001 0.0001 0.0001 0.0001 0.0001055556 0.0001592122 0.0002046875 0.0002 0.0001463035 0.0001092593 0.0001 0.0001 0.0001 0.0003 0.0003 0.0004 0.0135 0.1279 0.5388 0.579475 1.01985 0.9899167 0.5132 0.1631 0.2430833 0.1531 0.374 1.0522 1.8147 2.46995 2.4093 2.667 2.7032 2.7789 3.629917 3.4014 4.4687 4.8766 4.7082 4.6683 4.62915 3.5643 2.2893 1.1979 0.4639 0.5249333 0.3132 0.327 0.4472 0.6569 1.002567 0.9556 0.9124 0.5285 0.19986 0.074675 0.04805 0.0244 0.2047 0.3947 0.1653 0.1491833 0.0342 0.0069 0.0008 0.0001 0.0003 0.00015 0.00015 0.0001 0.0001222222 0.0001 0.0001111111 0.0001 0.0001037037 0.0001 0.00010625 0.000152166 0.0002 0.0002 0.00015 0.0001 0.0001 0.0001000229 0.0001333563 0.0002 0.000150002 
0.0001000056 0.0001 0.0001000186 0.0001 0.0001007813 0.000101532 0.0001022599 0.0001 0.0001 0.0001 0.0001 0.0001 0.0001 0.0001 0.0001 0.0001 0.0001 0.0001 0.0001018519 0.0001534223 0.0002023438 0.0002 0.0001373475 0.0001030864 0.0001 0.0001 0.0001 0.00025 0.00035 0.0004 0.004325 0.0029 0.0288 0.1582 0.25774 0.4249 0.7022 0.3042167 0.0408 0.098975 0.0389 0.1113 0.3705 0.7113 1.0879 1.0001 1.1016 1.0803 1.0863 1.578233 1.3735 1.9299 2.1225 2.0648 2.1048 2.214267 1.5421 1.081 0.4549 0.1607 0.18475 0.097 0.1031 0.1473 0.2259 0.3956833 0.3554 0.3314 0.1846 0.0549 0.021175 0.0125 0.05171667 0.13645 0.1288 0.0492 0.04563333 0.0096 0.0017 0.0002 0.0003666667 0.0001 0.000175 0.0001333333 0.000125 0.0001 0.0001074074 0.0001 0.0001037037 0.0001 0.0001012346 0.0001 0.000103125 0.0001510582 0.0002 0.0002 0.00015 0.0001 0.0001 0.0001000076 0.000133341 0.0002 
0.0001 0.0001000062 0.0001 0.0001003906 0.0001007711 0.0001011433 0.0001 0.0001 0.0001 0.0001 0.0001 0.0001 0.0001 0.0001 0.0001 0.0001 0.0001 0.0001006173 0.0001512892 0.0002011719 0.0002 0.0001345941 0.0001010288 0.0001 0.0001 0.0001 0.000245 0.000375 0.0004 0.001547917 0.001166667 0.0005 0.0054 0.04001667 0.0388 0.128 0.2394 0.1666 0.06565 0.02425 0.03914 0.0282 0.1107 0.2376 0.4132667 0.3544 0.3887 0.3675 0.3595 0.5879667 0.4698 0.7049 0.7774 0.7655 1.042283 0.811 0.5951 0.3986 0.1623 0.0479 0.0583 0.0258 0.0282 0.0421 0.0671 0.1348333 0.1132 0.1042 0.0559 0.0147 0.01478333 0.0026 0.005 0.0611 0.0584 0.0571 0.0131 0.0024 0.0004 0.0006 0.0002 0.0002222222 0.0001 0.0001333333 0.0001194444 0.0001125 0.0001 0.0001024691 0.0001 0.0001012346 0.0001 0.0001004115 0.0001 0.0001015625 0.0001505241 0.0002 0.0002 0.00015 0.0001 0.0001 0.0001000025 0.0001333359 
0.0001000021 0.0001 0.0001001953 0.0001003872 0.0001005763 0.0001 0.0001 0.0001 0.0001 0.0001 0.0001 0.0001 0.0001 0.0001 0.0001 0.0001 0.0001002058 0.0001504985 0.0002005859 0.0002 0.0001337343 0.0001003429 0.0001 0.0001 0.0001 0.0002465 0.0003875 0.0004 0.0006675347 0.0005222222 0.0003 0.0001 0.0009 0.0091 0.008 0.0332 0.0698 0.0464 0.04692 0.0088 0.0085 0.0306 0.0284 0.0682 0.15934 0.108 0.118 0.1073 0.1016 0.1878833 0.1371 0.2189 0.2406 0.2406 0.3707167 0.267 0.1931 0.1321 0.0498 0.04808334 0.0124 0.006 0.0068 0.0111 0.0168 0.03978333 0.0306 0.0292 0.0148 0.0035 0.003683333 0.0005 0.0009 0.0156 0.0373 0.015775 0.0048 0.003283333 0.0001 0.00025 0.0002875 0.0002 0.0001740741 0.0001 0.0001163194 0.0001106482 0.00010625 0.0001 0.000100823 0.0001 0.0001004115 0.0001 0.0001001372 0.0001 0.0001007813 0.0001502611 0.0002 0.0002 0.00015 0.0001 0.0001 0.0001000008 
0.0001 0.0001000977 0.0001001942 0.0001002897 0.0001 0.0001 0.0001 0.0001 0.0001 0.0001 0.0001 0.0001 0.0001 0.0001 0.0001 0.0001000686 0.0001501994 0.000200293 0.0002 0.0001334621 0.0001001143 0.0001 0.0001 0.0001 0.00024805 0.00039375 0.0004 0.0003729022 0.0002740741 0.0002 0.0001 0.0003666667 0.0001 0.00212 0.0014 0.0075 0.0176 0.0112 0.01178333 0.0016 0.0016 0.0062 0.02206 0.029975 0.055425 0.0285 0.0311 0.0272 0.0248 0.05181667 0.0345 0.0584 0.0635 0.0646 0.1134333 0.0756 0.0539 0.0385 0.0134 0.01365 0.0027 0.0012 0.0014 0.0026 0.0037 0.0101 0.0073 0.0072 0.0035 0.0007 0.00098 0.0001 0.0001 0.0036 0.0096 0.01058 0.0031 0.0006 0.0002666667 0.0001 0.000175 0.000190625 0.0002 0.0001580247 0.0001 0.0001083044 0.0001056327 0.000103125 0.0001 0.0001002744 0.0001 0.0001001372 0.0001 0.0001000457 0.0001 0.0001003906 0.0001501303 0.0002 0.0002 0.00015 0.0001 0.0001 
0.0001000488 0.0001000973 0.0001001454 0.0001 0.0001 0.0001 0.0001 0.0001 0.0001 0.0001 0.0001 0.0001 0.0001 0.0001 0.0001000229 0.0001500829 0.0002001465 0.0002 0.0001333751 0.0001000381 0.0001 0.0001 0.0001 0.000248985 0.000396875 0.0004 0.0002681484 0.0001746914 0.00015 0.0001 0.0001888889 0.0001 0.0001 0.0005666667 0.0002 0.0015 0.0039 0.0024 0.00318 0.0003 0.0003 0.0012 0.0063 0.00705 0.017 0.01568333 0.01776667 0.006 0.0053 0.01245 0.0076 0.0136 0.0145 0.0149 0.02995 0.0179 0.0141 0.0096 0.0031 0.0034 0.0005 0.0002 0.0003 0.0005 0.001283333 0.0007 0.0015 0.0016 0.0007 0.0001 0.0003 0.0001 0.00092 0.0007 0.0022 0.002683333 0.0007 0.0001 0.00035 0.0002041667 0.0001 0.0001375 0.0001570312 0.0002 0.0001526749 0.0001 0.0001042655 0.0001029192 0.0001015625 0.0001 0.0001000914 0.0001 0.0001000457 0.0001 0.0001000152 0.0001 0.0001001953 0.0001500651 0.0002 0.0002 0.00015 0.0001 
0.0001000731 0.0001000729 0.0001 0.0001 0.0001 0.0001 0.0001 0.0001 0.0001 0.0001 0.0001 0.0001 0.0001 0.0001000076 0.0001500358 0.0002000732 0.0002 0.0001333469 0.0001000127 0.0001 0.0001 0.0001 0.0002494845 0.0003984375 0.0004 0.0002284697 0.0001332305 0.000125 0.0001 0.0001296296 0.0001 0.0001 0.0002416667 0.0002 0.0006666667 0.0003 0.0007 0.0004 0.0008 0.0003 0.0005 0.0002 0.0012 0.00485 0.0037 0.0066 0.0072 0.00424 0.003375 0.001 0.0015 0.0034 0.0029 0.003 0.006783333 0.0037 0.0032 0.0021 0.0006 0.00088 0.0001 0.000275 0.000275 0.0001 0.00035 0.0001 0.0003 0.0003 0.0001 0.0003 0.0001 0.00032 0.0004 0.0001 0.0004 0.0007 0.0001 0.0003 0.0001 0.000225 0.0001572917 0.0001 0.00011875 0.0001439453 0.0002 0.0001508916 0.0001 0.0001021868 0.0001014939 0.0001007813 0.0001 0.0001000305 0.0001 0.0001000152 0.0001 0.0001000051 0.0001 0.0001000977 0.0001500326 0.0002 0.0002 0.00015 
0.0001000486 0.0001 0.0001 0.0001 0.0001 0.0001 0.0001 0.0001 0.0001 0.0001 0.0001 0.0001 0.0001000025 0.000150016 0.0002000366 0.0002 0.0001333378 0.0001000042 0.0001 0.0001 0.0001 0.0002497406 0.0003992188 0.0004 0.0002124908 0.0001152435 0.0001125 0.0001 0.0001098765 0.0001 0.0001 0.0001604167 0.0002 0.0003888889 0.0003 0.0003666667 0.0001 0.0001 0.00025 0.0003583333 0.0002 0.0005333333 0.0002 0.00118 0.0007 0.0014 0.0015 0.0012 0.00065 0.000725 0.00126 0.001433333 0.0005 0.001183333 0.0005 0.0007 0.0006 0.0004 0.0001 0.0002666667 0.0001 0.0001 0.0001 0.0001 0.0001 0.0002 0.0002 0.0001 0.0001666667 0.0001 0.0001666667 0.0002 0.0001 0.0002 0.0001 0.0002 0.0001 0.0001 0.0001666667 0.0001 0.0001625 0.0001299479 0.0001 0.000109375 0.0001383301 0.0002 0.0001502972 0.0001 0.0001011155 0.0001007584 0.0001003906 0.0001 0.0001000102 0.0001 0.0001000051 0.0001 0.0001000017 0.0001 0.0001000488 0.0001500163 0.0002 0.0002 
0.0001 0.0001 0.0001 0.0001 0.0001 0.0001 0.0001 0.0001 0.0001 0.0001 0.0001 0.0001000008 0.0001375092 0.0002000183 0.0002 0.0001444466 0.0001000021 0.0001 0.0001 0.0001 0.0002123375 0.0003996094 0.0004 0.0002410792 0.0001107467 0.00010625 0.0001 0.0001032922 0.0001 0.0001 0.0001401042 0.0002 0.0002962963 0.0003 0.0002555556 0.0001 0.0001 0.0001 0.0001 0.0001833333 0.0003111111 0.0002 0.0002 0.0003333333 0.0001 0.0002 0.0003 0.0002 0.0005333333 0.0002 0.0002 0.0002666667 0.0001 0.0003 0.0001 0.0001 0.0001 0.0001 0.0002 0.0001 0.0001416667 0.0001 0.0001 0.0001 0.0001333333 0.00015 0.0001 0.0001 0.0001 0.0001222222 0.0001 0.0001 0.0001333333 0.0001 0.0001 0.0001 0.000125 0.0001 0.0001 0.0001222222 0.0001 0.00013125 0.0001203993 0.0001 0.0001046875 0.0001476725 0.0002 0.0001500991 0.0001 0.0001005661 0.000100383 0.0001001953 0.0001 0.0001000034 0.0001 0.0001000017 0.0001 0.0001000006 0.0001 0.0001000244 0.0001625102 0.0002 
