ncols         126
nrows         78
xllcorner     94.935239848027
yllcorner     29.777601162419
cellsize      0.00031631963683201
NODATA_value  -9999
0.0001 0.0001 0.0001 0.0001 0.0001 0.0001 0.0001 0.0001 0.000100001 0.0001 0.0001000081 0.0001 0.0001 0.0001 0.0001514403 0.0002 0.0001580247 0.0001 0.0001 0.0001 0.0001 0.0001 0.0001 0.0001 0.002013021 0.0001 0.0001 0.0001 0.0001 0.00015 0.0001 0.0002 0.0001 0.0001 0.0001 0.0006 0.003216667 0.2091917 0.00015 0.0001 0.0001 0.0005 0.005433333 0.0269 0.06373333 0.2172667 0.7153333 1.0043 2.02295 2.80165 3.037433 3.255067 3.3362 3.1634 3.305875 1.702167 1.3343 0.2307 5.079197 6.9912 6.4037 6.542428 4.417541 2.369148 1.169216 0.5018556 0.31695 0.1498 0.5676598 0.3670311 0.125897 0.04530121 0.02516562 0.016 0.04885158 0.0753 0.04952371 0.03348886 0.03230156 0.031 1.920168 2.505113 2.296933 2.24057 2.2317 2.2317 2.2317 2.2317 2.2317 1.013549 0.2316978 0.100947 0.03784955 0.01234812 0.004033732 0.001950611 0.001543449 0.001450174 0.001425586 0.0014 0.003608788 0.002490224 0.001149112 0.0006896589 0.0005550801 0.0005156177 0.0005074218 0.0005 0.0007268182 0.000417141 0.0001872053 0.0001224471 0.0001062399 0.0001018171 0.0001008789 0.0001 0.0001848927 0.0001511885 0.0001120483 0.0001023662 0.0001003687 0.0001000404 0.0001000023 0.0001 0.0001 0.01173006 
0.0001 0.0001 0.0001 0.0001 0.0001 0.0001 0.0001 0.0001 0.0001 0.0001000041 0.0001 0.0001000244 0.0001 0.0001 0.0001 0.000154321 0.0002 0.0001740741 0.0001 0.0001 0.0001 0.0001 0.0001 0.003173437 0.004875 0.001816667 0.0001 0.0001 0.0001 0.0001 0.0003 0.0001 0.0004 0.0011 0.0011 0.005833333 0.082325 0.24688 0.4182333 0.0002 0.0009 0.0032 0.66278 0.0126 0.0412 0.1374 0.4732 1.5354 7.55425 2.5105 3.0928 3.509 3.1634 5.1843 2.4379 2.4379 0.2307 6.103687 7.5787 6.4037 8.66527 7.016844 4.083896 2.151881 0.8716667 0.4841 0.1498 1.105318 0.7577333 0.2577875 0.08557238 0.03433125 0.016 0.05525473 0.0753 0.05332828 0.03586345 0.03360312 0.031 2.392641 2.85624 2.40079 2.25831 2.2317 2.2317 2.2317 2.2317 2.2317 1.206581 0.4188755 0.1970409 0.07917695 0.02662299 0.007748712 0.002672659 0.001679825 0.001499349 0.001451172 0.0014 0.006483063 0.004641721 0.00191037 0.0009185801 0.0006183873 0.0005320093 0.0005148437 0.0005 0.001306229 0.0008030754 0.0002979682 0.0001503794 0.0001132683 0.0001036934 0.0001017578 0.0001 0.0002920048 0.0002184056 0.0001291605 0.0001059993 0.0001009851 0.0001001143 0.0001000068 0.0001 0.0001 0.01406189 0.0210283 
0.0001 0.0001 0.0001 0.0001 0.0001 0.0001 0.0001 0.0001 0.0001 0.0001 0.0001000163 0.0001 0.0001000977 0.0001 0.0001 0.0001 0.000162963 0.0002 0.0002222222 0.0001 0.0001 0.0001 0.00284375 0.00455 0.0052 0.0936585 0.00015 0.0001 0.0001 0.0001 0.00098 0.0007 0.003 0.0119 0.0163 0.065425 0.1067 0.2330667 0.47625 1.2544 2.7792 3.274133 1.4541 1.8435 1.5514 3.6572 7.6272 8.477067 12.0184 14.1527 14.8374 12.3401 7.7444 12.17406 4.6451 0.2307 9.02665 8.7537 6.4037 11.19729 10.44564 6.614444 3.990444 1.6468 0.8184 0.1498 2.186328 1.5525 0.5326453 0.1880546 0.0526625 0.016 0.07446419 0.0753 0.06142276 0.04038411 0.03620625 0.031 3.282376 3.59805 2.659139 2.311531 2.2317 2.2317 2.2317 2.2317 2.2317 1.500141 0.7240678 0.3704158 0.1621427 0.05856426 0.01682386 0.004480847 0.001941429 0.001595703 0.001502344 0.0014 0.01203735 0.008953188 0.00354171 0.001430266 0.000759134 0.0005663404 0.0005296875 0.0005 0.002530539 0.001644046 0.000550331 0.0002148488 0.0001287247 0.0001075647 0.0001035156 0.0001 0.0005278651 0.0003703475 0.0001698064 0.0001150629 0.0001026122 0.0001003226 0.0001000203 0.0001 0.0001 0.01409095 0.0210379 0.0210187 
0.0001 0.0001 0.0001 0.0001 0.0001 0.0001 0.0001 0.0001 0.0001 0.0001 0.0001 0.0001000651 0.0001 0.0001003906 0.0001 0.0001 0.0001 0.0001888889 0.0002 0.0003666667 0.0001 0.002175 0.0039 0.0052 0.1180583 0.2648667 0.173576 0.0002 0.0001 0.00064 0.0006 0.0034 0.0155 0.1071 0.1955 1.2972 0.0488 0.1646 0.4858 3.514367 6.5368 5.99912 8.8706 9.2191 10.9462 13.241 14.4089 14.45332 14.7993 17.2421 19.2975 22.1645 22.8891 17.8757 22.4283 18.3685 11.1037 6.4037 14.22927 14.7972 9.359 7.180733 3.3036 1.487 0.1498 4.39685 3.148889 1.049772 0.4588389 0.089325 0.016 0.1320926 0.0753 0.08023871 0.04873981 0.0414125 0.031 4.775547 5.048431 3.274525 2.471193 2.2317 2.2317 2.2317 2.2317 2.2317 1.916619 1.188614 0.6636307 0.3199584 0.1276584 0.03881146 0.009222942 0.002437179 0.00178242 0.001604688 0.0014 0.02246262 0.01731281 0.006973977 0.002572771 0.001078381 0.0006396462 0.000559375 0.0005 0.005055419 0.003444626 0.001122109 0.0003654035 0.00016348 0.0001156629 0.0001070313 0.0001 0.001037831 0.0007084921 0.0002651374 0.000137413 0.0001068689 0.0001009069 0.000100061 0.0001 0.0001 0.01415011 0.0210763 0.0210374 0.021 
0.0001 0.0001 0.0001 0.0001 0.0001 0.0001 0.0001 0.0001 0.0001 0.0001 0.0001 0.0001 0.0001002604 0.0001 0.0001015625 0.0001 0.0001 0.0001 0.0002666667 0.0002 0.0008 0.0026 0.0052 0.04803333 0.1709 0.2481 0.3756 0.24388 0.0003 0.09703334 0.0021 0.0175 0.1261 0.7271 2.4039 4.914183 3.8215 4.4718 4.2843 5.7457 8.865375 9.16665 10.3549 12.1557 15.4835 17.2937 18.6424 18.13712 19.2237 18.9479 20.3143 22.1133 24.0222 26.1591 25.5251 26.3481 24.432 18.4709 17.8132 24.31343 11.7812 6.9368 2.8242 0.1498 9.1888 6.46 1.7888 1.197867 0.16265 0.016 0.3049778 0.0753 0.1304354 0.06339444 0.051825 0.031 6.876069 7.55342 4.641697 2.950178 2.2317 2.2317 2.2317 2.2317 2.2317 2.468001 1.844856 1.121921 0.5990666 0.269905 0.09090345 0.02216667 0.003364275 0.002137886 0.001809375 0.0014 0.04161397 0.03283272 0.01400381 0.005101921 0.001816204 0.0008001886 0.00061875 0.0005 0.01010763 0.007211003 0.002403043 0.0007198331 0.0002434514 0.0001329261 0.0001140625 0.0001 0.002117662 0.00144795 0.000485711 0.0001918153 0.000117886 0.0001025377 0.0001001829 0.0001 0.0001 0.01427154 0.02115408 0.02107481 0.021 0.00945414 
0.0001 0.0001 0.0001 0.0001 0.0001 0.0001 0.0001 0.0001 0.0001 0.0001 0.0001 0.0001 0.0001 0.0001010417 0.0001 0.00010625 0.0001 0.0001 0.0001 0.0005 0.0026 0.0094 0.0333 0.0859 0.1056 0.2362 0.4025 0.4881 0.3284 1.284933 0.2507 1.1024 4.0946 7.3112 10.3613 10.61905 12.6541 12.5192 12.6622 12.2747 10.9043 11.3719 11.7155 12.4083 14.0548 16.6413 19.5136 18.6926 22.2348 24.8033 26.1892 26.8592 29.7718 25.96445 32.3181 34.4772 36.2247 37.9712 35.4454 26.55098 32.2139 29.3359 25.8599 17.7649 9.6517 12.1825 3.2683 0.3093 0.016 0.8236333 0.0753 0.2872583 0.08653333 0.07265 0.031 9.200148 10.96687 7.306258 4.387133 2.2317 2.2317 2.2317 2.2317 2.2317 3.151848 2.71089 1.777567 1.046111 0.542084 0.2090053 0.05862593 0.005079166 0.002794907 0.00221875 0.0014 0.07715236 0.06003477 0.02786872 0.01059465 0.003548045 0.001163066 0.0007375 0.0005 0.01985478 0.01485545 0.005220285 0.00155727 0.0004315758 0.0001706533 0.000128125 0.0001 0.004349136 0.003032762 0.0009887518 0.0003223365 0.0001460448 0.0001070645 0.0001005487 0.0001 0.0001 0.01452391 0.02131263 0.02114961 0.021 0.007147916 0.0002145033 
0.0001 0.0001 0.0001 0.0001 0.0001 0.0001 0.0001 0.0001 0.0001 0.0001 0.0001 0.0001 0.0001 0.0001 0.0001041667 0.0001 0.000125 0.0001 0.0006 0.0002 0.0057 0.0187 0.0681 0.15345 0.2173 0.5767 1.149 1.7746 1.6409 6.75645 5.4872 12.6644 17.7244 18.846 17.9538 18.70757 16.5197 15.7779 15.5491 14.8131 12.2853 13.24582 11.9431 13.54352 13.9223 14.7747 16.38287 15.9175 16.6236 16.922 17.393 18.8135 21.15822 20.7903 23.3592 25.3495 27.3034 29.4208 29.90193 31.0257 31.0265 28.4002 24.8304 24.122 20.44038 20.4432 15.3668 8.6411 2.3796 0.0753 0.8451333 0.1143 0.1143 0.031 12.56699 13.21353 10.98907 8.698 2.2317 2.2317 2.2317 2.2317 2.2317 3.918781 3.807456 2.649456 1.675757 1.007489 0.4550852 0.1636778 0.008252778 0.003947222 0.0030375 0.0014 0.1492199 0.1041531 0.05383642 0.02211482 0.007654938 0.002014198 0.000975 0.0005 0.03788611 0.02978827 0.01124475 0.003533333 0.0008827675 0.0002557099 0.00015625 0.0001 0.008828782 0.006348971 0.002118793 0.0006305213 0.000216941 0.0001195473 0.0001016461 0.0001 0.0001 0.01505775 0.02163867 0.02129922 0.021 0.007162657 0.0002200718 0.0002089347 
0.0001 0.0001 0.0001 0.0001 0.0001 0.0001 0.0001 0.0001 0.0001 0.0001 0.0001 0.0001 0.0001 0.0001 0.0001 0.0001166667 0.0001 0.0002 0.00066 0.0016 0.0058 0.0247 0.1016 0.14615 0.3948 1.3745 3.1147 6.6363 13.5815 11.26852 19.25 23.1351 26.4521 29.6544 29.1351 25.7843 25.6214 22.3262 19.4695 17.6304 16.1564 15.93807 14.94 13.9926 15.14765 15.4274 15.79808 16.0227 16.4042 15.828 14.8492 14.7778 16.15513 15.9367 16.9913 18.7811 20.453 22.0389 24.92805 23.5096 24.7643 25.6738 26.0115 25.8229 25.44405 24.8376 22.6747 18.9559 12.652 2.2625 18.41466 0.1976 0.031 19.29437 17.66243 13.28015 8.698 14.98324 11.64432 2.2317 2.2317 2.2317 4.496812 5.145528 3.801083 2.475755 1.671528 0.8799889 0.47095 0.01431667 0.005766666 0.004675 0.0014 0.3278502 0.1683722 0.09925741 0.04482963 0.01742222 0.004092593 0.00145 0.0005 0.06984384 0.05761173 0.02358889 0.008164197 0.001981173 0.0004546296 0.0002125 0.0001 0.01751389 0.01308272 0.004618519 0.001345679 0.0003921811 0.0001537037 0.0001049383 0.0001 0.0001 0.01621497 0.02231759 0.02159844 0.021 0.007195881 0.0002423461 0.0002124007 0.0002054688 
0.0001 0.0001 0.0001 0.0001 0.0001 0.0001 0.0001 0.0001 0.0001 0.0001 0.0001 0.0001 0.0001 0.0001 0.0001 0.0001 0.0001666667 0.0001 0.0003 0.0011 0.003 0.0069 0.03696667 0.0159 0.0792 2.0386 4.0488 6.6519 9.2764 11.2608 16.3907 20.6627 24.585 28.4581 30.6793 31.7253 33.7505 32.8397 28.5461 23.1861 22.83492 21.0691 19.2345 17.1066 15.6623 16.73817 16.32702 16.8481 17.2832 16.8597 15.1948 13.6951 13.93142 12.9174 14.7587 17.2737 19.072 20.9075 20.55948 22.6658 24.2661 25.7093 27.1481 28.2295 25.70905 29.2091 30.2054 31.68 34.2446 50.8027 22.3202 38.7352 32.8572 26.427 17.8623 8.698 16.33307 19.04775 15.85413 9.4437 2.2317 4.1095 6.435 5.21105 3.790533 2.401667 1.235067 1.37785 0.02705 0.00795 0.00795 0.0014 0.8895062 0.2478333 0.1726611 0.08462222 0.04048889 0.009377778 0.0024 0.0005 0.1249142 0.1067481 0.04721296 0.01887407 0.00467963 0.0009388889 0.000325 0.0001 0.03368273 0.02620802 0.01006482 0.002975309 0.0008154321 0.0002462963 0.0001148148 0.0001 0.0001 0.01880712 0.02375589 0.02219688 0.021 0.007267421 0.0002898363 0.0002262646 0.0002109375 0.0002 
0.0001 0.0001 0.0001 0.0001 0.0001 0.0001 0.0001 0.0001 0.0001 0.0001 0.0001 0.0001 0.0001 0.0001 0.0001 0.0001 0.00022 0.0003 0.001 0.0033 0.0098 0.0244 0.05513333 0.0483 0.062 0.4268 6.1652 6.6909 9.024067 10.837 15.8341 21.1618 26.2836 30.8031 32.61525 34.2998 36.1469 36.4375 35.7632 31.5912 31.15795 27.3763 25.5368 22.0401 18.8531 17.0099 18.18102 17.92835 18.9493 18.5007 16.9663 14.1206 13.53033 12.1409 11.9226 12.7135 14.53 16.3203 16.64425 17.9148 19.3883 20.5758 21.8349 22.8324 22.92375 23.3228 23.6503 23.7651 44.0501 21.7955 27.5793 20.1277 19.4617 18.5887 18.5037 18.8382 17.74468 21.463 16.6325 9.4669 10.2614 5.9873 6.435 6.8827 3.5394 0.9495 2.7161 0.0396 2.544875 0.0145 0.0014 2.949825 0.31935 0.28745 0.1367 0.09383333 0.02333333 0.0043 0.0005 0.2220458 0.1899278 0.08718333 0.04313333 0.01132222 0.002166667 0.00055 0.0001 0.0626309 0.05023704 0.02176296 0.006624074 0.001807407 0.0004944445 0.0001444444 0.0001 0.0001 0.02486082 0.02687392 0.02339375 0.021 0.007422051 0.000390715 0.0002569187 0.000221875 0.0002 0.0002 
0.0001000001 0.0001 0.0001 0.0001 0.0001 0.0001 0.0001 0.0001 0.0001 0.0001 0.0001 0.0001 0.0001 0.0001 0.0001 0.0001 0.00034 0.0005 0.002 0.0074 0.024 0.0685 0.1277667 0.1668 0.3267 0.4269 6.4041 7.1908 9.100483 11.513 16.6929 22.2592 27.7734 32.9535 34.58607 37.4517 40.3426 41.5217 42.6837 42.9697 39.34688 40.7553 34.4501 30.1284 24.6658 20.2333 22.59976 18.6328 20.99458 21.0144 18.6679 16.1117 15.40875 12.1963 9.0957 8.819 9.1504 10.1263 12.53472 11.9308 14.1968 14.8788 15.7438 16.6662 19.17333 17.2825 42.7655 23.036 16.1785 16.8015 17.70247 17.2132 17.4176 18.0055 18.6562 19.4782 19.22627 20.246 20.6363 20.2036 13.4175 16.9048 9.973575 7.95952 2.3512 4.2171 5.1494 5.838333 4.6566 5.4688 11.1592 0.2758 0.3629 0.845 0.212 0.0614 0.0081 0.0005 0.4143333 0.3358 0.13755 0.09643333 0.02756667 0.0054 0.001 0.0001 0.1143958 0.08946111 0.04656667 0.01468333 0.004038889 0.00115 0.0002333333 0.0001 0.0001 0.03972153 0.03383426 0.0257875 0.021 0.007759809 0.0006013889 0.0003270062 0.00024375 0.0002 0.0002 0.0002 
0.0001000002 0.0001000002 0.0001 0.0001 0.0001 0.0001 0.0001 0.0001 0.0001 0.0001 0.0001 0.0001 0.0001 0.0001 0.0001 0.0001 0.00035 0.0007 0.0028 0.0107 0.0376 0.1192 0.17865 0.3394 0.8641 1.9574 3.9382 7.0521 8.957784 11.3191 16.4824 22.1273 27.8809 33.4882 35.71772 38.5201 41.9609 43.7497 45.6826 46.6394 46.99193 46.7494 45.6383 42.5962 37.2673 31.0834 30.37832 26.0394 22.8309 24.38497 23.7749 22.14512 20.7782 17.1048 12.8943 10.0027 9.8073 9.7751 9.6412 9.2749 8.9402 10.1423 10.3201 13.53422 12.9222 22.0139 12.0313 12.7255 13.9007 14.07125 14.8077 15.4692 15.8749 16.1439 16.5721 16.94287 17.2133 18.1189 20.8525 24.062 26.4489 22.75004 21.7655 5.2588 5.249683 9.7764 11.0798 9.535067 11.3885 13.8266 24.4873 1.0942 1.4468 2.056917 1.3583 1.2508 1.0628 0.7794 0.4631 1.365125 0.2085 0.0666 0.0142 0.0019 0.0001 0.2215333 0.13745 0.0985 0.03243333 0.008766667 0.00285 0.0005 0.0001 0.0001 0.07828333 0.04992778 0.030575 0.021 0.008522569 0.001023148 0.0004935185 0.0002875 0.0002 0.0002 0.0002 0.0002 
0.0001 0.0001000004 0.0001000007 0.0001 0.0001 0.0001 0.0001 0.0001 0.0001 0.0001 0.0001 0.0001 0.0001 0.0001 0.0001 0.0001 0.00035 0.00124 0.0021 0.0084 0.0301 0.06105 0.0969 0.2811 0.7291 1.6843 3.458 4.758283 6.3201 10.3516 15.3752 21.0508 27.0787 29.68145 33.1921 38.7007 43.5535 46.5673 49.4869 49.80836 51.6743 53.1635 54.0571 53.8988 51.528 45.98085 46.5759 39.7051 33.5695 26.4522 31.58192 27.95042 31.3929 26.6305 21.1978 15.0959 10.5338 12.93977 9.3916 8.7799 8.1063 7.9607 16.9878 11.15673 8.5652 6.9281 7.3607 9.0603 10.8709 11.08065 11.8682 12.7332 13.2897 13.8008 14.485 14.54717 15.2524 16.642 19.8472 22.5846 26.4229 23.00918 25.6954 5.415 4.4796 8.350533 11.2642 12.39418 13.6719 16.6087 23.5973 33.0585 4.9441 5.687833 4.0174 3.6053 3.27 2.933 2.5814 5.911633 2.2075 1.7892 1.3219 0.8526 0.4615 3.54624 0.203 0.0719 0.0206 0.0048 0.0009 0.399275 0.0001 0.18425 0.08863334 0.04015 0.021 0.01039583 0.001788889 0.0009055556 0.000375 0.0002 0.0002 0.0002 0.0002 0.0002 
0.0001 0.0001 0.0001000011 0.0001000023 0.0001 0.0001 0.0001 0.0001 0.0001 0.0001 0.0001 0.0001 0.0001 0.0001 0.0001 0.0001 0.0001 0.0005 0.002933333 0.0051 0.019 0.04176667 0.0635 0.1914 0.5176 1.248 2.6762 3.82835 5.1051 8.7063 13.4118 18.9506 25.0396 27.84363 31.4092 37.4603 42.6179 47.2799 51.1339 53.38395 54.2331 56.7855 58.3503 58.8578 56.8219 57.75512 52.6086 48.059 43.3875 40.2449 35.8557 41.92815 37.2153 42.4357 35.2547 28.5891 22.5668 19.05182 15.6979 11.6264 10.7567 10.2001 9.9832 10.4069 8.1619 7.5287 7.1828 6.7709 6.7459 9.041467 8.2905 9.7485 10.3032 10.8067 11.3908 11.72132 12.3694 13.7638 16.2407 18.9697 20.3118 22.0738 17.4106 12.132 5.7303 7.7729 9.6572 12.66623 14.5665 18.2008 25.7672 43.1345 11.1178 13.86305 11.2426 11.7324 12.4551 13.386 14.5116 10.25685 15.4977 15.381 14.3971 12.4385 9.7463 7.122533 7.3203 5.2785 3.5255 2.115 1.1041 0.6793 0.492 0.1856 0.0593 0.021 0.01576667 0.00285 0.001966667 0.00055 0.0002 0.0002 0.0002 0.0002 0.0002 0.0002 
0.0001580343 0.0001 0.0001 0.0001000034 0.0001000082 0.0001 0.0001 0.0001 0.0001 0.0001 0.0001 0.0001 0.0001 0.0001 0.0001 0.0001 0.0001 0.0003 0.0012 0.0062 0.009 0.02716 0.0321 0.1034 0.2989 0.7724 1.7773 2.71795 3.6334 6.6143 10.7975 16.0013 21.9474 24.83685 28.3948 34.9721 41.3148 47.6623 53.8482 55.69668 59.9273 65.8057 70.7214 73.2641 71.7695 67.869 67.2268 61.3705 58.3869 55.9814 52.0619 50.64934 48.4021 46.25112 44.481 38.2003 31.7921 33.4726 24.3287 22.2215 14.1798 10.78 9.776 9.674 8.9673 8.6746 8.5229 8.4052 8.3062 6.657883 8.1671 6.5603 7.2255 7.6603 8.0826 8.828417 8.7477 9.7754 11.5577 13.0147 23.6658 16.12015 18.9363 21.1315 13.6115 8.4294 11.1623 11.5797 14.66105 14.4257 19.9277 28.0828 38.0578 20.65137 13.7986 12.6078 12.6089 12.8578 12.45025 13.1745 13.5684 14.4674 15.3159 12.5716 11.53635 13.137 11.8671 9.2519 6.0762 3.4669 1.781933 1.735 0.7437 0.2699 0.083 0.0215 0.01002 0.0048 0.0009 0.0002 0.0002 0.0002 0.0002 0.0002 0.0002 0.0002 
0.0001907459 0.0001833569 0.0001 0.0001 0.0001000102 0.0001000307 0.0001 0.0001 0.0001 0.0001 0.0001 0.0001 0.0001 0.0001 0.0001 0.0001 0.0002 0.0002 0.0006 0.0023 0.003825 0.014125 0.0122 0.0426 0.1335 0.3767 0.9561 1.634183 2.1596 4.3373 7.7498 12.3263 17.939 20.79095 24.2911 31.0121 38.0373 45.4605 53.4022 56.90748 61.6354 70.4727 77.022 79.5745 80.129 78.15912 78.6582 72.7585 70.9228 66.0787 60.8629 58.06652 56.0641 50.8691 49.16277 48.3086 45.4956 46.57287 60.9545 35.9698 27.6171 19.2901 12.3206 14.12398 8.835 7.879 7.1091 6.1489 4.927 5.86055 3.5106 4.1077 4.545 5.3468 5.7035 6.432267 6.6765 7.3466 8.5609 11.4953 8.4365 10.8389 7.9599 13.4747 13.6535 7.828 9.1388 9.5354 11.4512 13.53483 14.9516 20.2751 27.04802 37.9734 11.718 10.6487 10.4448 10.4454 10.43123 10.3262 10.1078 9.972 9.456 11.7564 9.141666 9.5683 7.1939 4.8472 3.0282 1.6 1.3227 0.6706 0.2248 0.0605 0.0132 0.0024 0.00586 0.0004 0.001575 0.00055 0.0002 0.0002 0.0002 0.0002 0.0002 0.0002 
0.0001640311 0.0002174608 0.0002519356 0.0001 0.0001 0.0001000305 0.0001001231 0.0001 0.0001 0.0001 0.0001 0.0001 0.0001 0.0001 0.0001 0.0001666667 0.0002 0.0003333333 0.0002 0.0008 0.0032 0.0051 0.018275 0.0143 0.0445 0.1226 0.3537 0.8966833 0.925 2.2081 4.7299 8.2488 13.0803 15.8874 19.0931 25.9903 33.5313 42.011 51.4232 53.68683 61.2086 71.5294 81.4225 81.8004 90.7798 82.43678 80.3914 80.2277 79.0685 74.0788 67.9482 64.84296 63.0599 58.7765 54.3411 63.41688 64.63612 65.3631 51.5032 45.524 40.8565 35.2058 27.625 27.5477 17.2973 9.5715 7.1431 6.2027 7.401467 5.4084 4.844 4.609 4.1738 3.9121 4.967067 4.4706 4.9127 6.3208 7.3421 4.7677 5.377417 3.3172 2.7177 4.801 5.3056 5.1546 7.068666 6.9482 8.9765 11.4763 14.09555 15.1205 22.85772 22.7785 36.7232 9.9817 9.641 8.4982 8.9163 7.2853 6.0175 5.0333 4.8696 4.326 5.781167 3.4907 2.4986 1.5433 0.8024 0.3447 0.4897833 0.119 0.0337 0.0081 0.0016 0.0002 0.000775 0.0004 0.0004 0.00068125 0.000375 0.0002 0.0002 0.0002 0.0002 0.0001632176 
0.0001434348 0.0001846275 0.0003243201 0.0003987947 0.0001 0.0001 0.0001000914 0.000100524 0.0001 0.0001 0.0001 0.0001 0.0001 0.0001 0.0001555556 0.0002 0.0002444444 0.0002 0.000325 0.0002 0.001 0.00228 0.004 0.01848333 0.0348 0.1202 0.18025 0.3045 0.6812 1.3386 2.4233 4.6462 6.888183 8.1038 12.8171 18.6708 25.5304 33.6167 37.72292 42.5179 51.9337 61.308 86.4038 79.5763 78.84431 82.6788 81.9835 82.6694 79.3268 74.751 70.73119 71.3596 69.7631 69.4903 69.5619 99.3772 66.77228 52.91642 46.6605 46.276 42.4015 37.9035 33.27975 33.4823 29.3913 22.9739 15.0036 11.2572 9.146566 10.4646 5.8663 5.5524 5.2763 5.1616 5.046484 5.2078 5.2662 4.9951 4.2352 3.093 3.144833 1.1548 0.8589 2.3553 4.2775 5.8937 6.691167 7.4487 9.0429 10.4498 12.3 12.9539 17.3836 18.1411 44.7473 12.9966 10.1194 8.9322 7.788867 8.0105 7.1354 5.9945 4.3888 3.2378 3.5107 2.3078 1.5089 0.856 0.4024 0.1534 0.1499333 0.051 0.0133 0.0027 0.0005 0.0001 0.00015 0.000365 0.0004 0.0004 0.0004140625 0.0002875 0.0002 0.0002 0.0001510185 0.0001018519 
0.0001434348 0.0001846275 0.0003243201 0.0003987947 0.0001 0.0001 0.0001000914 0.000100524 0.0001 0.0001 0.0001 0.0001 0.0001 0.0001 0.0001555556 0.0002 0.0002444444 0.0002 0.000325 0.0002 0.001 0.00228 0.004 0.01848333 0.0348 0.1202 0.18025 0.3045 0.6812 1.3386 2.4233 4.6462 6.888183 8.1038 12.8171 18.6708 25.5304 33.6167 37.72292 42.5179 51.9337 61.308 86.4038 79.5763 78.84431 82.6788 81.9835 82.6694 79.3268 74.751 70.73119 71.3596 69.7631 69.4903 69.5619 99.3772 66.77228 52.91642 46.6605 46.276 42.4015 37.9035 33.27975 33.4823 29.3913 22.9739 15.0036 11.2572 9.146566 10.4646 5.8663 5.5524 5.2763 5.1616 5.046484 5.2078 5.2662 4.9951 4.2352 3.093 3.144833 1.1548 0.8589 2.3553 4.2775 5.8937 6.691167 7.4487 9.0429 10.4498 12.3 12.9539 17.3836 18.1411 44.7473 12.9966 10.1194 8.9322 7.788867 8.0105 7.1354 5.9945 4.3888 3.2378 3.5107 2.3078 1.5089 0.856 0.4024 0.1534 0.1499333 0.051 0.0133 0.0027 0.0005 0.0001 0.00015 0.000365 0.0004 0.0004 0.0004140625 0.0002875 0.0002 0.0002 0.0001510185 0.0001018519 
0.000128454 0.0001584155 0.0002670129 0.0005475318 0.000680634 0.0001 0.0001 0.0001002744 0.0001023457 0.0001 0.0001 0.0001 0.0001 0.0001263889 0.00015 0.0001655556 0.00015 0.0002083333 0.0001666667 0.0001 0.0004666667 0.0006 0.0026 0.0107 0.04116667 0.0521 0.3141 0.1284 0.2854 0.5754 1.0744 2.3718 6.84515 4.8782 8.3356 12.898 17.572 24.4008 29.3843 32.3679 40.8738 48.9121 57.1825 65.4978 67.32558 72.7328 76.0621 78.1676 74.479 69.823 65.61953 66.4265 64.0249 62.7534 89.3919 54.2099 54.93772 48.1389 41.74412 35.8959 34.6561 33.5284 31.42838 32.0108 29.9449 26.9183 23.0157 15.0836 12.77055 6.4629 6.9078 6.4329 6.1156 5.875 5.546933 5.6518 4.1356 4.6626 4.1152 4.4422 2.568183 2.0941 2.2994 3.9747 5.3077 6.6453 7.346734 8.0565 9.4671 9.6979 10.9008 13.4943 14.83737 27.03222 29.8493 33.14 7.28 7.142 7.587533 6.865 6.5653 6.1078 5.3544 4.4081 3.5878 3.2938 2.1397 1.1644 0.5165 0.1825 0.07826667 0.049 0.0104 0.0018 0.0002 0.0002666667 0.0001 0.000125 0.0002761111 0.0003333333 0.0004 0.0005028687 0.0002571296 0.0001513889 0.0001037037 0.0001 
0.0001183835 0.0001385245 0.0002183385 0.0004441758 0.0009800812 0.001198279 0.0001 0.0001 0.000100823 0.0001109053 0.000143251 0.0001 0.0001113812 0.0001166667 0.0001 0.0001 0.0001333333 0.0001 0.00025 0.0002 0.0007833333 0.0007 0.0029 0.0102 0.019 0.1489 0.38345 0.9653 2.0914 3.9379 6.4446 9.2162 10.05648 11.8547 15.0417 16.5463 18.9348 20.0501 21.9482 23.3524 28.4776 34.5412 41.2488 48.5708 52.01598 54.897 61.7285 65.9539 63.8318 58.428 56.21912 52.9291 48.0315 70.7057 38.9698 36.322 38.57902 36.6406 36.8528 31.90813 27.4302 26.4582 27.7867 25.1871 23.5137 21.9841 20.3288 18.3172 15.3007 15.0378 10.9711 7.8607 6.8027 6.2556 5.864383 5.1298 4.8686 5.4127 4.1841 2.1654 2.88365 2.4596 3.2005 4.8115 6.0786 7.3522 7.862667 8.684 9.1791 9.5966 10.5866 12.3229 13.27398 15.3912 25.01095 36.4424 8.5937 8.16615 7.5853 6.9902 6.5567 6.0936 5.4729 5.131967 4.6494 3.6299 2.5201 2.6394 0.0474 0.1617667 0.0256 0.0081 0.0018 0.0003 0.00058 0.00015 0.0002194444 0.0001666667 0.0002 0.002681424 0.001531482 0.0004925926 0.0001944444 0.0001111111 0.0001 0.0001 
0.0001112269 0.0001255401 0.0001788066 0.0003506687 0.0008030521 0.001786523 0.002103541 0.0001 0.0001 0.0001024691 0.0001302469 0.0002835391 0.0003344306 0.0001024691 0.0001 0.0001 0.0001 0.0002 0.0001 0.0006 0.00255 0.0025 0.0101 0.0366 0.1365 0.388 1.17735 2.469575 4.4947 7.4217 10.7931 14.3313 12.47372 17.6867 20.4901 18.0317 17.944 16.409 16.87838 15.109 18.4893 22.8601 27.4947 32.5384 36.28105 37.8591 44.3373 50.1926 51.7515 47.4696 51.27188 42.2385 60.0953 27.8937 27.4951 27.9228 28.56717 28.2399 28.4013 28.2125 24.57122 24.33752 23.78202 21.749 21.4774 20.7658 19.6389 19.23965 18.6494 18.2533 15.2074 10.8689 7.7909 7.51595 6.3973 5.8768 5.7821 6.4743 5.3149 4.7217 3.5272 2.6134 3.5721 5.3335 6.6923 7.10305 7.8804 8.5576 8.9999 9.6343 10.3718 10.98372 11.508 13.6535 21.5893 22.3537 9.9604 8.23988 8.4355 7.5667 6.9782 6.4536 5.843 5.566767 5.064 4.1079 6.689 0.4101 0.1514 0.1310667 0.0472 0.0123 0.0026 0.0005 0.0001 0.0004 0.0002 0.0002 0.00628125 0.00325 0.0009944445 0.00035 0.0001333333 0.0001 0.0001 0.00034375 
0.00010625 0.0001162037 0.0001541667 0.0002660494 0.0006317901 0.001511317 0.003216461 0.003586387 0.0001 0.0001 0.0001074074 0.0001833333 0.0005598766 0.0007098074 0.0001074074 0.0001 0.0001 0.0001 0.0004 0.0021 0.004416666 0.0092 0.0365 0.1279 0.3904 1.0292 1.26198 2.3269 4.1562 5.5755 8.077 10.2676 12.86057 11.4858 11.2474 13.1624 11.4227 12.3228 12.89692 14.027 13.8546 14.468 16.5674 19.8149 25.10228 24.0061 29.3923 35.0245 40.1665 36.4282 46.87622 70.1379 20.4956 19.778 20.4308 20.9391 21.85365 21.3386 21.6488 21.8647 21.7279 21.7338 20.82313 20.73154 20.6216 20.3733 19.7054 18.58912 18.7982 17.6479 15.9002 12.3837 10.2725 9.440066 7.5767 7.0127 7.0435 8.3332 9.0308 5.006567 4.1078 2.6921 3.9572 5.7619 6.9026 7.249866 7.7122 8.2636 8.9011 9.5828 10.1571 10.58572 10.9559 12.5828 18.2632 39.2732 27.1889 13.77025 6.6245 7.4721 7.3968 7.0415 6.5227 9.0656 5.8486 15.3068 1.5985 0.8171 0.3684 0.7909167 0.1464 0.0507 0.0153 0.004 0.0009 0.0315 0.0002 0.015925 0.006966667 0.002033333 0.00075 0.0002 0.0001 0.0001 0.0005645833 0.0003666667 
0.0001 0.0001125 0.0001361111 0.0002138889 0.0004481481 0.001233333 0.002852469 0.00556358 0.0058295 0.0001 0.0001 0.0001222222 0.0003277778 0.00122963 0.001784222 0.0001222222 0.0001 0.0001 0.0005 0.0023 0.006683333 0.0098 0.0375 0.1082 0.3163 0.8029 1.586933 1.7629 3.3555 6.088733 8.843 9.20976 10.9642 12.4278 9.9715 9.543 9.5041 10.7643 9.4616 10.0521 11.0245 12.3762 14.1144 15.90005 16.4574 19.9378 24.288 28.7424 73.4641 45.10285 55.981 29.0021 13.6427 14.5064 15.2775 16.35493 15.9867 16.6948 17.4534 18.2702 18.8349 19.22065 19.5926 20.2171 19.28722 18.2462 17.7844 17.63735 16.9584 15.8553 14.7225 17.076 13.3828 12.6035 11.2202 8.4125 6.6583 6.7156 3.7834 4.996433 4.2753 2.903 4.2923 5.5807 6.6775 7.2397 7.6342 8.113 8.8286 9.5027 9.9675 10.30102 10.554 11.8195 16.0945 29.4614 30.0606 32.11467 13.14157 16.2112 13.3155 11.4695 10.0678 12.08068 21.0475 7.282 5.1909 3.6193 2.4515 2.475183 1.5806 0.9486 0.5197 0.2561 0.1125 0.2319 0.0438 0.0151 0.0046 0.0012 0.0003 0.00435 0.0001 0.001425 0.0005333333 0.0002 
0.0001580247 0.0001 0.000125 0.0001833333 0.0003333333 0.0008277778 0.002538889 0.005190741 0.008961111 0.009066146 0.0001 0.0001 0.0001666667 0.0007166667 0.002805555 0.005176667 0.0001666667 0.0001 0.0007 0.0023 0.0032 0.0135 0.0496 0.1769 0.4935 0.7845 1.1819 2.4178 4.2231 6.4583 6.970275 8.680075 7.897 8.0016 10.436 10.881 10.9987 10.61598 10.8759 10.2202 11.0334 12.1322 13.2823 14.1561 15.1639 19.3907 22.0054 64.711 43.29 35.53078 21.2873 10.2608 10.7689 11.6141 12.3951 12.9753 13.1004 13.7836 14.5257 15.3412 16.2219 16.6154 17.2128 17.9842 18.2809 17.06335 16.2884 15.9407 16.2893 16.0154 18.4182 16.8772 17.0614 12.65345 16.1074 11.9336 8.5239 9.7033 4.6155 4.228883 4.1658 2.9016 4.3445 5.703 6.8733 7.271567 7.6384 8.118 8.8288 9.4655 9.8579 10.12678 10.3137 11.4145 14.7335 25.7196 69.5151 34.2694 22.2585 18.40668 16.9375 14.8985 13.1674 15.32533 15.8301 12.6054 9.891 7.6957 5.8997 4.988467 4.4045 3.1589 2.1471 1.3654 0.8026 0.6942667 0.4314 0.2102 0.0923 0.0364 0.0129 0.01023333 0.0041 0.0012 0.0003 0.0001 
0.0002 0.0001740741 0.0001 0.00015 0.0003 0.00055 0.001633333 0.005433333 0.008505556 0.01294444 0.01471458 0.0001 0.0001 0.0003 0.00175 0.006366667 0.0175 0.0003 0.0013 0.1684667 0.0058 0.023 0.0793 0.2358 0.6018 1.116833 1.3106 2.4315 3.9166 5.5637 7.0161 8.0398 8.6824 9.697 8.3509 10.3044 11.1235 10.20115 11.7321 12.2449 11.8417 11.9401 12.0494 12.37922 13.8692 19.5989 56.7977 29.7793 11.5862 16.1865 7.5761 8.0002 8.6316 9.3913 10.1976 10.57875 10.8945 11.4721 12.0665 12.7795 13.5623 13.49927 14.2679 14.9786 15.6455 16.1347 14.04895 14.2192 12.383 14.1631 9.0212 9.3145 9.8022 10.18307 8.3467 8.0487 6.4835 4.8455 4.3535 4.3112 4.1798 3.3098 4.6895 5.9894 7.1465 7.40665 7.6595 8.1923 8.8879 9.482 9.8372 10.06978 10.2304 11.2016 13.8225 43.1081 27.2417 34.4469 22.2711 19.4463 18.7289 17.6704 15.68984 16.0377 15.8015 14.2591 12.3322 10.4161 9.144816 8.6255 6.969 5.4339 4.0261 2.7842 2.1887 1.7651 1.0102 0.5162 0.234 0.0939 0.06296667 0.0334 0.0106 0.003 0.0008 0.0002 
0.0002 0.0002 0.0002222222 0.0001 0.0002 0.0006 0.00085 0.00345 0.012 0.01006667 0.01676667 0.031925 0.0001 0.10475 0.0005 0.003 0.0156 0.0685 0.2505 3.95535 0.7493 1.729 0.1823 0.4783 1.0701 5.02915 2.0431 3.4005 5.0252 6.682 8.1121 8.12618 9.134 8.225583 7.2745 6.8341 7.9648 9.122133 8.5119 9.3381 9.9449 10.1878 10.1064 13.12188 9.8041 49.6711 22.597 7.8888 6.708 7.629367 6.6714 6.8168 7.1989 7.7384 8.2642 8.2818 8.6207 8.801 8.9056 9.1524 9.5904 9.9932 10.1403 10.7394 11.3424 11.8566 11.9161 11.38058 10.57172 5.0893 5.0305 5.0458 5.815117 4.9982 4.7825 4.304 5.565 4.862 4.529417 4.248 4.3046 3.8637 5.0956 6.3203 6.8467 7.3866 7.7356 8.308 8.9908 9.5454 9.731433 9.8905 10.289 10.9924 18.468 78.4877 41.02113 37.5133 27.8817 23.2826 20.1381 18.9071 17.1799 16.6752 15.8469 14.7755 13.4144 11.9022 10.87745 10.3297 8.725 7.091 5.453 3.8902 3.066733 2.5247 1.4664 0.7537 0.3408 0.1355 0.08728334 0.0657 0.0011 0.0005 0.0002 0.0001 
0.0001708333 0.0002 0.0002 0.0003666667 0.0001 0.0003 0.0014 0.0162 0.0055 0.0185 0.0062 0.0256 0.0958 1.415383 0.3226 0.9673 2.5601 5.8788 9.9616 9.9988 12.7636 12.6841 14.5902 14.0597 13.1733 11.36845 11.976 10.8498 9.3618 8.0436 7.8872 8.182217 8.4815 6.4156 7.354483 7.6217 8.03064 7.4011 7.9994 8.5097 9.1965 10.4792 11.62027 13.0705 19.8317 15.7774 6.7052 6.6791 6.851383 6.6894 6.5451 6.224 5.8733 5.7253 6.022717 5.7991 5.9147 5.9074 5.7146 5.6945 5.9733 5.9829 6.4154 6.8734 7.2689 7.7055 8.38565 6.687 14.5362 5.518533 2.5506 2.7126 4.15605 3.0174 3.5491 4.7244 5.2302 4.7898 4.496617 4.0777 4.5651 4.4756 5.5363 6.6762 7.115183 7.5612 7.8692 8.4512 9.1184 9.6404 9.825784 9.9931 10.4155 11.2624 50.0069 29.9678 36.91599 29.8082 23.6786 21.3489 19.4836 18.3363 17.1909 16.13375 15.6374 14.8388 13.8503 12.6708 11.82097 11.3204 9.8015 8.1159 6.3119 4.5177 3.579167 2.9185 1.675 0.8453 0.3733 0.1443 0.09393334 0.0509 0.0137 0.0033 0.0007 0.0001 
0.0001 0.0001833333 0.0002 0.0002 0.0008 0.0034 0.0129 0.02436667 0.045 0.1431 0.4603 1.1806 2.6847 2.201783 5.3886 9.5104 13.2185 15.8057 17.3513 13.35875 18.9165 21.3714 22.551 22.4901 21.1016 16.57553 18.8466 16.0888 13.8732 11.8669 8.8269 9.166034 6.6516 8.1054 7.8756 8.859025 8.851775 10.3315 10.762 11.1886 11.6673 12.2443 13.72962 13.6334 9.8189 6.9834 6.8107 6.7059 6.370567 6.4371 6.0052 5.4284 4.8524 4.424 4.574517 4.1853 4.0112 3.7998 3.1397 2.6276 4.679067 2.792 3.298 4.0099 4.692 5.9295 5.8834 6.2192 3.3432 2.5614 3.528267 4.5284 3.97084 4.6339 4.8376 5.0773 5.4362 4.9087 4.72065 4.0935 4.753 5.0959 5.991 7.0485 7.374183 7.6983 8.0327 8.6131 9.2583 9.757 9.951933 10.1283 10.5806 25.4272 15.4355 22.6075 24.11275 23.1114 20.2019 18.9426 18.3843 17.3766 16.82944 16.3755 15.36992 14.5565 13.8513 12.9357 12.2325 11.767 10.3121 8.5718 6.6295 4.6744 3.693817 2.9495 1.6419 0.7994 0.3395 0.126 0.08091667 0.0412 0.0117 0.003 0.0007 0.0001 
0.0001222222 0.0001 0.0002333333 0.00064 0.0017 0.0061 0.01843333 0.0202 0.0612 0.1668 0.4078 0.8895 1.750533 1.7269 2.9921 4.4069 6.1282 7.938 11.32758 9.7248 11.4347 13.0404 14.4643 15.6962 18.67362 16.7455 17.6102 17.7781 16.6053 13.9188 14.6544 12.7637 10.3853 9.6557 9.886 10.0528 10.77678 11.068 11.23985 11.9785 12.2833 22.1564 13.3507 10.7939 7.3305 6.5024 6.1508 5.9441 5.792883 5.7678 5.414 4.8389 4.2734 3.8307 3.887067 3.4827 3.1938 3.5303 4.3727 5.1946 5.084267 5.7828 6.4415 7.3007 6.8836 5.0177 5.756683 3.7415 3.9485 4.3691 4.4475 4.7404 4.7627 4.9619 5.0157 5.4775 6.1107 6.1337 5.1139 4.3205 5.3719 5.7173 6.4786 7.4467 7.624633 7.8142 8.218 8.7923 9.4114 9.8976 10.10908 10.2952 10.7937 42.4778 14.7227 19.4465 20.36485 19.7351 18.034 17.6189 16.9538 16.3707 15.98563 15.6881 15.1232 14.30778 13.6409 12.8887 12.18492 11.8124 10.3531 8.5242 6.4614 4.4201 3.464883 2.6827 1.4272 0.6614 0.2668 0.094 0.06156667 0.0291 0.008 0.0019 0.0004 0.0001 
0.0001 0.0001666667 0.0001 0.0004 0.0052 0.0167 0.02738 0.0513 0.1419 0.3276 0.7326 1.4582 1.55355 2.5633 3.5971 4.5301 6.1079 7.7445 8.387633 9.4012 11.1571 13.2095 15.2641 17.1741 17.06198 18.8342 19.9304 20.5842 21.1658 23.1802 17.69128 17.3699 14.4684 12.0803 11.321 11.2581 11.64652 11.4647 11.7138 12.8859 14.0448 13.9699 10.54908 7.3063 6.5291 5.7075 5.2505 4.9889 4.809717 4.9135 4.6032 3.8239 3.4258 3.3074 4.35435 4.0923 5.0136 5.6796 6.3303 6.8447 6.836133 7.2639 7.6186 6.5465 6.7213 7.153 6.476833 6.4792 6.2434 5.3283 5.0591 4.9266 5.00485 5.013975 5.0313 5.686 5.1138 6.481 5.42825 4.746 5.9293 6.314 6.9746 7.7427 7.837533 7.9974 8.4276 8.9889 9.5826 10.0698 12.04838 10.5066 31.4327 18.6701 17.0797 18.8584 19.45278 18.4302 17.1832 16.1268 15.6118 15.2418 15.12627 14.8611 14.5212 14.1536 13.53576 13.1072 12.20687 11.5208 9.9769 8.0275 5.8796 4.778967 3.8471 2.2155 1.1125 0.4854 0.1843 0.1256833 0.0612 0.0179 0.0046 0.0011 0.0002 0.0002 
0.0001 0.0001 0.0003 0.0013 0.005 0.01045 0.03145 0.0426 0.1082 0.2724 0.5575 1.0176 1.689883 1.6658 2.8225 4.311 5.6889 7.105 7.734517 8.4123 9.4526 12.1267 14.4064 16.1388 16.57188 17.7831 18.9722 19.1053 31.9896 20.3642 20.05758 18.5509 18.0146 15.8597 13.8642 12.743 11.92138 12.714 13.2223 14.0727 10.72378 4.1416 6.92798 4.9264 5.0459 4.7995 4.2114 3.4479 4.573317 3.7961 4.4887 5.5849 6.5794 5.3955 5.213383 6.0175 6.7356 7.3748 7.8764 7.9317 7.506166 7.9991 7.4743 7.3917 7.7376 8.6534 7.699067 7.8162 6.9253 5.3046 5.1676 5.0839 5.1256 5.047 5.407583 6.1389 6.0092 6.1613 6.286 4.6023 5.1493 6.3474 7.2439 7.491233 7.863 8.1612 8.6257 9.1829 9.7638 10.02147 10.2724 21.2487 14.3646 18.6388 18.0017 20.45922 25.0032 15.2433 15.6017 15.0714 14.6802 14.6711 14.4139 14.182 13.9616 13.702 13.2936 12.73468 12.6056 11.0669 9.2243 7.1486 4.9869 3.994183 3.0787 1.6618 0.7794 0.3175 0.1127 0.07871667 0.0351 0.0097 0.0024 0.0005 0.0001 0.00015 
0.0001333333 0.0001 0.0004 0.0014 0.0049 0.0152 0.040375 0.1025 0.1836 0.4002 0.7797 1.3527 2.331983 2.0817 2.8676 3.6864 4.8697 6.1433 8.926333 7.6008 9.3833 9.6172 10.666 13.0271 16.33772 16.474 19.0791 20.8622 20.5841 20.38 21.04752 20.5003 20.4758 18.8281 16.3394 13.0969 16.70443 10.2516 22.5068 10.4841 7.6296 6.061175 4.59805 4.2957 3.6373 3.7678 4.3719 4.660233 5.1937 5.0998 4.9376 4.7501 4.2707 5.699266 5.932 6.5356 7.2175 7.8645 8.3742 8.78585 7.6838 7.3138 6.7106 6.9516 7.5165 7.925034 8.2751 7.8175 6.4318 5.5754 5.4126 5.331 5.3128 5.2577 5.2846 6.19865 6.7326 6.47702 6.3452 4.983 4.0291 6.0388 7.2888 7.51665 7.8344 8.2374 8.7596 9.3356 9.9282 12.07077 10.512 30.9281 9.8072 16.7015 25.8923 20.2463 17.92 15.7466 15.1527 14.573 14.168 14.12733 13.9109 13.7258 13.5529 13.3158 12.8962 12.47362 12.1433 10.9305 8.576283 5.9818 3.9187 3.095017 2.2541 1.1285 0.4903 0.1853 0.0612 0.04406667 0.0178 0.0046 0.0011 0.0002 0.000225 0.0001 
0.00025 0.0002 0.0008 0.0029 0.0095 0.0281 0.0742 0.0756 0.3150667 0.7145 2.372 2.634817 3.1742 4.6999 6.4548 8.2322 9.9171 10.70167 11.4501 12.8465 13.7896 14.7396 15.7762 15.19603 16.8541 17.7492 17.6183 19.3899 21.3254 21.89872 22.9725 23.5172 23.1041 21.3259 18.5601 22.50007 15.5277 35.8934 16.7151 10.7155 7.445 8.42642 5.0285 5.260684 5.5556 5.4094 5.3885 5.437083 5.348 5.201 5.1804 5.2961 5.5957 5.871433 6.4223 6.8803 7.3485 7.6795 12.5824 8.771584 8.2666 7.315 7.0167 7.4467 7.678 7.511583 7.6896 6.7572 4.642 11.1213 5.5803 5.522417 5.4288 5.3094 5.653 7.3736 7.1141 6.766475 7.0121 5.0632 3.7453 5.6878 7.1236 7.407617 7.7462 8.2236 8.8068 9.4183 10.0483 14.37257 21.8999 20.0914 13.4269 26.9071 17.1281 18.77178 17.5325 15.8387 15.0042 14.3727 13.9358 13.84067 13.6552 13.4591 13.265 12.9663 12.4229 11.88177 11.4801 10.0384 8.1341 5.384067 2.8308 2.28186 1.5009 0.6912 0.2765 0.0965 0.0296 0.0221 0.008 0.0019 0.0004 0.0001 0.00015 0.00014375 
0.0001 0.0006 0.0024 0.0084 0.027 0.03895 0.076 0.1761 0.3404 1.225783 2.7496 4.99798 5.3807 7.4464 10.0144 12.3598 14.627 14.64503 17.2028 16.5446 17.7934 17.7692 17.6453 17.63968 17.2075 14.344 16.8533 19.654 22.4304 24.39728 23.6999 25.4552 26.274 25.8948 24.8799 33.45905 46.5964 27.3424 18.6268 15.7309 15.0558 9.3616 6.9732 6.0738 6.002584 6.2471 6.2252 5.922367 6.0952 5.9228 5.8594 5.915 6.255 6.334816 6.7529 7.1074 7.4815 7.7787 7.5937 8.839784 8.1288 7.1121 16.3179 7.506 7.1723 7.1848 6.738 5.4811 6.0738 15.3 5.7645 5.6575 5.6355 5.6592 6.558 7.3742 6.976 7.683425 6.827825 5.8681 4.3076 5.4693 6.893 7.201967 7.5597 8.1366 8.7741 9.4256 19.0655 17.40345 14.7815 19.9515 26.2461 19.0124 17.0762 17.14512 17.0816 15.7528 14.9046 14.2819 13.8396 13.6999 13.5345 13.2933 13.014 12.5638 11.7893 11.08558 10.5588 8.8419 6.7773 4.6617 3.17845 1.775925 0.9048 0.381 0.1398 0.045 0.0346 0.0128 0.0032 0.0007 0.0001 0.0002 0.0001 0.000125 
0.0001 0.0005 0.002 0.0073 0.0244 0.04265 0.0687 0.1702 0.3708 0.8074 2.27315 6.0787 11.3134 12.8073 14.0095 16.64 17.6104 19.06898 17.0628 19.3822 19.8778 20.2199 20.0427 20.83462 18.3123 21.1825 23.4107 25.9484 29.3281 27.22818 26.6274 27.1056 28.295 30.1089 61.3252 39.88885 33.865 24.6539 20.2133 16.1918 11.609 11.01738 10.0581 6.4778 6.2518 6.485483 6.5454 5.77892 5.9319 4.7558 10.9854 6.2673 6.4267 6.455184 6.5563 6.4465 5.9398 4.3698 7.845 8.0422 8.6222 8.5422 24.3526 7.9816 6.9226 7.186717 6.9083 6.9865 11.1821 11.6853 5.8602 5.745483 5.6757 5.6093 6.5963 6.0892 7.3777 8.26444 9.3679 7.53445 5.3588 4.7105 6.5557 6.917183 7.3336 7.9904 8.6786 9.3709 27.5512 19.29057 11.0743 27.8333 18.879 19.4501 17.2774 17.04418 16.7749 15.6229 14.8096 14.2179 13.99927 13.7841 13.4502 13.129 12.6974 12.0061 11.376 10.9132 9.3492 7.391 5.2827 3.3541 2.64374 1.8672 0.8260167 0.1892 0.0636 0.0188 0.01505 0.0049 0.0012 0.0002 0.000275 0.0001 0.0001333333 0.0001 
0.0001 0.0003 0.0014 0.0051 0.0159 0.03403333 0.0439 0.1032 0.2214 0.6645 4.8711 6.36045 11.7463 15.1943 17.8107 20.8075 23.7981 22.00867 24.1128 24.1913 23.77 24.3309 24.4246 24.6927 27.3753 28.4645 28.8239 29.0745 28.1199 31.69883 33.1634 35.1426 37.249 73.1251 43.4264 36.35195 29.2402 22.3516 19.8377 17.8884 12.5337 11.11197 9.8745 7.0911 6.8639 6.7795 6.471475 5.61605 4.0969 6.0732 18.0787 6.4736 6.4405 6.311467 6.2997 5.8882 4.9972 3.0302 7.3751 8.356733 8.6884 11.0758 29.5624 8.4221 7.2897 7.733133 8.0894 9.342 11.9463 10.2431 5.8889 5.7691 5.6481 5.5448 6.3532 4.7952 7.3759 8.4013 10.2247 10.0796 7.693367 4.5855 5.59122 6.0629 7.0982 7.7602 8.5214 17.6032 18.7564 18.4501 24.8208 20.4603 19.4669 19.5587 18.51013 17.4972 16.5578 15.4934 14.7183 14.1532 13.92773 13.7189 13.3333 12.8844 12.2289 11.2197 10.41415 9.7639 7.8952 5.8113 3.8227 2.2151 1.75205 1.1206 0.4933 0.1835833 0.0261 0.0071 0.005933333 0.0017 0.0004 0.0001 0.00015 0.00015625 0.0001 0.0001111111 
0.0001 0.0003 0.0012 0.0044 0.0139 0.02433333 0.0374 0.0849 0.1685 0.3326 1.5871 3.49524 7.6702 11.76972 16.76518 19.7456 23.2438 22.66358 26.2241 26.7873 26.0811 26.6118 28.4163 28.20998 29.585 30.6353 31.2684 31.8823 34.0336 33.77485 38.9206 45.2895 71.0345 47.6643 29.1425 26.04792 21.1124 17.5443 13.7386 14.0295 12.7377 12.32178 9.8588 7.6659 7.0883 6.671 5.89 4.609825 5.73992 10.0771 20.1653 8.6614 7.299366 6.309 5.8366 4.9255 6.5362 4.7829 6.6487 7.8942 9.7155 18.3288 24.4013 8.6733 8.341217 7.9657 9.2231 10.6774 12.9648 9.1463 7.615233 5.9082 5.6335 5.5313 6.288 5.1385 6.202633 6.602 9.4596 13.6934 7.7324 6.6897 5.467975 6.0415 7.0866 7.5915 15.2606 14.4906 19.59082 25.0724 18.7161 21.0572 19.9829 19.6336 18.61893 17.6438 16.3686 15.3608 14.6246 14.075 13.8332 13.6173 13.1415 12.5076 11.5623 10.1909 9.243167 8.3911 6.3229 4.2789 2.5612 1.3422 1.05855 0.6131 0.2442 0.0851 0.02761667 0.0025 0.00242 0.0006 0.0001 0.0002 0.0001 0.000125 0.0001203125 0.0001 
0.0001666667 0.0001 0.0006 0.0026 0.0089 0.0158 0.026 0.0631 0.1249 0.2058 0.4377 2.201967 2.9101 10.653 16.38 16.4224 18.1773 16.5173 22.0854 25.6699 29.3874 30.274 25.75027 30.2897 29.169 28.4758 29.1881 31.8757 25.52847 29.7793 38.6323 89.5039 51.6871 27.0477 22.1557 16.2276 17.1384 20.1525 13.8531 14.8829 16.75103 14.5911 14.3349 10.7913 7.0923 6.3738 7.4673 5.2882 3.1642 12.63483 26.5469 9.4735 15.3697 6.4382 6.1588 5.5408 8.2225 6.7129 8.464383 10.0969 13.2705 19.2086 21.1546 9.0781 8.8996 8.6184 9.6431 12.378 14.1904 8.521 7.322183 5.9839 5.7137 5.6732 6.519 6.0805 6.69665 7.2237 9.772 13.2213 9.2589 5.182 5.86925 6.284325 6.9223 7.5114 17.6333 22.952 19.9465 18.9766 19.7388 21.3937 20.3541 19.6865 18.63143 17.6938 16.1733 15.2123 14.5165 13.9715 13.70277 13.4633 12.8533 11.9804 10.7031 8.976 7.941983 6.9174 4.8035 2.9574 1.5966 0.7517 0.5928333 0.3086 0.1109 0.0351 0.0098 0.004125 0.001025 0.0002 0.0003 0.0001 0.0001333333 0.0001 0.0001125 0.0001082031 
0.0001 0.0002666667 0.0001 0.0003 0.003375 0.0017 0.0069 0.0234 0.0637 0.1341 0.1666167 0.2151 0.3916 2.8914 9.5401 13.2025 8.9304 12.9571 8.7226 28.4012 18.7565 19.6874 17.85778 19.2224 18.0484 16.8355 14.7871 10.4565 17.20883 15.1434 16.4856 13.6424 5.2833 5.9259 9.66965 6.9262 7.8583 37.9284 17.9711 19.2817 13.24667 24.9833 31.9127 33.4363 25.5209 16.4422 7.292883 4.1386 4.3969 11.4586 31.70062 47.3259 16.41664 14.0102 8.8705 7.3594 9.6733 9.0377 11.77782 12.2617 15.0091 19.2604 19.6921 9.7031 9.76855 9.359 10.4375 15.745 13.251 8.2095 7.247133 6.1642 5.9312 5.986 6.9039 6.9933 7.52515 8.1419 10.4426 12.4001 10.0093 7.1666 6.08842 5.0869 7.01275 9.7763 25.8645 20.0757 19.87132 18.1117 19.8188 21.2955 20.4533 19.643 18.5146 17.4879 16.0068 15.0714 14.3986 13.8392 13.52925 13.2503 12.4657 11.3168 9.7035 7.6817 6.623667 5.4948 3.488 1.9401 0.9394 0.3958 0.31155 0.1456 0.0471 0.0135 0.0034 0.0008 0.0004 0.0002 0.0002 0.0002 0.0001 0.0001111111 0.0001 0.00010625 
0.0001555556 0.0001 0.0002 0.0002 0.001 0.0043 0.01066667 0.02355 0.0002 0.001 0.08905 0.006 0.0292 0.1145 0.3229 1.4987 6.401433 4.5031 8.802 0.8483 1.3224 2.7971 8.077066 4.8761 7.3044 8.3419 8.0226 7.7219 8.675783 8.2762 7.1655 4.0861 0.8894 0.8901 2.640767 1.0004 1.3064 1.9675 2.2002 2.6275 9.645416 3.1135 3.7643 4.4932 3.8957 1.2035 10.86457 10.311 13.2269 32.5625 62.8363 38.14103 18.1389 4.8354 4.4796 18.5748 16.1368 15.36 14.67237 17.1977 17.9207 19.6031 19.2437 10.9156 12.9778 10.9371 13.0045 17.2123 14.1278 8.1418 7.411933 6.4624 6.2807 6.4254 7.3251 7.824 8.295317 8.8875 10.8148 12.0297 10.3757 7.282 6.493166 5.7246 7.055 15.43185 19.37538 22.2811 21.143 17.9689 19.8648 21.1278 20.3815 19.8755 19.488 17.0884 15.7856 14.915 14.2638 13.9563 13.6738 12.9774 11.9887 10.553 8.6409 7.555417 6.425 4.2471 2.4563 1.2317 0.5343 0.4126333 0.2013 0.0663 0.0193 0.005 0.0012 0.001016667 0.0002 0.00015 0.000175 0.0002 0.0001666667 0.0001 0.0001037037 0.0001 
0.0001 0.00015 0.0001666667 0.0004666667 0.001833333 0.005322222 0.009679167 0.0002 0.0006 0.0006 0.0035 0.0176 0.0499 0.116675 0.38732 0.455525 1.501225 1.51355 1.5348 0.6630833 0.2015 0.57 1.659917 1.3094 2.4544 3.7946 4.9162 5.4461 5.530533 5.0106 3.6849 1.6811 0.2398 0.3233 0.5781167 0.7787 1.587 2.8712 3.1147 3.6466 3.803817 4.2199 5.0988 6.3842 6.8609 9.4049 13.93123 23.6872 34.4263 46.3339 36.0178 6.3841 7.639075 6.944875 10.2759 21.2005 20.0958 17.6329 17.60917 16.5442 16.5072 18.6362 14.351 23.2819 16.52185 13.6701 15.7489 17.6014 12.659 10.83347 8.5657 6.928 6.7249 6.9152 7.6915 8.04975 8.4736 9.4516 11.0382 11.7509 10.408 8.790267 7.106 6.5929 8.7349 19.1192 22.0412 22.08175 19.9106 18.5117 19.9647 20.951 20.1399 19.61657 19.1473 16.7362 15.514 14.7204 14.0962 13.7649 13.4662 12.6434 11.4373 9.7315 7.5891 6.476817 5.2923 3.2337 1.7078 0.775 0.3026 0.22825 0.1024 0.0303 0.0079 0.0018 0.0004 0.0004 0.0001 0.00015 0.0001333333 0.0001583333 0.0002 0.0001555556 0.0001 0.0001012346 
0.000125 0.0001388889 0.0002611111 0.0008222222 0.002540741 0.004258681 0.0002 0.0004 0.0004666667 0.001566667 0.007233333 0.02366667 0.036875 0.0001 0.0001 0.0004 0.001066667 0.0027 0.0136 0.0579 0.15855 0.0932 0.4763 0.3137 0.7252 1.3402 1.9856 3.668 3.50445 3.0604 1.982 0.7508 0.0314 0.0987 0.2977333 0.3775 1.0438 2.3653 3.3281 4.2563 4.48355 4.9591 5.7921 6.9208 7.8109 12.6562 19.71462 26.3246 32.1857 32.8607 26.5251 11.1482 9.9809 8.1886 14.778 21.7556 22.5255 21.28452 20.828 18.0922 17.3603 19.7132 19.029 21.3324 24.707 15.6194 17.0616 17.7534 12.7245 10.79565 8.782 7.3729 7.2003 7.3904 8.0305 8.467783 8.9538 9.8714 11.0892 11.4271 10.3009 9.416017 7.269 11.3896 9.4005 21.6443 23.124 22.45146 22.0188 20.43255 20.5226 20.8979 19.8697 19.24625 18.673 16.3956 15.2222 14.489 13.8842 13.52617 13.2052 12.2444 10.8227 8.8845 6.5945 5.493967 4.3191 2.4495 1.1895 0.493 0.1751 0.1280333 0.0538 0.0144 0.0034 0.0007 0.0001 0.000175 0.0001 0.0001 0.000125 0.0001194444 0.0001475694 0.0002 0.0001518519 0.0001 
0.0001319444 0.000175 0.0004074074 0.001208025 0.001955411 0.0002 0.0003 0.0003555556 0.0008111111 0.003088889 0.01082222 0.013595 0.0001 0.0001 0.00025 0.00025 0.000825 0.0001 0.0009 0.0051 0.0236 0.04175 0.1352 0.0952 0.3137 0.8895 1.6178 1.886017 2.1318 1.7098 1.0069 0.3307 0.0046 0.03005 0.0328 0.1754 0.5794 1.2414 3.1637 3.8035 4.449 5.3704 6.3252 7.8145 9.7873 13.75348 17.4031 28.8117 31.1157 27.4446 20.9139 17.1965 12.2103 11.9733 15.2741 20.48107 23.6386 22.88646 22.9863 19.913 18.8217 21.3443 21.5778 23.19208 25.0477 17.1269 18.1121 18.0921 12.9514 11.05293 9.0913 7.8118 7.649 7.8086 8.3219 8.81435 9.3354 10.195 11.1533 11.3196 10.7467 10.30765 10.6655 10.4855 12.7694 21.0777 23.1037 22.3925 21.9696 19.6079 20.58607 20.8349 19.5335 18.84647 18.1141 16.0425 14.9254 14.229 13.6242 13.23155 12.881 11.7724 10.1463 8.0252 5.6709 4.615167 3.4979 1.852 0.8343 0.3196 0.1047 0.07406667 0.0296 0.0073 0.0016 0.0003 0.0001 0.0001 0.000115 0.0001 0.0001 0.0001125 0.0001106482 0.0001411169 0.0002 0.0001506173 
0.0001534722 0.0002381173 0.0005968107 0.0009427107 0.0002 0.00025 0.0002851852 0.0004888889 0.001418518 0.004907407 0.005541222 0.0001 0.0001 0.000175 0.0002 0.000305 0.0001 0.0001 0.0005 0.0027 0.0115 0.01914 0.0387 0.1122167 0.153 0.3046 0.8692 1.070033 1.0437 0.8194 0.4505 0.132 0.0011 0.008833333 0.0117 0.073 0.2807 0.7068 1.2914 3.595433 6.3325 5.9039 6.7267 8.4748 11.8828 16.93257 22.9806 26.99 26.0779 22.4961 17.7722 16.65892 14.6093 15.7132 17.5828 22.1098 23.1572 23.8812 24.4539 21.7406 20.441 22.7425 23.1373 24.32017 25.6537 18.5135 18.9968 18.5582 13.3451 11.39622 9.4233 8.2126 8.0427 8.1604 8.5735 9.120566 9.671 10.5004 11.38 11.7714 12.6164 11.29488 10.2474 12.3911 14.8999 20.4135 22.5397 22.15943 21.5992 20.345 21.3081 20.45357 19.3078 18.31494 17.5807 15.6445 14.613 13.9398 13.3125 12.86955 12.4822 11.2139 9.3996 7.1501 4.8091 3.8276 2.7995 1.3906 0.5858 0.2096 0.0642 0.04415 0.017 0.0039 0.0008 0.0001 0.00015 0.0001 0.0001 0.000103 0.0001 0.0001 0.00010625 0.0001056327 0.0001374687 0.0002 
0.0001957948 0.0003294667 0.0004944097 0.0002 0.000225 0.0002450617 0.000341358 0.0007308642 0.002271605 0.00241343 0.0001 0.0001 0.0001375 0.0001583333 0.000176 0.0001 0.0001 0.0002666667 0.0002 0.001 0.0045 0.01326667 0.0174 0.0553 0.1275333 0.1633 0.3465 0.495 0.4112 0.3225 0.169 0.045 0.0002 0.003433333 0.0026 0.0183 0.0746 0.1585 0.523 3.283817 5.813 6.4444 7.529 10.4419 14.5175 19.43072 25.0241 25.4917 22.6655 20.0108 17.5112 17.22645 16.9366 17.7133 18.6898 22.4344 24.446 24.87765 23.7653 23.4206 21.9577 23.8368 24.2288 25.26908 26.2757 19.7706 19.8092 19.1444 13.7662 11.87998 9.8 8.576 8.384 8.4652 8.8092 9.436684 10.0124 10.8995 11.9413 13.2719 12.2132 11.92303 11.2801 13.8483 16.1857 20.1189 22.1412 21.90742 21.6032 20.6889 21.3872 20.3499 19.58022 18.21608 17.0386 15.2293 14.2736 13.6099 13.24 12.9317 11.9857 10.5461 8.5656 6.2478 5.120966 3.9934 2.1948 1.0255 0.406 0.1367 0.09345 0.0395 0.0099 0.0022 0.0004 0.0001 0.0001 0.0001125 0.0001 0.0001 0.0001006 0.0001 0.0001 0.000103125 0.0001029192 0.0001354876 
0.0002626308 0.0003049178 0.0002 0.0002125 0.0002233539 0.0002704732 0.0004390946 0.001114609 0.00112318 0.0001 0.0001 0.00011875 0.0001319444 0.0001343667 0.0001 0.0001 0.0001888889 0.0002 0.0004 0.0003 0.0014 0.005233333 0.0061 0.0222 0.0668 0.1324167 0.1346 0.21162 0.1648 0.1288 0.0518 0.0128 0.0007 0.003 0.0043 0.0236 0.1064 0.4015 1.3686 2.953167 4.3744 6.3732 8.1632 12.9073 18.4449 20.46615 23.7344 22.3286 20.5193 18.9247 18.0731 18.25533 18.4563 19.1425 19.8082 22.9776 25.1646 25.47076 25.4461 24.27465 23.4696 24.8895 25.08875 25.298 27.021 20.953 20.5358 19.7872 17.46727 14.3743 10.571 9.381 9.0888 8.9475 9.683066 9.1003 10.4537 11.5641 13.1787 13.0444 13.00265 12.8687 12.3124 14.8835 16.9662 20.0257 20.9616 21.8667 21.6945 20.8177 21.0386 19.726 19.32632 18.9372 16.77373 14.7804 13.9006 13.2073 12.77472 12.4388 11.3457 9.7303 7.6235 5.31 4.2656 3.2154 1.666 0.7326 0.2732 0.0869 0.05891667 0.0238 0.0056 0.0012 0.0002 0.0002 0.0001 0.0001 0.000103125 0.0001 0.0001 0.00010012 0.0001 0.0001 0.0001015625 0.0001014939 
0.0002558495 0.0002 0.00020625 0.0002119513 0.0002354424 0.0003109739 0.000608059 0.0005753767 0.0001 0.0001 0.000109375 0.0001168981 0.0001170122 0.0001 0.0001 0.000162963 0.0002 0.000225 0.0002 0.0001 0.0003 0.00165 0.0017 0.0069 0.0244 0.0589 0.050725 0.07515 0.001 0.0039 0.0129 0.0031 0.003533333 0.0015 0.0087 0.0432 0.1781 0.6064 1.10675 1.707 3.933 6.2888 8.2309 17.0449 16.28633 16.9687 24.1073 20.3065 19.3127 18.5462 18.77547 18.8116 19.7432 20.4891 20.9919 23.7653 24.89655 25.9856 26.3115 25.0424 25.14853 25.9441 25.9636 26.3353 27.7513 22.1297 21.2884 21.1174 19.33502 16.6141 13.1338 11.816 11.5557 11.4369 11.36565 11.3393 12.4879 13.5861 13.2307 13.4215 13.57725 13.1962 13.4871 15.6528 17.4682 19.8938 20.80508 21.7233 21.6425 20.8605 20.7481 19.385 18.7167 18.2335 16.4234 14.78472 13.4788 12.698 12.17058 11.7626 10.5049 8.7392 6.5668 4.3448 3.425217 2.4822 1.2093 0.4999 0.1757 0.0529 0.03586667 0.0137 0.0031 0.0006 0.0001 0.0001333333 0.0001333333 0.0001 0.0001 0.0001007813 0.0001 0.0001 0.000100024 0.0001 0.0001 0.0001007813 
0.0002 0.000203125 0.0002060671 0.0002178812 0.0002527892 0.0003848251 0.0003388819 0.0001 0.0001 0.0001046875 0.0001087577 0.0001086571 0.0001 0.0001 0.000154321 0.0002 0.00016875 0.00015 0.0001 0.0001666667 0.0001 0.0006 0.0003 0.0009 0.0016 0.0092 0.02276667 0.0002 0.00118 0.0007 0.0027 0.0009 0.00155 0.0022 0.0124 0.0582 0.2256 0.7153 1.1867 1.8417 3.8385 6.3455 8.6186 11.1168 17.33013 21.2354 25.7863 19.0749 18.6802 18.6325 19.2164 19.6647 20.9715 21.8422 22.2919 24.8212 25.72243 26.665 27.389 26.5704 24.9752 26.08388 26.65582 27.3511 28.4992 23.8012 23.3301 24.0004 22.03777 20.1167 15.5191 13.0766 12.7401 13.046 13.83893 14.3239 17.1821 15.6083 15.8787 14.9662 15.21082 13.9665 14.431 16.2175 17.8059 19.762 20.6595 21.559 21.5886 20.8681 20.9766 18.2921 18.04287 17.7264 15.8192 14.3059 13.20553 12.0447 11.43272 10.8721 9.4396 7.565 5.4144 3.3833 2.62475 1.8156 0.8293 0.3219 0.1066 0.0304 0.02083333 0.0075 0.0016 0.0003 0.0001 0.0001 0.0001111111 0.0001111111 0.0001 0.0001 0.0001001953 0.0001 0.0001 0.0001000048 0.0001 0.0001 
0.0002015625 0.000203064 0.0002090244 0.0002255792 0.0002851652 0.0002352992 0.0001 0.0001 0.0001023438 0.0001044817 0.0001044205 0.0001 0.0001 0.0001514403 0.0002 0.0001484375 0.000125 0.0001 0.0001222222 0.0001 0.0001 0.0002 0.0004333333 0.0001 0.0002 0.003666667 0.0047 0.00015 0.0001 0.00082 0.0005 0.0003 0.0008833333 0.0013 0.0055 0.0156 0.2662 0.6552 1.1045 1.5946 3.0578 5.6608 5.2565 10.5277 18.8331 27.0873 24.6667 18.3309 18.4118 19.0221 19.8663 20.6213 22.2351 23.2424 23.6518 25.9412 26.51832 27.1563 28.3 27.9502 26.4234 26.9928 27.69565 28.58628 27.46878 26.6664 26.3592 27.5933 24.67753 22.7847 16.341 13.4585 13.6976 14.9712 15.19525 17.9163 15.6817 18.2362 19.4834 18.5678 17.7871 17.1467 16.0374 16.6739 17.9605 19.6605 20.4992 21.3584 21.454 20.8555 21.1139 17.4805 17.36695 17.1397 15.1854 13.767 12.9388 12.09125 10.96838 9.7862 8.1526 6.2393 4.2228 2.4783 1.900667 1.2443 0.5317 0.1936 0.0604 0.019 0.01053333 0.0015 0.0005 0.0001 0.0001666667 0.0001 0.0001 0.0001037037 0.0001037037 0.0001 0.0001 0.0001000488 0.0001 0.0001 0.000100001 0.0001 
0.0002023133 0.0002045503 0.0002125559 0.0002399229 0.0001892087 0.0001 0.0001 0.0001011719 0.0001022752 0.0001022492 0.0001 0.0001 0.0001504801 0.0002 0.0001402344 0.0001125 0.0001 0.0001074074 0.0001 0.0001 0.0001333333 0.0002083333 0.0001 0.00015 0.00015 0.0002 0.001763333 0.0001 0.0001 0.0001 0.00022 0.0001 0.0005 0.0005 0.0018 0.0038 0.0928 0.6241 0.8499 1.1961 2.233 3.0221 4.9371 14.7386 20.74612 28.2928 21.4622 17.883 18.421 19.6336 20.65693 21.6236 23.5565 24.6497 24.9628 26.9837 27.2208 27.5425 29.1584 29.132 27.7777 28.0013 28.60952 28.4374 30.0574 29.34038 30.0632 30.1617 26.31905 23.4084 17.645 14.8052 15.5993 17.6325 15.12628 13.2816 17.2181 18.9091 20.6504 21.2396 20.12358 20.8358 19.7306 18.5463 18.0845 19.5084 20.37895 21.1469 21.1893 20.7911 21.0273 17.0161 16.83702 16.5469 14.4193 13.12 12.211 11.1705 9.8624 8.62904 6.7135 4.8564 3.0837 2.438717 1.6907 0.7918 0.3162 0.108 0.0371 0.02178333 0.004 0.0008 0.0002 0.000225 0.0001 0.0001222222 0.0001 0.0001 0.0001012346 0.0001012346 0.0001 0.0001 0.0001000122 0.0001 0.0001 0.0001000002 
0.0002034318 0.0002064732 0.0002190097 0.0001683375 0.0001 0.0001 0.0001005859 0.000101149 0.0001011392 0.0001 0.0001 0.00015016 0.0002 0.0001366211 0.00010625 0.0001 0.0001024691 0.0001 0.0001 0.0001111111 0.0001354167 0.0001 0.000125 0.0001333333 0.0001666667 0.000175 0.00015 0.0001 0.0001 0.0001 0.0001 0.0001 0.00025 0.0003 0.0018 0.0104 0.0602 0.1981 0.53895 0.8313 0.945 2.0399 6.5619 18.7482 21.7712 25.0821 19.1152 17.6204 18.5998 20.336 21.52005 22.705 24.8703 25.9332 26.1932 27.5552 27.86507 28.1459 29.8318 30.0128 28.8737 29.1173 30.13933 30.4988 32.4883 30.4078 31.57914 30.76922 30.0687 23.8975 18.8294 16.5754 17.695 14.28525 11.5957 15.3604 17.8946 19.0505 20.3407 20.45835 21.2811 21.6705 23.0799 22.1904 20.3136 20.63402 19.8043 20.7952 20.9225 20.8225 20.2118 18.53907 16.8931 15.9458 13.5641 12.276 11.2344 10.53642 10.0217 8.4712 5.959283 3.5305 2.0907 1.636283 1.0661 0.4648 0.1734 0.0651 0.0083 0.009333333 0.0019 0.0004 0.0001 0.00015 0.00014375 0.0001 0.0001074074 0.0001 0.0001 0.0001004115 0.0001004115 0.0001 0.0001 0.0001000031 0.0001 0.0001 
0.0002049525 0.0002096382 0.0001587641 0.0001 0.0001 0.000100293 0.0001005783 0.0001005748 0.0001 0.0001 0.0001500533 0.0002 0.0001349365 0.000103125 0.0001 0.000100823 0.0001 0.0001 0.0001037037 0.0001116319 0.0001 0.0001125 0.0001194444 0.0001416667 0.0001583333 0.0001638889 0.00013125 0.0001 0.0001 0.0001 0.0001 0.0001 0.0002 0.0009 0.0013 0.0073 0.0332 0.07631667 0.1082 0.2759 0.4605 1.1874 7.2984 13.85627 21.902 21.8635 17.5603 17.4188 18.7618 19.86452 21.041 23.7811 26.0925 26.9469 27.1365 27.93023 27.9537 29.0094 31.0185 31.3215 30.5429 31.45405 31.4737 33.3075 35.7824 34.4797 32.7833 31.2347 26.57265 23.3119 18.8421 16.9779 10.1572 12.5388 13.0318 15.6239 17.5703 18.4257 19.9067 19.6418 19.3316 19.6019 21.1025 24.7813 23.7847 23.07667 22.3086 22.4919 21.7925 20.9117 19.5488 18.57907 16.5373 15.1716 12.6063 11.1917 9.9784 9.214316 8.6025 6.9648 5.2193 2.966967 1.2756 1.07132 0.6109 0.2494 0.1023 0.0153 0.0039 0.0028 0.0008 0.0002 0.0002 0.0001 0.000125 0.0001171875 0.0001 0.0001024691 0.0001 0.0001 0.0001001372 0.0001001372 0.0001 0.0001 0.0001000008 0.0001 
0.0002072954 0.000154671 0.0001 0.0001 0.0001001465 0.0001002904 0.0001002892 0.0001 0.0001 0.0001500178 0.0002 0.0001341248 0.0001015625 0.0001 0.0001002744 0.0001 0.0001 0.0001012346 0.0001038339 0.0001 0.00010625 0.0001106482 0.000124537 0.0001398148 0.0001546296 0.0001383681 0.0001 0.0001 0.0001 0.0001 0.0001 0.0001 0.0001333333 0.0002 0.0022 0.0036 0.0147 0.03688333 0.0435 0.0835 0.1939 0.5973 8.1786 13.52708 20.4485 21.4586 16.4767 17.1841 18.8163 20.15592 21.6322 24.7398 27.1296 27.881 28.5112 29.96675 30.2316 32.0438 34.1711 34.4679 33.8687 34.7269 34.848 37.0392 39.3841 37.7359 33.0743 31.12064 29.0125 23.35532 18.2131 8.9132 10.5667 10.6084 12.1864 14.2322 16.471 17.4177 18.8918 18.05 18.0989 17.7066 18.1797 20.6343 26.1571 24.62825 26.0917 25.4895 24.5236 23.2164 21.2571 19.67873 17.0263 14.2582 11.4091 9.8445 8.4631 7.6902 6.9858 5.8938 3.4212 2.2645 1.456925 0.714125 0.3133 0.1426 0.0252 0.0069 0.0016 0.001233333 0.0003 0.0001 0.00015 0.0001375 0.0001 0.0001125 0.0001074219 0.0001 0.000100823 0.0001 0.0001 0.0001000457 0.0001000457 0.0001 0.0001 0.0001000002 
0.0001404916 0.0001 0.0001 0.0001000732 0.0001001456 0.0001001452 0.0001 0.0001 0.0001500059 0.0002 0.0001337265 0.0001007813 0.0001 0.0001000914 0.0001 0.0001 0.0001004115 0.0001012671 0.0001 0.000103125 0.0001056327 0.0001138117 0.000125 0.0001396605 0.0001332031 0.0001 0.0001 0.0001 0.0001 0.0001 0.0001 0.0001133333 0.0001333333 0.0001 0.0007 0.0044 0.0056 0.01712 0.0161 0.0335 0.0595 0.2667 6.6584 12.10192 16.6766 24.9916 15.5682 16.7933 18.7419 20.25122 21.9423 25.4993 28.4318 30.3508 31.7282 33.34146 34.2393 36.383 38.4609 38.8244 38.4383 39.01487 39.1898 41.1629 42.6435 39.0753 32.7163 29.9172 28.0168 22.7355 14.51225 7.5108 7.9478 8.2855 9.7605 11.7556 14.2802 15.3975 16.6897 15.85773 15.3813 14.2692 12.8945 15.5704 20.8151 23.1993 28.6123 29.7279 28.7312 27.1648 24.2528 22.08748 19.4501 15.4029 10.7649 8.3024 6.7904 6.5598 5.321 4.2414 2.4879 1.6309 0.6567 0.364325 0.19884 0.051 0.0128 0.003 0.002266667 0.0007 0.0001 0.0001666667 0.0001 0.000125 0.000115625 0.0001 0.00010625 0.000103418 0.0001 0.0001002744 0.0001 0.0001 0.0001000152 0.0001000152 0.0001 0.0001 
0.0001 0.0001 0.0001000366 0.000100073 0.0001000728 0.0001 0.0001 0.000150002 0.0002 0.0001335293 0.0001003906 0.0001 0.0001000305 0.0001 0.0001 0.0001001372 0.0001004197 0.0001 0.0001015625 0.0001029192 0.0001075231 0.0001148148 0.0001261574 0.0001244659 0.0001 0.0001 0.0001 0.0001 0.0001 0.0001 0.0001048889 0.0001111111 0.0001 0.0001 0.0003 0.0015 0.0024 0.00735 0.0057 0.0135 0.0314 0.0841 2.7932 10.03427 17.8562 23.8894 14.5993 16.1265 18.4096 20.2269 21.965 26.8743 31.3239 34.2012 36.1278 36.96722 39.2107 41.2977 43.0504 43.6288 43.6313 43.48098 44.1131 45.1933 44.2883 37.6956 30.6304 28.18318 26.0529 20.3589 9.342 6.698667 3.7139 5.88462 5.5377 9.7917 11.9275 9.4136 12.8074 13.08428 13.2773 8.8381 6.7798 9.2157 15.5513 18.40953 21.9683 28.0807 29.6438 30.3315 27.7316 22.02128 22.807 17.552 12.0489 8.7411 6.5371 5.160984 5.2614 4.2167 1.4012 0.4819 0.6109 0.3954 0.0919 0.03706667 0.0051 0.0012 0.0009333334 0.0002 0.000275 0.0001 0.0001222222 0.0001 0.0001125 0.0001070313 0.0001 0.000103125 0.0001016357 0.0001 0.0001000914 0.0001 0.0001 0.0001000051 0.0001000051 0.0001 
0.0001 0.0001000183 0.0001000365 0.0001000365 0.0001 0.0001 0.0001500007 0.0002 0.0001334312 0.0001001953 0.0001 0.0001000102 0.0001 0.0001 0.0001000457 0.0001001392 0.0001 0.0001007813 0.0001014939 0.0001040016 0.0001084191 0.0001161651 0.0001163595 0.0001 0.0001 0.0001 0.0001 0.0001 0.0001 0.0001017185 0.0001037037 0.0001 0.0001 0.0001666667 0.0001 0.0005 0.002 0.00255 0.00655 0.0051 0.0123 0.0248 0.2771 7.747416 15.9441 24.0308 13.8803 15.1091 17.7302 20.29367 22.5724 29.4381 35.2028 37.6763 38.9448 38.6094 41.5525 43.289 44.9663 46.7812 47.8554 46.61562 47.658 46.8416 43.2665 36.3665 28.866 24.30782 22.8167 10.9415 6.9101 4.7674 2.59795 3.033525 2.4632 6.7227 6.7376 2.2076 6.317067 8.5554 11.7946 3.3749 2.9707 4.6756 6.90205 8.3909 15.1193 19.5223 24.3792 23.7611 21.56198 21.2562 16.63 12.8694 9.6016 6.9726 4.76365 4.8806 2.1754 0.4796 0.4135 0.3773 0.2601333 0.1232 0.0434 0.0182 0.0055 0.0004 0.000475 0.0001 0.00015 0.00015625 0.0001 0.0001074074 0.0001 0.00010625 0.0001033203 0.0001 0.0001015625 0.0001007996 0.0001 0.0001000305 0.0001 0.0001 0.0001000017 0.0001000017 
0.0001000092 0.0001000183 0.0001000183 0.0001 0.0001 0.0001500002 0.0002 0.0001333822 0.0001000977 0.0001 0.0001000034 0.0001 0.0001 0.0001000152 0.0001000462 0.0001 0.0001003906 0.0001007584 0.0001020923 0.0001046382 0.0001095286 0.0001102359 0.0001 0.0001 0.0001 0.0001 0.0001 0.0001 0.0001005906 0.0001012346 0.0001 0.0001 0.0001222222 0.0001 0.0002666667 0.0002 0.0006 0.00106 0.0019 0.0041 0.0031 0.0079 0.1096 0.1667 9.4472 22.2559 15.2509 13.8573 15.6807 17.3501 23.7347 31.9546 35.2017 35.0098 34.60862 36.3783 39.4423 42.0148 44.1629 46.7314 47.01503 48.6882 47.7477 45.8083 40.5019 32.6505 27.1249 24.9969 12.484 7.703 3.858 1.4912 1.71462 0.4193 2.170783 2.4813 2.4576 0.466 2.785867 4.4524 5.5897 0.5561 0.7723 1.3596 3.3864 2.2192 9.161 11.542 16.3199 14.9247 13.60205 11.3668 7.2841 4.4814 2.7226 0.93 2.343283 0.5205 0.3018 0.3349 0.3419 0.1292 0.1272333 0.0538 0.0181 0.0063 0.0018 0.000725 0.0002 0.0001 0.0001 0.000125 0.0001203125 0.0001 0.0001024691 0.0001 0.000103125 0.0001016113 0.0001 0.0001007813 0.0001003952 0.0001 0.0001000102 0.0001 0.0001 0.0001000006 
0.0001000137 0.0001000091 0.0001 0.0001 0.0001500001 0.0002 0.0001333578 0.0001000488 0.0001 0.0001000011 0.0001 0.0001 0.0001000051 0.0001000154 0.0001 0.0001001953 0.000100383 0.0001010804 0.0001024963 0.0001054197 0.0001061007 0.0001 0.0001 0.0001 0.0001 0.0001 0.0001 0.0001002004 0.0001004115 0.0001 0.0001 0.0001074074 0.0001 0.0001888889 0.0002 0.0004 0.000275 0.0002 0.0006 0.0016 0.002666667 0.0035 0.062025 0.0715 1.1545 17.2806 14.8927 13.235 14.35863 16.8025 23.7269 27.4835 27.2049 28.6302 28.93258 31.0123 34.9627 38.5534 41.6808 44.9393 44.82163 47.0947 45.7358 43.048 36.0522 26.7194 19.96457 13.1501 7.7969 4.4532 5.3906 1.5616 0.7458833 0.3336 0.6046 1.113133 0.2305 0.1008 1.062683 0.933 1.2788 0.7503 1.2124 1.5383 1.31365 2.1348 3.1637 2.8173 7.1148 6.5674 6.36475 3.7361 1.4597 0.5401 0.2637 0.4229 0.4652 0.3331 0.2889 0.2908 0.1295 0.0582 0.0492 0.0217 0.0069 0.0021 0.0006 0.0001 0.0001 0.00012 0.0001 0.0001 0.0001125 0.0001082031 0.0001 0.000100823 0.0001 0.0001015625 0.0001007935 0.0001 0.0001003906 0.0001001965 0.0001 0.0001000034 0.0001 0.0001 
0.0001000057 0.0001 0.0001 0.00015 0.0002 0.0001333455 0.0001000244 0.0001 0.0001000004 0.0001 0.0001 0.0001000017 0.0001000051 0.0001 0.0001000977 0.0001001928 0.0001005529 0.0001013199 0.0001029988 0.0001035042 0.0001 0.0001 0.0001 0.0001 0.0001 0.0001 0.0001000675 0.0001001372 0.0001 0.0001 0.0001024691 0.0001 0.000162963 0.0002 0.0003 0.000225 0.00015 0.0001 0.0002 0.0004 0.001 0.002 0.02405 0.38335 0.2875 7.3704 14.1212 11.0504 11.65225 13.8565 19.2205 18.0582 17.7215 19.3316 21.561 23.2333 27.1098 31.5492 35.8259 39.6021 40.01013 41.8741 40.0351 35.9723 28.0932 14.0574 12.41605 8.2131 2.5318 7.0993 3.8631 0.2886 0.5177833 0.381 0.5936 0.3112 0.1837 0.1205 0.34484 0.3034 0.3456 0.3403 0.3166 0.2803 0.7716166 0.3497 0.4526 0.4189 1.5209 1.1523 2.062633 0.4412 0.2548 0.2096 0.201 0.3227 0.2946 0.262 0.2444 0.1215 0.0605 0.0241 0.0207 0.0082 0.0024 0.0007 0.0002 0.0003 0.0001 0.0001 0.000104 0.0001 0.0001 0.00010625 0.0001036133 0.0001 0.0001002744 0.0001 0.0001007813 0.0001003937 0.0001 0.0001001953 0.0001000979 0.0001 0.0001000011 0.0001 
0.0001 0.0001 0.00015 0.0002 0.0001333394 0.0001000122 0.0001 0.0001000001 0.0001 0.0001 0.0001000006 0.0001000017 0.0001 0.0001000488 0.0001000968 0.0001002811 0.0001006885 0.0001016239 0.0001019557 0.0001 0.0001 0.0001 0.0001 0.0001 0.0001 0.0001000226 0.0001000457 0.0001 0.0001 0.000100823 0.0001 0.000154321 0.0002 0.00025 0.00019 0.000125 0.0001 0.00015 0.0002 0.0001 0.0005 0.0028 0.00604 0.0199 1.485667 1.0699 8.2866 8.0071 7.909667 6.962 12.7094 8.9933 8.7136 11.484 13.4389 15.6746 19.9756 23.7435 28.3394 32.3445 31.98603 34.2061 31.2798 25.255 13.6569 9.0299 6.638134 3.3264 2.5303 5.1674 0.851 0.1936 0.27605 0.3483 0.4203 0.1796 0.1596 0.152425 0.209775 0.2665 0.2099 0.2692 0.2009 0.193 0.1571 0.1695 0.1771 0.1975 0.2757 0.5925167 0.2307 0.2481 0.2475 0.1511 0.1846 0.2052 0.2272 0.1997 0.1041 0.057 0.0251 0.02186667 0.0091 0.0029 0.0008 0.0002 0.0003666667 0.0002 0.0002 0.0001 0.0001 0.0001008 0.0001 0.0001 0.000103125 0.0001016846 0.0001 0.0001000914 0.0001 0.0001003906 0.0001001961 0.0001 0.0001000977 0.0001000489 0.0001 0.0001000004 
0.0001 0.00015 0.0002 0.0001333364 0.0001000061 0.0001 0.0001 0.0001 0.0001 0.0001000002 0.0001000006 0.0001 0.0001000244 0.0001000485 0.0001001422 0.0001003555 0.0001008645 0.000101067 0.0001 0.0001 0.0001 0.0001 0.0001 0.0001 0.0001000076 0.0001000152 0.0001 0.0001 0.0001002744 0.0001 0.0001514403 0.0002 0.000225 0.0001705 0.0001125 0.0001 0.000125 0.0001375 0.0001 0.0002666667 0.0002 0.001 0.004883333 0.0045 0.1618 2.111383 2.7492 4.6587 4.095933 2.9233 5.4565 2.9093 2.1314 3.8789 6.594383 7.031 11.2156 15.7262 19.0572 21.6839 22.13093 22.2055 18.6722 11.7341 8.0218 6.3201 3.6057 1.5963 2.9374 1.336 0.3319 0.3355167 0.1907 0.2541 0.2771 0.1478 0.1809 0.16128 0.1487 0.19575 0.1588 0.2011 0.1104 0.1101333 0.0927 0.1195 0.1593 0.1977 0.2142 0.2006167 0.1613 0.2246 0.2406 0.1102 0.1613 0.1450833 0.1344 0.0857 0.0484 0.0233 0.0093 0.008483334 0.0031 0.001 0.0002 0.0004 0.0002 0.0002555556 0.0002 0.0001666667 0.0001 0.0001 0.00010016 0.0001 0.0001 0.0001015625 0.0001008118 0.0001 0.0001000305 0.0001 0.0001001953 0.0001000978 0.0001 0.0001000488 0.0001000244 0.0001 
0.00015 0.0002 0.0001333349 0.0001000031 0.0001 0.0001 0.0001 0.0001 0.0001000001 0.0001000002 0.0001 0.0001000122 0.0001000243 0.0001000717 0.0001001821 0.0001004541 0.0001005718 0.0001 0.0001 0.0001 0.0001 0.0001 0.0001 0.0001000025 0.0001000051 0.0001 0.0001 0.0001000914 0.0001 0.0001504801 0.0002 0.0002125 0.00016035 0.00010625 0.0001 0.0001125 0.000115625 0.0001 0.0001888889 0.0002 0.0004666667 0.0002 0.00136 0.0009 0.0847 0.3161 1.66018 2.29745 1.3986 0.6259 0.7655 0.3811 0.3414 1.225517 0.4955 1.0023 2.9432 6.4512 10.4484 11.40082 11.4602 10.8854 7.5122 5.6234 3.1175 2.6448 0.4888 0.4075 0.6614 0.3302 0.2739 0.2268667 0.172 0.1513 0.1567 0.1071 0.1654 0.1521167 0.1518 0.2388 0.17065 0.1314 0.0518 0.05745 0.0479 0.0777 0.1527 0.2 0.1822 0.16015 0.1396 0.1858 0.1793 0.1017 0.0979 0.08903334 0.0651 0.0318 0.019 0.0085 0.0032 0.003 0.0011 0.0002 0.0004666667 0.0002 0.0002666667 0.0002 0.0002185185 0.0002 0.0001555556 0.0001 0.0001 0.000100032 0.0001 0.0001 0.0001007813 0.0001003983 0.0001 0.0001000102 0.0001 0.0001000977 0.0001000489 0.0001 0.0001000244 0.0001000122 
0.0002 0.0001333341 0.0001000015 0.0001 0.0001 0.0001 0.0001 0.0001 0.0001000001 0.0001 0.0001000061 0.0001000122 0.0001000361 0.0001000927 0.000100236 0.000100302 0.0001 0.0001 0.0001 0.0001 0.0001 0.0001 0.0001000008 0.0001000017 0.0001 0.0001 0.0001000305 0.0001 0.00015016 0.0002 0.00020625 0.000155195 0.000103125 0.0001 0.00010625 0.0001070313 0.0001 0.000162963 0.0002 0.0002888889 0.0002 0.0002 0.0004333333 0.0002 0.0381 0.1936 0.3833 0.592975 0.74785 0.6384 0.4954 0.2688 0.2667 0.2858833 0.2392 0.2465 0.3712 0.8012 2.2706 4.731184 3.4846 3.0261 2.6753 0.7522 0.521 0.75475 0.114 0.3075 0.2492 0.299 0.2626 0.19255 0.1301 0.0751 0.0753 0.0652 0.1211 0.1270167 0.1448 0.1735 0.1203 0.08001667 0.0206 0.02994 0.0213 0.0443 0.1255 0.1801 0.1478 0.12965 0.1158 0.1339 0.1172 0.0721 0.0488 0.04476667 0.0267 0.0104 0.0065 0.0028 0.001 0.001 0.0003 0.000425 0.0002 0.0002888889 0.0002 0.0002222222 0.0002 0.0002061728 0.0002 0.0001518519 0.0001 0.0001 0.0001000064 0.0001 0.0001 0.0001003906 0.0001001972 0.0001 0.0001000034 0.0001 0.0001000488 0.0001000244 0.0001 0.0001000122 
0.0001333337 0.0001000008 0.0001 0.0001 0.0001 0.0001 0.0001 0.0001 0.0001 0.0001000031 0.0001000061 0.0001000181 0.000100047 0.0001001216 0.0001001577 0.0001 0.0001 0.0001 0.0001 0.0001 0.0001 0.0001000003 0.0001000006 0.0001 0.0001 0.0001000102 0.0001 0.0001500533 0.0002 0.000203125 0.0001526015 0.0001015625 0.0001 0.000103125 0.0001033203 0.0001 0.000154321 0.0002 0.0002296296 0.0002 0.0002 0.0002583333 0.0002 0.0144 0.0145 0.1029 0.2615 0.28854 0.3285 0.4418833 0.3825 0.207 0.1898 0.1863333 0.1827 0.1902 0.248 0.2815 0.2864 1.154117 0.4369 0.3844 0.3049 0.1108 0.18 0.18545 0.1072 0.3072 0.1927 0.2923 0.2345 0.1561667 0.0822 0.0316 0.0309 0.0334 0.0818 0.09098333 0.0972 0.1149 0.0802 0.0758 0.03505 0.014275 0.0081 0.022 0.0858 0.141 0.1133 0.09651667 0.0792 0.0841 0.0731 0.0359 0.0206 0.0196 0.0095 0.003 0.002 0.0008 0.0003 0.00036 0.0001 0.0002 0.00023125 0.0002 0.0002296296 0.0002 0.0002074074 0.0002 0.0002020576 0.0002 0.0001506173 0.0001 0.0001 0.0001000013 0.0001 0.0001 0.0001001953 0.0001000981 0.0001 0.0001000011 0.0001 0.0001000244 0.0001000122 0.0001 
0.0001000004 0.0001 0.0001 0.0001 0.0001 0.0001 0.0001 0.0001 0.0001000015 0.000100003 0.0001000091 0.0001000237 0.0001000622 0.0001000816 0.0001 0.0001 0.0001 0.0001 0.0001 0.0001 0.0001000001 0.0001000002 0.0001 0.0001 0.0001000034 0.0001 0.0001500178 0.0002 0.0002015625 0.0001513015 0.0001007813 0.0001 0.0001015625 0.0001016113 0.0001 0.0001514403 0.0002 0.0002098765 0.0002 0.0002 0.0002145833 0.0002 0.005916667 0.0069 0.0048 0.0483 0.1661 0.22405 0.3033 0.5032 0.2921833 0.1314 0.1128 0.1241667 0.1268 0.1543 0.2101 0.2331 0.2167 0.2526667 0.2295 0.2169 0.2008 0.1016 0.0869 0.1069333 0.1036 0.3175 0.1861 0.2774 0.1836 0.11485 0.044 0.0114 0.0109 0.0146 0.0455 0.05481667 0.0555 0.0674 0.0481 0.0367 0.0071 0.005 0.00888 0.0095 0.0493 0.0954 0.08748333 0.0755 0.0475 0.0499 0.033 0.0166 0.0154 0.009 0.003 0.0009 0.0005 0.0002 0.00035 0.0001 0.0001 0.0001 0.00015 0.0001703125 0.0002 0.0002098765 0.0002 0.0002024691 0.0002 0.0002006859 0.0002 0.0001502058 0.0001 0.0001 0.0001000003 0.0001 0.0001 0.0001000977 0.000100049 0.0001 0.0001000004 0.0001 0.0001000122 0.0001000061 
0.0001 0.0001 0.0001 0.0001 0.0001 0.0001 0.0001 0.0001000008 0.0001000015 0.0001000046 0.000100012 0.0001000317 0.0001000419 0.0001 0.0001 0.0001 0.0001 0.0001 0.0001 0.0001 0.0001000001 0.0001 0.0001 0.0001000011 0.0001 0.0001500059 0.0002 0.0002007812 0.0001506509 0.0001003906 0.0001 0.0001007813 0.0001007935 0.0001 0.0001504801 0.0002 0.0002032922 0.0002 0.0002 0.0002036458 0.0002 0.002581944 0.003222222 0.002166667 0.0014 0.0197 0.0994 0.1478333 0.1855 0.2841 0.2449 0.13718 0.092375 0.0569 0.076 0.1089 0.1579 0.1808 0.17055 0.1434 0.2031 0.2553 0.1841 0.1024 0.09066667 0.0805 0.0834 0.3059 0.1778 0.2387 0.17995 0.1246 0.0202 0.0036 0.0033 0.0055 0.01575 0.0197 0.0292 0.0348 0.0251 0.0155 0.01128333 0.0021 0.0027 0.01501667 0.0242 0.056 0.05358334 0.0437 0.0265 0.0227 0.0147 0.0069 0.006583333 0.0034 0.0009 0.0002 0.0001 0.0002666667 0.00015 0.0001 0.0001 0.0001 0.0001 0.000125 0.0001488281 0.0002 0.0002032922 0.0002 0.0002008231 0.0002 0.0002002286 0.0002 0.0001500686 0.0001 0.0001 0.0001 0.0001 0.0001 0.0001000488 0.0001000244 0.0001 0.0001000001 0.0001 0.0001000061 
0.0001 0.0001 0.0001 0.0001 0.0001 0.0001 0.0001000004 0.0001000008 0.0001000023 0.000100006 0.0001000161 0.0001000214 0.0001 0.0001 0.0001 0.0001 0.0001 0.0001 0.0001 0.0001 0.0001 0.0001 0.0001000004 0.0001 0.000150002 0.0002 0.0002003906 0.0001503255 0.0001001953 0.0001 0.0001003906 0.0001003937 0.0001 0.00015016 0.0002 0.0002010974 0.0002 0.0002 0.0002009115 0.0002 0.001191319 0.001503704 0.0009888889 0.0006 0.0003 0.0069 0.03211667 0.0466 0.0861 0.1334 0.1284 0.0684 0.045 0.0493 0.0394 0.0655 0.1022 0.1263 0.1232833 0.123 0.1703 0.1679 0.1718 0.1164 0.08248334 0.0562 0.088 0.2639 0.1545 0.1818 0.1298167 0.0736 0.0081 0.001 0.0009 0.0018 0.006233333 0.0074 0.0132 0.0158 0.0114 0.0058 0.004316667 0.0005 0.0008 0.0036 0.02068333 0.0287 0.03765 0.0222 0.0129 0.0092 0.0058 0.0025 0.0025 0.0011 0.0003 0.0001 0.0001333333 0.0001 0.0001541667 0.0001166667 0.0001 0.0001 0.0001 0.0001 0.0001125 0.000140332 0.0002 0.0002010974 0.0002 0.0002002743 0.0002 0.0002000762 0.0002 0.0001500229 0.0001 0.0001 0.0001 0.0001 0.0001 0.0001000244 0.0001000122 0.0001 0.0001 0.0001 
0.0001 0.0001 0.0001 0.0001 0.0001 0.0001000002 0.0001000004 0.0001000011 0.000100003 0.0001000081 0.0001000109 0.0001 0.0001 0.0001 0.0001 0.0001 0.0001 0.0001 0.0001 0.0001 0.0001 0.0001000001 0.0001 0.0001500007 0.0002 0.0002001953 0.0001501628 0.0001000977 0.0001 0.0001001953 0.0001001961 0.0001 0.0001500533 0.0002 0.0002003658 0.0002 0.0002 0.0002002279 0.0002 0.000594049 0.0007222222 0.0004796296 0.0003 0.0002 0.0001 0.0021 0.01335 0.018 0.0331 0.0535 0.0566 0.0298 0.02876 0.0249 0.03178333 0.0337 0.0571 0.0776 0.08521666 0.0886 0.1211 0.1062 0.1343 0.0927 0.06818333 0.0467 0.0783 0.2014 0.1191 0.1221 0.08426667 0.0381 0.0029 0.0002 0.0002 0.0005 0.002166667 0.0025 0.0049 0.0065 0.0048 0.0019 0.00178 0.0001 0.0002 0.0012 0.0104 0.013975 0.01845 0.01265 0.0055 0.0035 0.0019 0.0008 0.0008333334 0.0003 0.0001 0.0001666667 0.0001 0.0001111111 0.0001 0.0001177083 0.0001055556 0.0001 0.0001 0.0001 0.0001 0.00010625 0.0001366455 0.0002 0.0002003658 0.0002 0.0002000915 0.0002 0.0002000254 0.0002 0.0001500076 0.0001 0.0001 0.0001 0.0001 0.0001 0.0001000122 0.0001000061 0.0001 0.0001 
0.0001 0.0001 0.0001 0.0001 0.0001000001 0.0001000002 0.0001000006 0.0001000015 0.0001000041 0.0001000055 0.0001 0.0001 0.0001 0.0001 0.0001 0.0001 0.0001 0.0001 0.0001 0.0001 0.0001 0.0001 0.0001500002 0.0002 0.0002000977 0.0001500814 0.0001000488 0.0001 0.0001000977 0.0001000978 0.0001 0.0001500178 0.0002 0.0002001219 0.0002 0.0002 0.000200057 0.0002 0.0003345333 0.0003736626 0.0002626543 0.0001833333 0.00015 0.0001 0.00085 0.0009 0.004733333 0.0056 0.011 0.0187 0.0214 0.0112 0.01371667 0.0095 0.0177 0.02638333 0.0278 0.0417 0.05173333 0.0541 0.0742 0.0617 0.0897 0.064 0.04838333 0.0331 0.0592 0.1359 0.081 0.0726 0.04928333 0.0174 0.0009 0.0001 0.00022 0.0001 0.0008 0.0007 0.0016 0.0024 0.0018 0.0006 0.0007 0.00015 0.0004 0.0004 0.0039 0.0129 0.008025 0.01 0.004383333 0.0012 0.0006 0.0002 0.0003 0.0001 0.0001666667 0.0001 0.0001222222 0.0001 0.0001037037 0.0001 0.000105816 0.0001018519 0.0001 0.0001 0.0001 0.0001 0.000103125 0.0001349426 0.0002 0.0002001219 0.0002 0.0002000305 0.0002 0.0002000085 0.0002 0.0001500025 0.0001 0.0001 0.0001 0.0001 0.0001 0.0001000061 0.0001000031 0.0001 
0.0001 0.0001 0.0001 0.0001 0.0001000001 0.0001000003 0.0001000008 0.0001000021 0.0001000028 0.0001 0.0001 0.0001 0.0001 0.0001 0.0001 0.0001 0.0001 0.0001 0.0001 0.0001 0.0001 0.0001500001 0.0002 0.0002000488 0.0001500407 0.0001000244 0.0001 0.0001000488 0.0001000489 0.0001 0.0001500059 0.0002 0.0002000406 0.0002 0.0002 0.0002000142 0.0002 0.000221397 0.000220096 0.0001704218 0.0001361111 0.000125 0.0001 0.0003958333 0.0004333333 0.0003 0.001466667 0.0015 0.0033 0.0079 0.0071 0.0037 0.00495 0.0032 0.007 0.015 0.01976667 0.0167 0.03194 0.0317 0.0403 0.0388 0.0497 0.0335 0.02965 0.0203 0.0386 0.0814 0.0489 0.0384 0.02605 0.0071 0.0003 0.00035 0.0001 0.0001 0.0003333333 0.0002 0.0005 0.0008 0.0006 0.0002 0.0004 0.0003142857 0.00025 0.0001 0.0013 0.0052 0.0059 0.004 0.0021 0.0008666667 0.0002 0.000275 0.0001 0.0001 0.0001 0.0001222222 0.0001 0.0001074074 0.0001 0.0001012346 0.0001 0.000101917 0.0001006173 0.0001 0.0001 0.0001 0.0001 0.0001015625 0.0001341263 0.0002 0.0002000406 0.0002 0.0002000102 0.0002 0.0002000028 0.0002 0.0001500009 0.0001 0.0001 0.0001 0.0001 0.0001 0.0001000031 0.0001000015 
0.0001 0.0001 0.0001 0.0001 0.0001000001 0.0001000004 0.000100001 0.0001000014 0.0001 0.0001 0.0001 0.0001 0.0001 0.0001 0.0001 0.0001 0.0001 0.0001 0.0001 0.0001 0.00015 0.0002 0.0002000244 0.0001500204 0.0001000122 0.0001 0.0001000244 0.0001000244 0.0001 0.000150002 0.0002 0.0002000135 0.0002 0.0002 0.0002000036 0.0002 0.0001720248 0.0001528464 0.0001309585 0.0001162037 0.0001125 0.0001 0.0002225694 0.0002444444 0.0002 0.0001 0.00048 0.0004 0.0008 0.0001 0.0021 0.0011 0.0016 0.001 0.0024 0.0058 0.0116 0.009625 0.017475 0.0155 0.0193 0.0205 0.0245 0.02366667 0.016 0.011 0.022 0.0435 0.0262 0.02535 0.0182 0.0026 0.0001 0.0002 0.00017 0.0001833333 0.0002 0.0002666667 0.0001 0.0002 0.0002 0.0003333333 0.0002 0.0002375 0.0001 0.000475 0.0004 0.001583333 0.0019 0.0014 0.0007 0.0004 0.0002333333 0.00015 0.0001 0.0001 0.0001 0.0001 0.0001074074 0.0001 0.0001024691 0.0001 0.0001004115 0.0001 0.0001006336 0.0001002058 0.0001 0.0001 0.0001 0.0001 0.0001007813 0.0001337269 0.0002 0.0002000135 0.0002 0.0002000034 0.0002 0.0002000009 0.0002 0.0001500003 0.0001 0.0001 0.0001 0.0001 0.0001 0.0001000015 
0.0001 0.0001 0.0001 0.0001000001 0.0001000002 0.0001000005 0.0001000007 0.0001 0.0001 0.0001 0.0001 0.0001 0.0001 0.0001 0.0001 0.0001 0.0001 0.0001 0.0001 0.00015 0.0002 0.0002000122 0.0001500102 0.0001000061 0.0001 0.0001000122 0.0001000122 0.0001 0.0001500007 0.0002 0.0002000045 0.0002 0.0002 0.0002000009 0.0002 0.000150439 0.000123413 0.000113856 0.0001074846 0.00010625 0.0001 0.0001530961 0.0001648148 0.00015 0.0001 0.0001 0.0002 0.0001 0.0002 0.00065 0.0006 0.0007166667 0.0003 0.0003 0.0008 0.002 0.0042 0.005 0.006 0.009566667 0.0082 0.0093 0.0108 0.01103333 0.0075 0.0047 0.0111 0.0208 0.0126 0.01221667 0.0078 0.0008 0.00095 0.0001 0.00015 0.0002 0.0001888889 0.0001 0.0001333333 0.0001 0.0001666667 0.0002 0.0002444444 0.00015 0.00023125 0.00025 0.0001 0.00064 0.0006 0.0005 0.0002 0.0001 0.00025 0.0001666667 0.0001166667 0.0001 0.0001 0.0001 0.0001 0.0001024691 0.0001 0.000100823 0.0001 0.0001001372 0.0001 0.0001002098 0.0001000686 0.0001 0.0001 0.0001 0.0001 0.0001003906 0.0001335294 0.0002 0.0002000045 0.0002 0.0002000011 0.0002 0.0002000003 0.0002 0.0001500001 0.0001 0.0001 0.0001 0.0001 0.0001 
0.0001 0.0001 0.0001 0.0001000001 0.0001000003 0.0001000004 0.0001 0.0001 0.0001 0.0001 0.0001 0.0001 0.0001 0.0001 0.0001 0.0001 0.0001 0.0001 0.00015 0.0002 0.0002000061 0.0001500051 0.0001000031 0.0001 0.0001000061 0.0001000061 0.0001 0.0001500002 0.0002 0.0002000015 0.0002 0.0002 0.0002000002 0.0002 0.0001409623 0.000110477 0.0001063184 0.0001035365 0.000103125 0.0001 0.0001238836 0.0001299383 0.000125 0.0001 0.0001 0.000125 0.0001 0.00015 0.00015 0.0003 0.0001 0.000275 0.0001 0.0001 0.0002 0.0006 0.0013 0.002416667 0.0019 0.0065 0.0055 0.0037 0.0043 0.00475 0.0031 0.0019 0.0049 0.009 0.0055 0.005366667 0.003 0.0003 0.0004 0.0004125 0.0001 0.0001477778 0.0001 0.0001111111 0.0001 0.0001 0.0001 0.0001555556 0.0002 0.0001834491 0.000175 0.0001 0.0001 0.0003 0.0002 0.0001 0.0001 0.0001333333 0.0001 0.000175 0.0001316667 0.0001055556 0.0001 0.0001 0.0001 0.0001 0.000100823 0.0001 0.0001002744 0.0001 0.0001000457 0.0001 0.0001000696 0.0001000229 0.0001 0.0001 0.0001 0.0001 0.0001001953 0.0001334312 0.0002 0.0002000015 0.0002 0.0002000004 0.0002 0.0002000001 0.0002 0.00015 0.0001 0.0001 0.0001 0.0001 
0.0001 0.0001 0.0001 0.0001000001 0.0001000002 0.0001 0.0001 0.0001 0.0001 0.0001 0.0001 0.0001 0.0001 0.0001 0.0001 0.0001 0.0001 0.00015 0.0002 0.0002000031 0.0001500025 0.0001000015 0.0001 0.0001000031 0.0001000031 0.0001 0.0001500001 0.0002 0.0002000005 0.0002 0.0002 0.0002000001 0.0002 0.0001367729 0.0001047457 0.0001029331 0.0001016997 0.0001015625 0.0001 0.0001110699 0.0001141461 0.0001125 0.0001 0.0001 0.00010625 0.0001 0.000125 0.0001333333 0.000175 0.0001 0.0001 0.0001 0.0001 0.000125 0.0001 0.0002 0.0004 0.0007666667 0.0007 0.0022 0.0031 0.0025 0.0016 0.00212 0.0012 0.0008 0.0018 0.0035 0.0022 0.00215 0.0011 0.0001 0.0002 0.0002333333 0.0002239583 0.0001 0.0001037037 0.0001 0.0001 0.0001 0.0001 0.0001 0.0001518519 0.0001583333 0.0001 0.0001 0.000175 0.0002 0.00015 0.0001333333 0.0001 0.0001 0.0001111111 0.0001 0.0001375 0.0001149444 0.0001018519 0.0001 0.0001 0.0001 0.0001 0.0001002744 0.0001 0.0001000914 0.0001 0.0001000152 0.0001 0.0001000231 0.0001000076 0.0001 0.0001 0.0001 0.0001 0.0001000977 0.0001333822 0.0002 0.0002000005 0.0002 0.0002000001 0.0002 0.0002 0.0002 0.00015 0.0001 0.0001 0.0001 
0.0001 0.0001 0.0001000001 0.0001000001 0.0001 0.0001 0.0001 0.0001 0.0001 0.0001 0.0001 0.0001 0.0001 0.0001 0.0001 0.0001 0.00015 0.0002 0.0002000015 0.0001500013 0.0001000008 0.0001 0.0001000015 0.0001000015 0.0001 0.00015 0.0002 0.0002000002 0.0002 0.0002 0.0002 0.0002 0.0001349032 0.0001021784 0.0001013836 0.000100827 0.0001007813 0.0001 0.0001052484 0.0001067987 0.00010625 0.0001 0.0001 0.0001015625 0.0001 0.0001125 0.0001194444 0.0001333333 0.0001 0.0001 0.0001 0.0001 0.00010625 0.0001 0.00015 0.0002 0.0001 0.0003 0.0002 0.0007 0.001 0.0013 0.00095 0.000925 0.0004 0.0003 0.0006 0.0012 0.0008 0.0008 0.0003 0.0004 0.0001 0.00015 0.0001611111 0.0001356289 0.0001 0.0001 0.0001 0.0001 0.0001 0.0001 0.0001 0.0001 0.0001 0.00014375 0.0002 0.000175 0.0001611111 0.0001277778 0.0001111111 0.0001 0.0001 0.0001037037 0.0001 0.00011875 0.0001071093 0.0001006173 0.0001 0.0001 0.0001 0.0001 0.0001000914 0.0001 0.0001000305 0.0001 0.0001000051 0.0001 0.0001000077 0.0001000025 0.0001 0.0001 0.0001 0.0001 0.0001000488 0.0001333578 0.0002 0.0002000002 0.0002 0.0002 0.0002 0.0002 0.0002 0.00015 0.0001 0.0001 
0.0001 0.0001 0.0001 0.0001 0.0001 0.0001 0.0001 0.0001 0.0001 0.0001 0.0001 0.0001 0.0001 0.0001 0.0001 0.00015 0.0002 0.0002000008 0.0001500006 0.0001000004 0.0001 0.0001000008 0.0001000008 0.0001 0.00015 0.0002 0.0002000001 0.0002 0.0002 0.0002 0.0002 0.0001341078 0.0001010468 0.0001006616 0.0001004059 0.0001003906 0.0001 0.0001025297 0.0001033079 0.000103125 0.0001 0.0001 0.0001003906 0.0001 0.00010625 0.0001106482 0.0001163194 0.0001 0.0001 0.0001 0.0001 0.0001015625 0.0001 0.000125 0.0001375 0.0001 0.0001 0.0001333333 0.0001 0.0002 0.0003 0.0004 0.0005 0.0003 0.00022 0.0001 0.0002 0.0004 0.0004833333 0.0003 0.0001 0.0002 0.0002 0.0001 0.000125 0.0001215278 0.0001 0.0001 0.0001 0.0001 0.0001 0.0001 0.0001 0.0001 0.0001359375 0.0002 0.0001875 0.0001787037 0.0001546296 0.0001333333 0.000112963 0.0001037037 0.0001 0.0001 0.0001012346 0.0001 0.000109375 0.0001034203 0.0001002058 0.0001 0.0001 0.0001 0.0001 0.0001000305 0.0001 0.0001000102 0.0001 0.0001000017 0.0001 0.0001000026 0.0001000008 0.0001 0.0001 0.0001 0.0001 0.0001000244 0.0001333455 0.0002 0.0002000001 0.0002 0.0002 0.0002 0.0002 0.0002 0.00015 0.0001 
0.0001 0.0001 0.0001 0.0001 0.0001 0.0001 0.0001 0.0001 0.0001 0.0001 0.0001 0.0001 0.0001 0.0001 0.00015 0.0002 0.0002000004 0.0001625004 0.0001000002 0.0001 0.0001000004 0.0001000004 0.0001 0.00015 0.0002 0.0002 0.0002 0.0002 0.0002 0.0002 0.0001449572 0.000100764 0.0001004811 0.0001003006 0.0001001953 0.0001 0.000101655 0.0001024352 0.0001015625 0.0001 0.0001 0.0001000977 0.0001 0.000103125 0.0001056327 0.0001083044 0.0001 0.0001 0.0001 0.0001 0.0001003906 0.0001 0.0001125 0.000115625 0.0001 0.0001 0.0001083333 0.0001 0.00015 0.000175 0.0001 0.0001 0.0003 0.0002 0.0001 0.000125 0.0001 0.0001 0.000225 0.0001 0.0001666667 0.0001 0.00015 0.00015 0.0001 0.0001125 0.0001085069 0.0001 0.0001 0.0001 0.0001 0.0001 0.0001 0.0001339844 0.0002 0.00019375 0.0001887346 0.0001736111 0.0001555556 0.000133642 0.0001166667 0.0001055556 0.0001012346 0.0001 0.0001 0.0001004115 0.0001 0.0001046875 0.0001020784 0.0001000686 0.0001 0.0001 0.0001 0.0001 0.0001000102 0.0001 0.0001000034 0.0001 0.0001000006 0.0001 0.0001000008 0.0001000003 0.0001 0.0001 0.0001 0.0001 0.0001000122 0.0001444526 0.0002 0.0002 0.0002 0.0002 0.0002 0.0002 0.0002 0.00015 
